app/src/main/assets/filters/AgfaPhoto.cube
# Created by Adobe Lightroom plugin Export LUT (1.24.0)
# www.johnrellis.com/lightroom/exportlut.htm
# Photo: 兔小呆pro400h样片 (24).jpg
# Color profile: C:\Program Files (x86)\Common Files\Adobe\Color\Profiles\Recommended\sRGB Color Space Profile.icm
LUT_3D_SIZE 9
DOMAIN_MIN 0.0 0.0 0.0
DOMAIN_MAX 1.0 1.0 1.0
0.026093 0.064515 0.089235
0.044556 0.066651 0.086763
0.153689 0.094057 0.073304
0.391272 0.128298 0.029175
0.647486 0.130556 0.000000
0.824857 0.158968 0.000000
0.937255 0.216861 0.000000
1.000000 0.291447 0.000000
1.000000 0.381170 0.073304
0.012909 0.087984 0.087068
0.039399 0.097017 0.085725
0.186923 0.147127 0.070985
0.446693 0.184329 0.023041
0.678462 0.200351 0.000000
0.839292 0.232517 0.000000
0.940978 0.279911 0.000000
1.000000 0.343572 0.011383
1.000000 0.423102 0.130343
0.000000 0.220676 0.099794
0.000000 0.224033 0.098207
0.109285 0.277195 0.080781
0.475624 0.377050 0.002930
0.714473 0.367132 0.000000
0.857359 0.382574 0.009918
0.942687 0.408392 0.086275
1.000000 0.452338 0.154940
1.000000 0.509514 0.220066
0.000000 0.427070 0.144472
0.000000 0.427955 0.144350
0.000000 0.439094 0.138155
0.312993 0.510399 0.131868
0.653346 0.588708 0.111360
0.835966 0.568841 0.142611
0.929534 0.561089 0.209354
0.994202 0.581506 0.266880
1.000000 0.614038 0.314916
0.000000 0.578180 0.235477
0.000000 0.577447 0.236515
0.000000 0.577844 0.234226
0.252964 0.597192 0.235721
0.521263 0.659602 0.261753
0.742519 0.709224 0.287480
0.882963 0.708492 0.305821
0.973205 0.697536 0.344274
1.000000 0.712795 0.399329
0.000000 0.682765 0.320256
0.052644 0.681849 0.320317
0.202762 0.680446 0.319249
0.321447 0.682246 0.316442
0.475196 0.705074 0.333074
0.653376 0.749294 0.381018
0.809384 0.791073 0.424781
0.926757 0.809873 0.435859
1.000000 0.806424 0.471901
0.313115 0.760494 0.400183
0.331243 0.759762 0.399939
0.371008 0.758419 0.399176
0.427741 0.757656 0.397314
0.505669 0.762844 0.401984
0.623468 0.785306 0.439185
0.752834 0.823423 0.504204
0.869261 0.864103 0.555169
0.962737 0.885649 0.558862
0.472877 0.837461 0.490913
0.481727 0.836942 0.490822
0.502586 0.835874 0.490364
0.535668 0.834775 0.489570
0.580011 0.835264 0.490181
0.649256 0.844083 0.510430
0.739101 0.866148 0.558556
0.830503 0.896330 0.616083
0.913024 0.921630 0.659754
0.597559 0.924285 0.600855
0.602747 0.924071 0.600732
0.615442 0.923674 0.600519
0.636927 0.923156 0.600610
0.666773 0.922942 0.601617
0.706477 0.924346 0.608209
0.761593 0.929595 0.632654
0.824918 0.938689 0.673365
0.887358 0.949187 0.720577
0.016938 0.059724 0.132265
0.055146 0.060365 0.132631
0.176638 0.045747 0.145449
0.420783 0.000000 0.119509
0.649775 0.000000 0.100160
0.818021 0.080507 0.087465
0.927276 0.198734 0.094423
1.000000 0.300023 0.130068
1.000000 0.398566 0.187167
0.000000 0.104280 0.149599
0.030976 0.107210 0.155673
0.204959 0.121920 0.149508
0.453254 0.131502 0.135286
0.672297 0.150698 0.123018
0.828702 0.205570 0.116701
0.928923 0.277379 0.130861
1.000000 0.356237 0.167483
1.000000 0.438972 0.217563
0.000000 0.256840 0.186557
0.000000 0.258183 0.189059
0.143526 0.291783 0.190494
0.499397 0.352209 0.171786
0.710384 0.355718 0.173648
0.843809 0.382025 0.183902
0.928008 0.417823 0.207553
0.994598 0.465003 0.239963
1.000000 0.520256 0.278904
0.000000 0.448829 0.232364
0.000000 0.447486 0.235233
0.000000 0.450355 0.233249
0.358190 0.510430 0.246006
0.665492 0.584070 0.242222
0.831540 0.564019 0.251316
0.918761 0.567224 0.289921
0.984375 0.588617 0.324132
1.000000 0.620447 0.357794
0.000000 0.588556 0.296361
0.000000 0.586969 0.297124
0.120577 0.585229 0.296696
0.313664 0.597925 0.297337
0.544274 0.657618 0.325750
0.749264 0.707149 0.348913
0.881529 0.705592 0.360540
0.967987 0.699153 0.391669
1.000000 0.716732 0.437201
0.146059 0.687160 0.359533
0.195834 0.685939 0.359899
0.276799 0.683833 0.359228
0.367620 0.683894 0.356176
0.498299 0.703609 0.371191
0.664393 0.747494 0.420386
0.812619 0.790066 0.463325
0.925994 0.808560 0.472572
1.000000 0.806241 0.503105
0.353277 0.762173 0.427710
0.369055 0.761318 0.427405
0.403906 0.759670 0.426673
0.454505 0.758358 0.424750
0.523461 0.762173 0.427741
0.633875 0.783902 0.464332
0.758206 0.822538 0.529381
0.871092 0.863890 0.577539
0.962463 0.884977 0.580468
0.489906 0.838376 0.509636
0.498177 0.837797 0.509483
0.517754 0.836606 0.508904
0.549187 0.835264 0.508019
0.590967 0.835355 0.508019
0.655543 0.843503 0.525658
0.742733 0.865599 0.572259
0.832700 0.896086 0.628656
0.914183 0.921447 0.671321
0.602289 0.924743 0.610407
0.607385 0.924498 0.610224
0.619959 0.924071 0.610010
0.640955 0.923491 0.609766
0.670375 0.923217 0.610529
0.709071 0.924437 0.616175
0.763424 0.929473 0.639796
0.826505 0.938476 0.680140
0.888670 0.948913 0.727291
0.000000 0.032837 0.303868
0.045747 0.025452 0.315923
0.216190 0.031128 0.320226
0.441749 0.000000 0.325078
0.667201 0.000000 0.307317
0.803861 0.009308 0.288548
0.900450 0.213016 0.284825
0.977142 0.329778 0.294469
1.000000 0.425727 0.315312
0.000000 0.093019 0.323735
0.000000 0.091493 0.333745
0.231662 0.124605 0.339391
0.462593 0.117739 0.336126
0.665126 0.118288 0.315312
0.801968 0.193637 0.300450
0.898589 0.293767 0.299779
0.974701 0.380804 0.310582
1.000000 0.460670 0.330968
0.000000 0.283299 0.352300
0.000000 0.288518 0.356176
0.211643 0.298894 0.361028
0.485939 0.317937 0.348180
0.671443 0.343725 0.338140
0.806485 0.383551 0.335058
0.896849 0.429938 0.339757
0.969818 0.480110 0.350896
1.000000 0.534234 0.369909
0.000000 0.497566 0.366369
0.000000 0.494667 0.371252
0.278111 0.485695 0.378424
0.441077 0.510582 0.387121
0.684871 0.562280 0.386328
0.815305 0.560418 0.392981
0.895628 0.574517 0.403815
0.963958 0.597986 0.416510
1.000000 0.629694 0.433906
0.124361 0.617517 0.401038
0.215518 0.613947 0.402869
0.322942 0.606867 0.404425
0.419379 0.605097 0.401892
0.586389 0.654475 0.431067
0.762814 0.702815 0.452064
0.877256 0.698177 0.458198
0.955230 0.704677 0.483650
1.000000 0.723812 0.510124
0.317510 0.699428 0.440833
0.343359 0.697475 0.441382
0.393469 0.693568 0.441108
0.456306 0.690425 0.438758
0.545129 0.701411 0.447089
0.687129 0.744167 0.498878
0.818906 0.788113 0.539117
0.924254 0.805142 0.545190
1.000000 0.804929 0.563653
0.430823 0.767422 0.489326
0.443183 0.766262 0.489204
0.470832 0.763851 0.488380
0.511192 0.761135 0.486366
0.563134 0.761837 0.485359
0.656092 0.780880 0.518090
0.769192 0.821134 0.579980
0.875456 0.863615 0.621790
0.962707 0.883146 0.623682
0.524315 0.841459 0.551507
0.531701 0.840787 0.551202
0.549096 0.839231 0.550256
0.576959 0.837278 0.548638
0.614221 0.836484 0.547539
0.669215 0.842618 0.559136
0.750515 0.864378 0.601648
0.837858 0.895537 0.656519
0.917082 0.921019 0.696620
0.613092 0.925933 0.632929
0.617914 0.925689 0.632685
0.629938 0.925200 0.632074
0.650141 0.924468 0.631403
0.678462 0.924010 0.631373
0.715175 0.924743 0.634974
0.767544 0.929290 0.656184
0.830137 0.938018 0.695888
0.891936 0.948272 0.743008
0.000000 0.000000 0.481849
0.000000 0.000000 0.490822
0.251225 0.000000 0.508202
0.487984 0.000000 0.505089
0.677638 0.000000 0.491279
0.812192 0.188602 0.479133
0.896025 0.278538 0.455909
0.958618 0.361303 0.442512
1.000000 0.441474 0.439826
0.000000 0.071656 0.487953
0.000000 0.073121 0.495460
0.239719 0.090974 0.512779
0.500053 0.156802 0.509606
0.676631 0.190249 0.496742
0.805692 0.280888 0.485756
0.887755 0.336675 0.461006
0.953857 0.399939 0.447791
1.000000 0.470954 0.445899
0.000000 0.224552 0.498085
0.000000 0.228183 0.500542
0.207370 0.267826 0.510979
0.515496 0.353216 0.516106
0.670497 0.377722 0.507683
0.793423 0.408179 0.493721
0.872465 0.434882 0.470893
0.944244 0.480690 0.461067
1.000000 0.536431 0.465583
0.000000 0.492866 0.518822
0.000000 0.496284 0.519463
0.203159 0.502831 0.521080
0.494392 0.510002 0.525109
0.668666 0.528496 0.517327
0.776730 0.541527 0.503990
0.861723 0.565606 0.501854
0.936797 0.594934 0.505058
1.000000 0.629877 0.514275
0.179568 0.660060 0.527642
0.280980 0.657404 0.529168
0.422583 0.650782 0.533288
0.544976 0.638605 0.537407
0.635584 0.651942 0.549310
0.774014 0.688289 0.565148
0.863676 0.692561 0.572229
0.936278 0.707179 0.578759
1.000000 0.724727 0.583764
0.431006 0.724025 0.549187
0.457404 0.721736 0.551080
0.509148 0.715908 0.553979
0.562799 0.706783 0.552850
0.611719 0.703731 0.549340
0.714656 0.740902 0.592584
0.829191 0.786191 0.621180
0.924407 0.797452 0.623072
0.995514 0.802152 0.633600
0.518029 0.780758 0.578485
0.529137 0.778988 0.578119
0.552117 0.774990 0.576898
0.583764 0.769680 0.573968
0.621485 0.766201 0.570062
0.683680 0.778012 0.585962
0.783261 0.820188 0.640833
0.882628 0.863645 0.675776
0.965087 0.879301 0.676204
0.565789 0.849149 0.611139
0.572107 0.848234 0.610407
0.587396 0.846067 0.608698
0.611658 0.842954 0.605707
0.644129 0.840360 0.602686
0.687404 0.842618 0.605432
0.760616 0.862821 0.641077
0.845731 0.895048 0.694942
0.922210 0.920562 0.732296
0.629603 0.928405 0.669062
0.634150 0.928130 0.668635
0.645502 0.927489 0.667689
0.664576 0.926543 0.666194
0.691371 0.925658 0.664973
0.725612 0.925719 0.665949
0.773770 0.929137 0.681636
0.835935 0.937285 0.719844
0.897368 0.947265 0.767147
0.000000 0.000000 0.626886
0.000000 0.000000 0.633692
0.221195 0.000000 0.648585
0.496010 0.000000 0.657832
0.684627 0.163394 0.650294
0.809354 0.235752 0.633783
0.888029 0.354528 0.609857
0.946715 0.451637 0.602869
1.000000 0.492988 0.586236
0.000000 0.053346 0.626337
0.000000 0.054017 0.632441
0.216220 0.066773 0.646418
0.507500 0.158816 0.657313
0.685512 0.266514 0.649989
0.803189 0.315862 0.634852
0.879728 0.407019 0.614221
0.941680 0.480354 0.606409
1.000000 0.513420 0.588708
0.000000 0.207156 0.624231
0.000000 0.218875 0.628016
0.230289 0.255833 0.638727
0.517754 0.332464 0.654231
0.683162 0.414069 0.649897
0.788479 0.443763 0.637659
0.861875 0.502617 0.625177
0.932525 0.534478 0.612207
1.000000 0.554986 0.592767
0.000000 0.418341 0.634302
0.000000 0.423743 0.634211
0.168795 0.435859 0.635035
0.489021 0.479744 0.643946
0.678340 0.554803 0.651972
0.767819 0.573816 0.644739
0.844541 0.596704 0.638087
0.919432 0.597101 0.613458
0.994903 0.614588 0.597498
0.000000 0.636378 0.650324
0.019654 0.637171 0.650385
0.321447 0.639094 0.650721
0.506676 0.642847 0.651911
0.657923 0.650263 0.655055
0.759762 0.665919 0.653376
0.836637 0.668147 0.637018
0.914519 0.683650 0.632197
0.990661 0.705104 0.632288
0.433845 0.750698 0.658503
0.468086 0.749599 0.659693
0.536980 0.746059 0.661555
0.617060 0.740414 0.663416
0.685054 0.730190 0.662135
0.740017 0.739742 0.671534
0.842924 0.777676 0.689052
0.924895 0.785763 0.692012
0.988861 0.796689 0.694423
0.561822 0.804318 0.669062
0.574395 0.803006 0.669093
0.602380 0.799619 0.668940
0.641016 0.792905 0.666896
0.677760 0.782437 0.659968
0.714107 0.779538 0.655848
0.798947 0.820035 0.700557
0.894469 0.863584 0.728511
0.970397 0.871336 0.729213
0.600427 0.864897 0.683040
0.607843 0.863828 0.682490
0.625086 0.860899 0.680537
0.649470 0.855833 0.676020
0.678370 0.850065 0.669917
0.713344 0.847196 0.665644
0.772061 0.860899 0.686061
0.856443 0.894591 0.739712
0.929656 0.920104 0.774044
0.653742 0.932586 0.719142
0.658076 0.932189 0.718532
0.668696 0.931365 0.717220
0.686275 0.930053 0.714839
0.710811 0.928588 0.711879
0.742489 0.927642 0.710140
0.783627 0.929290 0.717189
0.844602 0.936278 0.752102
0.905272 0.945953 0.798917
0.000000 0.000000 0.737057
0.000000 0.000000 0.740566
0.204227 0.000000 0.748501
0.468482 0.000000 0.758236
0.671077 0.241489 0.753658
0.788968 0.342504 0.745968
0.875090 0.398108 0.734981
0.937377 0.483986 0.719753
0.992462 0.567468 0.723507
0.000000 0.040742 0.733211
0.000000 0.044892 0.736660
0.227451 0.069551 0.744259
0.485725 0.155886 0.753475
0.673701 0.310124 0.751339
0.785855 0.396033 0.744442
0.869078 0.441169 0.734890
0.931243 0.514824 0.721950
0.989837 0.584070 0.725795
0.000000 0.212558 0.725948
0.000000 0.224125 0.728542
0.279301 0.257115 0.734859
0.505455 0.323461 0.743771
0.675044 0.423957 0.747341
0.778744 0.493172 0.741665
0.855894 0.523308 0.735073
0.919463 0.574060 0.727291
0.985901 0.616358 0.729244
0.000000 0.386511 0.721706
0.000000 0.394690 0.722316
0.272679 0.417670 0.725032
0.499153 0.465553 0.732448
0.671015 0.539879 0.742550
0.770748 0.598566 0.739895
0.840726 0.614069 0.737209
0.909606 0.639887 0.734829
0.985016 0.652766 0.727474
0.000000 0.570306 0.727962
0.022766 0.572381 0.727474
0.295598 0.577691 0.726680
0.471504 0.588190 0.726802
0.646387 0.625574 0.733883
0.767636 0.679225 0.743648
0.834134 0.688380 0.742794
0.908019 0.698207 0.739345
0.983551 0.692042 0.715053
0.329198 0.725002 0.739681
0.372137 0.725429 0.739590
0.455879 0.726558 0.739498
0.554955 0.728786 0.740047
0.653834 0.732723 0.741939
0.751492 0.739498 0.746700
0.835142 0.751827 0.745510
0.907103 0.753902 0.730465
0.979461 0.769314 0.727962
0.540673 0.824430 0.755856
0.556451 0.824399 0.756161
0.592706 0.824216 0.756771
0.646967 0.823392 0.757321
0.710170 0.819089 0.755764
0.765621 0.807218 0.749630
0.817777 0.819913 0.761471
0.910185 0.857603 0.782864
0.972107 0.860746 0.786923
0.617090 0.885466 0.761471
0.626001 0.884733 0.761135
0.646967 0.882780 0.760250
0.679255 0.878965 0.758114
0.717861 0.871916 0.753292
0.751827 0.861662 0.743282
0.789487 0.860563 0.740475
0.871031 0.893797 0.791562
0.939391 0.919463 0.819333
0.671199 0.939513 0.776089
0.677455 0.939025 0.776181
0.692592 0.937865 0.776394
0.717250 0.935729 0.776761
0.743008 0.933104 0.773892
0.770077 0.930877 0.768856
0.803738 0.930327 0.767330
0.856626 0.935027 0.791531
0.915557 0.944457 0.836271
0.000000 0.000000 0.824979
0.000000 0.000000 0.826688
0.256168 0.000000 0.830381
0.479347 0.074189 0.834562
0.659968 0.246128 0.836728
0.782986 0.417731 0.826688
0.861936 0.486275 0.820981
0.928313 0.527581 0.816800
0.987488 0.584405 0.812222
0.000000 0.048341 0.821469
0.000000 0.059876 0.823056
0.293187 0.098665 0.826505
0.497566 0.186709 0.830564
0.664210 0.306981 0.834104
0.782376 0.454108 0.825193
0.859068 0.516411 0.819913
0.924315 0.551934 0.816587
0.984802 0.600336 0.813046
0.000000 0.228519 0.814145
0.172671 0.239322 0.815518
0.348211 0.269596 0.818570
0.519219 0.328740 0.822904
0.669215 0.416449 0.827359
0.781064 0.524346 0.822507
0.853239 0.575738 0.818235
0.916655 0.599542 0.816861
0.979797 0.633631 0.814939
0.076478 0.388464 0.806210
0.204562 0.396460 0.807065
0.360937 0.417700 0.809445
0.521508 0.459907 0.813718
0.667506 0.526177 0.819303
0.778378 0.601434 0.820920
0.847715 0.642054 0.818296
0.909361 0.656001 0.818814
0.975311 0.677119 0.817624
0.020844 0.532250 0.802976
0.175570 0.535210 0.802976
0.329900 0.544060 0.803250
0.489479 0.565240 0.805386
0.646571 0.609155 0.811612
0.769558 0.663844 0.821836
0.844877 0.703609 0.821592
0.906249 0.711849 0.822721
0.971954 0.727596 0.820798
0.266026 0.679622 0.807004
0.309941 0.680354 0.806729
0.395544 0.682246 0.806149
0.501274 0.685603 0.805814
0.610986 0.690883 0.806912
0.739712 0.717433 0.816007
0.843961 0.764462 0.827512
0.905791 0.771939 0.827512
0.968658 0.782254 0.822629
0.465644 0.803311 0.819821
0.484047 0.803525 0.819913
0.525689 0.804166 0.820127
0.586725 0.805478 0.820768
0.659846 0.807858 0.822080
0.740536 0.811948 0.824460
0.830137 0.820157 0.829435
0.904753 0.830228 0.826291
0.964996 0.836698 0.817746
0.591699 0.898009 0.838529
0.602655 0.898039 0.838529
0.628870 0.898131 0.838621
0.671260 0.898192 0.838651
0.727932 0.897154 0.838315
0.790799 0.891844 0.836271
0.838529 0.879576 0.828428
0.888457 0.892760 0.845518
0.950896 0.916197 0.864378
0.679194 0.948150 0.839536
0.686671 0.947631 0.839536
0.704891 0.946288 0.839597
0.733974 0.944030 0.839811
0.770718 0.940948 0.840116
0.810788 0.936980 0.840482
0.840238 0.933410 0.834806
0.873594 0.934234 0.837980
0.927581 0.943206 0.875669
0.120821 0.000000 0.908965
0.221927 0.000000 0.909453
0.370062 0.053346 0.910307
0.529625 0.168917 0.910887
0.672755 0.295384 0.910582
0.788968 0.441810 0.905119
0.867369 0.558618 0.895201
0.925628 0.600000 0.891417
0.980713 0.627222 0.889982
0.197757 0.106691 0.906188
0.271824 0.121614 0.906615
0.398383 0.164065 0.907439
0.542321 0.240085 0.908202
0.676814 0.343664 0.908171
0.789029 0.469764 0.903899
0.866361 0.576410 0.894621
0.923949 0.614649 0.891142
0.978851 0.639307 0.889952
0.284184 0.264500 0.900511
0.335332 0.274693 0.900908
0.435309 0.301915 0.901762
0.558556 0.353948 0.902770
0.681819 0.431434 0.903288
0.788327 0.525170 0.901701
0.864134 0.612634 0.893828
0.920653 0.645747 0.890776
0.975067 0.665553 0.890135
0.313054 0.408362 0.893919
0.357397 0.415198 0.894224
0.446845 0.433722 0.895018
0.561669 0.469734 0.896178
0.680690 0.526482 0.897337
0.783780 0.590997 0.898863
0.860746 0.657649 0.893858
0.916777 0.687251 0.891112
0.970672 0.702083 0.890929
0.278599 0.529534 0.888396
0.325536 0.533562 0.888487
0.418097 0.544732 0.888853
0.538293 0.566918 0.889921
0.661952 0.603937 0.891966
0.770809 0.651423 0.895354
0.855680 0.704097 0.895262
0.913329 0.734310 0.892454
0.966400 0.745968 0.892424
0.276280 0.651331 0.886046
0.315221 0.652247 0.885863
0.393683 0.654597 0.885588
0.497810 0.659876 0.885527
0.617273 0.673976 0.886748
0.741573 0.705562 0.890898
0.845945 0.751705 0.897063
0.910246 0.788602 0.894316
0.961547 0.797665 0.894133
0.404517 0.774502 0.887968
0.424079 0.774563 0.887846
0.468666 0.774502 0.887602
0.533806 0.774197 0.887266
0.612665 0.773739 0.886992
0.702358 0.774746 0.887114
0.820371 0.800443 0.891630
0.908385 0.846281 0.896696
0.955291 0.853635 0.895628
0.540795 0.878386 0.896483
0.552148 0.878508 0.896452
0.579126 0.878813 0.896391
0.622919 0.879393 0.896330
0.681086 0.880552 0.896117
0.751492 0.882658 0.895842
0.829435 0.886503 0.895689
0.902159 0.893889 0.897826
0.952239 0.899718 0.894224
0.656550 0.951690 0.904509
0.664973 0.951507 0.904479
0.685725 0.951049 0.904356
0.720180 0.950195 0.904204
0.766293 0.948791 0.904173
0.820249 0.946593 0.904417
0.874571 0.942260 0.904540
0.911162 0.937896 0.902861
0.940978 0.942535 0.915648
0.396307 0.170596 0.977813
0.430274 0.186160 0.977569
0.503136 0.225071 0.976867
0.600458 0.291203 0.975189
0.703029 0.380041 0.972107
0.796384 0.478828 0.967529
0.872557 0.593744 0.957305
0.925994 0.662196 0.948974
0.971191 0.690639 0.945281
0.418647 0.235325 0.975372
0.449134 0.247410 0.975158
0.515526 0.278904 0.974548
0.606867 0.334691 0.973053
0.705531 0.412818 0.970214
0.796689 0.502129 0.965972
0.871702 0.605097 0.956817
0.925170 0.670924 0.948638
0.970153 0.698512 0.944976
0.449805 0.343938 0.970459
0.475746 0.352422 0.970336
0.533684 0.374823 0.969818
0.616358 0.416175 0.968627
0.708797 0.477241 0.966278
0.796078 0.548455 0.962890
0.869322 0.629297 0.955901
0.923369 0.690364 0.947997
0.967834 0.716609 0.944396
0.467384 0.461006 0.964477
0.490547 0.466590 0.964355
0.543023 0.481422 0.963989
0.619959 0.509606 0.963104
0.707637 0.552361 0.961456
0.791348 0.602625 0.959442
0.864775 0.661738 0.955138
0.920714 0.718868 0.947326
0.964508 0.744289 0.943603
0.464210 0.567437 0.958984
0.485908 0.570367 0.958892
0.535332 0.578424 0.958618
0.608667 0.594110 0.958160
0.694057 0.619806 0.957397
0.779782 0.656123 0.956237
0.856931 0.699519 0.954589
0.917601 0.755245 0.946624
0.960357 0.781216 0.942504
0.421241 0.653040 0.956237
0.445075 0.654902 0.955993
0.498543 0.659937 0.955413
0.577661 0.670649 0.954467
0.667964 0.686946 0.953674
0.759304 0.710536 0.953063
0.846342 0.748531 0.951720
0.914733 0.798215 0.945769
0.955840 0.824949 0.941161
0.436683 0.754482 0.953826
0.453376 0.754482 0.953643
0.492500 0.754513 0.953277
0.552941 0.754849 0.952605
0.630762 0.757198 0.951659
0.728267 0.770596 0.950072
0.830442 0.800290 0.948425
0.911986 0.843076 0.945373
0.951904 0.870787 0.940154
0.522026 0.862974 0.951598
0.532799 0.862882 0.951476
0.558465 0.862791 0.951171
0.600732 0.862577 0.950622
0.657771 0.862669 0.949645
0.728481 0.863981 0.948028
0.812894 0.869413 0.945525
0.905119 0.891844 0.942840
0.948821 0.916075 0.940032
0.655055 0.946471 0.946624
0.662776 0.946471 0.946502
0.681880 0.946471 0.946136
0.713893 0.946410 0.945525
0.759335 0.946288 0.944610
0.815824 0.945953 0.943420
0.875212 0.945495 0.942260
0.927092 0.945159 0.941680
0.953613 0.945434 0.942168
