app/src/main/assets/filters/AgfaPhoto.cube
# Created by Adobe Lightroom plugin Export LUT (1.24.0)
# www.johnrellis.com/lightroom/exportlut.htm
# Photo: 兔小呆pro400h样片 (24).jpg
# Color profile: C:\Program Files (x86)\Common Files\Adobe\Color\Profiles\Recommended\sRGB Color Space Profile.icm
LUT_3D_SIZE 5
DOMAIN_MIN 0.0 0.0 0.0
DOMAIN_MAX 1.0 1.0 1.0
0.026093 0.064515 0.089235
0.153689 0.094057 0.073304
0.647486 0.130556 0.000000
0.937255 0.216861 0.000000
1.000000 0.381170 0.073304
0.000000 0.220676 0.099794
0.109285 0.277195 0.080781
0.714473 0.367132 0.000000
0.942687 0.408392 0.086275
1.000000 0.509514 0.220066
0.000000 0.578180 0.235477
0.000000 0.577844 0.234226
0.521263 0.659602 0.261753
0.882963 0.708492 0.305821
1.000000 0.712795 0.399329
0.313115 0.760494 0.400183
0.371008 0.758419 0.399176
0.505669 0.762844 0.401984
0.752834 0.823423 0.504204
0.962737 0.885649 0.558862
0.597559 0.924285 0.600855
0.615442 0.923674 0.600519
0.666773 0.922942 0.601617
0.761593 0.929595 0.632654
0.887358 0.949187 0.720577
0.000000 0.032837 0.303868
0.216190 0.031128 0.320226
0.667201 0.000000 0.307317
0.900450 0.213016 0.284825
1.000000 0.425727 0.315312
0.000000 0.283299 0.352300
0.211643 0.298894 0.361028
0.671443 0.343725 0.338140
0.896849 0.429938 0.339757
1.000000 0.534234 0.369909
0.124361 0.617517 0.401038
0.322942 0.606867 0.404425
0.586389 0.654475 0.431067
0.877256 0.698177 0.458198
1.000000 0.723812 0.510124
0.430823 0.767422 0.489326
0.470832 0.763851 0.488380
0.563134 0.761837 0.485359
0.769192 0.821134 0.579980
0.962707 0.883146 0.623682
0.613092 0.925933 0.632929
0.629938 0.925200 0.632074
0.678462 0.924010 0.631373
0.767544 0.929290 0.656184
0.891936 0.948272 0.743008
0.000000 0.000000 0.626886
0.221195 0.000000 0.648585
0.684627 0.163394 0.650294
0.888029 0.354528 0.609857
1.000000 0.492988 0.586236
0.000000 0.207156 0.624231
0.230289 0.255833 0.638727
0.683162 0.414069 0.649897
0.861875 0.502617 0.625177
1.000000 0.554986 0.592767
0.000000 0.636378 0.650324
0.321447 0.639094 0.650721
0.657923 0.650263 0.655055
0.836637 0.668147 0.637018
0.990661 0.705104 0.632288
0.561822 0.804318 0.669062
0.602380 0.799619 0.668940
0.677760 0.782437 0.659968
0.798947 0.820035 0.700557
0.970397 0.871336 0.729213
0.653742 0.932586 0.719142
0.668696 0.931365 0.717220
0.710811 0.928588 0.711879
0.783627 0.929290 0.717189
0.905272 0.945953 0.798917
0.000000 0.000000 0.824979
0.256168 0.000000 0.830381
0.659968 0.246128 0.836728
0.861936 0.486275 0.820981
0.987488 0.584405 0.812222
0.000000 0.228519 0.814145
0.348211 0.269596 0.818570
0.669215 0.416449 0.827359
0.853239 0.575738 0.818235
0.979797 0.633631 0.814939
0.020844 0.532250 0.802976
0.329900 0.544060 0.803250
0.646571 0.609155 0.811612
0.844877 0.703609 0.821592
0.971954 0.727596 0.820798
0.465644 0.803311 0.819821
0.525689 0.804166 0.820127
0.659846 0.807858 0.822080
0.830137 0.820157 0.829435
0.964996 0.836698 0.817746
0.679194 0.948150 0.839536
0.704891 0.946288 0.839597
0.770718 0.940948 0.840116
0.840238 0.933410 0.834806
0.927581 0.943206 0.875669
0.396307 0.170596 0.977813
0.503136 0.225071 0.976867
0.703029 0.380041 0.972107
0.872557 0.593744 0.957305
0.971191 0.690639 0.945281
0.449805 0.343938 0.970459
0.533684 0.374823 0.969818
0.708797 0.477241 0.966278
0.869322 0.629297 0.955901
0.967834 0.716609 0.944396
0.464210 0.567437 0.958984
0.535332 0.578424 0.958618
0.694057 0.619806 0.957397
0.856931 0.699519 0.954589
0.960357 0.781216 0.942504
0.436683 0.754482 0.953826
0.492500 0.754513 0.953277
0.630762 0.757198 0.951659
0.830442 0.800290 0.948425
0.951904 0.870787 0.940154
0.655055 0.946471 0.946624
0.681880 0.946471 0.946136
0.759335 0.946288 0.944610
0.875212 0.945495 0.942260
0.953613 0.945434 0.942168
