app/src/main/assets/filters/AgfaPhoto.cube
# Created by Adobe Lightroom plugin Export LUT (1.24.0)
# www.johnrellis.com/lightroom/exportlut.htm
# Photo: 兔小呆pro400h样片 (24).jpg
# Color profile: C:\Program Files (x86)\Common Files\Adobe\Color\Profiles\Recommended\sRGB Color Space Profile.icm
LUT_3D_SIZE 33
DOMAIN_MIN 0.0 0.0 0.0
DOMAIN_MAX 1.0 1.0 1.0
0.026093 0.064515 0.089235
0.025574 0.064210 0.089296
0.026490 0.064149 0.089021
0.032380 0.064698 0.088167
0.044556 0.066651 0.086763
0.063722 0.070497 0.084779
0.087221 0.076600 0.082002
0.117372 0.084779 0.078187
0.153689 0.094057 0.073304
0.198459 0.104555 0.066529
0.254337 0.114229 0.057649
0.320256 0.122805 0.045258
0.391272 0.128298 0.029175
0.462257 0.130495 0.012238
0.529107 0.130983 0.000000
0.591058 0.130007 0.000000
0.647486 0.130556 0.000000
0.698482 0.133944 0.000000
0.744686 0.139315 0.000000
0.786709 0.147463 0.000000
0.824857 0.158968 0.000000
0.858518 0.171664 0.000000
0.887633 0.185000 0.000000
0.913603 0.200412 0.000000
0.937255 0.216861 0.000000
0.958953 0.234287 0.000000
0.978912 0.252293 0.000000
0.997711 0.271580 0.000000
1.000000 0.291447 0.000000
1.000000 0.312200 0.000000
1.000000 0.334234 0.000000
1.000000 0.357153 0.029572
1.000000 0.381170 0.073304
0.026215 0.063874 0.088563
0.025940 0.064210 0.088533
0.027588 0.065064 0.088167
0.034272 0.067109 0.087617
0.046723 0.070832 0.086275
0.066407 0.076020 0.084321
0.090974 0.083284 0.081575
0.122133 0.092134 0.077485
0.159976 0.102083 0.072236
0.206699 0.112703 0.065339
0.264561 0.122133 0.056245
0.331426 0.130312 0.043610
0.402564 0.135378 0.027893
0.472206 0.138125 0.010956
0.537774 0.138766 0.000000
0.598322 0.139376 0.000000
0.653407 0.141512 0.000000
0.703487 0.145846 0.000000
0.748836 0.152193 0.000000
0.790127 0.160861 0.000000
0.827543 0.171572 0.000000
0.860624 0.184024 0.000000
0.889189 0.198001 0.000000
0.914824 0.212741 0.000000
0.938018 0.227878 0.000000
0.959380 0.244938 0.000000
0.979187 0.262699 0.000000
0.997711 0.281163 0.000000
1.000000 0.300725 0.000000
1.000000 0.321172 0.000000
1.000000 0.342596 0.003540
1.000000 0.365179 0.046723
1.000000 0.388556 0.084382
0.024201 0.066651 0.087770
0.025483 0.066865 0.087739
0.027832 0.067628 0.087617
0.033845 0.071778 0.087343
0.047944 0.077058 0.086275
0.069093 0.083192 0.084413
0.095399 0.091432 0.081117
0.127932 0.100832 0.077028
0.167330 0.111299 0.071687
0.216251 0.121553 0.064729
0.276158 0.131319 0.055268
0.343694 0.139406 0.042267
0.413886 0.144686 0.026459
0.482460 0.147738 0.010956
0.546685 0.150393 0.000000
0.605829 0.152438 0.000000
0.659876 0.154849 0.000000
0.708766 0.159213 0.000000
0.753292 0.166293 0.000000
0.793759 0.175509 0.000000
0.830594 0.186313 0.000000
0.862852 0.198306 0.000000
0.890806 0.211002 0.000000
0.915923 0.225254 0.000000
0.938842 0.240543 0.000000
0.959899 0.256565 0.000000
0.979461 0.273930 0.000000
0.997711 0.291752 0.000000
1.000000 0.310857 0.000000
1.000000 0.330907 0.000000
1.000000 0.351873 0.021180
1.000000 0.373968 0.063752
1.000000 0.396765 0.096132
0.020691 0.073915 0.087221
0.023316 0.074281 0.087160
0.026154 0.075227 0.087007
0.031678 0.077913 0.086885
0.045472 0.086152 0.086183
0.070558 0.096925 0.084535
0.099519 0.104646 0.081361
0.134707 0.114443 0.076905
0.177218 0.125429 0.071290
0.229313 0.136477 0.063752
0.291203 0.146395 0.054078
0.359350 0.154604 0.040803
0.429084 0.160555 0.025269
0.496010 0.164370 0.009522
0.558312 0.167544 0.000000
0.615778 0.170199 0.000000
0.668269 0.174197 0.000000
0.715846 0.179538 0.000000
0.759213 0.187167 0.000000
0.798672 0.195804 0.000000
0.834470 0.206394 0.000000
0.865782 0.217624 0.000000
0.892973 0.230381 0.000000
0.917540 0.243168 0.000000
0.939849 0.257755 0.000000
0.960418 0.273198 0.000000
0.979614 0.289311 0.000000
0.997620 0.306798 0.000000
1.000000 0.325139 0.000000
1.000000 0.344305 0.009247
1.000000 0.364721 0.047791
1.000000 0.386145 0.082765
1.000000 0.408331 0.111513
0.012909 0.087984 0.087068
0.016175 0.088533 0.086702
0.020874 0.088991 0.086580
0.027283 0.091341 0.086183
0.039399 0.097017 0.085725
0.062531 0.109773 0.084688
0.099519 0.127077 0.081270
0.139559 0.137545 0.077241
0.186923 0.147127 0.070985
0.243320 0.158633 0.063050
0.308293 0.169345 0.052186
0.377600 0.177859 0.038911
0.446693 0.184329 0.023041
0.511711 0.188724 0.007813
0.572168 0.192142 0.000000
0.627771 0.195834 0.000000
0.678462 0.200351 0.000000
0.724483 0.206455 0.000000
0.766384 0.213443 0.000000
0.804532 0.222538 0.000000
0.839292 0.232517 0.000000
0.869383 0.242954 0.000000
0.895506 0.254093 0.000000
0.919249 0.266545 0.000000
0.940978 0.279911 0.000000
0.961028 0.294163 0.000000
0.979797 0.309545 0.000000
0.997406 0.326207 0.000000
1.000000 0.343572 0.011383
1.000000 0.362158 0.044862
1.000000 0.381628 0.076234
1.000000 0.401984 0.104372
1.000000 0.423102 0.130343
0.000000 0.109804 0.087526
0.002594 0.109926 0.087434
0.007874 0.110475 0.087282
0.016419 0.112093 0.086641
0.028687 0.116274 0.085786
0.050721 0.125765 0.084260
0.085298 0.143709 0.082033
0.135744 0.168124 0.076356
0.191745 0.183352 0.070619
0.255039 0.192691 0.061311
0.323888 0.201083 0.050050
0.395758 0.209964 0.035248
0.464057 0.216464 0.019623
0.528038 0.220951 0.005707
0.587030 0.224857 0.000000
0.640803 0.228702 0.000000
0.689601 0.233890 0.000000
0.733883 0.239445 0.000000
0.774411 0.246799 0.000000
0.811490 0.254826 0.000000
0.844511 0.263828 0.000000
0.873198 0.273198 0.000000
0.898253 0.283116 0.000000
0.921141 0.294347 0.000000
0.942107 0.306645 0.000000
0.961547 0.319738 0.000000
0.979706 0.334234 0.000000
0.996887 0.349462 0.021088
1.000000 0.365972 0.050385
1.000000 0.383520 0.078767
1.000000 0.402045 0.104128
1.000000 0.421180 0.127993
1.000000 0.441047 0.150393
0.000000 0.138674 0.089784
0.000000 0.139193 0.089845
0.000000 0.139590 0.089448
0.000000 0.140627 0.089113
0.008087 0.143832 0.088045
0.030304 0.150881 0.086213
0.064332 0.164858 0.083680
0.112795 0.188418 0.078889
0.179782 0.219028 0.069947
0.257511 0.241428 0.057954
0.333501 0.250126 0.045014
0.407568 0.253910 0.028840
0.477760 0.257420 0.014679
0.542168 0.261814 0.001404
0.600580 0.265446 0.000000
0.653254 0.268681 0.000000
0.700557 0.273014 0.000000
0.743557 0.278660 0.000000
0.782712 0.284642 0.000000
0.818296 0.291814 0.000000
0.849729 0.299596 0.000000
0.876951 0.307774 0.000000
0.900847 0.316625 0.000000
0.922759 0.326299 0.000000
0.942901 0.337316 0.000000
0.961669 0.349371 0.015320
0.979278 0.362585 0.040162
0.995880 0.376806 0.066285
1.000000 0.392035 0.088319
1.000000 0.408392 0.110292
1.000000 0.425483 0.131563
1.000000 0.443336 0.152163
1.000000 0.461799 0.172580
0.000000 0.175448 0.094148
0.000000 0.175937 0.094179
0.000000 0.176303 0.093751
0.000000 0.177310 0.093355
0.000000 0.179202 0.092470
0.000000 0.184756 0.090486
0.030671 0.195712 0.087709
0.082673 0.215396 0.082948
0.149599 0.245396 0.074342
0.233494 0.279850 0.059358
0.328405 0.306767 0.036439
0.409613 0.313481 0.021912
0.483680 0.312871 0.006500
0.550164 0.311162 0.000000
0.609674 0.311986 0.000000
0.662684 0.314824 0.000000
0.709773 0.318303 0.000000
0.751888 0.322210 0.000000
0.790158 0.327459 0.000000
0.824460 0.333349 0.000000
0.854337 0.339605 0.000000
0.880095 0.346258 0.000000
0.903014 0.353582 0.000885
0.923888 0.361730 0.019379
0.943236 0.371374 0.040436
0.961395 0.382300 0.062745
0.978332 0.394293 0.083833
0.994507 0.407080 0.102998
1.000000 0.421149 0.122103
1.000000 0.435981 0.141238
1.000000 0.451545 0.159731
1.000000 0.467933 0.177829
1.000000 0.484901 0.196139
0.000000 0.220676 0.099794
0.000000 0.221103 0.099794
0.000000 0.221653 0.099519
0.000000 0.222446 0.099336
0.000000 0.224033 0.098207
0.000000 0.227756 0.096529
0.000000 0.236545 0.093690
0.031891 0.252262 0.089204
0.109285 0.277195 0.080781
0.195621 0.310460 0.068544
0.292882 0.344182 0.047456
0.393713 0.371252 0.014679
0.475624 0.377050 0.002930
0.547967 0.374365 0.000000
0.611109 0.369146 0.000000
0.666072 0.366217 0.000000
0.714473 0.367132 0.000000
0.757321 0.370031 0.000000
0.795468 0.373816 0.000000
0.828855 0.377966 0.000000
0.857359 0.382574 0.009918
0.882139 0.387396 0.025635
0.903990 0.393011 0.048096
0.924010 0.400061 0.068208
0.942687 0.408392 0.086275
0.960143 0.417823 0.103822
0.976684 0.428321 0.120699
0.992309 0.439948 0.138521
1.000000 0.452338 0.154940
1.000000 0.465614 0.171206
1.000000 0.479713 0.187655
1.000000 0.494362 0.203555
1.000000 0.509514 0.220066
0.000000 0.272984 0.106416
0.000000 0.273655 0.106722
0.000000 0.273808 0.106538
0.000000 0.274571 0.105653
0.000000 0.275639 0.104768
0.000000 0.277958 0.102907
0.000000 0.284154 0.100771
0.000000 0.296025 0.096590
0.048768 0.315526 0.090455
0.149020 0.342687 0.080385
0.248051 0.375219 0.066194
0.350408 0.405737 0.044617
0.448280 0.429267 0.012207
0.531914 0.438056 0.000000
0.601129 0.435157 0.000000
0.660883 0.428717 0.000000
0.712459 0.422766 0.000000
0.757321 0.420539 0.000000
0.796780 0.422217 0.009125
0.830045 0.424750 0.027253
0.858122 0.427375 0.048554
0.882231 0.430518 0.070008
0.903532 0.434882 0.088838
0.923064 0.440345 0.106386
0.941222 0.447028 0.122530
0.958251 0.455024 0.138796
0.974304 0.463935 0.154665
0.989654 0.474006 0.170504
1.000000 0.484810 0.185611
1.000000 0.496468 0.200595
1.000000 0.508843 0.215122
1.000000 0.521721 0.229496
1.000000 0.535180 0.244114
0.000000 0.327214 0.114809
0.000000 0.327764 0.114870
0.000000 0.328161 0.114961
0.000000 0.328466 0.114229
0.000000 0.329564 0.114076
0.000000 0.331060 0.112459
0.000000 0.334783 0.109987
0.000000 0.343023 0.106783
0.000000 0.357275 0.102632
0.093324 0.378088 0.096498
0.199252 0.404791 0.087831
0.302098 0.434668 0.075166
0.404303 0.462043 0.059663
0.497108 0.483040 0.033845
0.579400 0.494331 0.011414
0.644770 0.492378 0.014862
0.701564 0.486030 0.015595
0.750362 0.478981 0.021820
0.792172 0.473915 0.033478
0.826780 0.471931 0.057649
0.855528 0.472572 0.082002
0.879942 0.474128 0.102541
0.901213 0.476753 0.121981
0.920684 0.480812 0.138766
0.938537 0.486091 0.155917
0.955352 0.492409 0.171389
0.971283 0.499825 0.185946
0.986664 0.508263 0.200107
1.000000 0.517601 0.214420
1.000000 0.527672 0.228519
1.000000 0.538354 0.241337
1.000000 0.549645 0.255039
1.000000 0.561486 0.268101
0.000000 0.379431 0.127169
0.000000 0.379492 0.127169
0.000000 0.379614 0.126986
0.000000 0.379919 0.126986
0.000000 0.380713 0.126497
0.000000 0.382055 0.125673
0.000000 0.384039 0.123537
0.000000 0.389105 0.121401
0.000000 0.398779 0.118135
0.000702 0.414221 0.114748
0.152346 0.435157 0.110506
0.254459 0.460487 0.105196
0.355413 0.487984 0.098543
0.454688 0.513054 0.091005
0.540429 0.531914 0.076967
0.620172 0.545129 0.054383
0.681239 0.544762 0.063416
0.734951 0.539208 0.070466
0.780087 0.531426 0.077699
0.817655 0.523705 0.091279
0.848753 0.518364 0.108614
0.874510 0.516777 0.129000
0.896757 0.517876 0.149416
0.916625 0.520500 0.167819
0.934752 0.524254 0.184482
0.951598 0.529320 0.200412
0.967590 0.535332 0.214511
0.982910 0.542229 0.228702
0.997894 0.550011 0.241855
1.000000 0.558556 0.254429
1.000000 0.567742 0.267002
1.000000 0.577539 0.279454
1.000000 0.587793 0.291630
0.000000 0.427070 0.144472
0.000000 0.427070 0.144015
0.000000 0.427253 0.144411
0.000000 0.427558 0.144839
0.000000 0.427955 0.144350
0.000000 0.428626 0.143496
0.000000 0.430030 0.142184
0.000000 0.432807 0.140261
0.000000 0.439094 0.138155
0.000000 0.449989 0.136629
0.106050 0.465797 0.134371
0.215885 0.486275 0.133394
0.312993 0.510399 0.131868
0.408759 0.535607 0.130983
0.502007 0.558587 0.129671
0.580102 0.575860 0.123201
0.653346 0.588708 0.111360
0.712154 0.591028 0.114015
0.760586 0.585931 0.123201
0.801572 0.577661 0.131838
0.835966 0.568841 0.142611
0.864775 0.561730 0.156100
0.889220 0.558251 0.172915
0.910552 0.558495 0.191531
0.929534 0.561089 0.209354
0.946990 0.564843 0.225284
0.963317 0.569543 0.240085
0.979004 0.575128 0.253819
0.994202 0.581506 0.266880
1.000000 0.588678 0.279149
1.000000 0.596612 0.291142
1.000000 0.605066 0.303105
1.000000 0.614038 0.314916
0.000000 0.470466 0.164858
0.000000 0.470527 0.165408
0.000000 0.470588 0.165621
0.000000 0.470649 0.165530
0.000000 0.470771 0.165560
0.000000 0.471290 0.165255
0.000000 0.472114 0.164553
0.000000 0.473732 0.162844
0.000000 0.477241 0.160861
0.000000 0.484657 0.159884
0.064393 0.496254 0.159518
0.187839 0.512230 0.159945
0.280949 0.532036 0.162173
0.371130 0.554589 0.164584
0.459815 0.577813 0.167330
0.544518 0.599054 0.170108
0.616297 0.615351 0.168093
0.681483 0.626612 0.161624
0.736110 0.630243 0.161593
0.779995 0.625605 0.171084
0.817563 0.617914 0.179965
0.849790 0.609155 0.189059
0.877470 0.602014 0.200443
0.901579 0.597498 0.213809
0.922484 0.596368 0.229984
0.941070 0.598566 0.246555
0.958343 0.602106 0.262089
0.974548 0.606592 0.276341
0.990173 0.611963 0.289738
1.000000 0.618067 0.302159
1.000000 0.624872 0.314244
1.000000 0.632197 0.326146
1.000000 0.639948 0.337804
0.000000 0.509972 0.188174
0.000000 0.509880 0.188205
0.000000 0.509850 0.188785
0.000000 0.509789 0.188479
0.000000 0.509880 0.189120
0.000000 0.509941 0.188602
0.000000 0.510521 0.188052
0.000000 0.511406 0.186770
0.000000 0.513207 0.184848
0.000000 0.517845 0.184146
0.041566 0.525933 0.183871
0.172091 0.537987 0.185641
0.260807 0.553704 0.188510
0.344030 0.572686 0.192721
0.426520 0.593835 0.197910
0.507012 0.615351 0.203586
0.583551 0.635126 0.208682
0.648371 0.649287 0.210422
0.704799 0.658381 0.208133
0.755795 0.662959 0.204807
0.795529 0.659358 0.214420
0.830655 0.652888 0.223423
0.861479 0.645655 0.231479
0.888640 0.638972 0.240696
0.912352 0.634272 0.252079
0.933288 0.632258 0.265263
0.952117 0.633082 0.280186
0.969268 0.636530 0.295781
0.985687 0.640986 0.309697
1.000000 0.646204 0.323186
1.000000 0.652064 0.335760
1.000000 0.658412 0.347936
1.000000 0.665156 0.359503
0.000000 0.545708 0.211978
0.000000 0.545678 0.212406
0.000000 0.545464 0.212558
0.000000 0.545403 0.212589
0.000000 0.545251 0.212497
0.000000 0.545220 0.212467
0.000000 0.545403 0.212222
0.000000 0.545922 0.211612
0.000000 0.546899 0.210086
0.000000 0.549279 0.208408
0.056367 0.554589 0.208408
0.170535 0.563348 0.209934
0.251713 0.575494 0.212894
0.327825 0.590875 0.217838
0.402380 0.609033 0.223453
0.476967 0.628962 0.230442
0.549279 0.648554 0.238437
0.616938 0.665461 0.245762
0.675288 0.677607 0.250340
0.724636 0.685389 0.249821
0.771511 0.690120 0.247288
0.809537 0.688777 0.253635
0.842649 0.684260 0.262425
0.872374 0.678523 0.270146
0.898833 0.672877 0.278325
0.922423 0.668452 0.288029
0.943572 0.665919 0.299626
0.962768 0.665919 0.312383
0.980224 0.668635 0.327092
0.996735 0.673030 0.341375
1.000000 0.678157 0.355230
1.000000 0.683650 0.367834
1.000000 0.689509 0.380438
0.000000 0.578180 0.235477
0.000000 0.577966 0.235630
0.000000 0.577813 0.235752
0.000000 0.577722 0.236271
0.000000 0.577447 0.236515
0.000000 0.577295 0.236362
0.000000 0.577203 0.235935
0.000000 0.577325 0.235233
0.000000 0.577844 0.234226
0.000000 0.579034 0.233036
0.096620 0.582116 0.232456
0.181857 0.588128 0.232731
0.252964 0.597192 0.235721
0.320500 0.609430 0.239902
0.387579 0.624475 0.245579
0.454932 0.641840 0.252811
0.521263 0.659602 0.261753
0.585321 0.676539 0.271275
0.645167 0.690974 0.280552
0.698238 0.701869 0.286259
0.742519 0.709224 0.287480
0.785763 0.714382 0.286259
0.822690 0.715572 0.289311
0.854337 0.712673 0.297887
0.882963 0.708492 0.305821
0.908995 0.703914 0.313481
0.932341 0.700282 0.322576
0.953765 0.697902 0.332525
0.973205 0.697536 0.344274
0.991028 0.699306 0.357366
1.000000 0.702907 0.371862
1.000000 0.707759 0.386145
1.000000 0.712795 0.399329
0.000000 0.607599 0.258335
0.000000 0.607416 0.258366
0.000000 0.607202 0.258335
0.000000 0.607019 0.258762
0.000000 0.606683 0.258732
0.000000 0.606378 0.258579
0.000000 0.606134 0.258396
0.000000 0.606134 0.258091
0.000000 0.606256 0.257420
0.054749 0.606897 0.256199
0.140200 0.608453 0.255070
0.203464 0.612238 0.255192
0.262028 0.618769 0.256687
0.320256 0.628168 0.260014
0.379736 0.640375 0.265446
0.439948 0.654536 0.272618
0.500175 0.669917 0.281621
0.559564 0.685512 0.291997
0.616602 0.700282 0.303136
0.670497 0.713436 0.313268
0.719173 0.723842 0.320623
0.759976 0.731258 0.323095
0.799435 0.736812 0.323003
0.835752 0.740078 0.323003
0.865934 0.738827 0.331579
0.893675 0.736172 0.339696
0.919036 0.733059 0.347387
0.942473 0.730159 0.355657
0.963836 0.728206 0.365118
0.983429 0.727504 0.376043
1.000000 0.728511 0.388159
1.000000 0.731075 0.401892
1.000000 0.735042 0.416236
0.000000 0.634699 0.279637
0.000000 0.634485 0.279759
0.000000 0.634333 0.280003
0.000000 0.634089 0.279881
0.000000 0.633722 0.279789
0.000000 0.633356 0.279850
0.000000 0.633112 0.279637
0.000000 0.632898 0.279576
0.057465 0.632868 0.278935
0.131991 0.633082 0.277989
0.182956 0.633845 0.276616
0.229831 0.636042 0.276097
0.277501 0.640406 0.276860
0.327276 0.647272 0.279850
0.378546 0.656489 0.284337
0.431586 0.667781 0.290806
0.485695 0.680690 0.299413
0.539971 0.694484 0.309941
0.593500 0.708492 0.321538
0.645075 0.721859 0.334020
0.694087 0.734188 0.345098
0.739040 0.744381 0.354009
0.776822 0.752010 0.357427
0.813138 0.758022 0.358190
0.848295 0.762692 0.356878
0.877684 0.763333 0.363714
0.904570 0.762173 0.372290
0.929564 0.760281 0.380285
0.952667 0.758236 0.388586
0.973785 0.756619 0.397375
0.993042 0.755764 0.407782
1.000000 0.756130 0.419226
1.000000 0.757687 0.432197
0.000000 0.659937 0.300145
0.000000 0.659754 0.300267
0.000000 0.659541 0.300389
0.000000 0.659266 0.300206
0.000000 0.658961 0.300389
0.000000 0.658625 0.300298
0.002960 0.658259 0.300084
0.090791 0.657954 0.299870
0.144442 0.657801 0.299474
0.186557 0.657801 0.298680
0.224369 0.658106 0.297673
0.259709 0.659052 0.296422
0.298161 0.661707 0.296757
0.339330 0.666346 0.298711
0.383215 0.673182 0.302434
0.429633 0.681941 0.308476
0.477790 0.692439 0.316625
0.526879 0.704158 0.326787
0.576104 0.716732 0.338415
0.624537 0.729488 0.351354
0.671534 0.742031 0.364538
0.716152 0.753719 0.376928
0.757595 0.763851 0.386633
0.793179 0.771847 0.391455
0.826810 0.778317 0.392370
0.860227 0.783841 0.391974
0.889647 0.786618 0.395850
0.915770 0.786740 0.404364
0.940063 0.785885 0.412543
0.962524 0.784482 0.420752
0.983093 0.783108 0.429755
1.000000 0.782101 0.439765
1.000000 0.781918 0.450904
0.000000 0.682765 0.320256
0.000000 0.682551 0.320134
0.000000 0.682368 0.320287
0.000000 0.682155 0.320500
0.052644 0.681849 0.320317
0.098848 0.681483 0.320104
0.137148 0.681117 0.320104
0.171359 0.680781 0.320012
0.202762 0.680446 0.319249
0.233738 0.680354 0.318822
0.262608 0.680415 0.317784
0.291508 0.680873 0.316869
0.321447 0.682246 0.316442
0.355322 0.685237 0.317510
0.392676 0.690120 0.320562
0.432624 0.696712 0.325689
0.475196 0.705074 0.333074
0.519310 0.714870 0.342473
0.564172 0.725673 0.354131
0.609247 0.737331 0.367193
0.653376 0.749294 0.381018
0.696254 0.761135 0.395300
0.737087 0.772427 0.408576
0.775540 0.782650 0.418982
0.809384 0.791073 0.424781
0.840604 0.798093 0.426551
0.872313 0.804349 0.426551
0.901701 0.808804 0.427375
0.926757 0.809873 0.435859
0.950134 0.809720 0.444556
0.971710 0.808804 0.453376
0.991455 0.807614 0.462165
1.000000 0.806424 0.471901
0.107729 0.703731 0.340215
0.119844 0.703548 0.340154
0.131380 0.703365 0.340032
0.146975 0.703120 0.340063
0.165377 0.702876 0.340246
0.185367 0.702510 0.340154
0.206332 0.702144 0.339849
0.228946 0.701778 0.339574
0.252262 0.701442 0.339330
0.275364 0.701198 0.338567
0.299168 0.701137 0.338018
0.323064 0.701320 0.337224
0.347356 0.701991 0.336339
0.374701 0.703731 0.336522
0.405859 0.707027 0.339025
0.440223 0.711971 0.343175
0.477333 0.718441 0.349737
0.516686 0.726436 0.358434
0.557214 0.735653 0.369116
0.598657 0.745876 0.381994
0.639887 0.756832 0.396124
0.680323 0.768215 0.411139
0.719539 0.779599 0.426307
0.757259 0.790707 0.440162
0.793027 0.801114 0.451453
0.825345 0.810086 0.458198
0.854520 0.817502 0.460487
0.884306 0.824125 0.460883
0.913237 0.829587 0.459602
0.937224 0.831388 0.467475
0.959472 0.831754 0.476539
0.979950 0.831144 0.485481
0.998657 0.830014 0.494850
0.199191 0.723354 0.360021
0.205234 0.723171 0.359960
0.211307 0.723049 0.359838
0.220859 0.722774 0.359869
0.232120 0.722499 0.359716
0.245487 0.722194 0.359655
0.261021 0.721798 0.359655
0.277592 0.721431 0.359197
0.295445 0.721126 0.358953
0.313817 0.720821 0.358373
0.333593 0.720668 0.357977
0.353796 0.720699 0.357366
0.374151 0.721004 0.356451
0.396338 0.721920 0.356085
0.422034 0.724056 0.357336
0.451331 0.727596 0.360937
0.483528 0.732570 0.366369
0.518181 0.738949 0.374212
0.554833 0.746609 0.384466
0.592401 0.755459 0.396429
0.630488 0.765194 0.410498
0.668482 0.775692 0.425666
0.705715 0.786618 0.441779
0.741848 0.797787 0.457465
0.776638 0.808865 0.472023
0.810117 0.819486 0.484047
0.840757 0.828702 0.491646
0.868132 0.836271 0.494545
0.895842 0.842954 0.495125
0.923186 0.848447 0.494392
0.946746 0.851286 0.499458
0.967651 0.851926 0.508446
0.986999 0.851408 0.517296
0.261936 0.742123 0.379889
0.266056 0.742031 0.379980
0.270726 0.741848 0.379706
0.277287 0.741695 0.379950
0.285496 0.741390 0.379767
0.295811 0.741085 0.379767
0.307286 0.740719 0.379461
0.320409 0.740352 0.379217
0.334813 0.739986 0.379034
0.350164 0.739681 0.378576
0.366217 0.739498 0.378088
0.383276 0.739376 0.377325
0.401007 0.739467 0.376654
0.419654 0.739895 0.376013
0.440833 0.741146 0.376745
0.465339 0.743618 0.379248
0.493050 0.747372 0.383734
0.523552 0.752377 0.390631
0.556115 0.758663 0.399756
0.590295 0.766110 0.411353
0.625177 0.774655 0.424598
0.660426 0.784085 0.439673
0.695399 0.794217 0.456062
0.729732 0.804898 0.472786
0.763302 0.816007 0.489235
0.795590 0.827054 0.503990
0.826658 0.837552 0.516442
0.855497 0.846738 0.524651
0.881163 0.854246 0.527947
0.906737 0.860716 0.528801
0.932189 0.866056 0.528527
0.955291 0.869413 0.530266
0.974853 0.870054 0.538384
0.313115 0.760494 0.400183
0.316136 0.760342 0.400000
0.319951 0.760250 0.400183
0.324804 0.760006 0.400000
0.331243 0.759762 0.399939
0.339147 0.759487 0.399756
0.348547 0.759152 0.399664
0.359197 0.758816 0.399481
0.371008 0.758419 0.399176
0.383886 0.758114 0.398810
0.397711 0.757839 0.398260
0.412360 0.757687 0.397925
0.427741 0.757656 0.397314
0.443854 0.757870 0.396826
0.461433 0.758511 0.396796
0.481849 0.760128 0.398291
0.505669 0.762844 0.401984
0.532067 0.766690 0.407843
0.561028 0.771786 0.416083
0.591577 0.778042 0.426490
0.623468 0.785306 0.439185
0.656031 0.793637 0.453803
0.688716 0.802853 0.469917
0.721096 0.812802 0.487037
0.752834 0.823423 0.504204
0.783688 0.834379 0.520439
0.813504 0.845151 0.535058
0.842252 0.855283 0.546807
0.869261 0.864103 0.555169
0.893278 0.871305 0.559228
0.916808 0.877287 0.560052
0.940368 0.882170 0.560082
0.962737 0.885649 0.558862
0.357824 0.778775 0.420996
0.360540 0.778683 0.421057
0.363287 0.778531 0.420996
0.367224 0.778347 0.420905
0.372534 0.778134 0.420874
0.379065 0.777829 0.420783
0.386664 0.777523 0.420539
0.395666 0.777188 0.420478
0.405615 0.776822 0.420142
0.416480 0.776455 0.419806
0.428321 0.776211 0.419471
0.440864 0.775967 0.418921
0.454322 0.775875 0.418555
0.468605 0.775967 0.418219
0.483650 0.776303 0.417853
0.500664 0.777218 0.418524
0.520867 0.779141 0.421271
0.543755 0.782071 0.426276
0.569024 0.786099 0.433387
0.596368 0.791196 0.443000
0.625177 0.797391 0.454627
0.655024 0.804623 0.468513
0.685267 0.812833 0.484016
0.715541 0.821927 0.500908
0.745418 0.831846 0.517967
0.774502 0.842222 0.534447
0.802823 0.852689 0.549889
0.830289 0.862882 0.563806
0.856809 0.872343 0.575189
0.882017 0.880491 0.583398
0.904479 0.887083 0.587823
0.925841 0.892454 0.589166
0.947539 0.896696 0.589349
0.398566 0.797391 0.443030
0.400580 0.797299 0.442878
0.403052 0.797177 0.442878
0.406409 0.796994 0.442817
0.410712 0.796750 0.442695
0.416266 0.796506 0.442695
0.422583 0.796231 0.442390
0.430182 0.795895 0.442267
0.438727 0.795529 0.442084
0.448035 0.795224 0.441840
0.458289 0.794919 0.441566
0.469398 0.794675 0.441169
0.481086 0.794522 0.440681
0.493690 0.794491 0.440345
0.507042 0.794675 0.440223
0.521477 0.795193 0.440406
0.538445 0.796475 0.442206
0.558129 0.798611 0.446235
0.580224 0.801724 0.452338
