app/src/main/assets/filters/astia.cube
# Created from astia.plut
LUT_3D_SIZE 33
DOMAIN_MIN 0.0 0.0 0.0
DOMAIN_MAX 1.0 1.0 1.0
0.000000 0.000000 0.000000
0.027253 0.000000 0.000000
0.054200 0.000000 0.000000
0.081773 0.000473 0.000000
0.110918 0.003723 0.000000
0.146807 0.005203 0.000000
0.185931 0.002930 0.000000
0.226169 0.000198 0.000000
0.268894 0.000000 0.000000
0.313985 0.000000 0.000000
0.362173 0.000000 0.000000
0.407980 0.000000 0.000000
0.451469 0.000000 0.000000
0.493935 0.000000 0.000000
0.534203 0.000000 0.000000
0.573159 0.000000 0.000000
0.612772 0.000000 0.000000
0.650385 0.000000 0.000000
0.686412 0.000000 0.000000
0.719326 0.000000 0.000000
0.751263 0.000000 0.000000
0.782269 0.000000 0.000000
0.810178 0.000000 0.000000
0.836469 0.000000 0.000000
0.862226 0.000000 0.000000
0.888106 0.000000 0.001602
0.914397 0.000000 0.025223
0.938994 0.000000 0.069383
0.961913 0.000000 0.106035
0.983795 0.000000 0.137743
0.998199 0.000000 0.163180
0.999954 0.000000 0.174792
1.000000 0.000000 0.179156
0.000000 0.025162 0.000000
0.023621 0.024674 0.000000
0.049714 0.024094 0.000000
0.076875 0.023972 0.000000
0.107774 0.025879 0.000000
0.145266 0.028412 0.000000
0.185626 0.029206 0.000000
0.226917 0.028580 0.000000
0.270024 0.027695 0.000000
0.316136 0.026169 0.000000
0.364019 0.022599 0.000000
0.409674 0.018936 0.000000
0.453040 0.012650 0.000000
0.495323 0.007279 0.000000
0.535363 0.003388 0.000000
0.574640 0.002228 0.000000
0.613870 0.001266 0.000000
0.651713 0.000427 0.000000
0.687236 0.000000 0.000000
0.719860 0.000000 0.000000
0.751476 0.000000 0.000000
0.782330 0.000000 0.000000
0.810117 0.000000 0.000000
0.836316 0.000000 0.000000
0.861921 0.000000 0.000000
0.887907 0.000000 0.002014
0.914153 0.000000 0.026947
0.938964 0.000000 0.068345
0.961761 0.000000 0.106493
0.982147 0.000000 0.141344
0.998123 0.000000 0.163348
1.000000 0.000000 0.172259
1.000000 0.000000 0.179355
0.000000 0.047684 0.000000
0.019211 0.046326 0.000000
0.043565 0.045121 0.000000
0.072099 0.045136 0.000000
0.103700 0.045914 0.000000
0.142000 0.048646 0.000000
0.182574 0.049622 0.000000
0.224674 0.050278 0.000000
0.269688 0.051209 0.000000
0.316686 0.051865 0.000000
0.365484 0.051484 0.000000
0.411292 0.049149 0.000000
0.454673 0.043030 0.000000
0.496254 0.035599 0.000000
0.536187 0.027329 0.000000
0.575937 0.015763 0.000000
0.614984 0.012146 0.000000
0.652689 0.003769 0.000000
0.687770 0.001511 0.000000
0.720806 0.000458 0.000000
0.751965 0.000137 0.000000
0.782162 0.000076 0.000000
0.809735 0.000046 0.000000
0.835248 0.000046 0.000000
0.861265 0.000061 0.000000
0.887572 0.000214 0.002808
0.912551 0.000153 0.037766
0.937972 0.000122 0.071885
0.961486 0.000992 0.107607
0.981765 0.001923 0.142718
0.998077 0.001526 0.164263
1.000000 0.000534 0.172549
1.000000 0.000214 0.179629
0.000000 0.067933 0.000000
0.012589 0.067796 0.000000
0.035096 0.066987 0.000000
0.064820 0.067704 0.000000
0.097093 0.068864 0.000000
0.134127 0.070085 0.000000
0.176913 0.070481 0.000000
0.219562 0.068879 0.000000
0.263294 0.068696 0.000000
0.310735 0.070893 0.000000
0.361852 0.076280 0.000000
0.408469 0.075990 0.000000
0.454032 0.074189 0.000000
0.497047 0.068666 0.000000
0.537728 0.063783 0.000000
0.577157 0.053803 0.000000
0.615991 0.044053 0.000000
0.653101 0.031495 0.000000
0.688090 0.014786 0.000000
0.721324 0.006668 0.000000
0.752468 0.004273 0.000000
0.781689 0.002472 0.000000
0.808515 0.001434 0.000000
0.834913 0.001389 0.000000
0.860822 0.002014 0.000000
0.886702 0.003235 0.003662
0.910857 0.005005 0.046632
0.937301 0.006394 0.074220
0.960830 0.008606 0.109056
0.980255 0.029160 0.146746
0.997879 0.012955 0.162890
0.999908 0.007385 0.172793
1.000000 0.006592 0.179446
0.000000 0.092317 0.000000
0.004273 0.092454 0.000000
0.024628 0.092287 0.000000
0.054276 0.092470 0.000000
0.087419 0.093858 0.000000
0.124376 0.095766 0.000000
0.170581 0.097200 0.000000
0.217395 0.095796 0.000000
0.260761 0.093645 0.000000
0.305318 0.092912 0.000000
0.352605 0.093553 0.000000
0.401831 0.096117 0.000000
0.450324 0.096910 0.000000
0.494499 0.092515 0.000000
0.536660 0.090410 0.000000
0.578195 0.086595 0.000000
0.616785 0.085603 0.000000
0.653208 0.079332 0.000000
0.688029 0.070024 0.000000
0.721080 0.056733 0.000000
0.752346 0.040635 0.000000
0.781445 0.023133 0.000000
0.808042 0.015915 0.000000
0.833829 0.015778 0.000000
0.859190 0.023056 0.000000
0.885695 0.030777 0.004440
0.909804 0.047684 0.050965
0.935149 0.057847 0.082567
0.959869 0.065431 0.111833
0.979400 0.072313 0.147143
0.997894 0.063310 0.160922
0.999985 0.060395 0.172366
1.000000 0.056718 0.177905
0.000000 0.119387 0.000000
0.001282 0.119463 0.000000
0.013703 0.119570 0.000000
0.043549 0.120211 0.000000
0.078080 0.121309 0.000000
0.114549 0.123217 0.000000
0.155398 0.124941 0.000000
0.206455 0.126085 0.000000
0.256138 0.124910 0.000000
0.303578 0.123522 0.000000
0.350988 0.121172 0.000000
0.397299 0.119219 0.000000
0.443900 0.118593 0.000000
0.490929 0.116228 0.000000
0.533562 0.110582 0.000000
0.574838 0.109026 0.000000
0.615381 0.111162 0.000000
0.652232 0.108888 0.000000
0.687327 0.106752 0.000000
0.720272 0.102815 0.000000
0.751431 0.093294 0.000000
0.780453 0.081529 0.000000
0.807294 0.072648 0.000000
0.832761 0.077684 0.000000
0.857847 0.087205 0.000000
0.883726 0.092882 0.011246
0.908263 0.102327 0.054459
0.933654 0.113329 0.087816
0.957839 0.110002 0.111818
0.978485 0.114977 0.146838
0.997742 0.102525 0.158907
0.999969 0.089921 0.163424
1.000000 0.096101 0.171633
0.000000 0.147173 0.000000
0.000336 0.147372 0.000000
0.004562 0.147829 0.000000
0.031357 0.148913 0.000000
0.067399 0.150332 0.000000
0.104982 0.152438 0.000000
0.144289 0.154635 0.000000
0.189242 0.156649 0.000000
0.243275 0.158022 0.000000
0.296605 0.157519 0.000000
0.349325 0.155184 0.000000
0.395895 0.151812 0.000000
0.441566 0.149371 0.000000
0.486763 0.147112 0.000000
0.530694 0.143679 0.000000
0.572030 0.140826 0.000000
0.612467 0.135927 0.000000
0.649928 0.130571 0.000000
0.684413 0.128145 0.000000
0.718212 0.125994 0.000000
0.749767 0.123064 0.000000
0.778668 0.115419 0.000000
0.806073 0.114626 0.000000
0.831708 0.120745 0.000000
0.856245 0.133547 0.000427
0.880079 0.143191 0.026398
0.906188 0.146868 0.057206
0.932036 0.148806 0.082216
0.954467 0.150225 0.114595
0.977203 0.145296 0.139803
0.997574 0.140642 0.154177
0.999985 0.132021 0.157488
1.000000 0.134417 0.165103
0.000000 0.178393 0.000000
0.000000 0.178683 0.000000
0.001663 0.179400 0.000000
0.016785 0.180301 0.000000
0.052491 0.181964 0.000000
0.093889 0.184466 0.000000
0.135485 0.186893 0.000000
0.178164 0.189151 0.000000
0.226337 0.191470 0.000000
0.282414 0.193439 0.000000
0.339040 0.192554 0.000000
0.390539 0.190112 0.000000
0.438117 0.186862 0.000000
0.482811 0.182620 0.000000
0.525124 0.179934 0.000000
0.567987 0.177478 0.000000
0.610163 0.173236 0.000000
0.648966 0.166094 0.000000
0.683299 0.160143 0.000000
0.715435 0.154940 0.000000
0.747372 0.150027 0.000000
0.777722 0.142916 0.000000
0.804715 0.143084 0.000000
0.829755 0.153002 0.000000
0.853300 0.166796 0.000000
0.877485 0.173587 0.018570
0.904097 0.179004 0.047654
0.930282 0.175692 0.064912
0.953109 0.172549 0.094789
0.975265 0.166613 0.119707
0.997314 0.167758 0.138582
0.999954 0.165332 0.146365
1.000000 0.165576 0.151659
0.000000 0.213901 0.000000
0.000000 0.214237 0.000000
0.000488 0.214740 0.000000
0.004288 0.215610 0.000000
0.034440 0.217578 0.000000
0.077989 0.220020 0.000000
0.123888 0.222416 0.000000
0.169986 0.224872 0.000000
0.216358 0.227176 0.000000
0.268788 0.229557 0.000000
0.325597 0.230396 0.000000
0.380606 0.229633 0.000000
0.429755 0.227436 0.000000
0.476860 0.223636 0.000000
0.521965 0.218418 0.000000
0.563729 0.214298 0.000000
0.605264 0.210636 0.000000
0.645319 0.204669 0.000000
0.680568 0.200855 0.000000
0.712947 0.195544 0.000000
0.743969 0.189960 0.000000
0.774182 0.183291 0.000000
0.802014 0.180529 0.000000
0.827527 0.181933 0.000000
0.852064 0.187167 0.000000
0.876799 0.194430 0.001251
0.902296 0.193591 0.007614
0.927260 0.185702 0.017014
0.952422 0.176165 0.020020
0.975784 0.181979 0.071229
0.997009 0.193912 0.115435
0.999664 0.186603 0.114870
1.000000 0.189776 0.126101
0.000000 0.251514 0.000000
0.000000 0.251850 0.000000
0.000061 0.252522 0.000000
0.001801 0.253544 0.000000
0.018769 0.255161 0.000000
0.059617 0.257435 0.000000
0.107866 0.259968 0.000000
0.156359 0.262211 0.000000
0.206378 0.264454 0.000000
0.256886 0.266377 0.000000
0.309712 0.267948 0.000000
0.367681 0.268315 0.000000
0.420035 0.267262 0.000000
0.466621 0.265660 0.000000
0.511711 0.262806 0.000000
0.556878 0.257511 0.000000
0.600977 0.250706 0.000000
0.638956 0.246769 0.000000
0.674205 0.245426 0.000000
0.708141 0.239384 0.000000
0.739773 0.232822 0.000000
0.768826 0.229145 0.000000
0.796307 0.224994 0.000000
0.823117 0.220584 0.000000
0.850050 0.215656 0.000000
0.876783 0.210666 0.000000
0.900908 0.209186 0.000000
0.926696 0.200183 0.000000
0.951446 0.199908 0.000992
0.976242 0.198550 0.003479
0.997818 0.200015 0.018708
1.000000 0.204196 0.047578
1.000000 0.208118 0.068330
0.000000 0.290471 0.000000
0.000000 0.290929 0.000000
0.000015 0.291386 0.000000
0.000549 0.292210 0.000000
0.004349 0.293767 0.000000
0.036896 0.295705 0.000000
0.088853 0.297902 0.000000
0.142687 0.299687 0.000000
0.193088 0.301625 0.000000
0.243351 0.303380 0.000000
0.296086 0.305287 0.000000
0.350317 0.306203 0.000000
0.403861 0.306188 0.000000
0.458198 0.305364 0.000000
0.503853 0.304234 0.000000
0.546304 0.302235 0.000000
0.586816 0.299306 0.000000
0.625925 0.295781 0.000000
0.664408 0.291447 0.000000
0.700511 0.285008 0.000000
0.733471 0.278325 0.000000
0.763348 0.273640 0.000000
0.791211 0.269337 0.000000
0.818265 0.264652 0.000000
0.845853 0.257862 0.000000
0.873243 0.249989 0.000000
0.899550 0.240436 0.000000
0.925139 0.235599 0.000000
0.950362 0.231846 0.000000
0.975326 0.233524 0.000000
0.997375 0.234226 0.000000
1.000000 0.234012 0.001770
1.000000 0.235737 0.002838
0.000000 0.328573 0.000000
0.000000 0.329564 0.000000
0.000000 0.330266 0.000000
0.000061 0.330892 0.000000
0.001236 0.331731 0.000000
0.008118 0.333150 0.000000
0.060807 0.334798 0.000000
0.125948 0.336812 0.000000
0.180652 0.338293 0.000000
0.229923 0.339849 0.000000
0.281254 0.341482 0.000000
0.337514 0.342931 0.000000
0.387121 0.343496 0.000000
0.437949 0.343786 0.000000
0.494392 0.343633 0.000000
0.540520 0.342275 0.000000
0.580606 0.340368 0.000000
0.617777 0.338216 0.000000
0.655116 0.334218 0.000000
0.691478 0.328466 0.000000
0.725216 0.322637 0.000000
0.756207 0.318120 0.000000
0.785367 0.312383 0.000000
0.812772 0.308186 0.000000
0.841260 0.301534 0.000000
0.868574 0.294743 0.000000
0.895720 0.284688 0.000000
0.922301 0.276234 0.000000
0.947494 0.271901 0.000000
0.971984 0.272465 0.000000
0.994263 0.273625 0.000000
0.999680 0.274357 0.000000
1.000000 0.274891 0.000000
0.000000 0.366567 0.000000
0.000000 0.367590 0.000000
0.000000 0.368322 0.000000
0.000015 0.368856 0.000000
0.000153 0.370077 0.000000
0.003998 0.371328 0.000000
0.039948 0.372122 0.000000
0.107729 0.373297 0.000000
0.165759 0.375067 0.000000
0.219623 0.376349 0.000000
0.269703 0.377722 0.000000
0.322744 0.379080 0.000000
0.374640 0.379858 0.000000
0.423697 0.380179 0.000000
0.471107 0.380835 0.000000
0.523995 0.381216 0.000000
0.571923 0.380117 0.000000
0.610544 0.378759 0.000000
0.647303 0.375494 0.000000
0.683742 0.369787 0.000000
0.718410 0.363607 0.000000
0.747311 0.361990 0.000000
0.777218 0.357977 0.000000
0.806073 0.352163 0.000000
0.833951 0.346471 0.000000
0.862181 0.339940 0.000000
0.890043 0.331395 0.000000
0.915892 0.322286 0.000000
0.942031 0.315435 0.000000
0.967727 0.312825 0.000000
0.990143 0.313207 0.000000
0.999268 0.314656 0.000000
1.000000 0.314427 0.000000
0.000000 0.404837 0.000000
0.000000 0.405158 0.000000
0.000000 0.405676 0.000000
0.000000 0.406073 0.000000
0.000046 0.406958 0.000000
0.001831 0.407965 0.000000
0.020371 0.409064 0.000000
0.099382 0.409842 0.000000
0.156863 0.411109 0.000000
0.205966 0.412604 0.000000
0.258274 0.413611 0.000000
0.309453 0.414649 0.000000
0.361334 0.415259 0.000000
0.411231 0.415839 0.000000
0.459327 0.416144 0.000000
0.504051 0.417105 0.000000
0.552911 0.417807 0.000000
0.601526 0.416663 0.000000
0.639063 0.414817 0.000000
0.673991 0.411215 0.000000
0.707836 0.406165 0.000000
0.739681 0.401602 0.000000
0.768353 0.400061 0.000000
0.796582 0.396567 0.000000
0.825254 0.390494 0.000000
0.854200 0.384787 0.000000
0.882460 0.376196 0.000000
0.909300 0.366857 0.000000
0.935775 0.359869 0.000000
0.961791 0.355062 0.000000
0.986099 0.353872 0.000000
0.998734 0.354849 0.000000
1.000000 0.353689 0.000000
0.000000 0.441886 0.000000
0.000000 0.442023 0.000000
0.000000 0.442206 0.000000
0.000000 0.442512 0.000000
0.000015 0.443091 0.000000
0.000626 0.443839 0.000000
0.009796 0.444800 0.000000
0.091356 0.445762 0.000000
0.149722 0.446616 0.000000
0.197955 0.447669 0.000000
0.247303 0.448615 0.000000
0.296101 0.449439 0.000000
0.345846 0.450233 0.000000
0.397131 0.450919 0.000000
0.446159 0.451102 0.000000
0.491844 0.451347 0.000000
0.534554 0.452323 0.000000
0.582803 0.453544 0.000000
0.626658 0.452644 0.000000
0.663340 0.450401 0.000000
0.698131 0.445808 0.000000
0.731395 0.440757 0.000000
0.760998 0.437751 0.000000
0.788998 0.435264 0.000000
0.817090 0.432639 0.000000
0.844877 0.429099 0.000000
0.873091 0.420829 0.000000
0.900923 0.412558 0.000000
0.928450 0.404623 0.000000
0.954879 0.399100 0.000000
0.979538 0.396719 0.000000
0.997925 0.394446 0.000000
1.000000 0.392798 0.000000
0.000000 0.477119 0.000000
0.000000 0.477211 0.000000
0.000000 0.477363 0.000000
0.000000 0.477928 0.000000
0.000000 0.478202 0.000000
0.000259 0.478752 0.000000
0.008560 0.479179 0.000000
0.081315 0.479820 0.000000
0.145022 0.480644 0.000000
0.193072 0.480919 0.000000
0.238087 0.481926 0.000000
0.282994 0.483024 0.000000
0.330449 0.483726 0.000000
0.381430 0.484352 0.000000
0.433188 0.484749 0.000000
0.479332 0.485054 0.000000
0.522164 0.485389 0.000000
0.564172 0.486397 0.000000
0.609522 0.487831 0.000000
0.650416 0.487007 0.000000
0.686076 0.484672 0.000000
0.719844 0.480522 0.000000
0.752728 0.474769 0.000000
0.782895 0.470741 0.000000
0.810849 0.469215 0.000000
0.837369 0.468803 0.000000
0.863081 0.466041 0.000000
0.890166 0.459236 0.000000
0.918196 0.451591 0.000000
0.945800 0.444450 0.000000
0.971618 0.440818 0.000000
0.995331 0.437537 0.000000
1.000000 0.431861 0.000000
0.000000 0.511147 0.000000
0.000000 0.511208 0.000000
0.000000 0.511315 0.000000
0.000000 0.511589 0.000000
0.000000 0.511803 0.000000
0.000229 0.512093 0.000000
0.007858 0.512459 0.000000
0.072923 0.512886 0.000000
0.140078 0.513436 0.000000
0.190738 0.513863 0.000000
0.235599 0.514397 0.000000
0.277073 0.514977 0.000000
0.319829 0.515496 0.000000
0.365515 0.515877 0.000000
0.417227 0.516487 0.000000
0.468116 0.517220 0.000000
0.510994 0.517479 0.000000
0.552102 0.518013 0.000000
0.592493 0.519585 0.000000
0.634257 0.521492 0.000000
0.673274 0.520409 0.000000
0.707515 0.518105 0.000000
0.739895 0.514824 0.000000
0.772427 0.509697 0.000000
0.802487 0.506249 0.000000
0.829374 0.506523 0.000000
0.854475 0.506279 0.000000
0.878889 0.503990 0.000000
0.905791 0.499275 0.000000
0.933700 0.493004 0.000000
0.962036 0.486198 0.000000
0.987243 0.480369 0.000000
1.000000 0.474418 0.000000
0.000000 0.543526 0.000000
0.000000 0.543587 0.000000
0.000000 0.543648 0.000000
0.000000 0.543755 0.000000
0.000000 0.543893 0.000000
0.000214 0.544152 0.000000
0.007172 0.544518 0.000000
0.066361 0.544854 0.000000
0.134463 0.545083 0.000000
0.188190 0.545327 0.000000
0.232349 0.545464 0.000000
0.273136 0.545357 0.000000
0.313115 0.546181 0.000000
0.354742 0.546487 0.000000
0.398291 0.546517 0.000000
0.446952 0.546975 0.000000
0.499153 0.548013 0.000000
0.540017 0.548562 0.000000
0.579248 0.549905 0.000000
0.618753 0.552087 0.000000
0.658167 0.553155 0.000000
0.694728 0.552590 0.000000
0.728893 0.550591 0.000000
0.759792 0.547982 0.000000
0.790402 0.545235 0.000000
0.818677 0.544244 0.000000
0.844358 0.544717 0.000000
0.868620 0.544076 0.000000
0.894469 0.541802 0.000000
0.922225 0.538399 0.000000
0.951171 0.531563 0.000000
0.978485 0.522606 0.000000
1.000000 0.517647 0.000000
0.000000 0.574685 0.000000
0.000000 0.574746 0.000000
0.000000 0.574792 0.000000
0.000000 0.574823 0.000000
0.000000 0.574960 0.000000
0.000153 0.575143 0.000000
0.005707 0.575311 0.000000
0.059678 0.575494 0.000000
0.125368 0.575753 0.000000
0.180392 0.575891 0.000000
0.228000 0.576013 0.000000
0.269169 0.576181 0.000000
0.308278 0.576226 0.000000
0.347204 0.576486 0.000000
0.387060 0.576806 0.000000
0.428641 0.576410 0.000000
0.478294 0.577127 0.000000
0.528176 0.578027 0.000000
0.568078 0.578836 0.000000
0.605219 0.580407 0.000000
0.642649 0.582177 0.000000
0.680491 0.583474 0.000000
0.716091 0.583307 0.000000
0.748348 0.582101 0.000000
0.779095 0.580331 0.000000
0.808896 0.578973 0.000000
0.836255 0.578668 0.000000
0.862028 0.578454 0.000000
0.887144 0.578561 0.000000
0.912749 0.577432 0.000000
0.940993 0.572320 0.005280
0.970459 0.563806 0.009796
0.999924 0.557549 0.024414
0.000000 0.605249 0.000000
0.000000 0.605280 0.000000
0.000000 0.605310 0.000000
0.000000 0.605325 0.000000
0.000000 0.605402 0.000000
0.000092 0.605585 0.000000
0.003265 0.605615 0.000000
0.032609 0.605661 0.000000
0.113008 0.605859 0.000000
0.171389 0.605982 0.000000
0.220249 0.606027 0.000000
0.262852 0.605890 0.000000
0.300633 0.605661 0.000000
0.339986 0.605753 0.000000
0.379141 0.606104 0.000000
0.420447 0.606775 0.000000
0.460960 0.606836 0.000000
0.506676 0.606912 0.000000
0.556069 0.607416 0.000000
0.594064 0.607935 0.000000
0.629129 0.609384 0.000000
0.665187 0.611276 0.000000
0.701701 0.612726 0.000000
0.736431 0.613230 0.000000
0.768139 0.612711 0.000000
0.798962 0.611658 0.000000
0.828290 0.611032 0.000000
0.855497 0.610391 0.000000
0.881117 0.610254 0.000000
0.907347 0.610208 0.000000
0.934554 0.608179 0.002899
0.963653 0.601190 0.055436
0.994446 0.597009 0.084398
0.000000 0.635538 0.000000
0.000000 0.635554 0.000000
0.000000 0.635431 0.000000
0.000000 0.635477 0.000000
0.000000 0.635615 0.000000
0.000031 0.635645 0.000000
0.001099 0.635676 0.000000
0.011048 0.635660 0.000000
0.102159 0.635752 0.000000
0.164416 0.635782 0.000000
0.214405 0.635782 0.000000
0.257328 0.635691 0.000000
0.298085 0.635523 0.000000
0.338079 0.635477 0.000000
0.376196 0.635508 0.000000
0.413046 0.635492 0.000000
0.450340 0.635874 0.000000
0.487617 0.635889 0.000000
0.531060 0.635187 0.000000
0.580880 0.635401 0.000000
0.617578 0.636103 0.000000
0.651835 0.637751 0.000000
0.687190 0.639658 0.000000
0.722805 0.641138 0.000000
0.757763 0.642466 0.000000
0.789487 0.642679 0.000000
0.819226 0.642313 0.000000
0.847822 0.641337 0.000000
0.875837 0.640574 0.000000
0.903456 0.640436 0.000000
0.932174 0.639811 0.001297
0.959976 0.635126 0.047898
0.991531 0.631189 0.114214
0.000000 0.665415 0.000000
0.000000 0.665415 0.000000
0.000000 0.665431 0.000000
0.000000 0.665461 0.000000
0.000000 0.665476 0.000000
0.000000 0.665324 0.000000
0.000275 0.665263 0.000000
0.008667 0.665278 0.000000
0.089433 0.665110 0.000000
0.156359 0.665110 0.000000
0.209171 0.665019 0.000000
0.253452 0.664927 0.000000
0.294621 0.664576 0.000000
0.333333 0.663935 0.000000
0.370764 0.663554 0.000000
0.406332 0.663294 0.000000
0.441245 0.663111 0.000000
0.476143 0.663005 0.000000
0.513802 0.662516 0.000000
0.554879 0.662348 0.000000
0.603525 0.663264 0.000000
0.640421 0.663905 0.000000
0.674113 0.665629 0.000000
0.708583 0.667277 0.000000
0.744472 0.669078 0.000000
0.779080 0.671015 0.000000
0.810208 0.671595 0.000000
0.839963 0.671107 0.000000
0.869322 0.670405 0.000000
0.898512 0.669810 0.000000
0.928023 0.669139 0.000000
0.957168 0.667384 0.002869
0.989700 0.663981 0.111162
0.000000 0.694270 0.000000
0.000000 0.694285 0.000000
0.000000 0.694133 0.000000
0.000000 0.694163 0.000000
0.000000 0.694163 0.000000
0.000000 0.693797 0.000000
0.000183 0.693812 0.000000
0.006592 0.693614 0.000000
0.064988 0.693645 0.000000
0.141146 0.693172 0.000000
0.196841 0.692683 0.000000
0.243503 0.692363 0.000000
0.285969 0.691920 0.000000
0.324758 0.691600 0.000000
0.361196 0.690517 0.000000
0.396704 0.690043 0.000000
0.432364 0.689754 0.000000
0.467414 0.689387 0.000000
0.502068 0.689387 0.000000
0.537804 0.689448 0.000000
0.578546 0.690211 0.000000
0.624308 0.691188 0.000000
0.661692 0.692119 0.000000
0.695537 0.693355 0.000000
0.730510 0.694743 0.000000
0.766323 0.696590 0.000000
0.800381 0.698238 0.000000
0.832258 0.699138 0.000000
0.862333 0.699443 0.000000
0.891829 0.699168 0.000000
0.921431 0.698268 0.000000
0.952361 0.697444 0.000000
0.983276 0.695949 0.000000
0.000000 0.722072 0.000000
0.000000 0.722072 0.000000
0.000000 0.722072 0.000000
0.000000 0.722072 0.000000
0.000000 0.722026 0.000000
0.000000 0.721904 0.000000
0.000107 0.721889 0.000000
0.003677 0.721569 0.000000
0.037293 0.721218 0.000000
0.125704 0.721096 0.000000
0.184817 0.720684 0.000000
0.234089 0.720104 0.000000
0.277546 0.719615 0.000000
0.317067 0.719005 0.000000
0.353338 0.718456 0.000000
0.390341 0.718196 0.000000
0.425330 0.717998 0.000000
0.460060 0.717586 0.000000
0.494408 0.717540 0.000000
0.528115 0.717357 0.000000
0.562982 0.717540 0.000000
0.599603 0.717815 0.000000
0.644999 0.719524 0.000000
0.684337 0.721141 0.000000
0.718730 0.721767 0.000000
0.753124 0.722332 0.000000
0.787716 0.723247 0.000000
0.821363 0.724468 0.000000
0.854047 0.726452 0.000000
0.884215 0.727337 0.000000
0.915450 0.727153 0.000000
0.946792 0.726894 0.000000
0.978363 0.726284 0.000000
0.000000 0.749630 0.000000
0.000000 0.749630 0.000000
0.000000 0.749645 0.000000
0.000000 0.749615 0.000000
0.000000 0.748943 0.000000
0.000000 0.748867 0.000000
0.000046 0.748913 0.000000
0.001236 0.748760 0.000000
0.010529 0.748592 0.000000
0.099092 0.748394 0.000000
0.167376 0.748379 0.000000
0.219211 0.747921 0.000000
0.263905 0.747585 0.000000
0.305104 0.747265 0.000000
0.344167 0.746929 0.000000
0.381689 0.746792 0.000000
0.417899 0.746532 0.000000
0.451652 0.746136 0.000000
0.485557 0.745800 0.000000
0.518242 0.745373 0.000000
0.552193 0.745510 0.000000
0.586374 0.745342 0.000000
0.622110 0.745541 0.000000
0.667674 0.748074 0.000000
0.707774 0.749538 0.000000
0.741527 0.750057 0.000000
0.775509 0.750042 0.000000
0.809140 0.750423 0.000000
0.841550 0.751080 0.000000
0.874556 0.752560 0.000000
0.908248 0.754360 0.000000
0.942031 0.755428 0.000000
0.974411 0.755383 0.000000
0.000000 0.777691 0.000000
0.000000 0.777691 0.000000
0.000000 0.777707 0.000000
0.000000 0.777691 0.000000
0.000000 0.777462 0.000000
0.000000 0.777401 0.000000
0.000015 0.777401 0.000000
0.000198 0.777417 0.000000
0.005798 0.777295 0.000000
0.063920 0.777050 0.000000
0.144610 0.776654 0.000000
0.200443 0.776364 0.000000
0.248692 0.776104 0.000000
0.293065 0.776074 0.000000
0.333989 0.775738 0.000000
0.372412 0.775586 0.000000
0.407843 0.775174 0.000000
0.442741 0.774929 0.000000
0.477256 0.774731 0.000000
0.510719 0.774319 0.000000
0.543542 0.773800 0.000000
0.576394 0.773602 0.000000
0.610437 0.773693 0.000000
0.645563 0.774304 0.000000
0.690791 0.776593 0.000000
0.731258 0.777935 0.000000
0.765499 0.778195 0.000000
0.798672 0.778256 0.000000
0.831601 0.778332 0.000000
0.863371 0.778561 0.000000
0.898314 0.779751 0.000000
0.934783 0.782177 0.000000
0.968750 0.783062 0.000031
0.000000 0.806165 0.000000
0.000000 0.806180 0.000000
0.000000 0.806195 0.000000
0.000000 0.806195 0.000000
0.000000 0.806210 0.000000
0.000000 0.806241 0.000000
0.000000 0.806287 0.000000
0.000076 0.806119 0.000000
0.002152 0.806012 0.000000
0.011460 0.805631 0.000000
0.113390 0.805661 0.000000
0.177600 0.805142 0.000000
0.229923 0.804639 0.000000
0.276814 0.804532 0.000000
0.320638 0.804425 0.000000
0.359945 0.804395 0.000000
0.396399 0.804028 0.000000
0.431144 0.803449 0.000000
0.467338 0.803159 0.000000
0.501106 0.802884 0.000000
0.534829 0.802609 0.000000
0.567605 0.802365 0.000000
0.600412 0.802136 0.000000
0.633707 0.802350 0.000000
0.669001 0.803189 0.000000
0.710674 0.804959 0.000000
0.753719 0.806638 0.000000
