app/src/main/assets/filters/astia.cube
# Created from astia.plut
LUT_3D_SIZE 5
DOMAIN_MIN 0.0 0.0 0.0
DOMAIN_MAX 1.0 1.0 1.0
0.000000 0.000000 0.000000
0.268894 0.000000 0.000000
0.612772 0.000000 0.000000
0.862226 0.000000 0.000000
1.000000 0.000000 0.179156
0.000000 0.213901 0.000000
0.216358 0.227176 0.000000
0.605264 0.210636 0.000000
0.852064 0.187167 0.000000
1.000000 0.189776 0.126101
0.000000 0.511147 0.000000
0.140078 0.513436 0.000000
0.510994 0.517479 0.000000
0.802487 0.506249 0.000000
1.000000 0.474418 0.000000
0.000000 0.749630 0.000000
0.010529 0.748592 0.000000
0.417899 0.746532 0.000000
0.707774 0.749538 0.000000
0.974411 0.755383 0.000000
0.000000 0.980484 0.000000
0.000000 0.980560 0.000000
0.309606 0.981964 0.000000
0.627314 0.985321 0.000000
0.907912 0.998688 0.000000
0.008713 0.000000 0.239826
0.264927 0.000000 0.244739
0.612741 0.018738 0.249439
0.855406 0.000000 0.274372
1.000000 0.000000 0.338872
0.000000 0.232441 0.262470
0.238087 0.244434 0.242756
0.595575 0.242283 0.234165
0.838773 0.249821 0.289616
1.000000 0.237919 0.340246
0.000000 0.512139 0.184314
0.147707 0.514702 0.166781
0.507652 0.517327 0.149310
0.790600 0.517037 0.213581
1.000000 0.463127 0.256107
0.000000 0.749477 0.166247
0.010590 0.748898 0.164172
0.419898 0.746654 0.154055
0.708675 0.747341 0.187442
0.976974 0.754116 0.249165
0.000000 0.980346 0.180758
0.000000 0.980407 0.185168
0.308217 0.981765 0.183551
0.626581 0.985992 0.196262
0.910018 0.999893 0.185397
0.035386 0.000000 0.592996
0.271046 0.000000 0.603708
0.587350 0.000000 0.561639
0.839490 0.003418 0.546639
1.000000 0.000000 0.570855
0.000000 0.234134 0.632181
0.260639 0.267567 0.606180
0.597604 0.260731 0.572198
0.829786 0.273976 0.545632
1.000000 0.250126 0.571725
0.000000 0.514565 0.596277
0.104829 0.518013 0.560311
0.525765 0.528740 0.527108
0.791653 0.524254 0.519692
1.000000 0.516030 0.543450
0.000000 0.739239 0.528664
0.012055 0.742519 0.482429
0.444678 0.741405 0.464912
0.722835 0.741192 0.469047
0.993439 0.744350 0.526238
0.000000 0.979217 0.462638
0.000000 0.979644 0.463447
0.310170 0.980972 0.466773
0.629725 0.988540 0.469688
0.925124 1.000000 0.456504
0.030533 0.005081 0.905638
0.292531 0.050202 0.905486
0.563928 0.026383 0.857252
0.834699 0.049577 0.818677
1.000000 0.070909 0.811948
0.059510 0.305104 0.906157
0.295125 0.305791 0.899687
0.561532 0.285939 0.851118
0.831952 0.282094 0.817075
1.000000 0.284489 0.803357
0.000000 0.516243 0.877592
0.177874 0.525856 0.860578
0.529168 0.543236 0.822507
0.794675 0.536309 0.783886
1.000000 0.522042 0.782834
0.000000 0.730251 0.788128
0.000137 0.729931 0.785229
0.426108 0.734478 0.767956
0.743038 0.746609 0.745281
1.000000 0.743252 0.751003
0.000000 0.978012 0.720256
0.000000 0.979797 0.712840
0.378027 0.983612 0.708370
0.667094 0.995590 0.707530
0.974838 1.000000 0.710018
0.035538 0.127886 1.000000
0.290623 0.145449 1.000000
0.553292 0.174044 1.000000
0.825834 0.109178 1.000000
1.000000 0.116014 1.000000
0.015091 0.326604 1.000000
0.283879 0.330846 1.000000
0.539483 0.333608 1.000000
0.818799 0.302785 1.000000
1.000000 0.298985 1.000000
0.000000 0.573953 1.000000
0.134493 0.571374 1.000000
0.477760 0.551568 1.000000
0.766491 0.550072 1.000000
1.000000 0.526726 1.000000
0.000000 0.733120 1.000000
0.000031 0.733440 1.000000
0.407553 0.745769 1.000000
0.727764 0.766491 1.000000
1.000000 0.756008 1.000000
0.000000 0.972122 1.000000
0.000000 0.973037 1.000000
0.355108 0.982315 1.000000
0.685161 0.992752 1.000000
0.994232 0.999435 0.998566
