app/src/main/assets/filters/astia.cube
# Created from astia.plut
LUT_3D_SIZE 9
DOMAIN_MIN 0.0 0.0 0.0
DOMAIN_MAX 1.0 1.0 1.0
0.000000 0.000000 0.000000
0.110918 0.003723 0.000000
0.268894 0.000000 0.000000
0.451469 0.000000 0.000000
0.612772 0.000000 0.000000
0.751263 0.000000 0.000000
0.862226 0.000000 0.000000
0.961913 0.000000 0.106035
1.000000 0.000000 0.179156
0.000000 0.092317 0.000000
0.087419 0.093858 0.000000
0.260761 0.093645 0.000000
0.450324 0.096910 0.000000
0.616785 0.085603 0.000000
0.752346 0.040635 0.000000
0.859190 0.023056 0.000000
0.959869 0.065431 0.111833
1.000000 0.056718 0.177905
0.000000 0.213901 0.000000
0.034440 0.217578 0.000000
0.216358 0.227176 0.000000
0.429755 0.227436 0.000000
0.605264 0.210636 0.000000
0.743969 0.189960 0.000000
0.852064 0.187167 0.000000
0.952422 0.176165 0.020020
1.000000 0.189776 0.126101
0.000000 0.366567 0.000000
0.000153 0.370077 0.000000
0.165759 0.375067 0.000000
0.374640 0.379858 0.000000
0.571923 0.380117 0.000000
0.718410 0.363607 0.000000
0.833951 0.346471 0.000000
0.942031 0.315435 0.000000
1.000000 0.314427 0.000000
0.000000 0.511147 0.000000
0.000000 0.511803 0.000000
0.140078 0.513436 0.000000
0.319829 0.515496 0.000000
0.510994 0.517479 0.000000
0.673274 0.520409 0.000000
0.802487 0.506249 0.000000
0.905791 0.499275 0.000000
1.000000 0.474418 0.000000
0.000000 0.635538 0.000000
0.000000 0.635615 0.000000
0.102159 0.635752 0.000000
0.298085 0.635523 0.000000
0.450340 0.635874 0.000000
0.617578 0.636103 0.000000
0.757763 0.642466 0.000000
0.875837 0.640574 0.000000
0.991531 0.631189 0.114214
0.000000 0.749630 0.000000
0.000000 0.748943 0.000000
0.010529 0.748592 0.000000
0.263905 0.747585 0.000000
0.417899 0.746532 0.000000
0.552193 0.745510 0.000000
0.707774 0.749538 0.000000
0.841550 0.751080 0.000000
0.974411 0.755383 0.000000
0.000000 0.863020 0.000000
0.000000 0.862989 0.000000
0.000061 0.863035 0.000000
0.184237 0.862119 0.000000
0.370230 0.861280 0.000000
0.515404 0.860777 0.000000
0.647745 0.861585 0.000000
0.794476 0.865492 0.000000
0.934371 0.868376 0.000000
0.000000 0.980484 0.000000
0.000000 0.980529 0.000000
0.000000 0.980560 0.000000
0.010239 0.980941 0.000000
0.309606 0.981964 0.000000
0.480171 0.983398 0.000000
0.627314 0.985321 0.000000
0.767117 0.990005 0.000000
0.907912 0.998688 0.000000
0.000000 0.000000 0.114443
0.111894 0.000000 0.111757
0.269780 0.001190 0.110643
0.451469 0.016220 0.104723
0.611139 0.035828 0.093736
0.749401 0.000000 0.100664
0.861357 0.000000 0.121691
0.960388 0.000000 0.190677
1.000000 0.000000 0.239963
0.000000 0.096727 0.101961
0.097749 0.102708 0.099397
0.257115 0.103670 0.087404
0.446891 0.113146 0.086702
0.615656 0.107332 0.090166
0.752071 0.066697 0.084764
0.857954 0.042786 0.128557
0.958953 0.068940 0.194156
1.000000 0.070298 0.241230
0.000000 0.217014 0.081590
0.032654 0.223041 0.069795
0.224308 0.232898 0.050217
0.428489 0.231510 0.037324
0.600855 0.224277 0.062150
0.743435 0.202258 0.079835
0.849088 0.209857 0.123644
0.948608 0.219791 0.182208
1.000000 0.210025 0.216114
0.000000 0.368048 0.055573
0.000122 0.371389 0.039811
0.168536 0.376349 0.018341
0.376532 0.381659 0.011475
0.572641 0.382650 0.052003
0.715312 0.368933 0.051942
0.834546 0.346120 0.046296
0.942763 0.313283 0.073976
1.000000 0.314580 0.113970
0.000000 0.511223 0.068284
0.000015 0.511803 0.068147
0.139849 0.513771 0.041032
0.320851 0.515648 0.001892
0.514107 0.517006 0.012375
0.674983 0.520897 0.025711
0.801495 0.506722 0.045121
0.906081 0.498405 0.065721
1.000000 0.471199 0.104875
0.000000 0.635615 0.039002
0.000015 0.635721 0.031739
0.102693 0.635859 0.013672
0.300114 0.635630 0.005859
0.451820 0.635447 0.000183
0.618784 0.635599 0.004822
0.759045 0.643122 0.010452
0.875517 0.640513 0.007492
0.991516 0.631083 0.186053
0.000000 0.749752 0.001221
0.000000 0.749187 0.001053
0.010681 0.748821 0.000412
0.263905 0.747570 0.000168
0.417975 0.746624 0.000137
0.551843 0.745357 0.000153
0.707439 0.749371 0.004807
0.844114 0.752255 0.009476
0.974960 0.755322 0.086946
0.000000 0.863111 0.000122
0.000000 0.863096 0.000137
0.000061 0.862837 0.000137
0.183856 0.862196 0.000153
0.370520 0.861204 0.000290
0.515312 0.860578 0.000946
0.647501 0.861601 0.001343
0.795148 0.865644 0.019562
0.934585 0.868406 0.092149
0.000000 0.980423 0.000320
0.000000 0.980560 0.000458
0.000000 0.980453 0.001007
0.010086 0.980972 0.000946
0.309743 0.981704 0.001328
0.479377 0.983307 0.002304
0.627390 0.985580 0.004150
0.767071 0.990143 0.005402
0.907698 0.999405 0.002808
0.008713 0.000000 0.239826
0.118227 0.000000 0.265217
0.264927 0.000000 0.244739
0.436988 0.000000 0.250370
0.612741 0.018738 0.249439
0.747692 0.000671 0.256077
0.855406 0.000000 0.274372
0.953613 0.000000 0.311879
1.000000 0.000000 0.338872
0.000000 0.093278 0.257725
0.103410 0.099626 0.266865
0.274205 0.106950 0.251484
0.443748 0.098436 0.256443
0.616526 0.115801 0.246448
0.746548 0.135332 0.256123
0.851026 0.099046 0.282506
0.952255 0.081941 0.314427
1.000000 0.083680 0.341146
0.000000 0.232441 0.262470
0.054566 0.234928 0.257649
0.238087 0.244434 0.242756
0.425498 0.242206 0.225025
0.595575 0.242283 0.234165
0.730068 0.247303 0.254612
0.838773 0.249821 0.289616
0.940063 0.248402 0.330251
1.000000 0.237919 0.340246
0.000000 0.375769 0.192309
0.000290 0.378317 0.190478
0.177401 0.382803 0.194690
0.380453 0.387991 0.187884
0.565911 0.387823 0.187716
0.705241 0.383337 0.210681
0.823087 0.373022 0.246845
0.933089 0.349432 0.270939
1.000000 0.323674 0.261112
0.000000 0.512139 0.184314
0.000000 0.512840 0.179416
0.147707 0.514702 0.166781
0.326879 0.516030 0.158511
0.507652 0.517327 0.149310
0.666941 0.521584 0.171008
0.790600 0.517037 0.213581
0.903899 0.500175 0.238865
1.000000 0.463127 0.256107
0.000000 0.635676 0.187884
0.000000 0.635798 0.186252
0.104936 0.635798 0.180636
0.304479 0.634745 0.157519
0.455253 0.632944 0.139620
0.615183 0.633616 0.144533
0.757076 0.642664 0.187060
0.869917 0.642756 0.242512
0.991699 0.629755 0.286946
0.000000 0.749477 0.166247
0.000000 0.749493 0.165881
0.010590 0.748898 0.164172
0.265721 0.747417 0.160220
0.419898 0.746654 0.154055
0.555947 0.744808 0.151034
0.708675 0.747341 0.187442
0.844114 0.754757 0.219104
0.976974 0.754116 0.249165
0.000000 0.862943 0.160021
0.000000 0.862943 0.159716
0.000076 0.862654 0.161440
0.184298 0.862089 0.163561
0.370764 0.860899 0.172747
0.515618 0.860044 0.182834
0.647486 0.860731 0.187594
0.799420 0.865904 0.215244
0.937377 0.868971 0.236469
0.000000 0.980346 0.180758
0.000000 0.980407 0.181033
0.000000 0.980407 0.185168
0.010193 0.980758 0.185031
0.308217 0.981765 0.183551
0.478447 0.983261 0.189288
0.626581 0.985992 0.196262
0.767254 0.991791 0.196490
0.910018 0.999893 0.185397
0.030625 0.000000 0.419577
0.135149 0.000000 0.434653
0.262837 0.000000 0.412741
0.436805 0.000000 0.404089
0.605524 0.000000 0.399634
0.746319 0.002762 0.393500
0.844602 0.000000 0.416480
0.948760 0.000000 0.436683
1.000000 0.000000 0.451545
0.015671 0.088426 0.442954
0.128237 0.110765 0.452323
0.263584 0.105455 0.428077
0.442222 0.093385 0.411551
0.602274 0.084581 0.413626
0.741665 0.126497 0.393866
0.841688 0.129290 0.417258
0.943572 0.097261 0.441367
1.000000 0.088838 0.453574
0.000000 0.230838 0.458732
0.040406 0.235218 0.457832
0.231678 0.244221 0.433783
0.439475 0.250172 0.426932
0.598672 0.251820 0.409537
0.722118 0.258274 0.398108
0.833722 0.269780 0.417456
0.936309 0.247684 0.446876
1.000000 0.244892 0.457298
0.000000 0.383505 0.449165
0.051133 0.384588 0.444694
0.198672 0.389975 0.409796
0.395560 0.398291 0.396948
0.560418 0.396292 0.384009
0.702770 0.393561 0.388815
0.816114 0.393439 0.407584
0.923827 0.386435 0.427176
1.000000 0.365255 0.426078
0.000000 0.515679 0.342794
0.000015 0.516182 0.345830
0.170199 0.517174 0.347478
0.338094 0.518044 0.355108
0.516503 0.521279 0.342947
0.666712 0.522118 0.345922
0.789105 0.519875 0.363607
0.897536 0.520623 0.402976
1.000000 0.469825 0.397803
0.000000 0.633494 0.325872
0.000000 0.633448 0.321721
0.121889 0.633753 0.315892
0.314321 0.632349 0.319600
0.462791 0.631098 0.322530
0.619745 0.632715 0.316960
0.755154 0.640055 0.340108
0.869505 0.642679 0.382879
0.994354 0.635126 0.426505
0.000000 0.749248 0.309819
0.000000 0.749310 0.309499
0.017868 0.748104 0.307637
0.275547 0.746120 0.307118
0.428733 0.744381 0.307012
0.566781 0.741436 0.316426
0.710948 0.742168 0.327321
0.849088 0.752071 0.362219
0.985290 0.750469 0.406165
0.000000 0.862516 0.313664
0.000000 0.862364 0.313817
0.000076 0.862089 0.315190
0.188403 0.861601 0.317144
0.372168 0.859953 0.322728
0.518898 0.858915 0.329732
0.653971 0.858976 0.338231
0.800198 0.864698 0.343008
0.954818 0.869322 0.363119
0.000000 0.979568 0.330739
0.000000 0.979767 0.331029
0.000000 0.980072 0.331823
0.009583 0.980682 0.331136
0.306584 0.981369 0.333303
0.478065 0.983185 0.336965
0.626535 0.986664 0.339803
0.769162 0.994644 0.339681
0.912825 1.000000 0.329747
0.035386 0.000000 0.592996
0.145159 0.000000 0.602243
0.271046 0.000000 0.603708
0.427985 0.000000 0.564218
0.587350 0.000000 0.561639
0.730571 0.000000 0.564126
0.839490 0.003418 0.546639
0.946471 0.000000 0.560525
1.000000 0.000000 0.570855
0.029145 0.076509 0.608255
0.137545 0.117281 0.615824
0.271031 0.124819 0.607645
0.429099 0.096529 0.571801
0.593790 0.094682 0.564172
0.728115 0.105043 0.566674
0.837507 0.140093 0.547143
0.943297 0.120546 0.562417
1.000000 0.086305 0.571984
0.000000 0.234134 0.632181
0.108232 0.244144 0.630091
0.260639 0.267567 0.606180
0.425971 0.260716 0.586984
0.597604 0.260731 0.572198
0.724102 0.264439 0.567437
0.829786 0.273976 0.545632
0.935622 0.255650 0.560754
1.000000 0.250126 0.571725
0.000000 0.381079 0.599100
0.009354 0.381918 0.603571
0.188952 0.386023 0.592813
0.391058 0.394995 0.568475
0.566674 0.398825 0.553231
0.701305 0.401938 0.541543
0.812467 0.403922 0.541222
0.923568 0.399771 0.552224
1.000000 0.394049 0.558373
0.000000 0.514565 0.596277
0.003998 0.514870 0.592111
0.104829 0.518013 0.560311
0.353231 0.521828 0.536797
0.525765 0.528740 0.527108
0.667048 0.525170 0.515297
0.791653 0.524254 0.519692
0.905791 0.523964 0.536355
1.000000 0.516030 0.543450
0.000000 0.623041 0.538262
0.000000 0.623362 0.537728
0.006653 0.623896 0.533043
0.291188 0.628977 0.507851
0.472419 0.631052 0.492576
0.627680 0.634211 0.482872
0.759823 0.640192 0.490806
0.878477 0.640406 0.510811
0.999893 0.637339 0.534554
0.000000 0.739239 0.528664
0.000046 0.740002 0.521447
0.012055 0.742519 0.482429
0.296788 0.742641 0.462165
0.444678 0.741405 0.464912
0.578927 0.738872 0.469154
0.722835 0.741192 0.469047
0.854459 0.750118 0.491707
0.993439 0.744350 0.526238
0.000000 0.862013 0.448219
0.000000 0.861250 0.448722
0.000702 0.860304 0.450202
0.201022 0.859754 0.451682
0.385458 0.858824 0.455695
0.531823 0.858442 0.459220
0.667750 0.859098 0.461662
0.817731 0.862181 0.466545
0.984543 0.867536 0.503227
0.000000 0.979217 0.462638
0.000000 0.979370 0.463294
0.000000 0.979644 0.463447
0.011170 0.980194 0.464485
0.310170 0.980972 0.466773
0.482078 0.983795 0.468666
0.629725 0.988540 0.469688
0.771542 0.998062 0.469871
0.925124 1.000000 0.456504
0.026871 0.000000 0.758831
0.150164 0.000000 0.762112
0.282231 0.000000 0.761410
0.421759 0.001099 0.743481
0.571466 0.000000 0.716533
0.722240 0.000000 0.699718
0.837964 0.022904 0.692027
0.952453 0.070893 0.684321
1.000000 0.000000 0.693370
0.019181 0.128496 0.771786
0.148531 0.135256 0.770565
0.281666 0.144381 0.765042
0.424109 0.147753 0.746334
0.571801 0.125689 0.717128
0.720195 0.126390 0.699565
0.836133 0.149645 0.691096
0.950973 0.163470 0.683818
1.000000 0.112154 0.691447
0.028046 0.270085 0.777386
0.149310 0.284749 0.775799
0.284398 0.295048 0.765850
0.426764 0.285359 0.741451
0.570413 0.273320 0.717540
0.715984 0.271733 0.696117
0.832792 0.280186 0.689433
0.943725 0.283284 0.680385
1.000000 0.261891 0.688716
0.000000 0.383642 0.763760
0.008972 0.385870 0.759014
0.209659 0.393988 0.743908
0.402472 0.409766 0.720714
0.557259 0.413260 0.708553
0.705577 0.410208 0.690883
0.824369 0.412894 0.683162
0.922332 0.407446 0.673136
1.000000 0.401785 0.671977
0.000000 0.509270 0.727962
0.036637 0.509361 0.727855
0.151080 0.512123 0.718074
0.346487 0.520623 0.697230
0.517632 0.526055 0.675303
0.670085 0.529274 0.660014
0.794156 0.531716 0.653971
0.905303 0.528954 0.662150
1.000000 0.519768 0.661112
0.000000 0.624598 0.706386
0.000092 0.624155 0.704631
0.025635 0.623468 0.681849
0.282490 0.628260 0.665141
0.486137 0.634531 0.648188
0.635996 0.639017 0.637537
0.766339 0.640513 0.631708
0.890150 0.640665 0.637827
1.000000 0.626795 0.656062
0.000000 0.733944 0.666682
0.000000 0.733745 0.665904
0.000031 0.733135 0.664973
0.197681 0.732967 0.659556
0.450935 0.738918 0.623011
0.591928 0.738399 0.612589
0.734157 0.742504 0.606821
0.863523 0.748486 0.611170
0.997345 0.744640 0.625406
0.000000 0.852354 0.636896
0.000000 0.852674 0.632807
0.000855 0.854139 0.615427
0.250477 0.855787 0.599725
0.419226 0.856397 0.591394
0.555749 0.856382 0.589181
0.687480 0.857908 0.586694
0.832639 0.861357 0.586389
0.995270 0.859068 0.621302
0.000000 0.979385 0.588083
0.000000 0.979507 0.588083
0.000000 0.979843 0.588861
0.014023 0.980484 0.588937
0.329808 0.982696 0.589380
0.493248 0.986328 0.590845
0.641047 0.993790 0.590723
0.783246 0.999908 0.590082
0.940383 1.000000 0.592035
0.030533 0.005081 0.905638
0.157214 0.028199 0.905455
0.292531 0.050202 0.905486
0.427359 0.076555 0.896040
0.563928 0.026383 0.857252
0.708278 0.018128 0.832990
0.834699 0.049577 0.818677
0.957351 0.073564 0.814694
1.000000 0.070909 0.811948
0.035508 0.163027 0.908431
0.160540 0.163851 0.907820
0.294499 0.172457 0.906188
0.426749 0.179202 0.892332
0.563394 0.154498 0.857893
0.707195 0.148974 0.831113
0.834104 0.156313 0.818296
0.956344 0.166522 0.814069
1.000000 0.165743 0.810605
0.059510 0.305104 0.906157
0.169192 0.304829 0.905364
0.295125 0.305791 0.899687
0.424369 0.306600 0.886122
0.561532 0.285939 0.851118
0.704585 0.281697 0.823148
0.831952 0.282094 0.817075
0.952148 0.287251 0.811688
1.000000 0.284489 0.803357
0.028214 0.431113 0.893950
0.154559 0.432319 0.889113
0.292332 0.439918 0.876738
0.417350 0.438758 0.875120
0.553017 0.423194 0.843107
0.697017 0.415106 0.817426
0.825376 0.413413 0.811933
0.938628 0.414115 0.803372
1.000000 0.404059 0.791791
0.000000 0.516243 0.877592
0.043870 0.516838 0.874739
0.177874 0.525856 0.860578
0.370474 0.537423 0.843870
0.529168 0.543236 0.822507
0.667796 0.544717 0.806256
0.794675 0.536309 0.783886
0.906844 0.531640 0.780606
1.000000 0.522042 0.782834
0.000000 0.621195 0.842344
0.000015 0.621027 0.842008
0.105089 0.623087 0.841230
0.315023 0.632395 0.820996
0.486305 0.640253 0.800504
0.637064 0.643503 0.779828
0.768963 0.646113 0.763577
0.894820 0.644144 0.764858
1.000000 0.633448 0.768139
0.000000 0.730251 0.788128
0.000000 0.730114 0.786877
0.000137 0.729931 0.785229
0.202075 0.730114 0.781125
0.426108 0.734478 0.767956
0.597314 0.741833 0.756237
0.743038 0.746609 0.745281
0.876829 0.748333 0.740002
1.000000 0.743252 0.751003
0.000000 0.848631 0.775250
0.000000 0.848478 0.774914
0.000000 0.848905 0.772900
0.147539 0.849393 0.769100
0.378363 0.851362 0.758846
0.559426 0.854978 0.734127
0.703731 0.857710 0.721202
0.848371 0.863706 0.716381
0.999573 0.865888 0.726665
0.000000 0.978012 0.720256
0.000000 0.978637 0.717388
0.000000 0.979797 0.712840
0.179995 0.980835 0.710201
0.378027 0.983612 0.708370
0.527611 0.988449 0.707836
0.667094 0.995590 0.707530
0.808713 0.999969 0.707103
0.974838 1.000000 0.710018
0.034592 0.093034 0.999741
0.163439 0.094392 0.999802
0.299077 0.105409 0.999878
0.432563 0.128038 0.999298
0.562448 0.135393 0.996048
0.698528 0.075441 0.963210
0.830915 0.076448 0.945846
0.957229 0.081819 0.943084
1.000000 0.106462 0.936431
0.048920 0.188266 0.999908
0.166705 0.188754 0.999924
0.299123 0.196994 0.999908
0.431220 0.205173 0.998978
0.560678 0.211185 0.995712
0.698131 0.170718 0.959594
0.830579 0.167590 0.945373
0.956176 0.170916 0.942412
1.000000 0.183520 0.935088
0.064881 0.316579 0.999924
0.169711 0.316625 0.999817
0.296056 0.318883 0.999283
0.424872 0.323140 0.997620
0.557733 0.324804 0.993103
0.694331 0.295552 0.954406
0.828183 0.287877 0.943877
0.953002 0.289006 0.939727
1.000000 0.294194 0.930571
0.008042 0.442435 0.998230
0.139330 0.443030 0.998108
0.272526 0.445365 0.994842
0.411582 0.448508 0.985473
0.541878 0.446387 0.980331
0.684443 0.427283 0.949508
0.821790 0.417288 0.940200
0.941451 0.416175 0.929656
1.000000 0.408087 0.915969
0.000000 0.544152 0.994156
0.007004 0.548852 0.990112
0.193774 0.557229 0.979706
0.377874 0.561944 0.964462
0.519921 0.559533 0.956191
0.656474 0.552300 0.944030
0.792584 0.542702 0.922652
0.911482 0.533898 0.904814
1.000000 0.525414 0.904845
0.000000 0.631128 0.997360
0.001450 0.631067 0.997055
0.066804 0.638132 0.987747
0.291279 0.644984 0.976928
0.461753 0.647395 0.958877
0.641154 0.660838 0.935348
0.789425 0.663508 0.924437
0.900862 0.646403 0.894835
1.000000 0.638315 0.889845
0.000000 0.732601 0.969116
0.000000 0.732341 0.968566
0.000046 0.731456 0.964736
0.159304 0.730556 0.959396
0.389471 0.733639 0.945083
0.578836 0.748425 0.927382
0.738338 0.751171 0.899351
0.881468 0.755795 0.880797
1.000000 0.750118 0.873838
0.000000 0.846525 0.900603
0.000000 0.846342 0.901091
0.000000 0.846891 0.898528
0.123095 0.847822 0.895888
0.357839 0.849409 0.893751
0.528511 0.853208 0.892546
0.705074 0.863722 0.883177
0.863142 0.869871 0.873030
1.000000 0.869932 0.858610
0.000000 0.973144 0.886122
0.000000 0.973419 0.885054
0.000000 0.974685 0.879423
0.167910 0.977508 0.867445
0.409751 0.983886 0.848127
0.557214 0.989242 0.842985
0.695949 0.995575 0.840772
0.839216 1.000000 0.835279
0.992844 1.000000 0.830793
0.035538 0.127886 1.000000
0.156466 0.141146 1.000000
0.290623 0.145449 1.000000
0.426108 0.161181 1.000000
0.553292 0.174044 1.000000
0.681117 0.173617 1.000000
0.825834 0.109178 1.000000
0.955138 0.099428 1.000000
1.000000 0.116014 1.000000
0.024857 0.212863 1.000000
0.155642 0.212940 1.000000
0.289982 0.218082 1.000000
0.423560 0.228336 1.000000
0.547906 0.234257 1.000000
0.675364 0.236179 1.000000
0.825223 0.186389 1.000000
0.952987 0.182269 1.000000
1.000000 0.190707 1.000000
0.015091 0.326604 1.000000
0.147982 0.328573 1.000000
0.283879 0.330846 1.000000
0.410956 0.331426 1.000000
0.539483 0.333608 1.000000
0.666484 0.333074 1.000000
0.818799 0.302785 1.000000
0.950164 0.295262 1.000000
1.000000 0.298985 1.000000
0.000000 0.447303 1.000000
0.087861 0.448447 1.000000
0.245426 0.449393 1.000000
0.387121 0.449088 1.000000
0.520638 0.446647 1.000000
0.640742 0.439490 1.000000
0.794430 0.429236 1.000000
0.937011 0.420600 1.000000
1.000000 0.414450 1.000000
0.000000 0.573953 1.000000
0.000122 0.576318 1.000000
0.134493 0.571374 1.000000
0.322957 0.558053 1.000000
0.477760 0.551568 1.000000
0.621500 0.551492 1.000000
0.766491 0.550072 1.000000
0.909773 0.542519 1.000000
1.000000 0.526726 1.000000
0.000000 0.632151 1.000000
0.000015 0.637415 1.000000
0.017426 0.650568 1.000000
0.294972 0.658946 1.000000
0.454841 0.664454 1.000000
0.622705 0.668803 1.000000
0.760769 0.664424 1.000000
0.893889 0.655680 1.000000
1.000000 0.641505 1.000000
0.000000 0.733120 1.000000
0.000000 0.733150 1.000000
0.000031 0.733440 1.000000
0.173907 0.738903 1.000000
0.407553 0.745769 1.000000
0.559121 0.750820 1.000000
0.727764 0.766491 1.000000
0.867414 0.763378 1.000000
1.000000 0.756008 1.000000
0.000000 0.844160 1.000000
0.000000 0.844144 1.000000
0.000000 0.844465 1.000000
0.009674 0.845289 1.000000
0.332372 0.849607 1.000000
0.518639 0.857771 1.000000
0.672694 0.863005 1.000000
0.844877 0.872770 1.000000
0.998962 0.873960 1.000000
0.000000 0.972122 1.000000
0.000000 0.972549 1.000000
0.000000 0.973037 1.000000
0.009110 0.976669 1.000000
0.355108 0.982315 1.000000
0.522820 0.986267 1.000000
0.685161 0.992752 1.000000
0.844968 0.997711 1.000000
0.994232 0.999435 0.998566
