app/src/main/assets/filters/cc.cube
# Created from cc.plut
LUT_3D_SIZE 5
DOMAIN_MIN 0.0 0.0 0.0
DOMAIN_MAX 1.0 1.0 1.0
0.016648 0.016602 0.017746
0.218296 0.037537 0.035080
0.535653 0.081743 0.095628
0.791791 0.127108 0.150958
0.947311 0.179751 0.226780
0.104997 0.209201 0.127001
0.225620 0.207568 0.073747
0.546563 0.232853 0.113970
0.777554 0.255848 0.155978
0.940932 0.231403 0.249134
0.254917 0.432303 0.115343
0.268925 0.444800 0.114488
0.481666 0.471992 0.129595
0.771099 0.508080 0.193286
0.944778 0.527138 0.271199
0.465309 0.640742 0.192828
0.476997 0.651026 0.200580
0.519249 0.683619 0.222568
0.677485 0.727108 0.271336
0.904952 0.754284 0.389731
0.670298 0.809979 0.333822
0.678523 0.815473 0.340169
0.706218 0.835126 0.364340
0.766384 0.871977 0.417990
0.836316 0.915908 0.510430
0.045212 0.053452 0.140078
0.212009 0.100847 0.164233
0.512810 0.149340 0.202884
0.783703 0.135561 0.165454
0.951461 0.181491 0.230823
0.024949 0.208026 0.211734
0.225971 0.231983 0.228519
0.548486 0.266072 0.262516
0.766629 0.239048 0.251484
0.942763 0.225544 0.260288
0.236530 0.432227 0.177142
0.255848 0.451179 0.208667
0.494224 0.484993 0.253559
0.777173 0.517418 0.309941
0.949569 0.528161 0.313069
0.460410 0.640299 0.206836
0.474113 0.651347 0.214862
0.518059 0.685557 0.250385
0.708736 0.727382 0.333440
0.918303 0.754864 0.426627
0.668986 0.810330 0.340246
0.680156 0.817716 0.348348
0.709483 0.839155 0.377081
0.770123 0.878965 0.438132
0.846876 0.924163 0.532647
0.112306 0.161273 0.327459
0.185702 0.205478 0.379202
0.490364 0.260716 0.387732
0.737835 0.324987 0.368551
0.947234 0.194888 0.241260
0.105974 0.259403 0.438087
0.249805 0.289525 0.460395
0.529946 0.320851 0.460304
0.761364 0.386145 0.434104
0.926818 0.259403 0.289372
0.024186 0.481147 0.523156
0.204883 0.490303 0.500267
0.516930 0.521462 0.518441
0.785336 0.548699 0.547295
0.916960 0.580743 0.566476
0.467063 0.657130 0.416373
0.482872 0.668528 0.437064
0.537972 0.704051 0.493034
0.737911 0.742702 0.546365
0.934401 0.769909 0.601221
0.678431 0.821485 0.387716
0.687617 0.828046 0.399481
0.723995 0.854215 0.443610
0.788235 0.900160 0.526635
0.890379 0.947814 0.617227
0.180682 0.283955 0.492607
0.215518 0.308034 0.520638
0.414343 0.344533 0.526574
0.649424 0.410239 0.517220
0.880537 0.402457 0.435996
0.212650 0.349630 0.573541
0.251072 0.366751 0.587976
0.443778 0.399893 0.578668
0.670939 0.464027 0.568170
0.870970 0.510506 0.550637
0.220661 0.522362 0.689952
0.274846 0.535805 0.708827
0.510307 0.564446 0.710964
0.747723 0.597864 0.679438
0.906249 0.639368 0.678218
0.258549 0.686854 0.736477
0.380499 0.705257 0.745815
0.558740 0.736385 0.745296
0.763729 0.770474 0.766278
0.948119 0.793439 0.782620
0.716228 0.843992 0.639597
0.726726 0.852003 0.649653
0.761501 0.877790 0.683772
0.827359 0.922072 0.735973
0.934493 0.965087 0.795346
0.226520 0.361700 0.585199
0.247562 0.373800 0.596277
0.335348 0.404425 0.613352
0.552163 0.479744 0.633478
0.846952 0.555703 0.610056
0.251545 0.393744 0.614740
0.273930 0.406744 0.625101
0.378698 0.461173 0.655283
0.573083 0.515465 0.663951
0.852583 0.589654 0.644770
0.302770 0.574624 0.757687
0.326925 0.589410 0.771649
0.440238 0.622827 0.806790
0.616342 0.666758 0.814405
0.885725 0.681575 0.730449
0.375998 0.726864 0.861753
0.393408 0.735714 0.869673
0.502525 0.765133 0.902525
0.738384 0.814694 0.936553
0.901961 0.839231 0.894011
0.637720 0.866514 0.929595
0.652827 0.872679 0.932082
0.709667 0.893996 0.937285
0.830106 0.940551 0.946273
0.961563 0.973510 0.960571
