app/src/main/assets/filters/cc.cube
# Created from cc.plut
LUT_3D_SIZE 33
DOMAIN_MIN 0.0 0.0 0.0
DOMAIN_MAX 1.0 1.0 1.0
0.016648 0.016602 0.017746
0.021225 0.016815 0.017472
0.031556 0.017563 0.017487
0.048875 0.019135 0.018402
0.072679 0.021546 0.020417
0.101869 0.024781 0.023316
0.136538 0.028702 0.026764
0.175372 0.032959 0.030518
0.218296 0.037537 0.035080
0.261540 0.042618 0.040879
0.304845 0.048554 0.048173
0.346517 0.054597 0.055741
0.387030 0.060090 0.063157
0.425498 0.064942 0.070558
0.462547 0.069993 0.078706
0.498970 0.075578 0.087343
0.535653 0.081743 0.095628
0.572091 0.088075 0.102968
0.605875 0.095033 0.109804
0.633692 0.103288 0.117708
0.659480 0.112276 0.127428
0.688396 0.119692 0.136797
0.725017 0.123476 0.143191
0.760891 0.125002 0.146731
0.791791 0.127108 0.150958
0.815625 0.131380 0.157946
0.837690 0.137728 0.167636
0.859388 0.145449 0.178286
0.881147 0.153719 0.189273
0.902464 0.161608 0.200366
0.922164 0.168856 0.211353
0.938186 0.175418 0.220966
0.947311 0.179751 0.226780
0.017594 0.021118 0.019013
0.022370 0.021698 0.018967
0.033143 0.022934 0.019242
0.050919 0.024949 0.020249
0.075074 0.027726 0.022263
0.104463 0.031327 0.025269
0.138994 0.035523 0.029053
0.177600 0.040024 0.033371
0.219821 0.044678 0.038407
0.262715 0.049760 0.044556
0.305623 0.055344 0.051804
0.347250 0.060792 0.059159
0.387579 0.065415 0.066178
0.426062 0.069444 0.073289
0.463203 0.073716 0.081132
0.499565 0.078782 0.089647
0.536034 0.084611 0.097856
0.572000 0.090761 0.105165
0.605447 0.097520 0.111849
0.633143 0.105486 0.119600
0.658991 0.114122 0.129046
0.688106 0.121141 0.138048
0.724895 0.124758 0.144121
0.761074 0.126223 0.147448
0.792264 0.128344 0.151629
0.816403 0.132616 0.158618
0.838666 0.138979 0.168353
0.860365 0.146777 0.178988
0.881971 0.154971 0.189868
0.903044 0.162676 0.200824
0.922606 0.169680 0.211734
0.938582 0.176135 0.221332
0.947707 0.180407 0.227131
0.021225 0.032425 0.025147
0.026276 0.033448 0.025299
0.037629 0.035233 0.025589
0.055985 0.037675 0.026169
0.080385 0.040742 0.027436
0.109392 0.044617 0.029923
0.142809 0.049042 0.033722
0.180194 0.053727 0.038666
0.221042 0.058457 0.044480
0.263325 0.063539 0.051194
0.305806 0.068833 0.058412
0.347326 0.073838 0.065446
0.387381 0.077836 0.071885
0.425681 0.081086 0.078553
0.462913 0.084031 0.085908
0.499413 0.087572 0.094316
0.535821 0.091814 0.102434
0.571252 0.096925 0.109773
0.604089 0.102876 0.116197
0.631647 0.110155 0.123598
0.657771 0.117983 0.132479
0.687343 0.124331 0.140826
0.724392 0.127550 0.146319
0.760967 0.128908 0.149294
0.792767 0.130907 0.153262
0.817548 0.135073 0.160159
0.840299 0.141405 0.169818
0.862089 0.149248 0.180362
0.883497 0.157259 0.190997
0.904204 0.164630 0.201740
0.923552 0.171221 0.212528
0.939406 0.177523 0.222095
0.948425 0.181689 0.227878
0.028870 0.051621 0.038437
0.034180 0.052827 0.038437
0.046067 0.054719 0.038071
0.064927 0.057069 0.037232
0.089128 0.059876 0.036484
0.116655 0.063432 0.037034
0.147265 0.067613 0.039734
0.181674 0.072267 0.044617
0.220172 0.077348 0.051209
0.261387 0.082933 0.058808
0.303792 0.088426 0.066331
0.345830 0.093233 0.072984
0.386450 0.096666 0.078538
0.425010 0.099260 0.084337
0.462287 0.101213 0.090913
0.498817 0.103517 0.099107
0.535088 0.106081 0.107347
0.570047 0.109377 0.115236
0.602152 0.113375 0.121981
0.629709 0.118868 0.129320
0.656214 0.125170 0.137514
0.686107 0.130526 0.145190
0.722744 0.133211 0.150317
0.759350 0.134340 0.153307
0.791836 0.136004 0.157153
0.817853 0.139803 0.163684
0.841611 0.145708 0.172793
0.863844 0.153140 0.182773
0.885313 0.160555 0.192859
0.905852 0.167361 0.203250
0.925048 0.173510 0.213886
0.940642 0.179568 0.223377
0.949432 0.183627 0.229084
0.039521 0.079164 0.059480
0.045014 0.080049 0.058839
0.057298 0.081300 0.056977
0.076600 0.082673 0.053620
0.100664 0.084321 0.049683
0.126482 0.086778 0.046967
0.153689 0.090135 0.047150
0.184039 0.094224 0.050507
0.219532 0.098939 0.056626
0.259342 0.104250 0.064286
0.302007 0.109621 0.071977
0.344762 0.114549 0.078492
0.386297 0.118395 0.083497
0.425360 0.121508 0.088457
0.463020 0.123583 0.094087
0.499855 0.125414 0.101595
0.535943 0.126986 0.109758
0.570382 0.128954 0.118181
0.601877 0.131228 0.125536
0.629999 0.134752 0.132753
0.657145 0.139193 0.140063
0.686564 0.143191 0.147326
0.720836 0.144778 0.153338
0.755612 0.144793 0.158251
0.787945 0.145113 0.163378
0.815488 0.147845 0.170108
0.840894 0.152819 0.178347
0.864286 0.159289 0.187182
0.886503 0.165499 0.196185
0.907454 0.171252 0.205829
0.926833 0.176699 0.216022
0.942138 0.182345 0.225208
0.950591 0.186160 0.230701
0.051133 0.110811 0.083345
0.056687 0.111238 0.081971
0.069276 0.111604 0.078492
0.089174 0.111742 0.072526
0.113542 0.111925 0.065141
0.138323 0.112963 0.058701
0.162478 0.115221 0.055451
0.188510 0.118547 0.056031
0.220294 0.122728 0.060365
0.258015 0.127520 0.067140
0.300450 0.132418 0.074708
0.343969 0.136919 0.081239
0.386862 0.140627 0.086259
0.427466 0.143908 0.090700
0.466316 0.146761 0.095323
0.503853 0.149554 0.101274
0.539834 0.151965 0.108385
0.573968 0.153918 0.116548
0.605447 0.155306 0.124254
0.634653 0.157122 0.131121
0.662379 0.159899 0.137301
0.690196 0.162860 0.144015
0.719997 0.164004 0.151736
0.750622 0.163317 0.160403
0.781033 0.162127 0.169299
0.809567 0.162707 0.178225
0.836698 0.165286 0.186648
0.861952 0.169345 0.194507
0.885603 0.173419 0.202106
0.907881 0.177432 0.210483
0.928084 0.181628 0.219638
0.943389 0.186191 0.227893
0.951507 0.189349 0.232776
0.063386 0.144137 0.106218
0.069093 0.144244 0.104295
0.081956 0.143969 0.099519
0.102358 0.143099 0.091386
0.127169 0.141955 0.081071
0.151537 0.141665 0.071397
0.173465 0.142824 0.064897
0.195590 0.145342 0.062455
0.223178 0.148684 0.064088
0.258045 0.152575 0.068910
0.299397 0.156710 0.075547
0.342901 0.160861 0.082124
0.386374 0.164752 0.087922
0.428229 0.168322 0.092988
0.468833 0.171481 0.097551
0.508080 0.174319 0.101961
0.545174 0.177096 0.106828
0.580011 0.179767 0.112596
0.612421 0.181933 0.118700
0.643168 0.183597 0.123964
0.671611 0.185534 0.128573
0.697704 0.187823 0.134401
0.722591 0.189517 0.143648
0.747906 0.189654 0.156237
0.774716 0.188617 0.169818
0.802548 0.187778 0.182559
0.830289 0.187701 0.193256
0.856733 0.188373 0.202121
0.881804 0.188861 0.209735
0.905760 0.189425 0.217334
0.927474 0.190463 0.225238
0.943282 0.192569 0.232120
0.951324 0.194354 0.236149
0.081102 0.176822 0.121340
0.086671 0.176989 0.119188
0.098909 0.176730 0.113970
0.118166 0.175738 0.105135
0.141405 0.174197 0.093782
0.163928 0.173236 0.082658
0.183261 0.173495 0.074220
0.201907 0.175036 0.069429
0.225635 0.177401 0.068498
0.257527 0.180362 0.071000
0.297124 0.183856 0.076188
0.340230 0.187747 0.082536
0.383841 0.191775 0.089189
0.426490 0.195560 0.095537
0.468208 0.198779 0.101122
0.509148 0.201297 0.105531
0.548241 0.203479 0.108904
0.585092 0.205600 0.111955
0.619257 0.207523 0.115114
0.651270 0.208942 0.118044
0.680247 0.210575 0.121111
0.705623 0.213138 0.125841
0.727947 0.216922 0.134737
0.749752 0.220325 0.147997
0.773098 0.222232 0.163806
0.798779 0.222278 0.179553
0.825269 0.221332 0.193545
0.851148 0.219974 0.205249
0.876097 0.217731 0.215045
0.900557 0.214343 0.223850
0.923156 0.210254 0.232013
0.939727 0.207095 0.238514
0.948165 0.205539 0.242161
0.104997 0.209201 0.127001
0.109972 0.209369 0.124758
0.120333 0.209232 0.119738
0.136095 0.208423 0.111589
0.154711 0.207065 0.101305
0.172900 0.205936 0.090929
0.188739 0.205631 0.082444
0.204639 0.206256 0.076600
0.225620 0.207568 0.073747
0.255268 0.209552 0.074037
0.293339 0.212467 0.077409
0.336095 0.216419 0.083085
0.379706 0.221042 0.089906
0.422522 0.225559 0.097185
0.464332 0.229145 0.104021
0.505898 0.231479 0.109957
0.546563 0.232853 0.113970
0.585794 0.233814 0.116091
0.622171 0.234684 0.116838
0.655558 0.235340 0.117449
0.685222 0.236561 0.119341
0.711360 0.239124 0.123522
0.734203 0.244114 0.131350
0.755703 0.250202 0.142367
0.777554 0.255848 0.155978
0.800916 0.259434 0.170855
0.824964 0.261036 0.186206
0.848508 0.261036 0.200839
0.871458 0.258778 0.213962
0.894179 0.253361 0.225681
0.915709 0.244999 0.236072
0.932158 0.236606 0.244419
0.940932 0.231403 0.249134
0.131655 0.239689 0.123995
0.135409 0.239826 0.121950
0.142641 0.239841 0.117830
0.153048 0.239460 0.111635
0.165087 0.238743 0.104128
0.177386 0.238071 0.096300
0.189380 0.237827 0.089265
0.203418 0.237964 0.083360
0.223117 0.238422 0.079179
0.251408 0.239521 0.077470
0.287999 0.241886 0.079103
0.330205 0.245762 0.083833
0.374044 0.250675 0.090364
0.417517 0.255756 0.097688
0.459480 0.260075 0.104891
0.500862 0.263233 0.112169
0.541588 0.265003 0.118181
0.581918 0.265583 0.122271
0.619974 0.265232 0.123461
0.654871 0.264683 0.123461
0.685679 0.265064 0.124559
0.713375 0.267338 0.128496
0.738460 0.272007 0.135241
0.762036 0.278157 0.143450
0.784680 0.284794 0.153002
0.807156 0.290822 0.164080
0.829389 0.296193 0.177234
0.850538 0.300481 0.191623
0.870451 0.302617 0.206271
0.889540 0.300237 0.220737
0.907759 0.293050 0.234424
0.922774 0.283452 0.246174
0.931395 0.276814 0.253117
0.153277 0.267811 0.118654
0.155703 0.267872 0.117082
0.160113 0.267918 0.114153
0.166094 0.267826 0.110048
0.172885 0.267720 0.105272
0.180499 0.267735 0.100145
0.189395 0.268055 0.095079
0.201892 0.268437 0.089784
0.220264 0.268864 0.084932
0.247013 0.269657 0.081605
0.281773 0.271611 0.081544
0.322988 0.275166 0.084932
0.366751 0.279973 0.090761
0.411078 0.285298 0.097704
0.453819 0.290288 0.104509
0.495430 0.294560 0.111742
0.535607 0.297673 0.118898
0.575586 0.299351 0.125719
0.614115 0.299397 0.129976
0.650355 0.298528 0.131884
0.682841 0.298131 0.133394
0.712444 0.299351 0.137118
0.739864 0.302342 0.143206
0.765850 0.306401 0.149798
0.790356 0.311315 0.156313
0.813489 0.316930 0.163470
0.835508 0.323384 0.172747
0.855634 0.330282 0.184161
0.873579 0.336889 0.197208
0.889357 0.340795 0.211688
0.903899 0.340963 0.227085
0.916411 0.337728 0.241733
0.924056 0.334829 0.251011
0.169482 0.294285 0.115084
0.170977 0.294469 0.114092
0.173648 0.294713 0.112230
0.177157 0.295018 0.109697
0.181323 0.295491 0.106783
0.186419 0.296269 0.103639
0.193256 0.297398 0.100191
0.203632 0.298451 0.095750
0.219440 0.299260 0.090837
0.243244 0.300099 0.086458
0.275334 0.301793 0.084932
0.314839 0.304875 0.086763
0.357961 0.309178 0.091722
0.402670 0.314305 0.098299
0.446632 0.319463 0.104952
0.489494 0.324361 0.111406
0.530205 0.328527 0.117998
0.569497 0.331792 0.125612
0.607431 0.333455 0.132815
0.643915 0.333730 0.138384
0.677729 0.333455 0.142321
0.709041 0.333989 0.146792
0.738308 0.335424 0.152422
0.766247 0.337331 0.158373
0.792645 0.339605 0.163546
0.817319 0.342718 0.168353
0.840391 0.347295 0.174090
0.861082 0.353597 0.181704
0.878737 0.361898 0.191745
0.893080 0.371008 0.204639
0.905470 0.379706 0.220111
0.916030 0.385946 0.235889
0.922713 0.389334 0.246342
0.183673 0.321859 0.114092
0.184695 0.322164 0.113558
0.186572 0.322637 0.112474
0.189075 0.323247 0.110933
0.192203 0.324117 0.109056
0.196094 0.325338 0.107027
0.201282 0.326894 0.104616
0.209064 0.328420 0.101167
0.221164 0.329717 0.096849
0.240757 0.330846 0.092348
0.269108 0.332418 0.089799
0.306371 0.334981 0.090105
0.348531 0.338598 0.093645
0.393194 0.343175 0.099351
0.437583 0.348211 0.105882
0.481544 0.353384 0.112169
0.523674 0.358145 0.118029
0.563684 0.362387 0.124697
0.601450 0.365637 0.132509
0.637263 0.367651 0.140780
0.671305 0.368658 0.148409
0.703532 0.369451 0.155505
0.734249 0.370367 0.162280
0.763714 0.371267 0.168215
0.791745 0.371939 0.172702
0.818036 0.372793 0.176135
0.842527 0.374487 0.179797
0.864576 0.378027 0.184909
0.883497 0.384558 0.192386
0.898604 0.394629 0.203174
0.910979 0.407568 0.217762
0.920821 0.420264 0.233539
0.926864 0.428458 0.244404
0.198795 0.350225 0.114153
0.199512 0.350591 0.113878
0.200855 0.351156 0.113252
0.202670 0.351919 0.112383
0.205081 0.352987 0.111238
0.208148 0.354467 0.109941
0.212070 0.356283 0.108309
0.217517 0.358190 0.105943
0.226047 0.359945 0.102708
0.240909 0.361563 0.098863
0.264607 0.363333 0.095872
0.298283 0.365667 0.094972
0.338842 0.368688 0.096971
0.383062 0.372534 0.101488
0.427726 0.376944 0.107485
0.471946 0.381796 0.113725
0.515328 0.386648 0.119432
0.556756 0.391302 0.125032
0.595804 0.395560 0.131609
0.631556 0.399115 0.139940
0.665248 0.401816 0.149584
0.697246 0.403845 0.159899
0.728481 0.405417 0.169802
0.758923 0.406455 0.177981
0.788357 0.406714 0.183276
0.816205 0.406607 0.186114
0.841993 0.406622 0.188388
0.865400 0.408011 0.192035
0.885939 0.411872 0.198276
0.903029 0.419837 0.207996
0.916960 0.431968 0.221637
0.927489 0.445487 0.236622
0.933608 0.454688 0.247013
0.215549 0.378607 0.114199
0.216022 0.378958 0.114076
0.216907 0.379553 0.113802
0.218204 0.380407 0.113390
0.220005 0.381613 0.112810
0.222416 0.383200 0.112032
0.225467 0.385107 0.110979
0.229480 0.387198 0.109483
0.235370 0.389334 0.107393
0.245731 0.391485 0.104692
0.263828 0.393713 0.102098
0.292180 0.396262 0.100816
0.329534 0.399176 0.101823
0.372595 0.402518 0.105150
0.417197 0.406226 0.110124
0.461357 0.410422 0.116152
0.504753 0.414969 0.122301
0.547265 0.419623 0.128176
0.588342 0.424247 0.133761
0.626001 0.428595 0.140398
0.660212 0.432639 0.149081
0.691691 0.436210 0.160235
0.722377 0.439170 0.172595
0.752850 0.441215 0.183886
0.782956 0.441993 0.192050
0.811902 0.441947 0.196841
0.838834 0.441627 0.199969
0.863478 0.442191 0.203479
0.885603 0.444266 0.208865
0.904952 0.449332 0.217151
0.921111 0.457969 0.229129
0.933165 0.468482 0.242481
0.939834 0.475990 0.251881
0.234089 0.405661 0.114153
0.234455 0.406027 0.114153
0.235142 0.406653 0.114092
0.236179 0.407584 0.113954
0.237720 0.408865 0.113725
0.239826 0.410590 0.113375
0.242420 0.412619 0.112840
0.245594 0.414893 0.112108
0.249851 0.417411 0.111086
0.256825 0.420203 0.109560
0.269612 0.423178 0.107744
0.291218 0.426337 0.106600
0.322927 0.429526 0.107118
0.362493 0.432792 0.109728
0.406348 0.435966 0.113878
0.450431 0.439384 0.119295
0.493538 0.443259 0.125505
0.535653 0.447700 0.132097
0.577798 0.452445 0.138415
0.618219 0.457160 0.144579
0.655131 0.461784 0.151339
0.687587 0.466270 0.160159
0.717662 0.470451 0.171328
0.747127 0.473915 0.183810
0.776699 0.476127 0.195254
0.805753 0.477226 0.204334
0.833280 0.477668 0.211414
0.858915 0.478340 0.217685
0.882444 0.479713 0.224109
0.903838 0.482719 0.231403
0.922271 0.487907 0.240757
0.936202 0.494575 0.251087
0.943816 0.499489 0.258518
0.254917 0.432303 0.115343
0.255329 0.432761 0.115404
0.256077 0.433539 0.115419
0.257145 0.434607 0.115373
0.258610 0.435996 0.115328
0.260502 0.437766 0.115251
0.262806 0.439826 0.115068
0.265537 0.442145 0.114809
0.268925 0.444800 0.114488
0.273762 0.447913 0.113939
0.282185 0.451392 0.113130
0.297078 0.455100 0.112444
0.321294 0.458793 0.112764
0.354788 0.462348 0.114595
0.395377 0.465583 0.118212
0.438804 0.468650 0.123278
0.481666 0.471992 0.129595
0.523262 0.475944 0.136629
0.564736 0.480644 0.144289
0.607004 0.485618 0.151873
0.647318 0.490654 0.158801
0.683177 0.495506 0.165286
0.714214 0.500237 0.172427
0.742947 0.504540 0.181872
0.771099 0.508080 0.193286
0.799130 0.510735 0.205936
0.826322 0.512703 0.218723
0.852384 0.514504 0.231006
0.876997 0.516350 0.241947
0.900008 0.518379 0.250645
0.920378 0.521157 0.258534
0.936126 0.524529 0.265873
0.944778 0.527138 0.271199
0.277592 0.459205 0.118715
0.278096 0.459724 0.118837
0.278904 0.460563 0.118898
0.279927 0.461616 0.118914
0.281224 0.462943 0.118929
0.282856 0.464637 0.119036
0.284901 0.466636 0.119158
0.287404 0.468971 0.119310
0.290593 0.471748 0.119585
0.294682 0.475105 0.119783
0.300587 0.478889 0.119707
0.310277 0.482948 0.119387
0.327001 0.487022 0.119387
0.352621 0.490990 0.120180
0.387228 0.494621 0.122759
0.427604 0.497826 0.126940
0.469902 0.500908 0.132982
0.510994 0.504417 0.140032
0.551369 0.508843 0.148898
0.592859 0.513939 0.158709
0.635401 0.519203 0.168032
0.675380 0.524208 0.174899
0.710170 0.528985 0.179751
0.739895 0.533639 0.185245
0.767193 0.538033 0.193317
0.793637 0.542016 0.205035
0.819669 0.545602 0.220188
0.845136 0.548943 0.238010
0.869871 0.552071 0.256016
0.893797 0.554559 0.270756
0.915602 0.556619 0.281651
0.932891 0.558206 0.289006
0.942535 0.559335 0.293446
0.300984 0.486122 0.124666
0.301488 0.486625 0.124788
0.302312 0.487434 0.124880
0.303334 0.488411 0.124895
0.304555 0.489647 0.124956
0.306065 0.491203 0.125185
0.308019 0.493156 0.125536
0.310506 0.495491 0.126024
0.313649 0.498283 0.126696
0.317449 0.501640 0.127443
0.322087 0.505394 0.127932
0.328786 0.509590 0.127977
0.339910 0.514015 0.127840
0.358190 0.518517 0.127642
0.384955 0.522759 0.128801
0.419547 0.526436 0.131395
0.458808 0.529686 0.136492
0.499413 0.532906 0.142977
0.539010 0.536934 0.151888
0.579065 0.541817 0.162676
0.620447 0.547204 0.174456
0.662547 0.552392 0.184680
0.701350 0.557290 0.191638
0.735180 0.561990 0.196521
0.763958 0.566613 0.201175
0.790265 0.571176 0.208637
0.815091 0.575708 0.220691
0.839246 0.580346 0.238880
0.862776 0.584924 0.261662
0.886305 0.588602 0.284565
0.908721 0.591287 0.303868
0.927337 0.592813 0.317128
0.937972 0.593698 0.324208
0.324788 0.512581 0.132769
0.325231 0.513008 0.132937
0.325948 0.513680 0.133089
0.326879 0.514504 0.133181
0.328008 0.515526 0.133257
0.329473 0.516915 0.133532
0.331456 0.518746 0.134020
0.334096 0.521096 0.134783
0.337438 0.523964 0.135729
0.341421 0.527367 0.136812
0.346044 0.531197 0.137713
0.351873 0.535546 0.138277
0.360159 0.540230 0.138460
0.372946 0.545113 0.138079
0.392096 0.549828 0.137957
0.418616 0.554055 0.138415
0.451759 0.557671 0.141176
0.489265 0.561013 0.146136
0.528161 0.564660 0.154192
0.566827 0.569100 0.164706
0.605829 0.574182 0.177386
0.646189 0.579507 0.190768
0.686900 0.584588 0.202579
0.725109 0.589487 0.211276
0.758434 0.594217 0.216526
0.787411 0.598947 0.220661
0.812879 0.603784 0.227008
0.836103 0.609003 0.239780
0.857527 0.614542 0.260990
0.879088 0.619577 0.288533
0.900664 0.623697 0.317250
0.919799 0.626383 0.340505
0.931212 0.627863 0.353643
0.349691 0.537911 0.141634
0.350088 0.538308 0.141878
0.350820 0.538964 0.142214
0.351797 0.539773 0.142489
0.353063 0.540795 0.142702
0.354742 0.542168 0.143053
0.357015 0.544091 0.143664
0.360006 0.546593 0.144656
0.363546 0.549554 0.145815
0.367636 0.552941 0.147082
0.372320 0.556710 0.148257
0.378103 0.561059 0.149294
0.385290 0.565835 0.150118
0.394873 0.570901 0.150301
0.407935 0.575982 0.150317
0.426368 0.580743 0.149905
0.450919 0.584985 0.150881
0.482322 0.588693 0.153597
0.518257 0.592264 0.159335
0.556207 0.596201 0.167773
0.592935 0.600793 0.179232
0.630076 0.605936 0.193927
0.668498 0.611200 0.209995
0.708751 0.616297 0.224537
0.746868 0.621118 0.234363
0.781338 0.625788 0.239521
0.810544 0.630472 0.242710
0.835065 0.635569 0.249027
0.855344 0.641337 0.263920
0.874388 0.647333 0.289464
0.893767 0.653010 0.322408
0.912123 0.657450 0.353735
0.923629 0.660014 0.373053
0.376898 0.563363 0.151873
0.377371 0.563821 0.152285
0.378164 0.564553 0.152865
0.379202 0.565423 0.153368
0.380468 0.566415 0.153765
0.382223 0.567803 0.154208
0.384695 0.569772 0.154925
0.387945 0.572396 0.156023
0.391730 0.575418 0.157275
0.395956 0.578729 0.158556
0.400763 0.582406 0.159884
0.406485 0.586587 0.161349
0.413031 0.591211 0.162966
0.420554 0.596078 0.164263
0.429587 0.601099 0.165332
0.441642 0.606073 0.165469
0.458381 0.610819 0.165805
0.481788 0.615167 0.166903
0.512169 0.619196 0.170153
0.547005 0.623148 0.175647
0.582330 0.627344 0.184405
0.616281 0.632105 0.197559
0.650919 0.637278 0.214984
0.688518 0.642664 0.233738
0.728618 0.647852 0.249943
0.768017 0.652613 0.260166
0.803403 0.656977 0.265064
0.832547 0.661494 0.268315
0.855131 0.666987 0.276921
0.873518 0.673579 0.295933
0.890532 0.680613 0.325414
0.906401 0.686641 0.357244
0.916625 0.690196 0.378378
0.406439 0.589105 0.163256
0.407095 0.589700 0.163775
0.408118 0.590585 0.164553
0.409232 0.591531 0.165255
0.410452 0.592523 0.165805
0.412161 0.593881 0.166430
0.414603 0.595926 0.167376
0.417807 0.598642 0.168734
0.421363 0.601617 0.170230
0.425223 0.604700 0.171679
0.429496 0.607980 0.173144
0.434623 0.611734 0.174746
0.440299 0.615930 0.176791
0.446601 0.620539 0.179004
0.453513 0.625528 0.181552
0.462058 0.630762 0.183474
0.473381 0.636027 0.185046
0.489693 0.641016 0.186084
0.512551 0.645670 0.187411
0.541497 0.649958 0.189715
0.573373 0.654124 0.194858
0.605066 0.658518 0.204837
0.636439 0.663416 0.220630
0.670024 0.668940 0.240406
0.707652 0.674586 0.260838
0.747951 0.679698 0.277012
0.787884 0.683848 0.287114
0.823453 0.687617 0.292515
0.852705 0.692287 0.299092
0.874708 0.698421 0.312245
0.891707 0.705547 0.334127
0.904906 0.711925 0.359472
0.912932 0.715755 0.377096
0.436454 0.615366 0.177157
0.437232 0.615991 0.177615
0.438300 0.616876 0.178286
0.439307 0.617716 0.178943
0.440253 0.618524 0.179538
0.441596 0.619715 0.180346
0.443671 0.621561 0.181537
0.446494 0.624109 0.183169
0.449699 0.626886 0.184909
0.453223 0.629770 0.186618
0.457176 0.632807 0.188296
0.461875 0.636347 0.190143
0.466972 0.640253 0.192416
0.472496 0.644587 0.195193
0.478523 0.649317 0.198459
0.485664 0.654475 0.201556
0.494514 0.659876 0.204196
0.506142 0.665339 0.206134
0.522301 0.670710 0.207340
0.543725 0.675746 0.208331
0.569741 0.680369 0.210788
0.597589 0.684825 0.216876
0.626062 0.689631 0.228733
0.655833 0.695232 0.246128
0.689220 0.701274 0.267369
0.726101 0.706828 0.287602
0.765881 0.711208 0.303685
0.805386 0.714641 0.314580
0.841947 0.718456 0.323766
0.870878 0.723140 0.334646
0.891493 0.728527 0.349920
0.904555 0.733227 0.366949
0.911376 0.736034 0.378958
0.465309 0.640742 0.192828
0.466041 0.641276 0.193103
0.467002 0.642023 0.193545
0.467811 0.642679 0.194003
0.468574 0.643320 0.194553
0.469703 0.644343 0.195407
0.471550 0.646052 0.196765
0.474083 0.648386 0.198581
0.476997 0.651026 0.200580
0.480308 0.653834 0.202564
0.484108 0.656840 0.204456
0.488609 0.660288 0.206394
0.493416 0.664042 0.208682
0.498665 0.668238 0.211658
0.504555 0.672923 0.215244
0.511437 0.678141 0.219074
0.519249 0.683619 0.222568
0.528283 0.689174 0.225391
0.539590 0.694774 0.227298
0.554681 0.700359 0.228489
0.573983 0.705608 0.229877
0.596902 0.710597 0.233158
0.621866 0.715572 0.240421
0.648600 0.721111 0.253162
0.677485 0.727108 0.271336
0.708797 0.732921 0.292180
0.743679 0.737881 0.312474
0.781384 0.741802 0.329656
0.820462 0.745251 0.344076
0.854658 0.748241 0.356527
0.880629 0.751019 0.369329
0.896925 0.753079 0.381460
0.904952 0.754284 0.389731
0.492744 0.665126 0.209491
0.493263 0.665522 0.209644
0.493980 0.666087 0.209903
0.494652 0.666636 0.210254
0.495399 0.667262 0.210788
0.496574 0.668269 0.211719
0.498451 0.669917 0.213138
0.500893 0.672099 0.214969
0.503792 0.674617 0.217029
0.507134 0.677394 0.219135
0.511086 0.680537 0.221302
0.515694 0.684123 0.223621
0.520668 0.687984 0.226169
0.525887 0.692073 0.229206
0.531548 0.696437 0.232547
0.537972 0.701213 0.236103
0.545144 0.706340 0.239475
0.553140 0.711818 0.242695
0.562295 0.717586 0.245533
0.573785 0.723583 0.247868
0.588006 0.729397 0.249714
0.605417 0.734997 0.251850
0.625467 0.740398 0.256062
0.648051 0.746059 0.264485
0.672740 0.751965 0.278248
0.698909 0.757870 0.296635
0.727291 0.763516 0.317556
0.758633 0.768505 0.338216
0.793118 0.772686 0.357061
0.826886 0.775494 0.372747
0.855756 0.777157 0.386862
0.876036 0.777798 0.398505
0.886519 0.778042 0.406027
0.520302 0.689220 0.227466
0.520684 0.689525 0.227619
0.521248 0.690013 0.227909
0.521935 0.690593 0.228336
0.522850 0.691356 0.228992
0.524285 0.692500 0.229969
0.526299 0.694148 0.231418
0.528740 0.696178 0.233173
0.531563 0.698528 0.235111
0.534829 0.701198 0.237110
0.538705 0.704311 0.239292
0.543130 0.707820 0.241779
0.547890 0.711528 0.244495
0.552956 0.715435 0.247578
0.558434 0.719554 0.250660
0.564660 0.724102 0.253956
0.571557 0.728985 0.257191
0.579202 0.734279 0.260624
0.587427 0.739818 0.263951
0.597070 0.745754 0.267109
0.608347 0.751781 0.269902
0.621881 0.757809 0.272496
0.637598 0.763577 0.275776
0.655634 0.769390 0.281544
0.675685 0.775280 0.291249
0.697047 0.781353 0.305623
0.719615 0.787518 0.323644
