app/src/main/assets/filters/cc.cube
# Created from cc.plut
LUT_3D_SIZE 9
DOMAIN_MIN 0.0 0.0 0.0
DOMAIN_MAX 1.0 1.0 1.0
0.016648 0.016602 0.017746
0.072679 0.021546 0.020417
0.218296 0.037537 0.035080
0.387030 0.060090 0.063157
0.535653 0.081743 0.095628
0.659480 0.112276 0.127428
0.791791 0.127108 0.150958
0.881147 0.153719 0.189273
0.947311 0.179751 0.226780
0.039521 0.079164 0.059480
0.100664 0.084321 0.049683
0.219532 0.098939 0.056626
0.386297 0.118395 0.083497
0.535943 0.126986 0.109758
0.657145 0.139193 0.140063
0.787945 0.145113 0.163378
0.886503 0.165499 0.196185
0.950591 0.186160 0.230701
0.104997 0.209201 0.127001
0.154711 0.207065 0.101305
0.225620 0.207568 0.073747
0.379706 0.221042 0.089906
0.546563 0.232853 0.113970
0.685222 0.236561 0.119341
0.777554 0.255848 0.155978
0.871458 0.258778 0.213962
0.940932 0.231403 0.249134
0.183673 0.321859 0.114092
0.192203 0.324117 0.109056
0.221164 0.329717 0.096849
0.348531 0.338598 0.093645
0.523674 0.358145 0.118029
0.671305 0.368658 0.148409
0.791745 0.371939 0.172702
0.883497 0.384558 0.192386
0.926864 0.428458 0.244404
0.254917 0.432303 0.115343
0.258610 0.435996 0.115328
0.268925 0.444800 0.114488
0.321294 0.458793 0.112764
0.481666 0.471992 0.129595
0.647318 0.490654 0.158801
0.771099 0.508080 0.193286
0.876997 0.516350 0.241947
0.944778 0.527138 0.271199
0.349691 0.537911 0.141634
0.353063 0.540795 0.142702
0.363546 0.549554 0.145815
0.385290 0.565835 0.150118
0.450919 0.584985 0.150881
0.592935 0.600793 0.179232
0.746868 0.621118 0.234363
0.855344 0.641337 0.263920
0.923629 0.660014 0.373053
0.465309 0.640742 0.192828
0.468574 0.643320 0.194553
0.476997 0.651026 0.200580
0.493416 0.664042 0.208682
0.519249 0.683619 0.222568
0.573983 0.705608 0.229877
0.677485 0.727108 0.271336
0.820462 0.745251 0.344076
0.904952 0.754284 0.389731
0.576242 0.737545 0.268208
0.578882 0.739651 0.270069
0.587381 0.746059 0.276127
0.601953 0.756909 0.284459
0.624460 0.772442 0.296040
0.655680 0.792874 0.312688
0.700603 0.816907 0.335195
0.763149 0.844724 0.380667
0.819135 0.868360 0.439979
0.670298 0.809979 0.333822
0.672160 0.811246 0.335576
0.678523 0.815473 0.340169
0.691142 0.824537 0.350072
0.706218 0.835126 0.364340
0.731044 0.851026 0.386557
0.766384 0.871977 0.417990
0.803021 0.895155 0.461097
0.836316 0.915908 0.510430
0.023056 0.024247 0.060044
0.082597 0.033768 0.070146
0.221073 0.062379 0.082658
0.386694 0.086030 0.103395
0.534127 0.095003 0.111254
0.656031 0.116732 0.134096
0.792142 0.124971 0.152865
0.883146 0.151751 0.191012
0.949432 0.178393 0.227527
0.032639 0.086381 0.090105
0.091020 0.093950 0.094285
0.230442 0.110674 0.106157
0.393561 0.132235 0.127749
0.532296 0.136614 0.139712
0.649744 0.137896 0.151980
0.784848 0.146944 0.168765
0.887373 0.165057 0.198230
0.952346 0.185657 0.231571
0.075135 0.206622 0.145724
0.110872 0.208789 0.135866
0.218936 0.210803 0.114214
0.386236 0.225849 0.130739
0.547951 0.241749 0.154803
0.681056 0.235309 0.151461
0.771542 0.237461 0.186099
0.869474 0.239384 0.230426
0.942092 0.225345 0.253193
0.163653 0.319387 0.132525
0.172274 0.322560 0.128771
0.206195 0.330449 0.123247
0.355505 0.343297 0.129824
0.528298 0.361715 0.155581
0.675349 0.370855 0.178180
0.794629 0.372045 0.187747
0.885832 0.381262 0.202945
0.927810 0.417044 0.260075
0.249149 0.430457 0.122759
0.252476 0.434043 0.123644
0.262455 0.444144 0.127764
0.325429 0.460456 0.140246
0.489601 0.473487 0.155367
0.651911 0.491859 0.182254
0.776852 0.506203 0.210971
0.881544 0.513863 0.249454
0.946868 0.525383 0.277317
0.347906 0.537682 0.145403
0.351034 0.540291 0.146304
0.361608 0.549462 0.151019
0.383169 0.566125 0.160311
0.455360 0.585657 0.172061
0.602823 0.600626 0.198642
0.752621 0.621210 0.244327
0.859754 0.640208 0.276097
0.928023 0.658991 0.385519
0.463691 0.640314 0.195453
0.467643 0.643473 0.197192
0.476265 0.650874 0.202670
0.492744 0.664027 0.211124
0.518318 0.683879 0.225605
0.576059 0.705638 0.235492
0.688167 0.726375 0.283146
0.828153 0.744762 0.350515
0.909056 0.754192 0.396506
0.576165 0.737774 0.269001
0.579004 0.740063 0.271305
0.587320 0.746258 0.277333
0.601740 0.757290 0.286641
0.623575 0.772854 0.299947
0.654994 0.793423 0.316472
0.701625 0.817670 0.338170
0.767636 0.845365 0.386847
0.823529 0.868589 0.447105
0.669429 0.809705 0.336049
0.671962 0.811322 0.336797
0.678782 0.815763 0.341390
0.691737 0.825223 0.352071
0.706859 0.835981 0.367147
0.731304 0.852338 0.391012
0.767620 0.873899 0.423194
0.805127 0.897505 0.467063
0.839002 0.918303 0.517006
0.045212 0.053452 0.140078
0.082658 0.066590 0.158846
0.212009 0.100847 0.164233
0.391348 0.138964 0.202686
0.512810 0.149340 0.202884
0.637949 0.135363 0.156573
0.783703 0.135561 0.165454
0.882521 0.157351 0.199268
0.951461 0.181491 0.230823
0.042863 0.103670 0.183001
0.100221 0.114046 0.196948
0.238193 0.136278 0.203769
0.404852 0.164569 0.230716
0.524208 0.180728 0.227420
0.636027 0.166049 0.187961
0.771450 0.167224 0.194491
0.882551 0.172595 0.213123
0.955062 0.187350 0.235279
0.024949 0.208026 0.211734
0.080629 0.216052 0.215259
0.225971 0.231983 0.228519
0.395224 0.246326 0.242878
0.548486 0.266072 0.262516
0.665949 0.264790 0.264668
0.766629 0.239048 0.251484
0.864057 0.230106 0.256184
0.942763 0.225544 0.260288
0.121828 0.321279 0.202274
0.146807 0.327031 0.204837
0.203952 0.342840 0.223941
0.361975 0.359762 0.240421
0.531609 0.373846 0.257664
0.672404 0.386603 0.278279
0.788617 0.379690 0.276204
0.882338 0.355581 0.265858
0.927169 0.368841 0.296986
0.236530 0.432227 0.177142
0.240803 0.437125 0.185199
0.255848 0.451179 0.208667
0.327565 0.470603 0.238331
0.494224 0.484993 0.253559
0.650309 0.501946 0.279255
0.777173 0.517418 0.309941
0.882795 0.524147 0.316564
0.949569 0.528161 0.313069
0.340337 0.539086 0.177325
0.344671 0.543053 0.181491
0.356130 0.553613 0.196201
0.379232 0.571679 0.224735
0.458625 0.592355 0.258915
0.612284 0.606821 0.281621
0.755749 0.626291 0.311971
0.865827 0.643824 0.351049
0.935012 0.660014 0.415702
0.460410 0.640299 0.206836
0.464103 0.643137 0.208865
0.474113 0.651347 0.214862
0.490517 0.664668 0.226947
0.518059 0.685557 0.250385
0.580957 0.708797 0.288670
0.708736 0.727382 0.333440
0.842252 0.746273 0.379446
0.918303 0.754864 0.426627
0.575906 0.738659 0.273350
0.579538 0.741329 0.276158
0.587396 0.747234 0.282048
0.601144 0.758206 0.293614
0.622950 0.774304 0.309834
0.653635 0.795377 0.331792
0.703334 0.820371 0.358663
0.782132 0.847318 0.409369
0.839734 0.869749 0.475837
0.668986 0.810330 0.340246
0.672068 0.812436 0.342229
0.680156 0.817716 0.348348
0.693278 0.827283 0.360037
0.709483 0.839155 0.377081
0.734142 0.856626 0.403815
0.770123 0.878965 0.438132
0.811017 0.903716 0.482658
0.846876 0.924163 0.532647
0.080827 0.105653 0.238224
0.101793 0.117449 0.257267
0.189487 0.146471 0.268238
0.383459 0.178531 0.275837
0.495125 0.199573 0.291569
0.615381 0.224002 0.271122
0.769223 0.196811 0.223743
0.878004 0.186419 0.225544
0.950134 0.185489 0.234089
0.087175 0.141863 0.289876
0.119570 0.153475 0.304906
0.220768 0.180514 0.310842
0.390280 0.201144 0.310231
0.511360 0.230228 0.327749
0.632364 0.268605 0.317723
0.764187 0.248722 0.276753
0.874784 0.211185 0.247730
0.951690 0.191363 0.238087
0.032593 0.226139 0.330770
0.088441 0.235538 0.340612
0.237522 0.252811 0.353277
0.401541 0.268544 0.365988
0.547341 0.294011 0.378515
0.670024 0.324987 0.372961
0.775753 0.336034 0.369772
0.862989 0.272221 0.301717
0.938003 0.232258 0.266697
0.022919 0.344320 0.361730
0.054978 0.349645 0.359960
0.207736 0.363027 0.360922
0.375219 0.380819 0.377218
0.539849 0.393866 0.390280
0.676814 0.407507 0.407019
0.789410 0.410239 0.417777
0.874357 0.333043 0.340337
0.920882 0.317861 0.314076
0.225925 0.448936 0.319738
0.245991 0.453300 0.320394
0.278279 0.467063 0.338918
0.343832 0.487434 0.370413
0.503731 0.502403 0.385183
0.656443 0.515206 0.401221
0.779049 0.531884 0.424430
0.873899 0.532708 0.423209
0.942214 0.528985 0.374899
0.344381 0.550927 0.287083
0.349401 0.555184 0.295827
0.362737 0.566155 0.317067
0.388251 0.584054 0.351217
0.466377 0.604120 0.383459
0.621317 0.617990 0.399771
0.757626 0.636439 0.427619
0.868437 0.654673 0.463416
0.938033 0.672984 0.495781
0.456794 0.643565 0.265095
0.461051 0.647013 0.270909
0.471489 0.655116 0.285451
0.491722 0.669947 0.311589
0.524773 0.691691 0.353399
0.592386 0.716030 0.399863
0.723857 0.733089 0.430991
0.852079 0.750500 0.466606
0.927855 0.759335 0.506844
0.576822 0.741238 0.289586
0.579919 0.743908 0.293019
0.587625 0.750011 0.300160
0.601770 0.760525 0.314229
0.624811 0.777523 0.340505
0.656916 0.799390 0.378958
0.710277 0.826032 0.429877
0.806958 0.850278 0.474083
0.873320 0.872251 0.540810
0.670756 0.813550 0.354330
0.674434 0.816098 0.357549
0.683070 0.822141 0.365682
0.694972 0.831083 0.377829
0.712947 0.844068 0.395224
0.740856 0.864164 0.429252
0.775311 0.887678 0.469413
0.820722 0.914809 0.516548
0.863767 0.934127 0.562402
0.112306 0.161273 0.327459
0.126467 0.171466 0.342351
0.185702 0.205478 0.379202
0.331868 0.236210 0.387991
0.490364 0.260716 0.387732
0.578836 0.303899 0.415717
0.737835 0.324987 0.368551
0.863615 0.252674 0.286442
0.947234 0.194888 0.241260
0.126085 0.191150 0.368688
0.145144 0.203159 0.385351
0.211337 0.230243 0.407874
0.342962 0.251591 0.409476
0.505272 0.282353 0.415244
0.595041 0.315038 0.421454
0.743908 0.348623 0.393912
0.858824 0.288289 0.321035
0.945724 0.206561 0.249760
0.105974 0.259403 0.438087
0.147601 0.270314 0.452750
0.249805 0.289525 0.460395
0.384329 0.302617 0.465248
0.529946 0.320851 0.460304
0.638239 0.351781 0.440101
0.761364 0.386145 0.434104
0.849500 0.360967 0.393378
0.926818 0.259403 0.289372
0.045579 0.362982 0.466377
0.075990 0.367849 0.473457
0.214282 0.380285 0.485359
0.383230 0.397162 0.499214
0.541909 0.413703 0.508385
0.670497 0.435142 0.505364
0.783566 0.452689 0.499580
0.858198 0.443793 0.476127
0.909865 0.367651 0.383764
0.024186 0.481147 0.523156
0.047822 0.484382 0.518898
0.204883 0.490303 0.500267
0.363867 0.504997 0.502052
0.516930 0.521462 0.518441
0.664012 0.533440 0.530602
0.785336 0.548699 0.547295
0.871550 0.567315 0.572900
0.916960 0.580743 0.566476
0.291493 0.575326 0.472984
0.314809 0.577523 0.467796
0.369223 0.584924 0.464958
0.410269 0.599985 0.484840
0.483604 0.619287 0.513313
0.632258 0.633234 0.528008
0.766766 0.649134 0.546197
0.873838 0.666011 0.570672
0.943542 0.686030 0.595407
0.467063 0.657130 0.416373
0.472160 0.660761 0.422324
0.482872 0.668528 0.437064
0.505028 0.683467 0.461891
0.537972 0.704051 0.493034
0.607446 0.726726 0.525063
0.737911 0.742702 0.546365
0.858991 0.760067 0.576837
0.934401 0.769909 0.601221
0.581765 0.746258 0.363867
0.585595 0.748974 0.369421
0.594675 0.755276 0.382834
0.611673 0.766613 0.406638
0.638010 0.784131 0.442771
0.674540 0.807752 0.490013
0.725628 0.833860 0.535790
0.832258 0.855695 0.570886
0.907927 0.874922 0.613321
0.678431 0.821485 0.387716
0.680949 0.823377 0.391592
0.687617 0.828046 0.399481
0.700374 0.837186 0.414130
0.723995 0.854215 0.443610
0.753017 0.875349 0.482460
0.788235 0.900160 0.526635
0.834760 0.929229 0.576150
0.890379 0.947814 0.617227
0.143420 0.216083 0.404425
0.161791 0.228779 0.421210
0.197436 0.252384 0.447562
0.311315 0.276066 0.456825
0.451209 0.308675 0.470817
0.550790 0.320165 0.455558
0.704997 0.367147 0.436652
0.830716 0.368597 0.406195
0.933440 0.246464 0.283452
0.161486 0.245624 0.442420
0.177920 0.255406 0.454856
0.212619 0.275654 0.474800
0.329381 0.295567 0.479393
0.458854 0.320577 0.484230
0.558663 0.332509 0.466667
0.718471 0.380789 0.446555
0.828199 0.390372 0.429389
0.924712 0.274571 0.307759
0.181872 0.309545 0.519982
0.197971 0.315496 0.527871
0.243183 0.330968 0.538476
0.363500 0.345434 0.533486
0.471687 0.359625 0.525536
0.587335 0.388022 0.515465
0.738323 0.417990 0.482658
0.830747 0.434760 0.476249
0.901839 0.360128 0.387350
0.155459 0.384558 0.570581
0.176486 0.391730 0.579767
0.262211 0.408606 0.592798
0.389975 0.426307 0.594247
0.508400 0.444877 0.599817
0.632654 0.466865 0.581369
0.754040 0.482048 0.547860
0.845457 0.509743 0.552819
0.891539 0.513466 0.546304
0.050172 0.500282 0.592065
0.067735 0.502724 0.598077
0.175738 0.508598 0.610681
0.366445 0.522316 0.620890
0.524025 0.538659 0.630365
0.664698 0.552621 0.631800
0.775677 0.573266 0.630091
0.873899 0.591424 0.631495
0.903136 0.620508 0.655634
0.017029 0.607538 0.663203
0.024628 0.609735 0.662425
0.088472 0.614527 0.652689
0.394369 0.618036 0.621851
0.506203 0.635157 0.633310
0.645762 0.650370 0.647272
0.776013 0.663920 0.660807
0.883238 0.679133 0.678294
0.945968 0.696498 0.686656
0.393469 0.674739 0.584863
0.415412 0.677790 0.583200
0.472282 0.685756 0.578912
0.527382 0.699351 0.589212
0.561944 0.718486 0.615869
0.626276 0.739940 0.643626
0.750729 0.755383 0.661082
0.871077 0.770794 0.679759
0.943114 0.780636 0.693812
0.602274 0.756466 0.525643
0.606638 0.759442 0.530556
0.617288 0.766690 0.542321
0.636210 0.779294 0.563928
0.661448 0.796719 0.590143
0.692531 0.818402 0.618936
0.743069 0.843610 0.650370
0.849088 0.864286 0.677790
0.930983 0.879866 0.706569
0.691691 0.831113 0.486122
0.695369 0.833829 0.491524
0.704967 0.840589 0.504967
0.720317 0.851759 0.525917
0.741680 0.867079 0.552209
0.770031 0.887861 0.586603
0.806455 0.913863 0.627131
0.852644 0.941985 0.669062
0.914183 0.957366 0.694163
0.180682 0.283955 0.492607
0.192615 0.291524 0.501961
0.215518 0.308034 0.520638
0.290043 0.332372 0.539300
0.414343 0.344533 0.526574
0.509621 0.363302 0.522240
0.649424 0.410239 0.517220
0.804593 0.431678 0.481559
0.880537 0.402457 0.435996
0.192447 0.307469 0.521645
0.202594 0.313451 0.528893
0.225452 0.327901 0.544778
0.299001 0.350118 0.559426
0.420722 0.358465 0.540902
0.513970 0.385031 0.544686
0.656275 0.427970 0.534325
0.807767 0.443702 0.494194
0.873823 0.436515 0.472282
0.212650 0.349630 0.573541
0.222919 0.354421 0.578744
0.251072 0.366751 0.587976
0.316640 0.383536 0.592615
0.443778 0.399893 0.578668
0.534539 0.437659 0.594156
0.670939 0.464027 0.568170
0.816709 0.478752 0.530404
0.870970 0.510506 0.550637
0.235767 0.411872 0.625254
0.250538 0.417960 0.630243
0.288808 0.431952 0.638666
0.356252 0.453956 0.645319
0.490654 0.471443 0.638239
0.574044 0.490883 0.633738
0.702770 0.518761 0.614969
0.836072 0.546426 0.598993
0.882673 0.578073 0.619959
0.220661 0.522362 0.689952
0.230686 0.526070 0.696162
0.274846 0.535805 0.708827
0.386419 0.551125 0.715023
0.510307 0.564446 0.710964
0.624781 0.581048 0.697017
0.747723 0.597864 0.679438
0.854932 0.616144 0.666453
0.906249 0.639368 0.678218
0.058366 0.620310 0.706554
0.070481 0.622766 0.711696
0.144884 0.628641 0.725673
0.365469 0.639353 0.738155
0.510307 0.656229 0.744732
0.652155 0.670893 0.749584
0.774487 0.683909 0.744106
0.875563 0.697093 0.737911
0.935515 0.710582 0.741512
0.258549 0.686854 0.736477
0.287892 0.691783 0.739651
0.380499 0.705257 0.745815
0.495689 0.721691 0.747982
0.558740 0.736385 0.745296
0.637568 0.755200 0.753964
0.763729 0.770474 0.766278
0.883391 0.783215 0.777752
0.948119 0.793439 0.782620
0.604913 0.775601 0.687297
0.611307 0.777554 0.686732
0.625315 0.783536 0.690684
0.648707 0.794186 0.697078
0.677302 0.809705 0.711330
0.710475 0.830594 0.733196
0.761624 0.855329 0.760174
0.866957 0.875486 0.782254
0.952407 0.889799 0.803601
0.716228 0.843992 0.639597
0.719509 0.846632 0.641886
0.726726 0.852003 0.649653
0.739178 0.861280 0.663050
0.761501 0.877790 0.683772
0.790707 0.897826 0.706859
0.827359 0.922072 0.735973
0.878416 0.950057 0.771099
0.934493 0.965087 0.795346
0.208957 0.338567 0.560052
0.216236 0.341863 0.563775
0.234028 0.351553 0.573877
0.276463 0.370199 0.588571
0.365377 0.383062 0.583993
0.488197 0.415839 0.586908
0.578958 0.457404 0.601740
0.758709 0.477516 0.553155
0.851148 0.512428 0.560281
0.215808 0.348714 0.571542
0.223590 0.352514 0.575570
0.241367 0.361776 0.584466
0.283833 0.379583 0.597147
0.373510 0.393591 0.592676
0.497337 0.431907 0.600687
0.587457 0.467994 0.609323
0.764202 0.491676 0.567147
0.855039 0.529152 0.577264
0.235950 0.374105 0.597711
0.243458 0.377783 0.601022
0.262913 0.388205 0.609262
0.298619 0.403784 0.617990
0.408927 0.431342 0.620294
0.515892 0.466590 0.630198
0.611398 0.491875 0.624842
0.779095 0.528695 0.602243
0.865568 0.560464 0.608011
0.266590 0.438346 0.648615
0.274769 0.443351 0.652415
0.296056 0.457023 0.662150
0.338003 0.479957 0.675776
0.451575 0.503716 0.678752
0.532357 0.517144 0.674403
0.660670 0.549966 0.665492
0.799969 0.584421 0.653864
0.881605 0.601312 0.646433
0.276310 0.551019 0.734066
0.285924 0.554208 0.737728
0.312551 0.564858 0.748409
0.370520 0.579324 0.760769
0.465751 0.594339 0.765972
0.565454 0.615717 0.764828
0.695109 0.629343 0.736706
0.821088 0.644038 0.707912
0.903105 0.661341 0.703227
0.254810 0.631983 0.788479
0.266819 0.635752 0.793729
0.303258 0.645670 0.807187
0.382071 0.663569 0.826169
0.495445 0.680323 0.838514
0.613596 0.697932 0.837736
0.727367 0.713771 0.814832
0.842832 0.717052 0.775265
0.927367 0.722805 0.757794
0.339559 0.716609 0.829419
0.353002 0.720241 0.834531
0.379370 0.729015 0.844251
0.407172 0.739910 0.851499
0.486839 0.754726 0.854475
0.624414 0.775067 0.863233
0.767864 0.793866 0.868330
0.868864 0.804913 0.853849
0.931609 0.811292 0.835996
0.500313 0.793042 0.867521
0.506889 0.795209 0.867796
0.526696 0.801877 0.868635
0.563653 0.813199 0.868086
0.616983 0.829099 0.866484
0.680827 0.848051 0.864927
0.762783 0.871321 0.872847
0.882200 0.890715 0.885756
0.966857 0.902541 0.891447
0.700267 0.861311 0.807630
0.704280 0.863172 0.808453
0.714565 0.867842 0.810483
0.734035 0.876051 0.812161
0.763821 0.888762 0.815290
0.802716 0.908888 0.830152
0.847211 0.933913 0.852750
0.898802 0.960281 0.876890
0.954971 0.973480 0.891249
0.226520 0.361700 0.585199
0.232609 0.364065 0.587579
0.247562 0.373800 0.596277
0.277653 0.390555 0.609644
0.335348 0.404425 0.613352
0.482322 0.447791 0.621225
0.552163 0.479744 0.633478
0.700038 0.518029 0.621332
0.846952 0.555703 0.610056
0.233921 0.369711 0.593133
0.240421 0.373632 0.596750
0.256260 0.383642 0.605356
0.281056 0.397147 0.615610
0.344686 0.415717 0.621866
0.494255 0.461677 0.631678
0.556222 0.487266 0.639933
0.711070 0.531228 0.631785
0.847868 0.565728 0.620737
0.251545 0.393744 0.614740
0.257877 0.397513 0.617945
0.273930 0.406744 0.625101
0.297581 0.424537 0.637629
0.378698 0.461173 0.655283
0.506050 0.491173 0.658183
0.573083 0.515465 0.663951
0.735348 0.567620 0.661006
0.852583 0.589654 0.644770
0.281102 0.468009 0.673152
0.286976 0.473503 0.677272
0.302510 0.485664 0.686488
0.336217 0.508293 0.703075
0.413291 0.537697 0.721019
0.503838 0.557519 0.726802
0.602533 0.593668 0.735897
0.756023 0.614832 0.703655
0.866865 0.628519 0.681910
0.302770 0.574624 0.757687
0.311360 0.579675 0.762493
0.326925 0.589410 0.771649
0.366674 0.603815 0.787304
0.440238 0.622827 0.806790
0.521233 0.645823 0.819471
0.616342 0.666758 0.814405
0.770291 0.673060 0.761349
0.885725 0.681575 0.730449
0.325826 0.648112 0.819638
0.338827 0.651881 0.824552
0.367315 0.661265 0.835523
0.408804 0.674922 0.851301
0.487800 0.693217 0.872847
0.569436 0.716045 0.885588
0.657115 0.741680 0.885267
0.783490 0.754543 0.849577
0.901320 0.742779 0.790402
0.375998 0.726864 0.861753
0.381109 0.729793 0.864363
0.393408 0.735714 0.869673
0.423163 0.746548 0.879774
0.502525 0.765133 0.902525
0.618433 0.789776 0.928573
0.738384 0.814694 0.936553
0.829160 0.833494 0.926268
0.901961 0.839231 0.894011
0.479896 0.798596 0.898726
0.485786 0.801282 0.900694
0.499825 0.807523 0.904845
0.529213 0.819867 0.913603
0.570657 0.836606 0.925353
0.630259 0.857679 0.940932
0.738430 0.881773 0.955581
0.876295 0.903822 0.959792
0.951141 0.915953 0.947585
0.637720 0.866514 0.929595
0.641245 0.868009 0.930297
0.652827 0.872679 0.932082
0.674403 0.880598 0.934157
0.709667 0.893996 0.937285
0.764630 0.914672 0.940230
0.830106 0.940551 0.946273
0.898100 0.964340 0.956497
0.961563 0.973510 0.960571
