app/src/main/assets/filters/cinestill800t.33.cube
# Created from cinestill800t.33.plut
LUT_3D_SIZE 9
DOMAIN_MIN 0.0 0.0 0.0
DOMAIN_MAX 1.0 1.0 1.0
0.015686 0.011765 0.015686
0.061769 0.011765 0.015686
0.130388 0.011765 0.015686
0.219120 0.015686 0.015686
0.325490 0.015686 0.015686
0.445090 0.019608 0.019608
0.588235 0.031373 0.027451
0.731868 0.043626 0.031373
0.882353 0.062745 0.039216
0.023041 0.057847 0.015686
0.069612 0.057847 0.015686
0.137865 0.061769 0.015686
0.226963 0.065202 0.015686
0.333089 0.069123 0.019364
0.456672 0.073533 0.023529
0.593133 0.081376 0.027451
0.739223 0.093202 0.034867
0.889708 0.108827 0.042649
0.035294 0.127459 0.019608
0.081743 0.130388 0.019608
0.150729 0.131365 0.019608
0.241672 0.135286 0.019608
0.349020 0.142153 0.023529
0.471565 0.147066 0.027451
0.612497 0.155642 0.032349
0.754406 0.165805 0.042161
0.901961 0.178424 0.047059
0.067643 0.223041 0.027451
0.111269 0.223041 0.027451
0.179904 0.228794 0.029282
0.270161 0.233326 0.030823
0.376959 0.237263 0.034562
0.498528 0.244114 0.039216
0.638727 0.250492 0.045594
0.778744 0.260777 0.050980
0.921569 0.266178 0.058824
0.117647 0.337255 0.043137
0.158083 0.337255 0.043137
0.224994 0.341176 0.044602
0.311269 0.345098 0.045090
0.416663 0.349020 0.050004
0.536034 0.352941 0.056870
0.671077 0.360784 0.061280
0.807843 0.364706 0.064958
0.945098 0.368627 0.070588
0.188724 0.460777 0.064210
0.225483 0.460777 0.064210
0.283330 0.466178 0.068132
0.367163 0.468620 0.068132
0.464958 0.471321 0.072053
0.579904 0.473106 0.075059
0.707713 0.476478 0.078431
0.838727 0.476478 0.082536
0.974014 0.476478 0.086275
0.273533 0.600000 0.091173
0.304417 0.600000 0.091173
0.354650 0.600732 0.091173
0.430396 0.600977 0.093019
0.519112 0.603922 0.095094
0.626108 0.600610 0.096208
0.745098 0.602945 0.099016
0.869612 0.599878 0.099382
0.997055 0.596078 0.101961
0.354406 0.735790 0.118135
0.380941 0.731868 0.118135
0.426474 0.731868 0.118135
0.490379 0.731380 0.118135
0.567651 0.729656 0.118135
0.661585 0.727459 0.121569
0.773404 0.726589 0.121569
0.896086 0.724025 0.118135
1.000000 0.723537 0.121569
0.435294 0.870588 0.145098
0.458335 0.870588 0.145098
0.497063 0.870588 0.145098
0.549996 0.870588 0.145098
0.619608 0.870588 0.145098
0.706371 0.870588 0.145098
0.810788 0.870588 0.145098
0.926955 0.870588 0.145098
1.000000 0.866667 0.145098
0.015686 0.019120 0.073045
0.065690 0.019120 0.073045
0.133944 0.019608 0.069612
0.223041 0.023346 0.073045
0.331121 0.027451 0.075242
0.454231 0.036271 0.077455
0.593133 0.046693 0.082353
0.743130 0.062745 0.089708
0.893629 0.089708 0.112749
0.020035 0.065690 0.073472
0.069612 0.066117 0.073045
0.139193 0.069612 0.073045
0.230884 0.073533 0.073472
0.339178 0.078950 0.077180
0.462654 0.088457 0.081376
0.604608 0.097551 0.086046
0.750179 0.112261 0.093568
0.898039 0.132357 0.116609
0.035294 0.138231 0.077455
0.081743 0.139086 0.077455
0.153918 0.142153 0.077455
0.246128 0.148547 0.080018
0.355886 0.153735 0.083940
0.479179 0.161532 0.089097
0.620157 0.171115 0.094087
0.763180 0.182559 0.101411
0.912749 0.200610 0.124025
0.067643 0.234623 0.089220
0.111543 0.236942 0.089220
0.183688 0.240818 0.090822
0.274815 0.245594 0.092653
0.382605 0.251560 0.096727
0.506004 0.258030 0.100801
0.645228 0.267597 0.108415
0.785290 0.276326 0.112581
0.931868 0.289220 0.134493
0.117647 0.348531 0.104662
0.159808 0.350515 0.106615
0.224994 0.352636 0.106615
0.315099 0.356680 0.110292
0.421576 0.364584 0.114214
0.542885 0.370336 0.118135
0.680018 0.374701 0.124086
0.812741 0.379904 0.128191
0.954910 0.389700 0.144121
0.188724 0.476478 0.125978
0.225650 0.478340 0.125978
0.284810 0.479896 0.125978
0.371084 0.483818 0.129793
0.470832 0.486030 0.132998
0.583825 0.487861 0.135973
0.713222 0.491661 0.138277
0.843076 0.491966 0.140200
0.981857 0.494118 0.155886
0.273533 0.612253 0.151598
0.304311 0.612619 0.149020
0.357595 0.615198 0.148898
0.432837 0.615198 0.150622
0.521569 0.615198 0.151598
0.626337 0.615198 0.152499
0.749752 0.612406 0.151965
0.872221 0.611170 0.151965
1.000000 0.611276 0.164584
0.354406 0.743572 0.172061
0.380941 0.746563 0.172061
0.426474 0.743572 0.168139
0.488502 0.742702 0.168139
0.567407 0.741146 0.167681
0.665034 0.738781 0.167651
0.776944 0.735729 0.164645
0.896574 0.731380 0.163729
1.000000 0.735286 0.175921
0.435294 0.881865 0.195102
0.458335 0.878431 0.191180
0.496071 0.881865 0.191180
0.546258 0.878431 0.187442
0.617639 0.877943 0.187259
0.703914 0.874510 0.187259
0.810788 0.875364 0.183825
0.927459 0.874510 0.183337
1.000000 0.878431 0.195102
0.011765 0.027451 0.150973
0.065690 0.030396 0.149996
0.138231 0.033585 0.149996
0.230884 0.037125 0.149996
0.340688 0.046082 0.153918
0.463722 0.057847 0.161761
0.604898 0.070588 0.166659
0.751476 0.089708 0.176593
0.901961 0.112749 0.188235
0.019120 0.077455 0.153918
0.069612 0.080385 0.153918
0.145068 0.083574 0.153918
0.238544 0.088777 0.153918
0.348104 0.096574 0.157839
0.472541 0.106004 0.165377
0.615564 0.119951 0.173159
0.761563 0.136645 0.181262
0.909682 0.154910 0.191669
0.031373 0.153185 0.161761
0.084321 0.153918 0.161730
0.157656 0.157839 0.161761
0.253162 0.164034 0.163607
0.363363 0.172549 0.168994
0.487984 0.181643 0.173526
0.631189 0.193133 0.181369
0.776898 0.206043 0.189273
0.923781 0.220584 0.199023
0.063722 0.254047 0.175982
0.113725 0.255879 0.175982
0.187015 0.259800 0.176806
0.280385 0.264790 0.179904
0.390692 0.273350 0.183825
0.514214 0.281117 0.188983
0.655238 0.288884 0.195590
0.797055 0.300496 0.201205
0.942641 0.309804 0.210300
0.117647 0.371572 0.194614
0.159808 0.371817 0.194614
0.229419 0.375494 0.198169
0.320348 0.379721 0.199451
0.429160 0.385779 0.203189
0.550118 0.394186 0.208331
0.687495 0.399023 0.212741
0.823957 0.403189 0.216663
0.965682 0.408820 0.218143
0.187259 0.499016 0.213855
0.225681 0.499016 0.216663
0.287251 0.502937 0.217151
0.374212 0.504936 0.219287
0.474754 0.508583 0.220584
0.591669 0.510780 0.223896
0.721233 0.513603 0.225330
0.853559 0.513603 0.224506
0.987625 0.514702 0.224872
0.269612 0.634318 0.233326
0.304295 0.634318 0.233433
0.357107 0.634318 0.236271
0.432837 0.634318 0.233326
0.524514 0.634318 0.234073
0.629191 0.634318 0.233326
0.753674 0.632105 0.234012
0.876600 0.630121 0.232349
1.000000 0.626474 0.231617
0.354406 0.761883 0.249393
0.378302 0.761868 0.251957
0.423896 0.761761 0.248249
0.488228 0.757961 0.248035
0.567407 0.756374 0.244114
0.663722 0.754040 0.241077
0.776959 0.751354 0.240192
0.900374 0.747066 0.237263
1.000000 0.746075 0.236271
0.431373 0.894118 0.267643
0.454414 0.894118 0.263722
0.492164 0.894118 0.261524
0.546075 0.893141 0.259800
0.615686 0.890196 0.255879
0.702815 0.889220 0.252934
0.807843 0.889220 0.249012
0.927077 0.889220 0.249012
1.000000 0.890196 0.249012
0.007843 0.043137 0.256870
0.065690 0.043137 0.254414
0.142763 0.049516 0.256870
0.238727 0.057359 0.258335
0.349020 0.067887 0.264714
0.474998 0.082353 0.268635
0.618509 0.101472 0.276478
0.765377 0.124514 0.286091
0.916182 0.147555 0.296086
0.011765 0.095583 0.258335
0.072602 0.096880 0.258335
0.149859 0.100801 0.260472
0.244984 0.108156 0.264714
0.356527 0.119112 0.268635
0.482658 0.131441 0.275975
0.626123 0.148653 0.284001
0.774624 0.167102 0.292164
0.924025 0.189700 0.300008
0.026841 0.172061 0.268635
0.084321 0.175982 0.268635
0.161028 0.179904 0.271839
0.260029 0.185260 0.273701
0.373281 0.195590 0.279896
0.499626 0.206210 0.287251
0.642863 0.222217 0.292897
0.788602 0.236011 0.300374
0.935164 0.251469 0.307836
0.059800 0.278920 0.286763
0.113420 0.278920 0.288121
0.187747 0.282841 0.290684
0.286763 0.289769 0.293690
0.398535 0.298528 0.299260
0.525978 0.307836 0.304845
0.669123 0.317815 0.310292
0.811566 0.330083 0.314885
0.953918 0.339223 0.319615
0.113725 0.394614 0.307836
0.159808 0.399756 0.310445
0.230884 0.405875 0.312505
0.326680 0.410300 0.317372
0.437507 0.414221 0.321569
0.560784 0.422797 0.325032
0.698894 0.429908 0.327764
0.835782 0.434073 0.329656
0.974517 0.439704 0.331380
0.184802 0.525978 0.330449
0.225483 0.528237 0.331258
0.287251 0.529900 0.332845
0.376532 0.533822 0.335286
0.480644 0.537743 0.336767
0.599161 0.541665 0.339223
0.729091 0.541665 0.340139
0.861769 0.544121 0.339223
0.999084 0.540200 0.335286
0.269001 0.658335 0.348043
0.303059 0.659220 0.347066
0.356863 0.659007 0.347066
0.435096 0.659052 0.347066
0.526955 0.660975 0.344915
0.632837 0.658824 0.344121
0.757595 0.660288 0.343130
0.882567 0.657282 0.338979
1.000000 0.650980 0.336156
0.349996 0.784802 0.358831
0.376959 0.784802 0.355093
0.420630 0.780880 0.351476
0.487053 0.777630 0.348836
0.567651 0.778439 0.347250
0.665202 0.776959 0.344121
0.780880 0.773037 0.340368
0.902998 0.773037 0.335454
1.000000 0.766674 0.337560
0.431373 0.914702 0.366674
0.450675 0.912261 0.362737
0.489220 0.912261 0.356985
0.542153 0.909804 0.353368
0.614466 0.909071 0.350973
0.700008 0.908339 0.347066
0.807843 0.905882 0.344610
0.927459 0.905882 0.340688
1.000000 0.909804 0.345098
0.000000 0.060777 0.380392
0.065690 0.064714 0.380392
0.146563 0.072053 0.382361
0.245090 0.080385 0.384314
0.358816 0.095094 0.388235
0.485054 0.112505 0.394858
0.629908 0.134310 0.404410
0.776959 0.157351 0.413718
0.929412 0.188235 0.431373
0.007355 0.114702 0.384314
0.069612 0.118563 0.384314
0.153491 0.122545 0.386206
0.251469 0.131624 0.389944
0.366415 0.144121 0.394736
0.493874 0.159472 0.402701
0.637568 0.178424 0.411337
0.786740 0.201678 0.419608
0.933333 0.226963 0.439216
0.022553 0.195102 0.395590
0.084321 0.199023 0.397543
0.165438 0.202945 0.399023
0.265263 0.210788 0.402945
0.380880 0.221073 0.407355
0.508949 0.235782 0.414893
0.654414 0.251347 0.423041
0.801282 0.269856 0.428977
0.949020 0.288228 0.447059
0.055390 0.303426 0.416907
0.111269 0.305730 0.418143
0.191669 0.312749 0.420645
0.291691 0.317647 0.424018
0.409308 0.326955 0.430274
0.534737 0.337804 0.435019
0.680140 0.350484 0.440925
0.823041 0.362554 0.445090
0.967163 0.375982 0.460044
0.109804 0.427451 0.442161
0.159808 0.428916 0.444114
0.232837 0.433326 0.445090
0.330877 0.441169 0.449027
0.443626 0.446082 0.453925
0.568627 0.454902 0.456870
0.708827 0.461280 0.458091
0.845594 0.466667 0.460777
0.988235 0.476478 0.472541
0.180880 0.556863 0.463478
0.224262 0.557595 0.464057
0.287251 0.560784 0.464714
0.378927 0.564706 0.467124
0.485786 0.568627 0.469368
0.603433 0.572549 0.470100
0.736522 0.576471 0.470588
0.870008 0.575006 0.468620
1.000000 0.577691 0.478431
0.265202 0.688243 0.476478
0.298039 0.688243 0.474998
0.354910 0.688243 0.474998
0.432837 0.688243 0.474510
0.526955 0.688243 0.474022
0.637873 0.691173 0.470588
0.761028 0.687251 0.466667
0.886763 0.684245 0.462745
1.000000 0.687251 0.475975
0.344366 0.807843 0.482353
0.369390 0.808057 0.478645
0.418387 0.807843 0.474937
0.482261 0.806287 0.470588
0.563729 0.802579 0.466667
0.665110 0.801968 0.462745
0.779721 0.799756 0.458824
0.900526 0.797543 0.452918
1.000000 0.800000 0.470588
0.419608 0.935286 0.482353
0.444602 0.935286 0.476722
0.484321 0.931365 0.470588
0.538231 0.928191 0.466667
0.609812 0.929412 0.462745
0.699260 0.927459 0.458824
0.803922 0.927459 0.454902
0.927459 0.925490 0.450736
1.000000 0.929412 0.466667
0.000000 0.087739 0.521080
0.065202 0.091661 0.521080
0.149996 0.099504 0.524392
0.253498 0.111269 0.527459
0.367407 0.126955 0.532845
0.496071 0.146563 0.537682
0.640681 0.171084 0.548531
0.788235 0.198032 0.558816
0.941176 0.232837 0.586267
0.000000 0.141665 0.527459
0.069551 0.145586 0.527459
0.157351 0.151125 0.528740
0.258213 0.161089 0.532845
0.372549 0.175006 0.536767
0.502388 0.192645 0.545418
0.647959 0.213458 0.552453
0.796017 0.237568 0.563790
0.946380 0.267643 0.591485
0.014710 0.222065 0.538598
0.081254 0.225986 0.539712
0.165682 0.229908 0.543359
0.271931 0.241306 0.547555
0.387747 0.253437 0.552270
0.518624 0.266667 0.559548
0.663020 0.285176 0.567315
0.809628 0.304677 0.572290
0.957961 0.328923 0.599512
0.048951 0.331930 0.562737
0.109499 0.336767 0.565194
0.191669 0.340688 0.566674
0.297002 0.348531 0.570581
0.414221 0.359075 0.574517
0.543130 0.370520 0.580880
0.685786 0.381979 0.586267
0.829725 0.397055 0.589273
0.975006 0.416663 0.611276
0.103914 0.457603 0.588968
0.155886 0.460288 0.590936
0.232349 0.464210 0.592889
0.332845 0.471595 0.596811
0.447425 0.478920 0.598535
0.576013 0.484565 0.601465
0.712749 0.492714 0.603433
0.853193 0.501472 0.603433
0.994110 0.509316 0.623041
0.176959 0.587747 0.610361
0.220172 0.587747 0.611276
0.287251 0.591669 0.611276
0.378927 0.595590 0.613107
0.486519 0.599512 0.615198
0.607355 0.603433 0.615534
0.739712 0.607218 0.614649
0.873945 0.609812 0.611154
1.000000 0.612192 0.626413
0.259678 0.717647 0.619120
0.292287 0.719112 0.618158
0.351690 0.718135 0.619120
0.431861 0.719112 0.618753
0.524514 0.718746 0.615198
0.636759 0.718883 0.612421
0.761517 0.721233 0.609186
0.888243 0.718502 0.604959
1.000000 0.716304 0.611765
0.334310 0.838727 0.621256
0.361273 0.836362 0.617380
0.409354 0.834363 0.613413
0.477745 0.832532 0.608164
0.560632 0.830884 0.603433
0.657359 0.826963 0.599435
0.776959 0.826474 0.595407
0.900496 0.823041 0.587564
1.000000 0.824323 0.592157
0.411765 0.959808 0.613718
0.434806 0.958328 0.607660
0.473167 0.954772 0.603433
0.530388 0.954406 0.598032
0.603189 0.952941 0.591669
0.692164 0.952941 0.587747
0.803922 0.952941 0.582361
0.926162 0.950484 0.579904
1.000000 0.954406 0.589212
0.000000 0.123537 0.683330
0.061280 0.127459 0.683330
0.152941 0.135042 0.684321
0.258335 0.146685 0.690196
0.372549 0.164218 0.695094
0.503914 0.185657 0.699016
0.648035 0.212985 0.708583
0.798535 0.240681 0.714702
0.945098 0.272541 0.742153
0.000000 0.173404 0.689830
0.068666 0.177325 0.690944
0.157839 0.184314 0.692042
0.264714 0.195941 0.695094
0.380392 0.211765 0.699443
0.511269 0.229541 0.707179
0.655482 0.252354 0.714427
0.803204 0.278920 0.722545
0.952941 0.309926 0.749996
0.010544 0.253925 0.701961
0.081254 0.256870 0.702205
0.169604 0.264714 0.705882
0.275853 0.272541 0.709804
0.393988 0.286763 0.714336
0.524636 0.303914 0.721569
0.670039 0.323522 0.726284
0.816785 0.343267 0.732601
0.963729 0.368383 0.757839
0.044114 0.363729 0.724392
0.107301 0.367300 0.725322
0.191669 0.372396 0.728923
0.297002 0.379416 0.730770
0.414588 0.391180 0.734432
0.545586 0.402350 0.740688
0.692653 0.416876 0.744610
0.835966 0.431861 0.746075
0.978927 0.451469 0.768139
0.098039 0.488731 0.751965
0.151965 0.491173 0.751965
0.230884 0.495827 0.752331
0.332845 0.501472 0.755886
0.448768 0.509560 0.757839
0.576471 0.516487 0.759808
0.715679 0.526467 0.759808
0.855146 0.532357 0.759136
0.994110 0.544121 0.774502
0.168750 0.619730 0.769604
0.213733 0.621134 0.771084
0.282811 0.622553 0.771542
0.376532 0.626474 0.773526
0.483818 0.630396 0.773526
0.605493 0.634318 0.773526
0.738720 0.638239 0.771084
0.873518 0.640681 0.765682
1.000000 0.644602 0.774502
0.248280 0.749020 0.777447
0.283421 0.746807 0.777447
0.341176 0.749203 0.774502
0.423560 0.748196 0.777447
0.520104 0.749630 0.773526
0.630030 0.750271 0.772274
0.757107 0.749020 0.768078
0.885664 0.748287 0.759777
1.000000 0.746075 0.755154
0.319112 0.865690 0.773526
0.349828 0.865202 0.772183
0.398291 0.861677 0.765896
0.466804 0.861646 0.761761
0.551049 0.857847 0.757839
0.651957 0.856489 0.753918
0.769116 0.856458 0.749874
0.896895 0.853803 0.742153
1.000000 0.850980 0.740200
0.399023 0.985290 0.764706
0.422919 0.986282 0.760784
0.460777 0.981613 0.753918
0.518257 0.979538 0.747189
0.593622 0.977447 0.742153
0.682841 0.977447 0.739223
0.795102 0.977447 0.733577
0.918746 0.977447 0.731243
1.000000 0.981369 0.733333
0.000000 0.165194 0.849516
0.057359 0.169116 0.849516
0.152941 0.177325 0.852567
0.258335 0.189029 0.853437
0.378424 0.206378 0.861280
0.507836 0.225803 0.865202
0.651957 0.252445 0.869612
0.802457 0.283330 0.876967
0.949020 0.314702 0.897551
0.000000 0.211765 0.853864
0.064714 0.215625 0.853910
0.157717 0.225772 0.857725
0.265995 0.235111 0.861280
0.384314 0.250736 0.865202
0.515373 0.269856 0.869612
0.660121 0.291493 0.876967
0.806378 0.318517 0.880888
0.956863 0.349447 0.901472
0.002579 0.291661 0.865568
0.077333 0.295583 0.865568
0.169360 0.299626 0.869490
0.276478 0.310307 0.872175
0.395102 0.321874 0.876539
0.528557 0.340200 0.880888
0.673777 0.358663 0.887770
0.818143 0.379309 0.889418
0.964706 0.402945 0.908827
0.039887 0.396078 0.887251
0.105303 0.399023 0.887251
0.191669 0.406302 0.887434
0.297002 0.413230 0.892164
0.415595 0.421729 0.892958
0.545586 0.436103 0.896681
0.690806 0.450019 0.899916
0.833829 0.463401 0.900801
0.976471 0.482841 0.917159
0.091905 0.518135 0.908339
0.148013 0.521782 0.908339
0.226474 0.522301 0.910292
0.329412 0.530968 0.910445
0.445090 0.537621 0.912261
0.571328 0.545678 0.914214
0.712261 0.555398 0.914214
0.852750 0.563088 0.912505
0.992157 0.571572 0.923278
0.157351 0.649027 0.925490
0.205417 0.649516 0.927947
0.273411 0.652079 0.927947
0.369497 0.653437 0.927947
0.477699 0.657267 0.925795
0.597726 0.661280 0.924025
0.731411 0.665064 0.922683
0.866484 0.667674 0.917464
1.000000 0.671565 0.917464
0.232959 0.776104 0.931868
0.268132 0.775982 0.931868
0.329015 0.776562 0.931868
0.411887 0.775982 0.931731
0.508583 0.776837 0.930510
0.621149 0.776837 0.923766
0.746715 0.775982 0.919234
0.877714 0.773404 0.912261
1.000000 0.772549 0.908339
0.303365 0.892592 0.927947
0.333333 0.892210 0.927565
0.382849 0.888411 0.923705
0.452552 0.887800 0.920104
0.539223 0.884810 0.916182
0.640192 0.881346 0.912230
0.758419 0.880888 0.904417
0.888243 0.880446 0.897063
1.000000 0.880888 0.893629
0.376471 1.000000 0.920104
0.403372 1.000000 0.916670
0.444724 1.000000 0.912261
0.502937 1.000000 0.908339
0.578424 1.000000 0.902205
0.671077 1.000000 0.897063
0.787747 1.000000 0.892653
0.911772 1.000000 0.891722
1.000000 1.000000 0.890196
0.000000 0.211765 1.000000
0.053437 0.215686 1.000000
0.149996 0.223529 1.000000
0.258335 0.235294 1.000000
0.378424 0.252934 1.000000
0.511772 0.272053 1.000000
0.654902 0.295094 1.000000
0.802457 0.325978 1.000000
0.949020 0.352941 1.000000
0.000000 0.257847 1.000000
0.057359 0.261341 1.000000
0.153918 0.268757 1.000000
0.264714 0.277760 1.000000
0.384314 0.293141 1.000000
0.515679 0.310780 1.000000
0.662379 0.336400 1.000000
0.806378 0.360296 1.000000
0.956863 0.387747 1.000000
0.000000 0.330388 1.000000
0.072175 0.334310 1.000000
0.165682 0.339208 1.000000
0.276478 0.349996 1.000000
0.395102 0.360784 1.000000
0.526467 0.377813 1.000000
0.671321 0.395102 1.000000
0.817151 0.418143 1.000000
0.963729 0.441169 1.000000
0.029908 0.430884 1.000000
0.099016 0.434623 1.000000
0.187747 0.438727 1.000000
0.293080 0.446571 1.000000
0.414221 0.456870 1.000000
0.543130 0.467643 1.000000
0.685786 0.482841 1.000000
0.829725 0.498039 1.000000
0.975006 0.517159 1.000000
0.080385 0.549020 1.000000
0.137987 0.550729 1.000000
0.218631 0.554406 1.000000
0.321569 0.560052 1.000000
0.438239 0.565682 1.000000
0.564706 0.574517 1.000000
0.702937 0.584314 1.000000
0.843626 0.594110 1.000000
0.988235 0.605875 1.000000
0.144121 0.676478 1.000000
0.190188 0.676478 1.000000
0.261646 0.676478 1.000000
0.356924 0.679835 1.000000
0.464210 0.682841 1.000000
0.583825 0.687312 1.000000
0.719112 0.690684 1.000000
0.857053 0.694606 1.000000
1.000000 0.702449 1.000000
0.213733 0.802945 1.000000
0.251102 0.800000 1.000000
0.312016 0.802213 1.000000
0.393011 0.800000 1.000000
0.491173 0.800000 1.000000
0.604776 0.800000 1.000000
0.733333 0.802945 1.000000
0.866056 0.800366 1.000000
1.000000 0.802945 1.000000
0.279408 0.919615 1.000000
0.310292 0.916121 1.000000
0.360662 0.915190 1.000000
0.432837 0.915190 1.000000
0.520104 0.911513 1.000000
0.622065 0.911269 1.000000
0.745098 0.907836 1.000000
0.876967 0.907836 1.000000
1.000000 0.911269 1.000000
0.352941 1.000000 1.000000
0.379904 1.000000 1.000000
0.421561 1.000000 1.000000
0.483330 1.000000 1.000000
0.558831 1.000000 1.000000
0.655390 1.000000 1.000000
0.772549 1.000000 1.000000
0.900008 1.000000 1.000000
1.000000 1.000000 1.000000
