app/src/main/assets/filters/cinestill800t.33.cube
# Created from cinestill800t.33.plut
LUT_3D_SIZE 5
DOMAIN_MIN 0.0 0.0 0.0
DOMAIN_MAX 1.0 1.0 1.0
0.015686 0.011765 0.015686
0.130388 0.011765 0.015686
0.325490 0.015686 0.015686
0.588235 0.031373 0.027451
0.882353 0.062745 0.039216
0.035294 0.127459 0.019608
0.150729 0.131365 0.019608
0.349020 0.142153 0.023529
0.612497 0.155642 0.032349
0.901961 0.178424 0.047059
0.117647 0.337255 0.043137
0.224994 0.341176 0.044602
0.416663 0.349020 0.050004
0.671077 0.360784 0.061280
0.945098 0.368627 0.070588
0.273533 0.600000 0.091173
0.354650 0.600732 0.091173
0.519112 0.603922 0.095094
0.745098 0.602945 0.099016
0.997055 0.596078 0.101961
0.435294 0.870588 0.145098
0.497063 0.870588 0.145098
0.619608 0.870588 0.145098
0.810788 0.870588 0.145098
1.000000 0.866667 0.145098
0.011765 0.027451 0.150973
0.138231 0.033585 0.149996
0.340688 0.046082 0.153918
0.604898 0.070588 0.166659
0.901961 0.112749 0.188235
0.031373 0.153185 0.161761
0.157656 0.157839 0.161761
0.363363 0.172549 0.168994
0.631189 0.193133 0.181369
0.923781 0.220584 0.199023
0.117647 0.371572 0.194614
0.229419 0.375494 0.198169
0.429160 0.385779 0.203189
0.687495 0.399023 0.212741
0.965682 0.408820 0.218143
0.269612 0.634318 0.233326
0.357107 0.634318 0.236271
0.524514 0.634318 0.234073
0.753674 0.632105 0.234012
1.000000 0.626474 0.231617
0.431373 0.894118 0.267643
0.492164 0.894118 0.261524
0.615686 0.890196 0.255879
0.807843 0.889220 0.249012
1.000000 0.890196 0.249012
0.000000 0.060777 0.380392
0.146563 0.072053 0.382361
0.358816 0.095094 0.388235
0.629908 0.134310 0.404410
0.929412 0.188235 0.431373
0.022553 0.195102 0.395590
0.165438 0.202945 0.399023
0.380880 0.221073 0.407355
0.654414 0.251347 0.423041
0.949020 0.288228 0.447059
0.109804 0.427451 0.442161
0.232837 0.433326 0.445090
0.443626 0.446082 0.453925
0.708827 0.461280 0.458091
0.988235 0.476478 0.472541
0.265202 0.688243 0.476478
0.354910 0.688243 0.474998
0.526955 0.688243 0.474022
0.761028 0.687251 0.466667
1.000000 0.687251 0.475975
0.419608 0.935286 0.482353
0.484321 0.931365 0.470588
0.609812 0.929412 0.462745
0.803922 0.927459 0.454902
1.000000 0.929412 0.466667
0.000000 0.123537 0.683330
0.152941 0.135042 0.684321
0.372549 0.164218 0.695094
0.648035 0.212985 0.708583
0.945098 0.272541 0.742153
0.010544 0.253925 0.701961
0.169604 0.264714 0.705882
0.393988 0.286763 0.714336
0.670039 0.323522 0.726284
0.963729 0.368383 0.757839
0.098039 0.488731 0.751965
0.230884 0.495827 0.752331
0.448768 0.509560 0.757839
0.715679 0.526467 0.759808
0.994110 0.544121 0.774502
0.248280 0.749020 0.777447
0.341176 0.749203 0.774502
0.520104 0.749630 0.773526
0.757107 0.749020 0.768078
1.000000 0.746075 0.755154
0.399023 0.985290 0.764706
0.460777 0.981613 0.753918
0.593622 0.977447 0.742153
0.795102 0.977447 0.733577
1.000000 0.981369 0.733333
0.000000 0.211765 1.000000
0.149996 0.223529 1.000000
0.378424 0.252934 1.000000
0.654902 0.295094 1.000000
0.949020 0.352941 1.000000
0.000000 0.330388 1.000000
0.165682 0.339208 1.000000
0.395102 0.360784 1.000000
0.671321 0.395102 1.000000
0.963729 0.441169 1.000000
0.080385 0.549020 1.000000
0.218631 0.554406 1.000000
0.438239 0.565682 1.000000
0.702937 0.584314 1.000000
0.988235 0.605875 1.000000
0.213733 0.802945 1.000000
0.312016 0.802213 1.000000
0.491173 0.800000 1.000000
0.733333 0.802945 1.000000
1.000000 0.802945 1.000000
0.352941 1.000000 1.000000
0.421561 1.000000 1.000000
0.558831 1.000000 1.000000
0.772549 1.000000 1.000000
1.000000 1.000000 1.000000
