app/src/main/assets/filters/cinestill800t.33.cube
# Created from cinestill800t.33.plut
LUT_3D_SIZE 33
DOMAIN_MIN 0.0 0.0 0.0
DOMAIN_MAX 1.0 1.0 1.0
0.015686 0.011765 0.015686
0.023407 0.011765 0.015686
0.035050 0.011765 0.015686
0.046693 0.011765 0.015686
0.061769 0.011765 0.015686
0.077211 0.011765 0.015686
0.092653 0.011765 0.015686
0.111147 0.011765 0.015686
0.130388 0.011765 0.015686
0.150729 0.011765 0.015686
0.172793 0.011765 0.015686
0.195956 0.014343 0.015686
0.219120 0.015686 0.015686
0.242283 0.015686 0.015686
0.269368 0.015686 0.015686
0.296452 0.015686 0.015686
0.325490 0.015686 0.015686
0.354528 0.015686 0.017517
0.383337 0.019608 0.019608
0.414221 0.019608 0.019608
0.445090 0.019608 0.019608
0.482597 0.023529 0.020951
0.518624 0.023529 0.023529
0.550607 0.027451 0.024628
0.588235 0.031373 0.027451
0.619974 0.032227 0.027451
0.658579 0.035294 0.027451
0.696574 0.039216 0.028061
0.731868 0.043626 0.031373
0.770092 0.047425 0.031373
0.805142 0.051225 0.035294
0.843748 0.055024 0.035416
0.882353 0.062745 0.039216
0.015686 0.019486 0.015686
0.023407 0.019486 0.015686
0.035050 0.019486 0.015686
0.050141 0.019486 0.015686
0.065568 0.019486 0.015686
0.077211 0.019486 0.015686
0.095735 0.019486 0.015686
0.112016 0.022446 0.015686
0.130388 0.023285 0.015686
0.150729 0.023285 0.015686
0.172793 0.023285 0.015686
0.195956 0.023285 0.015686
0.222919 0.023285 0.015686
0.244541 0.023285 0.015686
0.269368 0.023285 0.015686
0.298466 0.023346 0.015686
0.325490 0.023407 0.015686
0.356374 0.027207 0.017517
0.385473 0.027207 0.019608
0.415763 0.027253 0.019608
0.449027 0.028748 0.019608
0.482597 0.031174 0.023529
0.519814 0.032441 0.023529
0.550607 0.036240 0.024628
0.589181 0.039002 0.027451
0.622950 0.042893 0.027451
0.658579 0.043732 0.027451
0.697169 0.047532 0.028061
0.731868 0.051347 0.031373
0.770459 0.055131 0.031724
0.805142 0.062501 0.035294
0.843748 0.066423 0.035416
0.882353 0.070344 0.039216
0.015686 0.030884 0.015686
0.023407 0.030884 0.015686
0.038727 0.030884 0.015686
0.050584 0.030884 0.015686
0.065690 0.034806 0.015686
0.077775 0.034806 0.015686
0.096574 0.034806 0.015686
0.112016 0.034806 0.015686
0.131365 0.034806 0.015686
0.153384 0.034806 0.015686
0.172793 0.034806 0.015686
0.197223 0.034806 0.015686
0.223041 0.034806 0.015686
0.246204 0.035050 0.015686
0.273182 0.035050 0.015686
0.300252 0.038727 0.015686
0.329290 0.038727 0.015686
0.356374 0.038727 0.019608
0.387259 0.038972 0.019608
0.418143 0.040467 0.019608
0.450401 0.042649 0.020981
0.485008 0.046571 0.023529
0.519860 0.046647 0.023529
0.554467 0.050492 0.027268
0.589212 0.051469 0.027451
0.626764 0.054459 0.027451
0.661769 0.058335 0.027451
0.697185 0.062257 0.031373
0.735286 0.062989 0.031373
0.770459 0.066773 0.035294
0.812497 0.074022 0.035294
0.847318 0.077943 0.038972
0.886030 0.081865 0.039216
0.019608 0.046326 0.015686
0.027314 0.046326 0.015686
0.038727 0.046326 0.015686
0.053834 0.046326 0.015686
0.065690 0.046326 0.015686
0.081132 0.046326 0.015686
0.096574 0.046326 0.015686
0.115846 0.046326 0.015686
0.134310 0.046326 0.015686
0.154559 0.046326 0.015686
0.176715 0.046326 0.015686
0.199878 0.050248 0.015686
0.223041 0.050248 0.015686
0.249973 0.050248 0.015686
0.275288 0.050248 0.015686
0.302449 0.050446 0.015686
0.331182 0.052384 0.017456
0.360296 0.054170 0.019608
0.389258 0.054170 0.019608
0.422065 0.055985 0.019608
0.452934 0.058091 0.023301
0.486519 0.059434 0.023529
0.522545 0.062013 0.023529
0.558358 0.063111 0.027451
0.592157 0.065934 0.027451
0.627741 0.069856 0.027451
0.662501 0.073777 0.031067
0.700740 0.074388 0.031373
0.735790 0.078187 0.031815
0.777569 0.081987 0.035294
0.812970 0.086122 0.035523
0.847669 0.089479 0.039216
0.886275 0.093385 0.039216
0.023041 0.057847 0.015686
0.030655 0.057847 0.015686
0.042191 0.057847 0.015686
0.054170 0.057847 0.015686
0.069612 0.057847 0.015686
0.084565 0.057847 0.015686
0.100496 0.061280 0.015686
0.118608 0.061280 0.015686
0.137865 0.061769 0.015686
0.157473 0.061769 0.015686
0.180148 0.061769 0.015686
0.203479 0.064012 0.015686
0.226963 0.065202 0.015686
0.250126 0.065690 0.015686
0.279133 0.065690 0.015686
0.304295 0.067506 0.015686
0.333089 0.069123 0.019364
0.360296 0.069612 0.019608
0.390967 0.069612 0.019608
0.424094 0.071199 0.023239
0.456672 0.073533 0.023529
0.488777 0.074876 0.023529
0.526467 0.077455 0.024750
0.561883 0.081376 0.027451
0.593133 0.081376 0.027451
0.631632 0.085298 0.027451
0.666331 0.086427 0.031373
0.704417 0.090242 0.031373
0.739223 0.093202 0.034867
0.778302 0.097063 0.035294
0.816205 0.100984 0.039216
0.851575 0.104906 0.039216
0.889708 0.108827 0.042649
0.023529 0.073289 0.015686
0.031128 0.073289 0.015686
0.045960 0.076387 0.015686
0.057527 0.076600 0.015686
0.070024 0.076600 0.015686
0.085054 0.076600 0.015686
0.103792 0.077211 0.015686
0.119722 0.077211 0.015686
0.139055 0.077211 0.015686
0.160952 0.077211 0.015686
0.180636 0.077211 0.015686
0.207111 0.079774 0.015686
0.230274 0.081132 0.015686
0.256016 0.081132 0.015686
0.280858 0.081132 0.017548
0.309682 0.084764 0.019608
0.336950 0.085054 0.019608
0.365774 0.085054 0.019608
0.395102 0.085313 0.021057
0.425986 0.087007 0.023529
0.460166 0.088975 0.023529
0.493019 0.092897 0.024674
0.529976 0.094118 0.027451
0.562371 0.096818 0.027451
0.599542 0.097795 0.027451
0.634333 0.100740 0.028305
0.670222 0.104158 0.031373
0.707820 0.105272 0.031983
0.743633 0.109071 0.035294
0.781308 0.112810 0.038666
0.816876 0.116625 0.039216
0.854902 0.120439 0.039322
0.890196 0.124269 0.043137
0.026719 0.088731 0.019608
0.034440 0.088731 0.019608
0.046571 0.091707 0.018921
0.061280 0.092576 0.015991
0.073930 0.092653 0.015686
0.088975 0.092653 0.015686
0.106996 0.092653 0.015686
0.123781 0.092653 0.015686
0.142947 0.092653 0.015686
0.162295 0.094942 0.015686
0.184558 0.095827 0.015686
0.210910 0.096574 0.017777
0.234073 0.096574 0.018875
0.259861 0.098466 0.019303
0.284733 0.099748 0.019608
0.311788 0.100496 0.019608
0.340444 0.102083 0.019608
0.369833 0.104021 0.021103
0.399023 0.104417 0.023529
0.429603 0.107591 0.023529
0.463966 0.108339 0.023529
0.496452 0.109422 0.026963
0.531624 0.112261 0.027451
0.568582 0.115435 0.027451
0.600793 0.116976 0.030823
0.638849 0.119524 0.031373
0.673533 0.120699 0.031968
0.708949 0.124514 0.035294
0.747463 0.127947 0.035782
0.785122 0.131197 0.039216
0.820783 0.135088 0.042405
0.855512 0.135912 0.043137
0.894118 0.139712 0.043137
0.031373 0.108095 0.019608
0.039063 0.108095 0.019608
0.050675 0.108095 0.019608
0.065080 0.108095 0.019608
0.076707 0.108095 0.018753
0.092897 0.108095 0.018753
0.111391 0.110582 0.018753
0.127504 0.112016 0.018753
0.146838 0.112016 0.018753
0.168383 0.112016 0.018753
0.187884 0.112016 0.018753
0.214710 0.115068 0.019608
0.238407 0.115618 0.019608
0.263706 0.115938 0.019608
0.288594 0.117662 0.019608
0.317281 0.118990 0.021241
0.344671 0.119860 0.023102
0.375128 0.122911 0.023529
0.404669 0.123293 0.023529
0.435065 0.125017 0.025116
0.468086 0.126833 0.027451
0.501915 0.128756 0.027451
0.537652 0.131029 0.027451
0.573037 0.134676 0.028550
0.607202 0.134890 0.031373
0.643320 0.138598 0.034440
0.678019 0.140032 0.035294
0.712734 0.143389 0.035767
0.750225 0.146548 0.039216
0.786069 0.150362 0.039582
0.823896 0.154284 0.043137
0.862409 0.155245 0.043137
0.898039 0.158206 0.043137
0.035294 0.127459 0.019608
0.042985 0.127459 0.019608
0.054597 0.130205 0.019608
0.068879 0.130388 0.019608
0.081743 0.130388 0.019608
0.096818 0.130388 0.019608
0.115190 0.130388 0.019608
0.131624 0.131365 0.019608
0.150729 0.131365 0.019608
0.170062 0.134310 0.019608
0.192401 0.134310 0.019608
0.218509 0.134951 0.019608
0.241672 0.135286 0.019608
0.268757 0.138231 0.019608
0.294118 0.138231 0.022553
0.319509 0.139208 0.023529
0.349020 0.142153 0.023529
0.379446 0.142611 0.023529
0.409812 0.144427 0.026474
0.440681 0.146075 0.027451
0.471565 0.147066 0.027451
0.507713 0.149996 0.028458
0.542397 0.150973 0.031373
0.577783 0.154192 0.031373
0.612497 0.155642 0.032349
0.645808 0.158053 0.035294
0.681926 0.161761 0.035843
0.719265 0.162737 0.039216
0.754406 0.165805 0.042161
0.792645 0.169696 0.043137
0.828611 0.170779 0.043137
0.863355 0.174609 0.046113
0.901961 0.178424 0.047059
0.042039 0.149630 0.022431
0.049760 0.149630 0.022431
0.061219 0.149630 0.022431
0.072770 0.149630 0.022431
0.088106 0.149630 0.022431
0.103548 0.150561 0.022431
0.118990 0.150729 0.022431
0.138354 0.152941 0.022431
0.156741 0.153552 0.022431
0.177081 0.153552 0.022431
0.199145 0.154314 0.022431
0.224872 0.156512 0.023148
0.248325 0.157473 0.023529
0.272541 0.158129 0.023529
0.300252 0.160159 0.023529
0.325399 0.161395 0.023529
0.354345 0.161944 0.027451
0.383307 0.165316 0.027451
0.414710 0.165316 0.027451
0.444480 0.166415 0.027451
0.479286 0.169238 0.030274
0.511513 0.170336 0.031373
0.546960 0.173159 0.032258
0.580880 0.174258 0.034501
0.618784 0.177081 0.035294
0.651102 0.181003 0.038361
0.688853 0.181735 0.039216
0.724453 0.184924 0.039826
0.761776 0.187884 0.043137
0.796811 0.189105 0.043137
0.832532 0.192767 0.045960
0.870008 0.192889 0.047059
0.905882 0.197787 0.049882
0.049760 0.168872 0.023529
0.057359 0.168872 0.023529
0.065202 0.172793 0.023529
0.080385 0.172793 0.023529
0.092409 0.172793 0.023529
0.107347 0.172793 0.023529
0.126711 0.172793 0.023529
0.143114 0.172793 0.023529
0.161517 0.174014 0.023529
0.183703 0.176715 0.023529
0.206867 0.176715 0.023529
0.230823 0.177523 0.023529
0.253956 0.180636 0.025208
0.280262 0.180636 0.026230
0.306172 0.180636 0.026230
0.332601 0.184558 0.027451
0.361517 0.184558 0.027451
0.390448 0.185779 0.030152
0.419608 0.188479 0.030152
0.452201 0.191180 0.031373
0.483085 0.192401 0.031373
0.517464 0.193332 0.034485
0.553536 0.196323 0.035294
0.588602 0.197086 0.036057
0.622309 0.200244 0.038300
0.657969 0.204166 0.039811
0.693645 0.204166 0.042145
0.730831 0.208087 0.043137
0.765927 0.208576 0.045838
0.804166 0.212009 0.047059
0.839216 0.215930 0.047059
0.875090 0.216052 0.050980
0.909804 0.219852 0.050980
0.057481 0.195956 0.027451
0.065156 0.195956 0.027451
0.076600 0.195956 0.027451
0.088243 0.195956 0.027451
0.103548 0.199390 0.027451
0.118990 0.199878 0.027451
0.134432 0.201968 0.027451
0.152941 0.202457 0.027451
0.172183 0.202457 0.027451
0.191424 0.203418 0.027451
0.213779 0.203799 0.027451
0.237751 0.206378 0.027451
0.261753 0.206378 0.027451
0.287984 0.207721 0.027451
0.315068 0.210300 0.027451
0.340322 0.211017 0.030747
0.369238 0.211643 0.031373
0.398169 0.215564 0.031373
0.429038 0.215564 0.032502
0.459922 0.217151 0.033951
0.490806 0.219486 0.035294
0.526955 0.220829 0.037873
0.561639 0.223407 0.038285
0.595605 0.223789 0.041794
0.630671 0.227329 0.043137
0.665126 0.227329 0.043137
0.700374 0.231250 0.043626
0.736187 0.234028 0.047059
0.773327 0.235492 0.047379
0.808331 0.237873 0.049760
0.844282 0.239261 0.051148
0.878996 0.243015 0.053590
0.916304 0.243015 0.054902
0.067643 0.223041 0.027451
0.072923 0.223041 0.027451
0.084474 0.223041 0.027451
0.098421 0.223041 0.027451
0.111269 0.223041 0.027451
0.126711 0.223041 0.027451
0.142153 0.226230 0.027451
0.161517 0.226963 0.027451
0.179904 0.228794 0.029282
0.199145 0.229419 0.029908
0.219608 0.229419 0.029908
0.245472 0.230381 0.029908
0.270161 0.233326 0.030823
0.295705 0.233326 0.031373
0.322148 0.234165 0.033829
0.348043 0.237263 0.033829
0.376959 0.237263 0.034562
0.405875 0.238727 0.035294
0.436759 0.241184 0.035294
0.468650 0.241779 0.039216
0.498528 0.244114 0.039216
0.534676 0.246571 0.040055
0.569360 0.246571 0.041672
0.602945 0.250492 0.043137
0.638727 0.250492 0.045594
0.672541 0.254414 0.047059
0.707622 0.254414 0.049516
0.742763 0.257099 0.049744
0.778744 0.260777 0.050980
0.815686 0.260929 0.051347
0.850736 0.262409 0.054902
0.885344 0.264759 0.054978
0.921569 0.266178 0.058824
0.076844 0.247791 0.031373
0.084504 0.247791 0.031373
0.096101 0.250126 0.031373
0.107469 0.250126 0.031373
0.121324 0.252445 0.031373
0.136767 0.252445 0.031373
0.153506 0.252445 0.031373
0.169238 0.252445 0.031373
0.188205 0.253651 0.031373
0.207965 0.256367 0.031373
0.230030 0.256367 0.031373
0.253193 0.256367 0.033707
0.280262 0.257969 0.033707
0.305760 0.260288 0.033707
0.330510 0.260288 0.036606
0.357595 0.261891 0.037629
0.385840 0.264210 0.037629
0.413596 0.264210 0.039216
0.444480 0.265812 0.041550
0.476967 0.269734 0.041550
0.506249 0.269734 0.043137
0.542397 0.271077 0.043137
0.577081 0.273655 0.045960
0.610666 0.274098 0.047059
0.645472 0.277577 0.047639
0.678447 0.279896 0.049729
0.715068 0.281498 0.051423
0.750484 0.283818 0.053315
0.785168 0.285420 0.055192
0.821302 0.287739 0.057237
0.858213 0.287846 0.058824
0.893019 0.289418 0.061158
0.927825 0.291661 0.061158
0.088487 0.275486 0.035294
0.094484 0.275486 0.035294
0.107729 0.275486 0.035294
0.119112 0.277043 0.035294
0.132845 0.279133 0.035294
0.146075 0.279408 0.035294
0.161517 0.279408 0.035294
0.179171 0.279408 0.035294
0.199268 0.279408 0.035294
0.218509 0.281132 0.035294
0.239948 0.285054 0.035294
0.264836 0.285054 0.038621
0.289372 0.285054 0.039216
0.315068 0.287373 0.039216
0.340444 0.288975 0.039216
0.367407 0.288975 0.040391
0.394369 0.290929 0.041428
0.424445 0.293919 0.042222
0.456123 0.295094 0.044099
0.484688 0.295796 0.045350
0.516182 0.299016 0.045991
0.550118 0.299016 0.047822
0.584802 0.300740 0.049271
0.618387 0.302937 0.051606
0.653193 0.302937 0.053193
0.685405 0.304662 0.054902
0.722789 0.306859 0.055314
0.757595 0.308583 0.058824
0.792889 0.312505 0.058824
0.827573 0.312505 0.061036
0.862257 0.312749 0.061143
0.896941 0.316426 0.062745
0.931624 0.316426 0.062745
0.102205 0.306371 0.037385
0.109865 0.306371 0.037385
0.119371 0.306371 0.037385
0.130953 0.306371 0.037385
0.144594 0.306371 0.037385
0.157717 0.308217 0.038926
0.175250 0.310292 0.039216
0.192126 0.310292 0.039216
0.210056 0.310292 0.041306
0.229419 0.310292 0.041306
0.251469 0.311559 0.041306
0.276478 0.314214 0.041306
0.299626 0.314214 0.042451
0.324880 0.314214 0.044373
0.349874 0.318135 0.045228
0.376959 0.318135 0.045228
0.405081 0.318135 0.046143
0.434073 0.320958 0.047059
0.463844 0.322866 0.047974
0.495964 0.324743 0.050980
0.525612 0.324681 0.050980
0.558556 0.327825 0.053071
0.592523 0.329900 0.053071
0.628916 0.329900 0.055482
0.660914 0.331746 0.056992
0.696574 0.333822 0.057389
0.730510 0.334173 0.060914
0.765316 0.335988 0.061189
0.800122 0.337743 0.062745
0.834928 0.339590 0.064836
0.869734 0.339712 0.064942
0.904540 0.341665 0.066667
0.939345 0.343511 0.068757
0.117647 0.337255 0.043137
0.123339 0.337255 0.043137
0.132967 0.337255 0.043137
0.144549 0.337255 0.043137
0.158083 0.337255 0.043137
0.171328 0.337255 0.043137
0.188357 0.338842 0.043137
0.206134 0.341176 0.043137
0.224994 0.341176 0.044602
0.243748 0.341176 0.045090
0.263600 0.341176 0.045090
0.286152 0.343755 0.045090
0.311269 0.345098 0.045090
0.336400 0.345098 0.048219
0.362615 0.346197 0.049012
0.387686 0.347051 0.049012
0.416663 0.349020 0.050004
0.445655 0.349020 0.052934
0.474632 0.350988 0.052934
0.505577 0.351781 0.053742
0.536034 0.352941 0.056870
0.569482 0.353613 0.056870
0.602945 0.357473 0.058824
0.638300 0.360784 0.058824
0.671077 0.360784 0.061280
0.704295 0.361212 0.062745
0.738231 0.362737 0.063111
0.773037 0.364706 0.065019
0.807843 0.364706 0.064958
0.842649 0.366674 0.066850
0.877455 0.366796 0.068635
0.912261 0.368627 0.068696
0.945098 0.368627 0.070588
0.133089 0.368139 0.048890
0.140749 0.368139 0.048890
0.148531 0.368139 0.048890
0.160174 0.368139 0.048890
0.171557 0.368139 0.048890
0.186770 0.368139 0.048890
0.202213 0.368139 0.048890
0.220706 0.369772 0.048890
0.237003 0.372061 0.048890
0.255268 0.372061 0.050980
0.276600 0.372061 0.052247
0.301595 0.372061 0.052811
0.324758 0.375296 0.052811
0.349157 0.375982 0.052811
0.375006 0.375982 0.054902
0.401221 0.375982 0.054902
0.429282 0.377935 0.054902
0.456245 0.379904 0.056733
0.485054 0.379904 0.057908
0.514839 0.381842 0.058824
0.544976 0.384604 0.060655
0.581125 0.384451 0.060655
0.614588 0.387747 0.063325
0.646571 0.387747 0.064576
0.680262 0.389822 0.064576
0.712016 0.389822 0.067063
0.745953 0.391669 0.068498
0.780758 0.391669 0.068833
0.815564 0.391928 0.070817
0.850370 0.393744 0.072419
0.885176 0.393744 0.072557
0.916121 0.395590 0.074510
0.950851 0.395590 0.074510
0.148531 0.399023 0.052689
0.156252 0.399023 0.052689
0.165576 0.399023 0.052689
0.175616 0.399023 0.052689
0.188754 0.399023 0.052689
0.202472 0.399023 0.052689
0.217639 0.399023 0.052689
0.234806 0.399023 0.052689
0.252445 0.400671 0.054353
0.269474 0.402457 0.056611
0.289952 0.402945 0.056611
0.314565 0.402945 0.056611
0.339559 0.402945 0.056611
0.363363 0.404257 0.056611
0.387762 0.406867 0.060533
0.413596 0.407767 0.060533
0.440925 0.408576 0.060533
0.467765 0.410788 0.061570
0.496574 0.412497 0.064454
0.526436 0.414710 0.064454
0.556619 0.414710 0.065293
0.589441 0.414710 0.066667
0.624018 0.414710 0.066667
0.657115 0.418631 0.069001
0.689708 0.418631 0.070588
0.719738 0.418631 0.070588
0.753674 0.420829 0.072297
0.788479 0.420829 0.072297
0.823285 0.421042 0.072587
0.858091 0.422553 0.076219
0.889113 0.422553 0.076219
0.923781 0.422614 0.076295
0.958572 0.424750 0.078431
0.169482 0.427573 0.060410
0.175616 0.427573 0.060410
0.183337 0.429908 0.060410
0.194980 0.432013 0.060410
0.206424 0.433829 0.060410
0.219242 0.431495 0.060410
0.234379 0.431495 0.060410
0.250126 0.433829 0.060410
0.267887 0.433829 0.062165
0.287251 0.433829 0.062745
0.305394 0.435431 0.062745
0.328557 0.437201 0.062745
0.351720 0.437751 0.062745
0.377203 0.437751 0.064332
0.401266 0.437751 0.064332
0.425116 0.438987 0.064332
0.454170 0.440864 0.064332
0.480385 0.441672 0.066178
0.509392 0.441672 0.068254
0.538323 0.442618 0.068254
0.568261 0.443992 0.069139
0.600488 0.445594 0.071138
0.634440 0.445594 0.072175
0.664836 0.445594 0.072831
0.699626 0.445594 0.076097
0.730510 0.447913 0.076097
0.765316 0.447913 0.076097
0.796201 0.447913 0.078676
0.831006 0.448112 0.080018
0.865812 0.449516 0.080018
0.896696 0.449516 0.080171
0.931502 0.449516 0.082353
0.966293 0.449516 0.082353
0.188724 0.460777 0.064210
0.192599 0.460777 0.064210
0.204074 0.460777 0.064210
0.214115 0.460777 0.064210
0.225483 0.460777 0.064210
0.237003 0.464714 0.064210
0.252445 0.464714 0.067399
0.267887 0.464714 0.068132
0.283330 0.466178 0.068132
0.302693 0.466178 0.068132
0.320836 0.464714 0.068132
0.343999 0.467781 0.068132
0.367163 0.468620 0.068132
0.390326 0.468620 0.070466
0.414862 0.469459 0.072053
0.440558 0.470100 0.072053
0.464958 0.471321 0.072053
0.493950 0.472541 0.072053
0.520989 0.472541 0.074510
0.549889 0.472541 0.074510
0.579904 0.473106 0.075059
0.611292 0.474861 0.076829
0.643900 0.476005 0.078431
0.676478 0.474998 0.078431
0.707713 0.476478 0.078431
0.741619 0.476478 0.079896
0.773037 0.476478 0.079896
0.803922 0.476478 0.080278
0.838727 0.476478 0.082536
0.873533 0.478920 0.083818
0.904417 0.478767 0.083818
0.939223 0.476478 0.083894
0.974014 0.476478 0.086275
0.207965 0.498283 0.071931
0.215686 0.498283 0.071931
0.223407 0.498283 0.071931
0.232349 0.498283 0.071931
0.243946 0.498283 0.073289
0.257725 0.498283 0.074113
0.269490 0.498283 0.074510
0.284688 0.500298 0.074510
0.300114 0.500862 0.074510
0.321340 0.500481 0.074510
0.337499 0.500862 0.075853
0.360784 0.501747 0.075853
0.383948 0.502205 0.075853
0.405753 0.502205 0.075853
0.429679 0.503059 0.075853
0.453437 0.504784 0.075853
0.479164 0.504784 0.075853
0.506889 0.504784 0.075853
0.534463 0.504784 0.079774
0.562005 0.505577 0.079774
0.592386 0.505745 0.079774
0.621195 0.507347 0.079774
0.654658 0.507347 0.082780
0.688106 0.508705 0.083696
0.717067 0.508705 0.083696
0.749874 0.508705 0.083696
0.782101 0.506126 0.086275
0.812253 0.506126 0.087617
0.846448 0.506126 0.087617
0.880034 0.506249 0.087617
0.912139 0.507347 0.087785
0.943130 0.507347 0.090196
0.979171 0.507347 0.091539
0.231128 0.534310 0.079652
0.235004 0.534310 0.079652
0.246494 0.534310 0.079652
0.254170 0.534310 0.079652
0.265782 0.534310 0.079652
0.277379 0.535546 0.079652
0.291173 0.535546 0.079652
0.306615 0.534585 0.079652
0.322057 0.535546 0.079652
0.337499 0.535546 0.079652
0.357702 0.535546 0.079652
0.378805 0.536507 0.079652
0.401968 0.537774 0.081346
0.422293 0.537514 0.083574
0.444358 0.538231 0.083574
0.468956 0.538231 0.083574
0.494606 0.538231 0.083574
0.520256 0.538231 0.083574
0.546029 0.539422 0.084764
0.575128 0.540932 0.086778
0.602945 0.538231 0.087495
0.634485 0.538231 0.087495
0.666178 0.538613 0.087495
0.696178 0.539467 0.087495
0.727642 0.539467 0.090196
0.757595 0.539467 0.090196
0.791669 0.539239 0.090196
0.819974 0.538231 0.090196
0.854170 0.538231 0.091752
0.885054 0.538231 0.094118
0.919860 0.538231 0.094118
0.950729 0.538231 0.094118
0.988235 0.538231 0.094118
0.250370 0.566293 0.087373
0.257023 0.566293 0.087373
0.265736 0.566293 0.087373
0.275975 0.566293 0.087373
0.285039 0.566293 0.087373
0.296208 0.566293 0.087373
0.307927 0.566293 0.087373
0.323781 0.566293 0.087373
0.337499 0.569116 0.087373
0.356863 0.569116 0.087373
0.375006 0.569116 0.087373
0.394247 0.569116 0.087373
0.415640 0.569802 0.087373
0.434974 0.569574 0.090196
0.459800 0.569116 0.090196
0.482963 0.569116 0.090196
0.506126 0.569116 0.090196
0.531716 0.570443 0.090196
0.558083 0.571939 0.090196
0.586725 0.571939 0.090639
0.613764 0.571939 0.091295
0.643854 0.569116 0.091295
0.675715 0.570001 0.091295
0.705455 0.569421 0.091295
0.737377 0.569116 0.091997
0.766171 0.569116 0.094118
0.800122 0.569116 0.095216
0.827695 0.569116 0.095216
0.861891 0.569116 0.095216
0.892775 0.569009 0.095216
0.926543 0.568017 0.098039
0.958450 0.568017 0.098039
0.992157 0.568017 0.098039
0.273533 0.600000 0.091173
0.277424 0.600000 0.091173
0.285054 0.600000 0.091173
0.295430 0.600000 0.091173
0.304417 0.600000 0.091173
0.314611 0.603922 0.091173
0.326711 0.603128 0.091173
0.341421 0.602945 0.091173
0.354650 0.600732 0.091173
0.372305 0.600000 0.091173
0.390753 0.600977 0.091173
0.410025 0.600977 0.091173
0.430396 0.600977 0.093019
0.452079 0.600977 0.095094
0.474693 0.600427 0.095094
0.495857 0.600000 0.095094
0.519112 0.603922 0.095094
0.544213 0.603922 0.095094
0.569177 0.603922 0.095094
0.596567 0.602731 0.095094
0.626108 0.600610 0.096208
0.653773 0.600000 0.098039
0.684321 0.600000 0.099016
0.715190 0.600824 0.099016
0.745098 0.602945 0.099016
0.773892 0.600000 0.099016
0.807111 0.600000 0.099016
0.835264 0.600000 0.099016
0.869612 0.599878 0.099382
0.900496 0.598749 0.101961
0.931380 0.596078 0.101961
0.965225 0.596078 0.101961
0.997055 0.596078 0.101961
0.292775 0.634806 0.098894
0.299657 0.634806 0.098894
0.304479 0.634806 0.098894
0.314794 0.634806 0.098894
0.323552 0.634806 0.098894
0.335164 0.634806 0.098894
0.346777 0.634806 0.098894
0.360967 0.634806 0.098894
0.376226 0.634806 0.098894
0.388846 0.631739 0.098894
0.407111 0.634806 0.098894
0.426474 0.634806 0.098894
0.444358 0.634806 0.098894
0.467018 0.634806 0.102464
0.486763 0.632227 0.102815
0.509926 0.634409 0.102815
0.532235 0.634806 0.102815
0.555795 0.634806 0.101961
0.582483 0.633463 0.101961
0.607233 0.631739 0.101961
0.633036 0.631739 0.101961
0.662791 0.631739 0.101961
0.695949 0.631479 0.101961
0.722911 0.630884 0.102205
0.752178 0.630884 0.102815
0.781613 0.630884 0.102815
0.814832 0.627817 0.102815
0.842527 0.627817 0.102815
0.876478 0.627817 0.102815
0.908217 0.627817 0.102815
0.938903 0.627771 0.103014
0.969970 0.626963 0.105882
1.000000 0.626963 0.105882
0.315190 0.669612 0.106615
0.319020 0.669612 0.106615
0.326711 0.666423 0.106615
0.335164 0.666423 0.106615
0.342794 0.666423 0.106615
0.353307 0.666423 0.106615
0.364843 0.666423 0.106615
0.380148 0.666423 0.105882
0.391669 0.665690 0.105882
0.407111 0.669398 0.105882
0.422553 0.668879 0.105882
0.441917 0.665690 0.105882
0.459800 0.665690 0.105882
0.479042 0.665690 0.104585
0.501793 0.665690 0.106615
0.521447 0.665293 0.106615
0.544244 0.665324 0.106615
0.568872 0.665690 0.106615
0.594125 0.665690 0.106615
0.619303 0.665690 0.106615
0.645838 0.665690 0.106615
0.674144 0.662501 0.106615
0.703670 0.662501 0.106615
0.730632 0.661769 0.106615
0.758145 0.661769 0.106615
0.789181 0.661769 0.107317
0.821958 0.661769 0.109804
