app/src/main/assets/filters/cn200.cube
# Created from cn200.plut
LUT_3D_SIZE 33
DOMAIN_MIN 0.0 0.0 0.0
DOMAIN_MAX 1.0 1.0 1.0
0.000000 0.023529 0.035294
0.000000 0.023529 0.039094
0.000000 0.031128 0.039216
0.018509 0.038849 0.043137
0.037751 0.042649 0.046571
0.053681 0.050370 0.050370
0.079408 0.062013 0.054170
0.120348 0.072801 0.054902
0.166674 0.085298 0.058824
0.210178 0.099748 0.058824
0.255390 0.112505 0.058824
0.304295 0.124147 0.058824
0.354406 0.135790 0.056367
0.406134 0.149752 0.054902
0.458579 0.165194 0.052689
0.506615 0.184558 0.048890
0.554894 0.205890 0.050980
0.601343 0.229038 0.056733
0.643870 0.248280 0.058824
0.682475 0.269856 0.062745
0.717159 0.289220 0.066667
0.751843 0.306004 0.075853
0.782605 0.325246 0.088731
0.812253 0.344488 0.104173
0.838239 0.366674 0.120592
0.860533 0.382101 0.138964
0.879896 0.401465 0.158328
0.899260 0.421439 0.174380
0.918624 0.449027 0.211276
0.929412 0.466667 0.243503
0.929412 0.470588 0.251225
0.929412 0.470710 0.258946
0.929412 0.474510 0.266667
0.000000 0.027329 0.039094
0.000000 0.031250 0.039216
0.003555 0.034928 0.043015
0.022309 0.039200 0.046586
0.038239 0.046464 0.047059
0.057572 0.054276 0.050370
0.083238 0.065812 0.054170
0.120348 0.076616 0.054902
0.169512 0.089189 0.058824
0.214054 0.100816 0.058824
0.259190 0.115114 0.058824
0.308125 0.126635 0.058824
0.358206 0.139666 0.058747
0.412253 0.153552 0.054902
0.462379 0.172869 0.051041
0.512505 0.192218 0.050980
0.560662 0.213596 0.050980
0.606989 0.236759 0.054902
0.647730 0.258137 0.056687
0.686351 0.277577 0.060487
0.721035 0.293065 0.066667
0.755718 0.313725 0.073289
0.786481 0.331777 0.089906
0.815076 0.351141 0.104173
0.838239 0.370459 0.123445
0.861402 0.386862 0.142763
0.880644 0.405295 0.158328
0.899260 0.425238 0.178180
0.918624 0.452811 0.211276
0.929412 0.470481 0.243503
0.929412 0.470832 0.251225
0.929412 0.474632 0.258946
0.929412 0.478431 0.266667
0.000000 0.035050 0.043137
0.000000 0.038849 0.043137
0.003677 0.042649 0.043137
0.022766 0.046448 0.047044
0.042161 0.054170 0.050278
0.060914 0.061891 0.054078
0.087251 0.073533 0.054902
0.127947 0.085115 0.058762
0.174258 0.096818 0.058824
0.220584 0.111269 0.058824
0.266911 0.122789 0.062745
0.313237 0.134401 0.060090
0.363638 0.149599 0.058824
0.416159 0.164950 0.054902
0.470100 0.184314 0.050980
0.518273 0.205753 0.050980
0.568383 0.225238 0.052811
0.610910 0.246433 0.054902
0.651713 0.265934 0.056611
0.690227 0.285145 0.060410
0.727199 0.302113 0.064210
0.759594 0.320104 0.073442
0.791745 0.339467 0.089952
0.818814 0.354971 0.104173
0.842161 0.374319 0.124514
0.864271 0.393622 0.142885
0.883818 0.409812 0.162951
0.902983 0.429252 0.181979
0.919081 0.456153 0.217929
0.929412 0.474266 0.247181
0.929412 0.474739 0.255146
0.929412 0.478553 0.262867
0.929412 0.482353 0.266667
0.000000 0.042771 0.046693
0.000000 0.046571 0.046693
0.010681 0.050370 0.047044
0.029908 0.054505 0.050614
0.046082 0.065766 0.050980
0.065385 0.073167 0.054841
0.094728 0.081254 0.058762
0.135668 0.092897 0.061601
0.181979 0.107195 0.062379
0.228305 0.118990 0.062745
0.274632 0.131624 0.062745
0.320958 0.145708 0.062501
0.373648 0.161028 0.058824
0.427329 0.178943 0.054902
0.477821 0.195834 0.050980
0.525856 0.215396 0.050980
0.572183 0.236881 0.054902
0.618509 0.258015 0.054902
0.659190 0.277363 0.058610
0.697795 0.294453 0.060273
0.732479 0.312154 0.064210
0.765805 0.327825 0.077211
0.795575 0.346929 0.092653
0.822553 0.362615 0.107988
0.845716 0.381979 0.124514
0.865324 0.397513 0.146807
0.887449 0.416785 0.165881
0.903746 0.436759 0.185840
0.922225 0.460746 0.221744
0.929412 0.478096 0.247425
0.929641 0.481987 0.255146
0.932982 0.482460 0.262867
0.933333 0.486275 0.266667
0.000000 0.054414 0.047059
0.000000 0.057740 0.050858
0.014710 0.058335 0.050980
0.034516 0.065812 0.054093
0.053437 0.076539 0.054902
0.072175 0.084688 0.058747
0.102449 0.092897 0.058824
0.143389 0.104433 0.062745
0.192645 0.118624 0.062745
0.236988 0.130282 0.062745
0.282353 0.145586 0.062745
0.331243 0.161028 0.062745
0.381369 0.176471 0.060105
0.435416 0.193942 0.056291
0.485542 0.211276 0.050980
0.535668 0.230640 0.053071
0.581857 0.251957 0.054902
0.624384 0.271458 0.054902
0.664988 0.288945 0.058824
0.701595 0.304662 0.062745
0.738720 0.321386 0.069429
0.770092 0.339132 0.084565
0.799420 0.354910 0.098924
0.826352 0.371450 0.111513
0.848646 0.389700 0.128069
0.869139 0.405905 0.150729
0.888396 0.424506 0.166827
0.907637 0.444480 0.186770
0.922545 0.467643 0.222553
0.933333 0.482231 0.251347
0.933333 0.486030 0.259068
0.933333 0.489723 0.266667
0.933333 0.493629 0.266667
0.003311 0.066056 0.054292
0.007111 0.069261 0.054292
0.025528 0.073075 0.054902
0.041794 0.080766 0.058213
0.060655 0.088487 0.058824
0.082689 0.096300 0.062654
0.113359 0.107225 0.062745
0.154894 0.118624 0.066056
0.204654 0.130297 0.066514
0.248600 0.145586 0.066667
0.293996 0.161028 0.063783
0.342489 0.176471 0.062745
0.392630 0.193973 0.058824
0.443137 0.211032 0.055146
0.494713 0.228580 0.054551
0.543389 0.246082 0.054902
0.591547 0.265751 0.054902
0.632105 0.284810 0.058503
0.670710 0.302312 0.060273
0.709316 0.316304 0.064332
0.742748 0.335042 0.075593
0.774014 0.350484 0.088365
0.803250 0.366537 0.102770
0.830152 0.382910 0.115938
0.850004 0.400732 0.134829
0.871824 0.416785 0.154528
0.892287 0.432853 0.169604
0.911025 0.452201 0.193988
0.926390 0.475364 0.229282
0.933333 0.489952 0.255268
0.933333 0.493507 0.262379
0.936645 0.497429 0.266667
0.936645 0.498039 0.266667
0.018143 0.080888 0.058091
0.021942 0.084688 0.058091
0.037263 0.088487 0.062013
0.052689 0.096208 0.062669
0.068879 0.103822 0.065537
0.094224 0.111635 0.065934
0.128328 0.123140 0.066667
0.171283 0.134768 0.066667
0.216724 0.149508 0.069062
0.260212 0.164218 0.066667
0.305638 0.180392 0.066667
0.354055 0.197925 0.063844
0.404196 0.214466 0.060288
0.456077 0.230335 0.056199
0.504494 0.249271 0.054902
0.552941 0.265446 0.056596
0.599268 0.280888 0.058457
0.639826 0.300252 0.060319
0.680217 0.315679 0.064134
0.715435 0.331121 0.071443
0.750240 0.348501 0.083085
0.780026 0.365927 0.096086
0.808087 0.381369 0.107591
0.833951 0.396811 0.122148
0.856306 0.412253 0.138476
0.875654 0.427695 0.158419
0.894987 0.443870 0.174014
0.914336 0.463737 0.204898
0.929259 0.485878 0.233082
0.937255 0.500557 0.259129
0.937255 0.501472 0.265980
0.937255 0.505150 0.266667
0.937255 0.508339 0.269856
0.033585 0.099382 0.065812
0.037385 0.100252 0.065812
0.048829 0.106981 0.066606
0.064210 0.114702 0.066667
0.083085 0.122423 0.069352
0.109316 0.130144 0.070451
0.144198 0.142489 0.070588
0.185962 0.156497 0.070588
0.231617 0.171939 0.070588
0.274876 0.187381 0.069978
0.320348 0.202823 0.066667
0.366674 0.222187 0.064088
0.416297 0.237629 0.060288
0.467155 0.253071 0.058320
0.516060 0.271092 0.057969
0.564187 0.287861 0.058824
0.608515 0.303304 0.060349
0.649393 0.318746 0.062745
0.686152 0.334188 0.067903
0.723156 0.350149 0.079164
0.754360 0.365927 0.090806
0.784924 0.381369 0.102449
0.812482 0.396811 0.115312
0.837751 0.412253 0.127459
0.860914 0.427695 0.143267
0.879484 0.439399 0.161639
0.898817 0.456092 0.178561
0.918151 0.478080 0.213352
0.933074 0.494728 0.240314
0.940322 0.508949 0.263035
0.940322 0.512871 0.266667
0.940352 0.512963 0.266758
0.941176 0.516793 0.270588
0.049012 0.125490 0.069612
0.052811 0.126436 0.069612
0.064210 0.133089 0.073350
0.079652 0.140810 0.073533
0.101472 0.148531 0.073533
0.131868 0.157076 0.073533
0.165927 0.171084 0.073533
0.205295 0.182605 0.073747
0.247791 0.198032 0.073533
0.290288 0.214466 0.070588
0.335790 0.229908 0.067887
0.382101 0.245350 0.066026
0.431983 0.260792 0.062135
0.481010 0.276219 0.061769
0.528923 0.291661 0.061769
0.575250 0.307103 0.062287
0.618143 0.322545 0.062745
0.659190 0.337987 0.067521
0.693874 0.353429 0.075242
0.728557 0.368872 0.086885
0.761761 0.384314 0.098528
0.791638 0.396811 0.110170
0.818387 0.412253 0.121813
0.842527 0.427695 0.134554
0.865446 0.443137 0.150988
0.884718 0.456962 0.169360
0.902632 0.470283 0.185534
0.921813 0.490074 0.218601
0.934188 0.508827 0.247669
0.944121 0.520592 0.266667
0.944121 0.523522 0.266667
0.944121 0.524514 0.269642
0.945098 0.527459 0.270588
0.060533 0.152453 0.074510
0.070985 0.156374 0.077241
0.082551 0.160296 0.077333
0.101839 0.167773 0.077333
0.124636 0.175494 0.077333
0.155016 0.186526 0.077333
0.189090 0.195743 0.077333
0.225498 0.209796 0.077333
0.266423 0.225834 0.074510
0.309621 0.241550 0.073716
0.352102 0.256992 0.070588
0.397543 0.272419 0.067643
0.446326 0.287861 0.065980
0.494118 0.302647 0.065568
0.541543 0.314824 0.065568
0.585260 0.330266 0.065568
0.626352 0.345708 0.067521
0.666911 0.361151 0.075242
0.701595 0.376593 0.084199
0.734676 0.388769 0.094606
0.766674 0.403555 0.106249
0.796445 0.416175 0.117891
0.822522 0.431617 0.129534
0.846448 0.445960 0.142275
0.869337 0.458579 0.160815
0.888609 0.474022 0.177081
0.907347 0.485542 0.193256
0.923232 0.505074 0.225483
0.937743 0.521309 0.254917
0.947921 0.535042 0.266667
0.947921 0.535042 0.270588
0.947921 0.536156 0.270588
0.947921 0.538964 0.273411
0.086519 0.183337 0.081132
0.096941 0.187259 0.082322
0.112261 0.191180 0.081209
0.131243 0.198657 0.082353
0.154406 0.206378 0.081132
0.182528 0.214099 0.082155
0.212985 0.225742 0.081132
0.247791 0.238331 0.081132
0.285542 0.252262 0.079103
0.327306 0.268284 0.077211
0.369741 0.283223 0.074510
0.412985 0.295583 0.071519
0.461769 0.311025 0.069825
0.509560 0.326467 0.069368
0.552499 0.338521 0.069368
0.593500 0.353429 0.072709
0.634806 0.368872 0.078553
0.670710 0.384314 0.085664
0.708141 0.395834 0.094606
0.742397 0.410178 0.103929
0.772274 0.422797 0.113970
0.801053 0.437308 0.126543
0.827207 0.449760 0.138476
0.852308 0.462501 0.153048
0.873228 0.476036 0.169360
0.892500 0.489464 0.184802
0.911269 0.500984 0.200244
0.927138 0.520348 0.230518
0.940597 0.535790 0.258244
0.949020 0.546685 0.269474
0.949020 0.547967 0.270756
0.949020 0.550484 0.273320
0.949020 0.550484 0.277211
0.118746 0.218143 0.088853
0.134188 0.221942 0.088853
0.149630 0.225742 0.086275
0.166293 0.229541 0.088609
0.187869 0.237263 0.086595
0.212375 0.244968 0.086275
0.240558 0.255879 0.084932
0.272969 0.267399 0.084932
0.308705 0.280262 0.082994
0.347311 0.294362 0.081010
0.387259 0.307225 0.078431
0.429313 0.322667 0.077089
0.474754 0.336767 0.077089
0.519554 0.349630 0.077089
0.562615 0.364309 0.079652
0.604517 0.376593 0.082368
0.642466 0.392035 0.089464
0.678431 0.406271 0.097185
0.711986 0.418997 0.104906
0.746197 0.432837 0.113970
0.777081 0.444984 0.124773
0.804929 0.456596 0.134676
0.831128 0.469001 0.148775
0.856138 0.481483 0.161639
0.877119 0.493385 0.177081
0.896391 0.506905 0.192523
0.914107 0.518517 0.207965
0.930632 0.533608 0.234440
0.945586 0.550729 0.262058
0.953185 0.562005 0.273167
0.955520 0.562005 0.274678
0.955520 0.562051 0.277211
0.955520 0.565927 0.284932
0.161273 0.249027 0.096574
0.172793 0.252888 0.096574
0.184405 0.256764 0.096574
0.201083 0.260655 0.096574
0.220096 0.268132 0.096574
0.243259 0.275853 0.095094
0.267613 0.283574 0.095094
0.298039 0.295216 0.094560
0.331868 0.307973 0.092653
0.366964 0.321324 0.091173
0.406165 0.334310 0.089494
0.445228 0.348791 0.090333
0.486275 0.362188 0.091173
0.531136 0.375845 0.091173
0.572793 0.388235 0.091997
0.612863 0.402899 0.095872
0.648280 0.415198 0.100984
0.685008 0.430640 0.107393
0.719112 0.442161 0.117067
0.750591 0.453681 0.125612
0.781796 0.465202 0.134249
0.810925 0.477684 0.146319
0.835050 0.489250 0.159533
0.859968 0.500816 0.173281
0.881010 0.512383 0.187259
0.899748 0.523949 0.200244
0.917922 0.535042 0.215686
0.934554 0.547921 0.236500
0.949508 0.562737 0.267460
0.959319 0.573526 0.277104
0.959319 0.577447 0.281132
0.959319 0.577447 0.284932
0.959319 0.577447 0.292653
0.199878 0.283818 0.108217
0.211521 0.286076 0.108217
0.220737 0.289921 0.108217
0.234440 0.295216 0.108217
0.251469 0.301350 0.108217
0.270466 0.306737 0.106874
0.294682 0.314458 0.106615
0.321202 0.326101 0.106615
0.352087 0.337163 0.106615
0.386236 0.348730 0.106615
0.422065 0.362127 0.106615
0.460655 0.375799 0.102693
0.499260 0.388357 0.102693
0.539467 0.400824 0.102693
0.581979 0.414420 0.106615
0.618509 0.426841 0.108705
0.655268 0.440314 0.114458
0.690791 0.453803 0.120226
0.723613 0.465324 0.127947
0.755398 0.476844 0.137255
0.785672 0.488365 0.147906
0.814755 0.499077 0.159487
0.838972 0.510170 0.171084
0.862135 0.520134 0.182681
0.884901 0.531121 0.196445
0.903670 0.541527 0.210300
0.919554 0.551232 0.225742
0.936889 0.565316 0.243992
0.952041 0.578180 0.271366
0.960998 0.589197 0.281132
0.963119 0.592889 0.288853
0.963119 0.592889 0.292653
0.963119 0.592889 0.300374
0.238483 0.318624 0.119860
0.246204 0.320836 0.119860
0.255634 0.324620 0.119860
0.266911 0.328466 0.121859
0.282353 0.333822 0.122057
0.299245 0.341543 0.120195
0.320348 0.348943 0.119860
0.345220 0.356985 0.118517
0.375250 0.367651 0.118135
0.406134 0.379171 0.118135
0.438193 0.389166 0.118669
0.472770 0.400763 0.118135
0.510780 0.414374 0.118135
0.549386 0.426963 0.119448
0.588464 0.439445 0.122057
0.624384 0.451835 0.125170
0.661036 0.464591 0.129900
0.694667 0.476967 0.135668
0.728435 0.488487 0.143389
0.759319 0.500008 0.151110
0.789548 0.510689 0.161364
0.816571 0.521691 0.172946
0.842893 0.529946 0.183337
0.866056 0.539467 0.194858
0.886946 0.550484 0.207660
0.906264 0.558694 0.219608
0.923445 0.569848 0.235050
0.940688 0.582101 0.254673
0.955856 0.593622 0.277211
0.964920 0.604776 0.288853
0.966918 0.608331 0.296574
0.966918 0.608331 0.300374
0.966918 0.608331 0.304173
0.274998 0.353429 0.133577
0.280934 0.355520 0.133577
0.286519 0.359304 0.133577
0.298161 0.361273 0.133577
0.311406 0.367025 0.133577
0.328344 0.372427 0.133577
0.345617 0.380148 0.133577
0.368383 0.387869 0.133577
0.394491 0.396963 0.133577
0.425360 0.407233 0.133577
0.454170 0.418219 0.133577
0.488334 0.427802 0.133577
0.522988 0.439384 0.133577
0.558816 0.452949 0.135912
0.595224 0.465568 0.137499
0.631006 0.477089 0.141421
0.665751 0.488609 0.144427
0.698528 0.500130 0.151110
0.731319 0.511635 0.158816
0.762493 0.521569 0.166537
0.790188 0.533211 0.174258
0.819730 0.540932 0.186542
0.844968 0.550484 0.196124
0.868132 0.558801 0.205783
0.889220 0.568017 0.219272
0.908049 0.577569 0.231250
0.926955 0.587716 0.244465
0.944488 0.597543 0.262745
0.959442 0.609064 0.283314
0.967163 0.620218 0.296941
0.970718 0.623774 0.304295
0.968627 0.623774 0.308095
0.968627 0.623774 0.311894
0.305882 0.388235 0.147066
0.311711 0.390127 0.149020
0.317403 0.392157 0.149020
0.328862 0.395895 0.149020
0.340200 0.399756 0.149020
0.353674 0.405570 0.149020
0.372671 0.411032 0.149020
0.391547 0.418753 0.149020
0.417639 0.426474 0.149020
0.443198 0.437568 0.149020
0.473533 0.445838 0.149020
0.504417 0.456809 0.149020
0.535286 0.466423 0.152209
0.569299 0.478004 0.152941
0.605142 0.489586 0.155154
0.637751 0.501167 0.156863
0.669612 0.511772 0.161761
0.703426 0.523278 0.166537
0.733455 0.533089 0.174258
0.763241 0.544732 0.181979
0.792645 0.552453 0.189700
0.819730 0.562127 0.198108
0.846815 0.569848 0.209064
0.869978 0.577569 0.219303
0.892164 0.585779 0.228916
0.911513 0.595407 0.242466
0.929290 0.604654 0.254414
0.946319 0.612985 0.270466
0.961273 0.624506 0.291417
0.968994 0.635660 0.304662
0.972549 0.639216 0.312016
0.972549 0.639216 0.315816
0.972549 0.639216 0.321569
0.336767 0.423041 0.160540
0.344488 0.424872 0.160540
0.348287 0.426825 0.160540
0.357900 0.430686 0.160540
0.367651 0.434318 0.164202
0.380758 0.438407 0.164462
0.396201 0.442649 0.164462
0.415564 0.449638 0.164462
0.437873 0.457359 0.164462
0.463111 0.465080 0.164462
0.489540 0.474876 0.164462
0.518654 0.483803 0.166293
0.546807 0.493462 0.168383
0.578927 0.503059 0.169467
0.611841 0.513603 0.172305
0.645472 0.525246 0.175250
0.674510 0.534920 0.179110
0.705394 0.544610 0.184924
0.736278 0.555215 0.189700
0.766308 0.563973 0.197421
0.794125 0.573770 0.205142
0.821073 0.581491 0.212863
0.846815 0.589212 0.221241
0.869978 0.596933 0.232227
0.893141 0.604654 0.242039
0.911925 0.612375 0.252049
0.930877 0.620096 0.265324
0.946319 0.628428 0.278187
0.961761 0.639948 0.300862
0.968994 0.651102 0.312016
0.972549 0.654658 0.319738
0.972549 0.654658 0.323537
0.972549 0.654658 0.327321
0.367651 0.457847 0.179904
0.373709 0.459510 0.179904
0.379171 0.461631 0.179904
0.385168 0.463325 0.179904
0.394614 0.465690 0.179904
0.407843 0.469612 0.179904
0.422873 0.476722 0.179904
0.438727 0.480522 0.179904
0.461036 0.488228 0.179904
0.482475 0.495949 0.181613
0.505638 0.501961 0.183825
0.532723 0.510811 0.184955
0.561181 0.519112 0.185534
0.590112 0.529046 0.187747
0.619135 0.537728 0.190707
0.649271 0.548409 0.192584
0.679286 0.556130 0.196445
0.709316 0.567773 0.202258
0.739239 0.575494 0.208103
0.767163 0.585412 0.212863
0.794125 0.593133 0.220584
0.821073 0.600855 0.228305
0.846815 0.608576 0.236027
0.871214 0.616297 0.244373
0.893141 0.624018 0.253681
0.912383 0.631250 0.263600
0.931197 0.635538 0.273777
0.948379 0.643534 0.287358
0.965408 0.655390 0.307073
0.972549 0.666545 0.319738
0.972549 0.670100 0.327459
0.972549 0.670100 0.331243
0.972549 0.670100 0.335042
0.396933 0.488731 0.195346
0.400778 0.492531 0.195346
0.406134 0.492653 0.195346
0.412253 0.492653 0.195346
0.421363 0.496574 0.196933
0.431617 0.499886 0.195590
0.446448 0.504112 0.196643
0.461891 0.509804 0.199268
0.480858 0.515190 0.199268
0.500160 0.521324 0.199268
0.522667 0.529046 0.200366
0.548165 0.536767 0.203189
0.573770 0.544488 0.204181
0.599786 0.552209 0.206165
0.627817 0.559930 0.208011
0.656992 0.568887 0.211872
0.683146 0.577691 0.214954
0.712139 0.587015 0.219623
0.740200 0.595743 0.224506
0.768109 0.604776 0.230640
0.796567 0.612497 0.236027
0.823651 0.620218 0.243748
0.848035 0.627939 0.247547
0.873243 0.635660 0.255924
0.893141 0.639460 0.265324
0.915435 0.647181 0.274632
0.931624 0.652567 0.282795
0.950240 0.662623 0.296941
0.965682 0.670832 0.312871
0.972549 0.681987 0.327825
0.972549 0.687129 0.336660
0.972549 0.685542 0.340520
0.972549 0.685542 0.342763
0.424018 0.518135 0.214710
0.427863 0.519554 0.212329
0.431708 0.519615 0.212253
0.439338 0.522057 0.214481
0.447059 0.523522 0.214710
0.454780 0.527214 0.214710
0.468406 0.531090 0.214710
0.483574 0.536889 0.215854
0.500496 0.541054 0.216175
0.518379 0.546639 0.218631
0.540444 0.552667 0.218631
0.562631 0.559930 0.220096
0.585290 0.567651 0.222553
0.611383 0.575372 0.222553
0.635538 0.581613 0.226474
0.662623 0.590112 0.229236
0.688975 0.598535 0.232349
0.714015 0.606256 0.236149
0.741024 0.615045 0.239948
0.769482 0.624140 0.246082
0.796567 0.629419 0.251469
0.821073 0.635660 0.255268
0.847578 0.643381 0.262989
0.873899 0.651102 0.269245
0.893141 0.658213 0.276967
0.915435 0.662623 0.285008
0.934798 0.670344 0.294331
0.950240 0.678065 0.308202
0.965682 0.685786 0.324025
0.972549 0.697429 0.339086
0.972549 0.704906 0.346654
0.972549 0.704784 0.350484
0.972549 0.700984 0.354406
0.448524 0.545220 0.231495
0.451102 0.546532 0.230152
0.455024 0.546563 0.230152
0.462501 0.549142 0.231373
0.470222 0.550317 0.231495
0.477943 0.553063 0.234073
0.489586 0.556985 0.234073
0.504295 0.561959 0.234073
0.519738 0.567773 0.234073
0.537026 0.571572 0.235035
0.555886 0.576593 0.237995
0.575128 0.583093 0.237995
0.597436 0.589456 0.238834
0.620096 0.594614 0.241917
0.643259 0.601572 0.242664
0.667796 0.608698 0.245838
0.692836 0.616419 0.249760
0.717876 0.624140 0.251591
0.744121 0.631861 0.255390
0.770031 0.639582 0.261524
0.796567 0.647303 0.266407
0.821073 0.655024 0.270710
0.846815 0.659754 0.276280
0.869978 0.666545 0.282231
0.893141 0.674266 0.289616
0.915435 0.679118 0.296620
0.934798 0.685786 0.305394
0.950240 0.693507 0.316304
0.965194 0.701228 0.331746
0.972549 0.709194 0.346807
0.972549 0.719081 0.354528
0.972549 0.720256 0.358328
0.972549 0.716426 0.362127
0.474266 0.572305 0.249516
0.474266 0.572305 0.249516
0.478187 0.572305 0.249516
0.485664 0.572305 0.250614
0.489464 0.576226 0.249516
0.500908 0.579538 0.249516
0.511009 0.582330 0.250736
0.524117 0.586175 0.250736
0.537743 0.590005 0.252750
0.553185 0.594736 0.253437
0.570474 0.599374 0.253437
0.589761 0.603250 0.254231
0.609033 0.609277 0.257359
0.630137 0.614939 0.257359
0.650980 0.620874 0.260090
0.674144 0.628061 0.263355
0.697307 0.635782 0.265202
0.720470 0.643503 0.269123
0.746319 0.650050 0.270832
0.771801 0.656245 0.276234
0.796567 0.662745 0.280110
0.819730 0.670466 0.284001
0.846815 0.677348 0.289570
0.869978 0.681987 0.293751
0.893141 0.689708 0.301472
0.915435 0.697429 0.307958
0.934798 0.702220 0.315679
0.950240 0.709133 0.325246
0.965194 0.717739 0.339467
0.972549 0.725612 0.354910
0.972549 0.733257 0.365927
0.972549 0.735790 0.367239
0.972549 0.735790 0.369848
0.497429 0.595468 0.268879
0.497429 0.595468 0.268879
0.501350 0.595468 0.268879
0.505272 0.599023 0.268879
0.512627 0.599390 0.268879
0.520348 0.601770 0.268879
0.531777 0.603311 0.268879
0.542519 0.607233 0.268879
0.557107 0.610880 0.268879
0.568627 0.614755 0.269657
0.584070 0.618647 0.271916
0.601358 0.622538 0.272801
0.620630 0.628595 0.272801
0.639902 0.634241 0.273442
0.661036 0.640192 0.276722
0.681865 0.645930 0.278798
0.702510 0.651774 0.280644
0.724269 0.658946 0.284565
0.747433 0.666667 0.286275
0.773404 0.674388 0.290074
0.796567 0.681056 0.293874
0.819730 0.685908 0.297673
0.843778 0.693629 0.301472
0.869978 0.700557 0.307301
0.893141 0.705150 0.312718
0.912383 0.712871 0.319615
0.933913 0.720592 0.325032
0.950240 0.728313 0.335668
0.965194 0.736034 0.348287
0.972549 0.743755 0.363622
0.972549 0.751293 0.373892
0.972549 0.751232 0.378683
0.972549 0.751232 0.381491
0.516670 0.618631 0.284321
0.520592 0.618631 0.284321
0.524269 0.618631 0.285298
0.528069 0.622187 0.285298
0.534798 0.622553 0.285298
0.542519 0.622553 0.285298
0.550240 0.626474 0.287678
0.561242 0.629541 0.285298
0.572549 0.632593 0.287495
0.584070 0.636423 0.288243
0.599512 0.640253 0.288243
0.614954 0.644083 0.288243
0.632227 0.648524 0.288243
0.649363 0.653529 0.292164
0.670344 0.659068 0.292164
0.689067 0.665232 0.294240
0.708339 0.670588 0.296086
0.728069 0.676936 0.299474
0.751232 0.682658 0.301717
0.773404 0.689830 0.303929
0.796567 0.697551 0.307836
0.819730 0.701991 0.311772
0.842893 0.709071 0.315679
0.869276 0.716793 0.320439
0.892164 0.723537 0.324269
0.912383 0.728313 0.331243
0.931624 0.736034 0.335851
0.950393 0.743755 0.344366
0.968627 0.751476 0.359686
0.972549 0.759197 0.373983
0.972549 0.766918 0.385534
0.972549 0.770489 0.390188
0.972549 0.767651 0.393133
0.539834 0.640925 0.303670
0.542794 0.641794 0.303670
0.543755 0.641794 0.303670
0.547677 0.641794 0.303670
0.555016 0.645609 0.303670
0.561883 0.645716 0.303670
0.569604 0.648890 0.303670
0.577996 0.649638 0.303670
0.588968 0.653346 0.303670
0.599756 0.656367 0.303670
0.614359 0.660166 0.303670
0.626474 0.663401 0.303670
0.641917 0.668925 0.307591
0.660410 0.672816 0.307591
0.678065 0.678431 0.307591
0.695216 0.683085 0.309224
0.714153 0.688426 0.311513
0.733486 0.694209 0.313359
0.754650 0.701472 0.315435
0.777325 0.707942 0.319356
0.800488 0.713527 0.320836
0.822599 0.720714 0.324331
0.846815 0.725093 0.328161
0.869978 0.732235 0.332235
0.889220 0.739956 0.338323
0.912383 0.744610 0.342885
0.934798 0.751476 0.350042
0.950240 0.759197 0.355016
0.969116 0.766918 0.370077
0.972549 0.774716 0.381979
0.972549 0.783215 0.397238
0.972549 0.786893 0.402670
0.972549 0.786893 0.405631
0.559075 0.661036 0.319112
0.562997 0.661036 0.319112
0.566674 0.664210 0.319112
0.569802 0.664958 0.319112
0.574258 0.664958 0.319112
0.581247 0.667643 0.319112
0.588968 0.668879 0.319112
0.596689 0.672633 0.319112
0.604410 0.672801 0.319112
0.616052 0.676722 0.319112
0.626474 0.680644 0.319112
0.641169 0.684306 0.319112
0.653437 0.688212 0.323033
0.668879 0.692103 0.323033
0.684321 0.697795 0.323033
0.702937 0.701946 0.323033
0.719982 0.707713 0.326589
0.739239 0.713115 0.328450
0.758495 0.719432 0.330877
0.779950 0.724636 0.334371
0.800946 0.732357 0.336004
0.823651 0.736629 0.338720
0.846815 0.743877 0.342138
0.869978 0.748409 0.346044
0.892164 0.756130 0.349935
0.912383 0.763119 0.355108
0.932219 0.770840 0.361654
