app/src/main/assets/filters/cn200.cube
# Created from cn200.plut
LUT_3D_SIZE 9
DOMAIN_MIN 0.0 0.0 0.0
DOMAIN_MAX 1.0 1.0 1.0
0.000000 0.023529 0.035294
0.037751 0.042649 0.046571
0.166674 0.085298 0.058824
0.354406 0.135790 0.056367
0.554894 0.205890 0.050980
0.717159 0.289220 0.066667
0.838239 0.366674 0.120592
0.918624 0.449027 0.211276
0.929412 0.474510 0.266667
0.000000 0.054414 0.047059
0.053437 0.076539 0.054902
0.192645 0.118624 0.062745
0.381369 0.176471 0.060105
0.581857 0.251957 0.054902
0.738720 0.321386 0.069429
0.848646 0.389700 0.128069
0.922545 0.467643 0.222553
0.933333 0.493629 0.266667
0.049012 0.125490 0.069612
0.101472 0.148531 0.073533
0.247791 0.198032 0.073533
0.431983 0.260792 0.062135
0.618143 0.322545 0.062745
0.761761 0.384314 0.098528
0.865446 0.443137 0.150988
0.934188 0.508827 0.247669
0.945098 0.527459 0.270588
0.161273 0.249027 0.096574
0.220096 0.268132 0.096574
0.331868 0.307973 0.092653
0.486275 0.362188 0.091173
0.648280 0.415198 0.100984
0.781796 0.465202 0.134249
0.881010 0.512383 0.187259
0.949508 0.562737 0.267460
0.959319 0.577447 0.292653
0.305882 0.388235 0.147066
0.340200 0.399756 0.149020
0.417639 0.426474 0.149020
0.535286 0.466423 0.152209
0.669612 0.511772 0.161761
0.792645 0.552453 0.189700
0.892164 0.585779 0.228916
0.961273 0.624506 0.291417
0.972549 0.639216 0.321569
0.424018 0.518135 0.214710
0.447059 0.523522 0.214710
0.500496 0.541054 0.216175
0.585290 0.567651 0.222553
0.688975 0.598535 0.232349
0.796567 0.629419 0.251469
0.893141 0.658213 0.276967
0.965682 0.685786 0.324025
0.972549 0.700984 0.354406
0.516670 0.618631 0.284321
0.534798 0.622553 0.285298
0.572549 0.632593 0.287495
0.632227 0.648524 0.288243
0.708339 0.670588 0.296086
0.796567 0.697551 0.307836
0.892164 0.723537 0.324269
0.968627 0.751476 0.359686
0.972549 0.767651 0.393133
0.600977 0.706859 0.349996
0.608820 0.707347 0.349996
0.635294 0.715190 0.349996
0.677760 0.729107 0.352148
0.733822 0.744610 0.353918
0.808637 0.767468 0.363058
0.893141 0.794125 0.377081
0.965682 0.821073 0.397971
0.972549 0.844114 0.451957
0.654902 0.776471 0.400000
0.662745 0.776471 0.400000
0.681376 0.784314 0.400000
0.712261 0.794614 0.403922
0.760784 0.807843 0.405890
0.824018 0.828916 0.413230
0.900008 0.851957 0.427451
0.969116 0.878920 0.447547
0.972549 0.901961 0.490196
0.000000 0.027451 0.070100
0.018631 0.043565 0.084810
0.139712 0.088228 0.107836
0.325307 0.145892 0.138231
0.533822 0.228916 0.168627
0.708034 0.316182 0.203128
0.834318 0.390692 0.243015
0.914702 0.467643 0.304479
0.929412 0.493629 0.324025
0.000000 0.054414 0.081804
0.029847 0.076539 0.093080
0.159152 0.119875 0.119112
0.350652 0.187579 0.145617
0.556863 0.267613 0.172549
0.723415 0.343297 0.207309
0.842588 0.412741 0.246937
0.919005 0.486275 0.308385
0.933333 0.509316 0.324453
0.003799 0.125490 0.115679
0.068025 0.148531 0.123033
0.216541 0.201968 0.137957
0.401144 0.268635 0.158953
0.593133 0.337743 0.183825
0.746334 0.402335 0.219043
0.857908 0.462257 0.258579
0.930602 0.524132 0.316670
0.944121 0.543633 0.335790
0.121569 0.255085 0.156863
0.185870 0.274205 0.161868
0.304906 0.313725 0.169284
0.461891 0.369924 0.185107
0.632105 0.426963 0.206378
0.769299 0.480705 0.239643
0.873762 0.527855 0.276097
0.945586 0.577508 0.331060
0.956863 0.592645 0.350179
0.284810 0.394125 0.206622
0.320867 0.407355 0.208362
0.399023 0.434318 0.214221
0.518624 0.475975 0.225238
0.656992 0.520470 0.241550
0.782513 0.562737 0.266850
0.885298 0.598779 0.296330
0.955886 0.635325 0.346349
0.972549 0.647059 0.363973
0.408820 0.523522 0.264714
0.431861 0.531029 0.264714
0.487663 0.548302 0.270237
0.575006 0.571572 0.275685
0.678096 0.604746 0.286610
0.788724 0.635782 0.302739
0.888365 0.665324 0.323033
0.961761 0.693462 0.364553
0.972549 0.708827 0.388724
0.508827 0.622553 0.322545
0.524407 0.626474 0.322545
0.562799 0.636240 0.323903
0.622919 0.653346 0.328450
0.701167 0.674937 0.333455
0.790066 0.701472 0.343496
0.885298 0.728038 0.357931
0.965194 0.751904 0.388235
0.972549 0.771450 0.423651
0.593133 0.710353 0.376043
0.601404 0.711269 0.376898
0.627771 0.719097 0.376898
0.672236 0.730694 0.376959
0.728405 0.748287 0.380880
0.803326 0.771344 0.388693
0.889220 0.796857 0.400488
0.965682 0.821561 0.420478
0.972549 0.848035 0.474510
0.650980 0.776471 0.419120
0.658824 0.780392 0.419120
0.677455 0.784314 0.419120
0.708339 0.796078 0.423041
0.756863 0.811765 0.424994
0.818814 0.832654 0.432349
0.897063 0.855879 0.443992
0.969116 0.882780 0.463172
0.972549 0.905882 0.498039
0.000000 0.035294 0.138231
0.000000 0.050492 0.153429
0.100984 0.099016 0.191913
0.298039 0.164706 0.244114
0.508827 0.256367 0.292164
0.686763 0.348531 0.336278
0.822797 0.425483 0.373526
0.907713 0.500984 0.419730
0.929412 0.528435 0.444114
0.000000 0.062257 0.149996
0.000000 0.083940 0.165026
0.115435 0.129534 0.203494
0.315679 0.205386 0.251652
0.524025 0.292836 0.299748
0.698344 0.374990 0.342641
0.828092 0.447547 0.377447
0.914000 0.517159 0.420584
0.933333 0.543633 0.446693
0.000000 0.133333 0.194369
0.000641 0.156374 0.202579
0.164706 0.210178 0.233143
0.352422 0.285603 0.274784
0.552941 0.357839 0.316670
0.717769 0.430915 0.354406
0.840131 0.493141 0.385290
0.922545 0.551934 0.427207
0.941176 0.574517 0.451957
0.013352 0.264332 0.248035
0.105348 0.283497 0.255879
0.255390 0.325490 0.278431
0.417639 0.384436 0.306859
0.594430 0.445594 0.337133
0.740429 0.504356 0.367330
0.854902 0.553918 0.393133
0.933349 0.599069 0.431022
0.952941 0.619608 0.458701
0.235294 0.405386 0.306371
0.275486 0.418875 0.310719
0.360418 0.449027 0.323033
0.484001 0.489158 0.337926
0.628916 0.537499 0.356863
0.759625 0.582101 0.379171
0.866667 0.616663 0.400977
0.942702 0.651225 0.434623
0.968627 0.670100 0.467643
0.375494 0.537133 0.355398
0.399069 0.542763 0.356863
0.457603 0.560296 0.362615
0.547066 0.585580 0.371084
0.656306 0.617777 0.380880
0.767651 0.650492 0.393683
0.870588 0.678431 0.410086
0.950988 0.705623 0.438224
0.972549 0.724514 0.473533
0.485542 0.632593 0.395102
0.501472 0.637812 0.395102
0.539956 0.646021 0.398032
0.603830 0.663050 0.400855
0.682353 0.685420 0.406378
0.774762 0.712261 0.414557
0.871321 0.736278 0.425681
0.954772 0.763882 0.445686
0.972549 0.783093 0.481376
0.574884 0.717769 0.429908
0.585840 0.719112 0.429908
0.612528 0.726925 0.429908
0.656962 0.738537 0.432395
0.715373 0.756069 0.433829
0.791760 0.778927 0.441672
0.877546 0.802426 0.453437
0.957961 0.829282 0.469612
0.972549 0.851957 0.497429
0.639216 0.784314 0.460777
0.646693 0.788235 0.460777
0.666667 0.792157 0.460777
0.699382 0.803555 0.464714
0.747555 0.819120 0.468620
0.812863 0.840314 0.473533
0.888487 0.863478 0.484565
0.965194 0.886763 0.501472
0.972549 0.909804 0.531365
0.000000 0.043137 0.228428
0.000000 0.054414 0.239704
0.048035 0.113603 0.284932
0.263233 0.186282 0.348043
0.478676 0.286763 0.403433
0.667643 0.379416 0.448035
0.805386 0.459312 0.478920
0.899016 0.531365 0.516182
0.923033 0.559319 0.528923
0.000000 0.076158 0.244785
0.000000 0.088991 0.258824
0.050370 0.145983 0.299016
0.274815 0.228428 0.356863
0.489403 0.317647 0.409216
0.674708 0.404898 0.451957
0.809262 0.478553 0.482841
0.902678 0.546487 0.520104
0.926955 0.574701 0.532845
0.000000 0.147921 0.287739
0.000000 0.174517 0.303288
0.079286 0.228763 0.333089
0.307637 0.303365 0.379904
0.512993 0.381125 0.424323
0.688273 0.458335 0.462974
0.818540 0.523278 0.490684
0.908248 0.578927 0.523629
0.934432 0.605386 0.536767
0.000000 0.278004 0.352514
0.000916 0.295781 0.357351
0.179156 0.339712 0.378759
0.365606 0.399939 0.412253
0.546563 0.464714 0.444602
0.704479 0.527596 0.475288
0.828550 0.578347 0.497932
0.916365 0.623835 0.525490
0.946014 0.645029 0.540688
0.126955 0.418875 0.403433
0.193713 0.432197 0.407996
0.305638 0.462684 0.421073
0.435538 0.504906 0.441459
0.587259 0.553185 0.461891
0.725002 0.600275 0.483330
0.838239 0.638727 0.501472
0.925490 0.671565 0.522942
0.959564 0.689464 0.540688
0.324025 0.550423 0.445594
0.350317 0.558038 0.448035
0.415076 0.574884 0.455268
0.508537 0.600549 0.463722
0.622553 0.631434 0.474754
0.739773 0.666606 0.488746
0.845716 0.693980 0.501472
0.932174 0.721263 0.517952
0.972549 0.740200 0.542153
0.448524 0.644602 0.474998
0.465064 0.647913 0.476097
0.507881 0.657755 0.478309
0.573037 0.675227 0.482231
0.657847 0.696757 0.487861
0.751598 0.723537 0.495705
0.849271 0.749416 0.504005
0.939788 0.777447 0.519661
0.972549 0.796933 0.544610
0.547738 0.726772 0.497734
0.558892 0.729107 0.497993
0.585916 0.736416 0.499321
0.634684 0.748714 0.501656
0.696071 0.766354 0.503426
0.772412 0.788525 0.510094
0.859617 0.813397 0.518975
0.946456 0.840681 0.533242
0.972549 0.863722 0.560479
0.619608 0.796078 0.518624
0.628428 0.798230 0.518624
0.647547 0.803555 0.518624
0.682353 0.813291 0.522545
0.730877 0.828672 0.526467
0.797482 0.848524 0.530388
0.874632 0.871199 0.542153
0.954101 0.898344 0.558328
0.972549 0.920104 0.585290
0.000000 0.054902 0.319600
0.000000 0.062501 0.327459
0.001465 0.136278 0.373526
0.219120 0.221073 0.434318
0.433326 0.317647 0.496086
0.640681 0.410300 0.548531
0.784314 0.490196 0.578927
0.887251 0.559808 0.608331
0.913725 0.590188 0.617639
0.000000 0.091417 0.334798
0.000000 0.104448 0.346075
0.000000 0.175067 0.388907
0.228428 0.256519 0.445594
0.442893 0.344610 0.503792
0.645258 0.433249 0.552148
0.788052 0.506737 0.579416
0.889433 0.575006 0.610300
0.917403 0.603677 0.621561
0.000000 0.171572 0.373526
0.000000 0.197971 0.395590
0.005875 0.255879 0.423529
0.255390 0.325795 0.468620
0.463722 0.402701 0.517159
0.656367 0.482841 0.556374
0.794125 0.548043 0.583337
0.893568 0.605875 0.612009
0.925490 0.632349 0.625483
0.000000 0.294118 0.442161
0.000000 0.315190 0.450645
0.071321 0.358816 0.466484
0.309804 0.418906 0.500984
0.498161 0.483818 0.535790
0.671046 0.548287 0.567590
0.798032 0.601526 0.589944
0.897215 0.648188 0.611185
0.935286 0.671077 0.629419
0.006867 0.430396 0.490196
0.053437 0.443870 0.494118
0.215930 0.475242 0.508827
0.378561 0.520958 0.530022
0.538231 0.568627 0.552453
0.686275 0.617533 0.575250
0.804410 0.657115 0.592645
0.902327 0.691661 0.608209
0.948043 0.712749 0.629419
0.236271 0.560052 0.528191
0.274998 0.568963 0.530632
0.353918 0.586267 0.537682
0.459800 0.613504 0.550057
0.580270 0.644114 0.562737
0.703929 0.678920 0.577203
0.812924 0.709804 0.590692
0.909316 0.737987 0.603525
0.960296 0.757839 0.625483
0.393133 0.655390 0.551476
0.415198 0.659129 0.553429
0.459922 0.669001 0.557351
0.532113 0.686030 0.563058
0.623041 0.708095 0.569848
0.721080 0.736584 0.578622
0.820706 0.762860 0.588724
0.916976 0.790692 0.602457
0.972549 0.813733 0.622065
0.505394 0.734798 0.570840
0.518624 0.738476 0.570840
0.548836 0.746258 0.572793
0.600000 0.757351 0.574762
0.667399 0.775738 0.579660
0.746563 0.798688 0.586526
0.833265 0.825055 0.594858
0.926955 0.852445 0.608789
0.972549 0.877455 0.631617
0.590188 0.805890 0.588235
0.597787 0.807843 0.588235
0.620584 0.813718 0.588235
0.657847 0.824750 0.590188
0.707836 0.841169 0.594110
0.776226 0.859556 0.600732
0.855390 0.883330 0.611765
0.940444 0.908095 0.627451
0.968627 0.931365 0.654902
0.000000 0.089220 0.412253
0.000000 0.100984 0.421378
0.000000 0.172183 0.469123
0.154345 0.265202 0.521569
0.387259 0.352453 0.580880
0.598032 0.439704 0.634257
0.754284 0.521080 0.672053
0.870283 0.586770 0.702937
0.898039 0.617151 0.708827
0.000000 0.131685 0.431373
0.000000 0.141558 0.439216
0.000000 0.213230 0.484382
0.160525 0.294896 0.529702
0.393713 0.375494 0.586954
0.603250 0.460288 0.636332
0.756329 0.536278 0.672053
0.870588 0.601968 0.702937
0.904112 0.628428 0.710292
0.000000 0.202457 0.464088
0.000000 0.225360 0.482765
0.000000 0.289708 0.516640
0.186450 0.356374 0.552514
0.412497 0.428733 0.599573
0.613107 0.505470 0.644724
0.762127 0.574014 0.675608
0.874510 0.628916 0.699138
0.911635 0.655390 0.710292
0.000000 0.317159 0.527886
0.000000 0.340200 0.538613
0.010376 0.386145 0.554482
0.241749 0.441184 0.582437
0.440955 0.503395 0.618357
0.627024 0.568627 0.652384
0.767163 0.623789 0.677821
0.878126 0.668925 0.696452
0.921019 0.691722 0.710292
0.000000 0.448524 0.578180
0.004257 0.461280 0.581369
0.104723 0.492470 0.588602
0.313725 0.536828 0.611276
0.483085 0.584680 0.635050
0.643626 0.633402 0.658854
0.770336 0.674266 0.675975
0.878431 0.709071 0.691081
0.933822 0.732845 0.710292
0.077394 0.569116 0.608331
0.137743 0.577447 0.612146
0.257298 0.596643 0.618799
0.389273 0.624994 0.632090
0.526711 0.656611 0.645594
0.661738 0.691600 0.660227
0.774243 0.724575 0.674586
0.878431 0.755459 0.688533
0.943633 0.780331 0.706371
0.309194 0.664714 0.630396
0.333333 0.668956 0.631296
0.389548 0.678126 0.635508
0.472633 0.695613 0.642161
0.575006 0.720043 0.650736
0.682353 0.748302 0.661769
0.784955 0.775494 0.671077
0.887251 0.806378 0.684947
0.957473 0.830884 0.706004
0.444297 0.743938 0.646082
0.457618 0.747692 0.646082
0.494728 0.754330 0.646571
0.552148 0.768322 0.651301
0.626078 0.786191 0.657939
0.710842 0.810300 0.666239
0.801968 0.836713 0.677501
0.902129 0.864561 0.689860
0.972549 0.891356 0.712932
0.542153 0.815686 0.657847
0.553613 0.819608 0.657847
0.576471 0.824628 0.661769
0.619120 0.835294 0.663233
0.676967 0.851713 0.669612
0.746563 0.871138 0.677455
0.828916 0.895094 0.687373
0.917647 0.919615 0.702754
0.968627 0.942641 0.728435
0.000000 0.143130 0.504906
0.000000 0.153552 0.511391
0.000000 0.214466 0.553918
0.066545 0.307347 0.601099
0.341176 0.387259 0.657847
0.550851 0.468132 0.711391
0.712749 0.544121 0.752941
0.840192 0.613733 0.787747
0.882353 0.640192 0.794125
0.000000 0.177813 0.520104
0.000000 0.185504 0.526741
0.000000 0.251987 0.570092
0.074022 0.333333 0.610880
0.345525 0.408331 0.663050
0.555520 0.485924 0.713603
0.715648 0.560357 0.754864
0.843626 0.625376 0.787747
0.886275 0.651957 0.794125
0.000000 0.241169 0.549264
0.000000 0.259159 0.564462
0.000000 0.321569 0.600916
0.099016 0.388693 0.630213
0.361151 0.457847 0.676463
0.564187 0.529107 0.721080
0.720958 0.596323 0.756435
0.847547 0.651957 0.784680
0.893141 0.678431 0.794858
0.000000 0.347677 0.606867
0.000000 0.368490 0.616571
0.003555 0.414221 0.635050
0.156802 0.468132 0.657847
0.388724 0.525368 0.693019
0.578164 0.585290 0.728923
0.725246 0.640314 0.756863
0.851469 0.686503 0.779904
0.901595 0.712871 0.795102
0.001968 0.469123 0.655390
0.001526 0.483085 0.658824
0.023774 0.511772 0.663722
0.233387 0.554040 0.683879
0.426474 0.599756 0.708339
0.595041 0.646693 0.733822
0.729168 0.688228 0.756619
0.851041 0.724575 0.775738
0.914702 0.751965 0.791180
0.008698 0.577935 0.682475
0.034455 0.587350 0.684688
0.149905 0.606531 0.690166
0.317220 0.634928 0.704158
0.468132 0.667643 0.720104
0.613855 0.702678 0.737377
0.735576 0.736156 0.754314
0.848035 0.768750 0.768017
0.924880 0.798535 0.787259
0.174258 0.668635 0.701717
0.212528 0.673411 0.704173
0.294911 0.685054 0.708095
0.397574 0.703243 0.716396
0.514092 0.726833 0.725978
0.638270 0.757107 0.737377
0.744854 0.787259 0.750668
0.855390 0.818784 0.764096
0.937987 0.850004 0.790448
0.356252 0.750484 0.715816
0.375006 0.754360 0.716564
0.417304 0.762127 0.719738
0.484688 0.776165 0.724193
0.573526 0.795163 0.731441
0.669734 0.821088 0.741573
0.767071 0.848371 0.755245
0.871077 0.877287 0.768505
0.955886 0.907713 0.795590
0.479408 0.823529 0.728435
0.490684 0.827451 0.731380
0.518624 0.831373 0.731380
0.567651 0.843137 0.735912
0.633829 0.860792 0.743130
0.709316 0.882719 0.753063
0.794125 0.906859 0.766918
0.890684 0.930755 0.782467
0.967651 0.956863 0.810788
0.000000 0.196567 0.597543
0.000000 0.200977 0.601465
0.000488 0.256748 0.638727
0.017334 0.349020 0.684504
0.285298 0.424018 0.730632
0.502144 0.499016 0.782849
0.670954 0.571084 0.821576
0.805386 0.636759 0.856428
0.866178 0.671077 0.871565
0.000000 0.223102 0.608392
0.000000 0.230457 0.613123
0.000809 0.290684 0.654780
0.019791 0.369909 0.693202
0.292653 0.443137 0.736492
0.506371 0.516670 0.783001
0.673335 0.586282 0.822553
0.808820 0.647669 0.856367
0.866178 0.681926 0.871565
0.003922 0.276967 0.635294
0.000061 0.295583 0.647379
0.001526 0.356374 0.681865
0.032517 0.423041 0.708827
0.305760 0.485786 0.748226
0.516793 0.554726 0.790692
0.677577 0.617151 0.825483
0.811566 0.671015 0.856367
0.870466 0.701472 0.875486
0.003738 0.376471 0.684321
0.003433 0.399512 0.695964
0.001907 0.442161 0.713603
0.066728 0.493568 0.731365
0.328923 0.550240 0.763882
0.528923 0.607156 0.798535
0.682399 0.657496 0.829419
0.813169 0.704906 0.852445
0.880583 0.732357 0.872053
0.000488 0.492409 0.730632
0.002152 0.504356 0.735851
0.003922 0.534310 0.740200
0.133822 0.572549 0.754406
0.361517 0.615930 0.779416
0.543877 0.660380 0.806378
0.686213 0.702998 0.829419
0.813169 0.740200 0.852415
0.893385 0.769116 0.868132
0.003922 0.591363 0.755703
0.003922 0.598917 0.758022
0.050065 0.617639 0.761898
0.221073 0.644678 0.774456
0.402457 0.677058 0.791272
0.562432 0.714214 0.810605
0.693187 0.749325 0.829419
0.813230 0.784131 0.848524
0.901472 0.817334 0.868132
0.031861 0.672541 0.773526
0.059236 0.677348 0.773632
0.154406 0.689281 0.778210
0.307759 0.710292 0.788113
0.445594 0.736400 0.799268
0.582361 0.767819 0.814298
0.702327 0.799023 0.829786
0.820157 0.833829 0.848524
0.914214 0.867765 0.871687
0.216663 0.754406 0.789273
0.246143 0.757839 0.789700
0.307836 0.766064 0.793515
0.394308 0.781674 0.801022
0.501503 0.802945 0.809308
0.615686 0.829908 0.820966
0.721340 0.860029 0.836393
0.833265 0.891295 0.852506
0.929839 0.922545 0.879469
0.381857 0.827451 0.804898
0.397543 0.831373 0.804898
0.432715 0.838239 0.808820
0.492164 0.849516 0.813046
0.573037 0.868620 0.820829
0.658640 0.890379 0.832532
0.752331 0.915068 0.848157
0.855879 0.941665 0.864210
0.944610 0.968627 0.891173
0.003922 0.227451 0.639216
0.000488 0.238727 0.647059
0.000000 0.299016 0.689220
0.015198 0.377447 0.725490
0.260777 0.450980 0.766659
0.476967 0.518135 0.813230
0.644114 0.587259 0.852934
0.775006 0.652445 0.894606
0.850980 0.690196 0.913725
0.000488 0.253925 0.654414
0.000427 0.265690 0.665690
0.003433 0.326833 0.704417
0.016663 0.400305 0.735286
0.264454 0.470100 0.774258
0.479408 0.535790 0.818448
0.647059 0.601465 0.855879
0.777996 0.663722 0.898039
0.854414 0.698039 0.913725
0.000977 0.311757 0.685298
0.000366 0.334798 0.703426
0.001465 0.388235 0.731365
0.021576 0.450004 0.754406
0.274510 0.511772 0.787747
0.487251 0.573526 0.828916
0.650980 0.632349 0.863722
0.778439 0.686275 0.902449
0.854902 0.720592 0.917647
0.002457 0.411276 0.738231
0.001770 0.430396 0.747066
0.001831 0.469123 0.763241
0.042161 0.516609 0.777447
0.289464 0.569604 0.808331
0.494545 0.623529 0.841611
0.651957 0.671077 0.871565
0.777935 0.719295 0.906371
0.862745 0.749996 0.925490
0.001968 0.513725 0.780392
0.001968 0.526955 0.785779
0.002945 0.551476 0.791669
0.078187 0.586770 0.801968
0.312749 0.628428 0.827451
0.500252 0.672801 0.854414
0.650980 0.713237 0.882841
0.777935 0.755642 0.908583
0.870588 0.786267 0.929412
0.001465 0.600488 0.809308
0.000305 0.608148 0.813046
0.006867 0.625864 0.815686
0.112749 0.652445 0.824445
0.336767 0.687251 0.845090
0.510780 0.722972 0.867216
0.650980 0.760784 0.887251
0.774014 0.798032 0.912078
0.874510 0.830396 0.934798
0.000977 0.676478 0.828428
0.004898 0.681376 0.831373
0.040192 0.695338 0.832349
0.200488 0.716304 0.843748
0.375494 0.744610 0.857359
0.527825 0.775982 0.876600
0.658824 0.810788 0.895094
0.778058 0.845594 0.918135
0.883330 0.883330 0.941176
0.073045 0.754406 0.847547
0.099565 0.758328 0.850980
0.175494 0.769970 0.851469
0.289708 0.785595 0.861463
0.424506 0.807111 0.872801
0.555398 0.837751 0.888045
0.674998 0.868635 0.906371
0.790631 0.899931 0.926894
0.898528 0.933822 0.952941
0.223529 0.827451 0.866667
0.250004 0.831373 0.870588
0.307836 0.839216 0.874510
0.391669 0.850980 0.880888
0.492164 0.872541 0.892164
0.596567 0.895583 0.903426
0.700984 0.922545 0.918624
0.813230 0.949508 0.937743
0.913725 0.976471 0.956863
