app/src/main/assets/filters/cn200.cube
# Created from cn200.plut
LUT_3D_SIZE 5
DOMAIN_MIN 0.0 0.0 0.0
DOMAIN_MAX 1.0 1.0 1.0
0.000000 0.023529 0.035294
0.166674 0.085298 0.058824
0.554894 0.205890 0.050980
0.838239 0.366674 0.120592
0.929412 0.474510 0.266667
0.049012 0.125490 0.069612
0.247791 0.198032 0.073533
0.618143 0.322545 0.062745
0.865446 0.443137 0.150988
0.945098 0.527459 0.270588
0.305882 0.388235 0.147066
0.417639 0.426474 0.149020
0.669612 0.511772 0.161761
0.892164 0.585779 0.228916
0.972549 0.639216 0.321569
0.516670 0.618631 0.284321
0.572549 0.632593 0.287495
0.708339 0.670588 0.296086
0.892164 0.723537 0.324269
0.972549 0.767651 0.393133
0.654902 0.776471 0.400000
0.681376 0.784314 0.400000
0.760784 0.807843 0.405890
0.900008 0.851957 0.427451
0.972549 0.901961 0.490196
0.000000 0.035294 0.138231
0.100984 0.099016 0.191913
0.508827 0.256367 0.292164
0.822797 0.425483 0.373526
0.929412 0.528435 0.444114
0.000000 0.133333 0.194369
0.164706 0.210178 0.233143
0.552941 0.357839 0.316670
0.840131 0.493141 0.385290
0.941176 0.574517 0.451957
0.235294 0.405386 0.306371
0.360418 0.449027 0.323033
0.628916 0.537499 0.356863
0.866667 0.616663 0.400977
0.968627 0.670100 0.467643
0.485542 0.632593 0.395102
0.539956 0.646021 0.398032
0.682353 0.685420 0.406378
0.871321 0.736278 0.425681
0.972549 0.783093 0.481376
0.639216 0.784314 0.460777
0.666667 0.792157 0.460777
0.747555 0.819120 0.468620
0.888487 0.863478 0.484565
0.972549 0.909804 0.531365
0.000000 0.054902 0.319600
0.001465 0.136278 0.373526
0.433326 0.317647 0.496086
0.784314 0.490196 0.578927
0.913725 0.590188 0.617639
0.000000 0.171572 0.373526
0.005875 0.255879 0.423529
0.463722 0.402701 0.517159
0.794125 0.548043 0.583337
0.925490 0.632349 0.625483
0.006867 0.430396 0.490196
0.215930 0.475242 0.508827
0.538231 0.568627 0.552453
0.804410 0.657115 0.592645
0.948043 0.712749 0.629419
0.393133 0.655390 0.551476
0.459922 0.669001 0.557351
0.623041 0.708095 0.569848
0.820706 0.762860 0.588724
0.972549 0.813733 0.622065
0.590188 0.805890 0.588235
0.620584 0.813718 0.588235
0.707836 0.841169 0.594110
0.855390 0.883330 0.611765
0.968627 0.931365 0.654902
0.000000 0.143130 0.504906
0.000000 0.214466 0.553918
0.341176 0.387259 0.657847
0.712749 0.544121 0.752941
0.882353 0.640192 0.794125
0.000000 0.241169 0.549264
0.000000 0.321569 0.600916
0.361151 0.457847 0.676463
0.720958 0.596323 0.756435
0.893141 0.678431 0.794858
0.001968 0.469123 0.655390
0.023774 0.511772 0.663722
0.426474 0.599756 0.708339
0.729168 0.688228 0.756619
0.914702 0.751965 0.791180
0.174258 0.668635 0.701717
0.294911 0.685054 0.708095
0.514092 0.726833 0.725978
0.744854 0.787259 0.750668
0.937987 0.850004 0.790448
0.479408 0.823529 0.728435
0.518624 0.831373 0.731380
0.633829 0.860792 0.743130
0.794125 0.906859 0.766918
0.967651 0.956863 0.810788
0.003922 0.227451 0.639216
0.000000 0.299016 0.689220
0.260777 0.450980 0.766659
0.644114 0.587259 0.852934
0.850980 0.690196 0.913725
0.000977 0.311757 0.685298
0.001465 0.388235 0.731365
0.274510 0.511772 0.787747
0.650980 0.632349 0.863722
0.854902 0.720592 0.917647
0.001968 0.513725 0.780392
0.002945 0.551476 0.791669
0.312749 0.628428 0.827451
0.650980 0.713237 0.882841
0.870588 0.786267 0.929412
0.000977 0.676478 0.828428
0.040192 0.695338 0.832349
0.375494 0.744610 0.857359
0.658824 0.810788 0.895094
0.883330 0.883330 0.941176
0.223529 0.827451 0.866667
0.307836 0.839216 0.874510
0.492164 0.872541 0.892164
0.700984 0.922545 0.918624
0.913725 0.976471 0.956863
