app/src/main/assets/filters/Dramatic BlackWalker-S.cube
TITLE "Generated by Resolve"
#LUMIXPHOTOSTYLE STD
LUT_3D_SIZE 33
0.0433051 0.0537575 0.0565042
0.044892 0.0551919 0.057969
0.0485847 0.0583505 0.0612345
0.0538033 0.0624094 0.0652476
0.0608377 0.0675669 0.0700542
0.0692607 0.0731365 0.0747539
0.0806897 0.0806287 0.0801404
0.0941329 0.0879225 0.0842908
0.109026 0.094316 0.0869154
0.124361 0.0996109 0.0882887
0.139315 0.1037 0.0886854
0.155947 0.108248 0.0888228
0.173861 0.112764 0.0880446
0.19205 0.116686 0.0861372
0.210498 0.120027 0.0831769
0.228336 0.122515 0.0795605
0.245899 0.125124 0.0763714
0.262974 0.127825 0.0739757
0.279423 0.130327 0.0720989
0.295064 0.132525 0.070573
0.311025 0.135164 0.0694133
0.327138 0.138369 0.0685435
0.341619 0.141756 0.0680247
0.355032 0.144717 0.0679484
0.368872 0.147478 0.068513
0.383627 0.150103 0.0696117
0.398718 0.152651 0.0708629
0.414359 0.155215 0.0724346
0.429603 0.157549 0.0741131
0.444602 0.159747 0.0758831
0.459205 0.161807 0.07776
0.47332 0.163668 0.0797131
0.487556 0.165362 0.0818494
0.0443275 0.0551308 0.0579232
0.0455634 0.0564126 0.0590677
0.0492561 0.0595865 0.0622873
0.0552682 0.064271 0.0667277
0.0624247 0.0695354 0.0715038
0.0711681 0.0754406 0.0762188
0.082948 0.0830396 0.0814832
0.0968948 0.0904555 0.0855573
0.112352 0.096788 0.088014
0.128069 0.101869 0.0891127
0.143481 0.105882 0.08925
0.160159 0.110262 0.0890211
0.178347 0.114733 0.0879072
0.197177 0.118791 0.0857099
0.215946 0.122179 0.0825208
0.234058 0.124727 0.0787213
0.25214 0.127474 0.0754406
0.269718 0.130251 0.0729839
0.286427 0.132692 0.0710765
0.301869 0.134722 0.0696574
0.316701 0.136995 0.0686961
0.331594 0.139681 0.0680247
0.345739 0.142977 0.0677043
0.358816 0.145739 0.0677653
0.372732 0.148318 0.0686351
0.387289 0.150805 0.0698253
0.402365 0.153292 0.0711986
0.417975 0.155779 0.0728313
0.43357 0.158145 0.0745556
0.448737 0.160342 0.0763867
0.463157 0.162356 0.0782788
0.477287 0.164141 0.080293
0.492042 0.165911 0.0825818
0.0466163 0.0582132 0.0611429
0.0478981 0.0596017 0.0623484
0.0506752 0.0623484 0.0647135
0.0567788 0.0670787 0.0691234
0.0648356 0.0729076 0.0739605
0.0739605 0.0790723 0.0786145
0.0860456 0.0865339 0.0835431
0.100343 0.0936751 0.0872053
0.116258 0.0997482 0.0892042
0.132876 0.104738 0.090074
0.149905 0.109148 0.0899519
0.167636 0.113817 0.0893111
0.186999 0.118563 0.087602
0.20676 0.122805 0.0848096
0.226658 0.126436 0.0810712
0.246189 0.129412 0.0768292
0.265339 0.132326 0.0733043
0.283742 0.135195 0.0707866
0.300618 0.13756 0.068864
0.315892 0.139559 0.0674754
0.330037 0.14168 0.0666514
0.343542 0.143877 0.066331
0.356909 0.146685 0.0663157
0.368658 0.148852 0.0667887
0.381689 0.150881 0.0681468
0.395483 0.152941 0.0696269
0.410086 0.155138 0.0712139
0.425299 0.157458 0.0729686
0.440665 0.159731 0.0747234
0.455741 0.161883 0.076585
0.47013 0.163867 0.0785229
0.484306 0.165606 0.0806287
0.499245 0.167391 0.0829938
0.0480659 0.0602579 0.0632792
0.0498817 0.0628824 0.0654612
0.0527504 0.0658122 0.0679332
0.0588693 0.0713664 0.0723735
0.0674449 0.0774701 0.0771038
0.0782788 0.0843671 0.0815442
0.0911421 0.0912947 0.0859388
0.10631 0.0985885 0.0893416
0.123384 0.104936 0.090837
0.141207 0.110338 0.0911421
0.159777 0.115358 0.0906386
0.178836 0.120211 0.0893111
0.199084 0.124773 0.0867323
0.219837 0.128985 0.0831006
0.240528 0.132677 0.078706
0.261494 0.135973 0.07393
0.282399 0.139223 0.0699779
0.30219 0.142321 0.0672465
0.31986 0.144717 0.065156
0.335439 0.146746 0.0637522
0.349798 0.149004 0.0630655
0.362371 0.150973 0.0630655
0.374136 0.152758 0.0638285
0.385092 0.15433 0.0648661
0.39707 0.15584 0.0665904
0.410193 0.157534 0.0683299
0.423911 0.159319 0.070161
0.438346 0.161334 0.0720531
0.453239 0.163424 0.0739605
0.468284 0.16553 0.0759289
0.48249 0.167376 0.0779736
0.49659 0.1691 0.0801404
0.511696 0.170916 0.0825666
0.0512856 0.0648051 0.0680705
0.0530251 0.0674601 0.0701762
0.055436 0.0706798 0.072755
0.0615244 0.0763714 0.0772259
0.0699931 0.0831464 0.08159
0.0818341 0.0903944 0.0856184
0.0968948 0.0971847 0.0884718
0.113207 0.104097 0.09131
0.131609 0.110796 0.0923934
0.151385 0.116945 0.0917983
0.171572 0.122713 0.0906691
0.192096 0.127916 0.0885023
0.213916 0.132753 0.0849012
0.236286 0.137102 0.0802014
0.258656 0.140978 0.0747692
0.280369 0.144411 0.0695201
0.302419 0.148028 0.0652781
0.323842 0.151461 0.0621042
0.343069 0.154147 0.059617
0.359045 0.156344 0.0580911
0.372992 0.158556 0.0577249
0.384939 0.160204 0.0580911
0.39617 0.161517 0.0593881
0.407813 0.162844 0.0611582
0.420279 0.164324 0.063035
0.433463 0.165972 0.0649119
0.447242 0.167727 0.066865
0.462074 0.169757 0.0688487
0.476875 0.171786 0.0709239
0.491264 0.173602 0.0731365
0.505119 0.175219 0.0754711
0.519234 0.176852 0.0778973
0.533654 0.178515 0.080415
0.0557565 0.0712596 0.0747387
0.0573587 0.073991 0.0767376
0.0596475 0.0772869 0.0792248
0.0647898 0.0825666 0.0831006
0.0728313 0.08925 0.0871748
0.0847334 0.0971847 0.0902113
0.102892 0.103853 0.0912947
0.121889 0.110597 0.092668
0.142077 0.117586 0.0931411
0.163638 0.124529 0.0918746
0.186236 0.131243 0.0895399
0.209262 0.137087 0.0856489
0.232959 0.142351 0.0804761
0.256809 0.147066 0.0744793
0.280369 0.151385 0.0681773
0.303655 0.155535 0.0623636
0.326863 0.159609 0.0576791
0.349203 0.163363 0.0540322
0.368612 0.166155 0.0513313
0.385733 0.168582 0.0497597
0.400244 0.170993 0.0495155
0.412863 0.173129 0.0502174
0.42359 0.174166 0.0518044
0.434974 0.175204 0.0539254
0.447288 0.176379 0.05626
0.460731 0.17789 0.0585184
0.474388 0.179461 0.0608072
0.488319 0.181079 0.0631113
0.502983 0.182971 0.0654917
0.517571 0.184771 0.0679942
0.531273 0.186236 0.0706645
0.544991 0.187701 0.0733654
0.559274 0.189319 0.076112
0.0610971 0.0792401 0.0832074
0.0630198 0.0825666 0.0859998
0.0650187 0.0859693 0.0884718
0.0685283 0.090486 0.090959
0.0753338 0.0969711 0.095201
0.0861067 0.105272 0.0992294
0.105577 0.113619 0.0988479
0.131502 0.119402 0.0950484
0.15491 0.125826 0.0930648
0.177966 0.132647 0.0905165
0.202274 0.139513 0.086717
0.227298 0.145815 0.0812848
0.253025 0.151598 0.0744335
0.278904 0.157031 0.0669871
0.30454 0.162219 0.0598001
0.329274 0.166888 0.0534066
0.352956 0.171176 0.0484016
0.374914 0.174945 0.0447547
0.39411 0.177935 0.0422827
0.411872 0.180804 0.0410163
0.427344 0.183642 0.0412146
0.440574 0.185916 0.042237
0.452537 0.187472 0.0440986
0.464683 0.188693 0.0463874
0.476844 0.189792 0.0489204
0.489357 0.190936 0.0515908
0.502541 0.192309 0.054139
0.516426 0.193942 0.0566262
0.530449 0.195666 0.059266
0.544839 0.197543 0.0618906
0.558984 0.199252 0.0647135
0.573251 0.201007 0.0675822
0.587411 0.202747 0.0704814
0.0674754 0.0890974 0.0937209
0.0693523 0.0925154 0.0967269
0.071519 0.0964828 0.0999161
0.0746777 0.101488 0.102403
0.0797894 0.107698 0.105592
0.0890669 0.115953 0.109621
0.105119 0.125154 0.110903
0.133822 0.131823 0.104784
0.167727 0.136278 0.0941176
0.194842 0.14226 0.0880751
0.22031 0.148257 0.0819715
0.246403 0.154406 0.0748913
0.273518 0.160327 0.0665446
0.301503 0.166293 0.0579538
0.329305 0.172045 0.0500191
0.355581 0.17731 0.0433661
0.379858 0.18204 0.0382696
0.402258 0.186236 0.0349279
0.420981 0.189563 0.0332952
0.438254 0.192538 0.033051
0.454444 0.195682 0.0340887
0.468986 0.198169 0.0356603
0.482368 0.200122 0.0377966
0.495109 0.201709 0.0401923
0.507973 0.203143 0.0428473
0.520836 0.204593 0.0454871
0.533318 0.205997 0.048127
0.546258 0.207584 0.0507057
0.559564 0.209247 0.0533913
0.573556 0.211429 0.0559091
0.587716 0.213642 0.0585794
0.601892 0.215854 0.0613718
0.616007 0.218128 0.0641794
0.0752117 0.101564 0.107027
0.0771954 0.105425 0.110552
0.0793317 0.109712 0.114214
0.0819867 0.115053 0.116823
0.0856184 0.121126 0.118715
0.0933394 0.129259 0.121523
0.107271 0.139071 0.123018
0.13164 0.148074 0.119402
0.17084 0.151583 0.106798
0.210498 0.154162 0.0879835
0.24004 0.15819 0.0762188
0.267826 0.163775 0.0668345
0.29604 0.169512 0.0573587
0.32491 0.175296 0.0482185
0.354284 0.181125 0.040238
0.382391 0.186847 0.033814
0.407568 0.191974 0.029099
0.43032 0.196582 0.0267491
0.449287 0.200351 0.0264591
0.467109 0.203662 0.0275883
0.483894 0.206912 0.0295109
0.498878 0.209369 0.031693
0.513054 0.211566 0.0341039
0.527138 0.213779 0.0365301
0.540719 0.2159 0.038941
0.554177 0.217975 0.0415351
0.566888 0.219852 0.043946
0.579782 0.222156 0.0462348
0.592233 0.224094 0.0487221
0.60473 0.226368 0.0509957
0.618204 0.229145 0.0532998
0.631617 0.231922 0.055848
0.64509 0.234745 0.0584878
0.0839704 0.116838 0.123095
0.0860456 0.121202 0.127153
0.0880751 0.125795 0.131243
0.090135 0.131197 0.133867
0.0925612 0.137087 0.13518
0.0983597 0.145144 0.135531
0.110292 0.154894 0.135302
0.132006 0.164599 0.131899
0.166995 0.170489 0.121462
0.214435 0.171191 0.103243
0.259236 0.171069 0.0742809
0.290974 0.174685 0.0587778
0.320989 0.179706 0.0476539
0.351049 0.18526 0.0386664
0.381491 0.190875 0.0314794
0.409415 0.196292 0.0262455
0.434562 0.201434 0.0227665
0.458259 0.206409 0.0215
0.479469 0.210666 0.0229801
0.49836 0.213993 0.0254063
0.516121 0.217426 0.027863
0.532021 0.220279 0.0302892
0.546517 0.222843 0.0327459
0.560708 0.225498 0.035111
0.574823 0.22826 0.0373846
0.589395 0.231403 0.0396124
0.602838 0.234348 0.0418097
0.615641 0.237201 0.0437781
0.628214 0.240314 0.0458686
0.639826 0.243076 0.0478218
0.651469 0.246052 0.0497902
0.663417 0.249195 0.0519875
0.675959 0.252674 0.0544137
0.0927749 0.134295 0.141421
0.0945602 0.138735 0.145418
0.0963607 0.143481 0.149538
0.0981003 0.149111 0.152514
0.0999924 0.155123 0.153903
0.103441 0.162402 0.151675
0.112795 0.171878 0.148608
0.131868 0.182239 0.143664
0.164263 0.1897 0.134096
0.209781 0.191669 0.117998
0.263981 0.189975 0.0927749
0.311192 0.188449 0.0572366
0.347707 0.191546 0.0394598
0.378866 0.196063 0.030457
0.409216 0.201236 0.0248112
0.437827 0.206592 0.0206149
0.463264 0.211643 0.0181582
0.487266 0.216403 0.018204
0.510353 0.220813 0.0210574
0.53164 0.224979 0.0242618
0.550713 0.228931 0.0269474
0.566918 0.232212 0.0295415
0.581827 0.235279 0.032105
0.596948 0.238727 0.0345159
0.611383 0.242161 0.0368353
0.625605 0.245747 0.0390631
0.639689 0.249683 0.0411994
0.65211 0.253361 0.0430762
0.664317 0.257023 0.0449836
0.675807 0.260746 0.0468452
0.6869 0.264424 0.0487526
0.697673 0.267994 0.0508278
0.708751 0.271626 0.0530098
0.100969 0.153323 0.161044
0.102495 0.158129 0.165179
0.104036 0.163348 0.169528
0.105364 0.168933 0.172396
0.106706 0.174914 0.173495
0.108415 0.181842 0.170291
0.115328 0.190906 0.162966
0.131533 0.200641 0.154528
0.161257 0.208682 0.144747
0.204944 0.212619 0.130816
0.259007 0.211505 0.109987
0.316747 0.208072 0.0784619
0.369696 0.206195 0.0378729
0.407477 0.208286 0.0244755
0.438529 0.212543 0.0191196
0.46685 0.217472 0.0155795
0.493706 0.222461 0.0141451
0.519707 0.227573 0.0159152
0.543587 0.232364 0.0195621
0.565255 0.237003 0.0229801
0.585428 0.241718 0.0260166
0.602594 0.245762 0.0289769
0.618006 0.249454 0.031754
0.632959 0.253407 0.0342718
0.647837 0.25774 0.0367437
0.661662 0.261967 0.0390936
0.674708 0.266209 0.0413062
0.686931 0.270481 0.0433661
0.698909 0.274922 0.0452888
0.710552 0.279088 0.0471809
0.721416 0.282994 0.0489662
0.732494 0.287053 0.050782
0.743328 0.290929 0.0526741
0.108385 0.174105 0.182055
0.10956 0.179049 0.186023
0.11075 0.184375 0.190158
0.111681 0.190249 0.192935
0.112642 0.196643 0.194125
0.113512 0.203403 0.190692
0.117708 0.211444 0.179553
0.13164 0.220508 0.166232
0.159716 0.228336 0.15375
0.201373 0.232624 0.140856
0.253697 0.232853 0.1243
0.31165 0.230793 0.102892
0.374243 0.226337 0.062623
0.430533 0.224506 0.0230716
0.468544 0.226307 0.01355
0.49958 0.230777 0.0102235
0.52726 0.235874 0.00968948
0.55314 0.241077 0.0126497
0.577707 0.246418 0.0170596
0.600214 0.251774 0.0211032
0.619867 0.256931 0.0244907
0.636728 0.261555 0.027512
0.652384 0.266011 0.0305943
0.666819 0.270466 0.0334783
0.680629 0.275013 0.0361181
0.694301 0.279683 0.0385748
0.707698 0.284443 0.0408637
0.720134 0.289128 0.0428779
0.73196 0.293629 0.0446937
0.743847 0.29836 0.0461891
0.754788 0.302556 0.0476539
0.765454 0.306645 0.0491493
0.776516 0.310964 0.0507515
0.114778 0.196735 0.204303
0.115694 0.201587 0.207889
0.116747 0.207263 0.212055
0.117327 0.213214 0.214481
0.117769 0.219501 0.215274
0.117845 0.226413 0.211688
0.120256 0.233677 0.197803
0.131319 0.241489 0.178897
0.157687 0.248661 0.161929
0.199527 0.253483 0.148516
0.251514 0.254688 0.134447
0.306691 0.253315 0.119097
0.368277 0.250721 0.0935073
0.436606 0.248615 0.0426642
0.491768 0.246189 0.0108644
0.530465 0.247578 0.00514229
0.560571 0.251637 0.00495918
0.586252 0.25658 0.00862135
0.609689 0.261814 0.0139773
0.631708 0.267552 0.0187228
0.651713 0.273671 0.0225223
0.668345 0.278996 0.0259403
0.683284 0.283925 0.0289006
0.697444 0.288746 0.0315404
0.711147 0.293614 0.0339361
0.724407 0.298405 0.0361791
0.737636 0.303243 0.0383459
0.750729 0.308309 0.0403143
0.762829 0.312993 0.0419928
0.774624 0.317754 0.0434577
0.786084 0.322545 0.044831
0.796567 0.326833 0.0460975
0.807004 0.33109 0.047364
0.11986 0.221012 0.227512
0.120287 0.2262 0.230884
0.120928 0.231693 0.23447
0.121248 0.23772 0.236454
0.121431 0.244251 0.237018
0.121386 0.250828 0.232624
0.123384 0.257099 0.218555
0.131899 0.264012 0.194171
0.156359 0.26978 0.170169
0.198215 0.273793 0.153674
0.251316 0.276005 0.141451
0.305241 0.276875 0.128191
0.362173 0.275898 0.114809
0.429877 0.274952 0.0805219
0.497185 0.273579 0.0228275
0.551186 0.270329 0.00244144
0.58854 0.270787 0.00047303
0.615503 0.274189 0.00360113
0.638621 0.279164 0.00947585
0.659403 0.284596 0.0153353
0.67866 0.290517 0.0197452
0.696437 0.296635 0.0231174
0.712245 0.302235 0.0259556
0.726665 0.307546 0.028336
0.740093 0.312673 0.0303349
0.753216 0.317769 0.0322271
0.765957 0.322667 0.0341192
0.778561 0.327581 0.0359503
0.791241 0.332738 0.037583
0.803204 0.337652 0.0390173
0.814389 0.342367 0.0402838
0.825254 0.347097 0.0414282
0.835386 0.351553 0.0424201
0.12369 0.246159 0.250538
0.123857 0.251789 0.253697
0.124178 0.25771 0.256916
0.124407 0.263783 0.25835
0.124697 0.269978 0.258167
0.125185 0.276448 0.253162
0.12755 0.282277 0.239063
0.135622 0.287449 0.212024
0.156817 0.292119 0.181323
0.197848 0.295018 0.158648
0.251728 0.297017 0.146197
0.304921 0.299474 0.135058
0.359106 0.301305 0.126513
0.421622 0.301686 0.108446
0.49163 0.301961 0.0667582
0.553323 0.300008 0.00866712
0.604959 0.296208 0
0.6383 0.295796 0
0.662394 0.298573 0.00329595
0.68333 0.303136 0.00843824
0.702342 0.308263 0.014023
0.720058 0.314 0.0179446
0.737133 0.32015 0.0210574
0.752743 0.326101 0.0234073
0.766903 0.331731 0.0252842
0.779782 0.337057 0.0269169
0.79234 0.342321 0.0284123
0.804456 0.347311 0.0299382
0.816571 0.352316 0.0314946
0.828794 0.357565 0.0327459
0.840085 0.362417 0.033814
0.850828 0.367178 0.0347448
0.86125 0.372015 0.0355688
0.127825 0.273304 0.273289
0.128206 0.278508 0.275593
0.128695 0.284153 0.27805
0.129259 0.290318 0.279179
0.129854 0.296284 0.278523
0.130846 0.302235 0.273136
0.133867 0.307851 0.259602
0.142 0.313008 0.234119
0.161669 0.31635 0.197086
0.199237 0.317556 0.168521
0.252934 0.318196 0.152285
0.306691 0.321187 0.142565
0.358572 0.325277 0.135561
0.415564 0.327749 0.126177
0.482231 0.329442 0.102419
0.547814 0.329503 0.0560769
0.603876 0.327428 0.00250248
0.651362 0.323461 0
0.681239 0.321782 0
0.702907 0.323293 0.00114443
0.722225 0.327276 0.00567636
0.740154 0.332128 0.00970474
0.757778 0.337804 0.013611
0.774609 0.343954 0.0166476
0.789944 0.350134 0.0186923
0.803632 0.355871 0.0202029
0.816052 0.361303 0.0215305
0.828 0.366583 0.0227207
0.839689 0.371588 0.0239567
0.85124 0.376623 0.0251469
0.862791 0.381888 0.0260624
0.873503 0.386709 0.0268711
0.883604 0.391394 0.027512
0.134829 0.29987 0.294377
0.135531 0.305211 0.296437
0.136538 0.310658 0.298299
0.137713 0.316365 0.298756
0.138872 0.322087 0.297887
0.140688 0.328252 0.293095
0.144198 0.333684 0.280552
0.151827 0.338415 0.257176
0.169757 0.341939 0.220356
0.203952 0.342596 0.183948
0.255299 0.340291 0.163622
0.310109 0.342061 0.153185
0.361654 0.347921 0.145769
0.414115 0.353002 0.1402
0.474388 0.355795 0.12752
0.53962 0.357259 0.0971237
0.598047 0.356741 0.0479591
0.648997 0.355093 0.000396735
0.692454 0.351019 0
0.718715 0.347326 0
0.738552 0.347921 0
0.756985 0.3514 0.00161746
0.774777 0.356069 0.00451667
0.792065 0.361486 0.00764477
0.808682 0.36762 0.0104067
0.823438 0.373663 0.0121309
0.836606 0.379339 0.0134585
0.848524 0.384649 0.0145571
0.860243 0.389944 0.0154879
0.871412 0.394934 0.0165255
0.882307 0.4 0.0173648
0.893202 0.405219 0.0179446
0.903319 0.41001 0.0185397
0.146441 0.32723 0.315526
0.147951 0.332097 0.316838
0.149798 0.337606 0.318334
0.15201 0.343191 0.318486
0.154406 0.348714 0.317342
0.156939 0.354269 0.312764
0.161059 0.359548 0.30164
0.167865 0.36376 0.280827
0.182483 0.366842 0.248096
0.211795 0.367788 0.2065
0.259037 0.365332 0.179934
0.313497 0.363195 0.169238
0.365667 0.368948 0.158953
0.4159 0.376852 0.152728
0.469856 0.381765 0.146502
0.530114 0.383948 0.129412
0.590204 0.384848 0.0942855
0.641459 0.384298 0.0441901
0.688228 0.382681 0
0.72813 0.378332 0
0.751736 0.37258 0
0.770916 0.372473 0
0.788846 0.37557 0
0.805859 0.379705 0
0.822553 0.384787 0.0015259
0.83856 0.3906 0.00320439
0.852689 0.396124 0.00445563
0.86566 0.401679 0.00569161
0.877729 0.407111 0.00675975
0.88893 0.412314 0.00753796
0.899519 0.41735 0.00816358
0.909987 0.422431 0.00860609
0.920089 0.42739 0.0089723
0.163302 0.355337 0.33756
0.16611 0.360052 0.33846
0.169284 0.364965 0.339162
0.172427 0.370184 0.338842
0.175921 0.375647 0.337499
0.179431 0.380743 0.333181
0.183764 0.385061 0.322972
0.190616 0.388754 0.304906
0.203113 0.391226 0.276707
0.226856 0.392172 0.240421
0.267292 0.389975 0.205905
0.319081 0.386648 0.190555
0.370947 0.390066 0.177142
0.41944 0.39881 0.166964
0.469093 0.40679 0.162203
0.523171 0.410758 0.154162
0.58027 0.412009 0.132921
0.633417 0.412436 0.0957198
0.680186 0.412024 0.0444648
0.723156 0.410574 0
0.758999 0.404776 0
0.781613 0.397101 0
0.800458 0.396231 0
0.817609 0.398611 0
0.833738 0.402213 0
0.849515 0.406851 0
0.864561 0.41207 0
0.878538 0.417395 0
0.891783 0.422965 0
0.903716 0.428504 9.15541e-05
0.914702 0.433783 0.000518807
0.925139 0.438849 0.000854505
0.935027 0.443702 0.00111391
0.18436 0.383627 0.360937
0.188296 0.388128 0.361578
0.192477 0.392828 0.362097
0.196597 0.397559 0.361456
0.200565 0.402228 0.359716
0.204852 0.407065 0.355734
0.209186 0.410803 0.346532
0.21532 0.413367 0.330526
0.226841 0.415427 0.306905
0.247242 0.41622 0.275868
0.280705 0.413565 0.239567
0.32607 0.40914 0.217029
0.376074 0.411124 0.20087
0.423743 0.41886 0.186542
0.47039 0.429038 0.178195
0.519112 0.436347 0.174258
0.571557 0.439231 0.16347
0.624201 0.439857 0.138918
0.671885 0.43975 0.10042
0.714534 0.439216 0.0468605
0.754421 0.436912 0
0.786648 0.429953 0
0.809079 0.42089 0
0.827207 0.418479 0
0.843519 0.420096 0
0.858915 0.423209 0
0.873991 0.427451 0
0.888609 0.432334 0
0.902571 0.437568 0
0.915373 0.443137 0
0.927382 0.448875 0
0.938323 0.4542 0
0.948333 0.459205 0
0.208087 0.412848 0.386633
0.212055 0.416785 0.387076
0.216236 0.420935 0.387396
0.22089 0.425406 0.386892
0.225101 0.429572 0.385138
0.229297 0.433356 0.381109
0.234089 0.437079 0.373236
0.240421 0.439216 0.359579
0.250553 0.440391 0.339559
0.267582 0.441428 0.313405
0.294347 0.440345 0.279957
0.333379 0.435462 0.249241
0.379675 0.433677 0.232746
0.426902 0.439506 0.213138
0.473014 0.449165 0.199329
0.518364 0.459373 0.192416
0.565408 0.465537 0.187228
0.614481 0.467216 0.173373
0.662547 0.466682 0.145998
0.706188 0.466133 0.107073
0.745098 0.46424 0.0534066
0.781674 0.460121 0
0.811948 0.452827 0
0.833478 0.442985 0
0.851011 0.438956 0
0.866835 0.439765 0
0.881636 0.44271 0
0.895888 0.446738 0
0.910536 0.451652 0
0.924468 0.456992 0
0.937255 0.462715 0
0.949294 0.468513 0
0.959869 0.473747 0
0.235828 0.439399 0.407828
0.239155 0.443671 0.409613
0.242954 0.447745 0.410529
0.246571 0.451865 0.411078
0.250736 0.456062 0.410285
0.254307 0.459739 0.407691
0.258717 0.462806 0.401068
0.26453 0.46537 0.389929
0.273289 0.466239 0.37293
0.286778 0.4663 0.350103
0.307942 0.465629 0.320058
0.340963 0.462043 0.286015
0.383261 0.458396 0.26154
0.428656 0.460868 0.246036
0.47538 0.468894 0.224994
0.519631 0.479484 0.213382
0.562921 0.489082 0.20708
0.607767 0.494255 0.199756
0.653681 0.494667 0.182727
0.697734 0.493324 0.154406
0.737163 0.4916 0.113451
0.773114 0.487755 0.0552682
0.80737 0.482368 0
0.835645 0.474266 0
0.856016 0.463096 0
0.872816 0.458045 0
0.888136 0.458473 0
0.902388 0.461433 0
0.916716 0.465431 0
0.931441 0.470466 0
0.94519 0.475929 0
0.95787 0.481636 0
0.969375 0.48716 0
0.264027 0.464805 0.42916
0.267353 0.468666 0.430884
0.271061 0.473152 0.432975
0.274601 0.477272 0.434165
0.278111 0.481102 0.434119
0.281895 0.484871 0.432715
0.285115 0.487785 0.428046
0.28925 0.489952 0.418616
0.295918 0.491325 0.404349
0.306493 0.491005 0.384207
0.323003 0.489738 0.357488
0.350195 0.48748 0.326909
0.38732 0.48333 0.297642
0.42945 0.483162 0.277562
0.47602 0.48809 0.257282
0.521172 0.498268 0.237598
0.563088 0.509636 0.22797
0.604364 0.519036 0.221408
0.646647 0.522911 0.211444
0.688991 0.522148 0.192523
0.72932 0.520348 0.163195
0.764981 0.516274 0.118853
0.798856 0.510948 0.0589303
0.831876 0.504417 0.000289921
0.858 0.494682 0
0.87718 0.48246 0
0.893553 0.476921 0
0.908156 0.476844 0
0.922408 0.479744 0
0.937026 0.483894 0
0.951186 0.488731 0
0.964446 0.494102 0
0.976654 0.499611 0
0.291936 0.490318 0.452964
0.295537 0.493828 0.454643
0.299153 0.497719 0.456428
0.303288 0.501717 0.457816
0.306783 0.50547 0.458244
0.310277 0.508782 0.457008
0.314183 0.511437 0.453056
0.317617 0.513268 0.44538
0.32195 0.514305 0.433097
0.329702 0.514351 0.415946
0.342214 0.51281 0.392813
0.362768 0.510857 0.36701
0.392935 0.507378 0.338018
0.431312 0.505089 0.311238
0.474235 0.508232 0.292638
0.520378 0.515709 0.2692
0.563043 0.527916 0.251835
0.602152 0.539773 0.242847
0.641382 0.548943 0.235309
0.680766 0.551659 0.223545
0.720088 0.550179 0.203357
0.756863 0.546517 0.172351
0.790234 0.540459 0.125887
0.822538 0.5337 0.0629282
0.854734 0.525795 0.000274662
0.878889 0.514534 0
0.897337 0.50161 0
0.913115 0.49543 0
0.927184 0.494835 0
0.941405 0.497353 0
0.955612 0.501518 0
0.969314 0.50631 0
0.981704 0.511345 0
0.31928 0.515435 0.478416
0.323461 0.518822 0.480003
0.32752 0.52224 0.481437
0.33164 0.525612 0.482261
0.335668 0.529046 0.482551
0.339208 0.532097 0.481361
0.342458 0.53434 0.477546
0.34641 0.535836 0.471046
0.350408 0.536446 0.460883
0.35584 0.536278 0.446372
0.364996 0.535195 0.427527
0.379568 0.533455 0.405798
0.401038 0.530343 0.378683
0.433539 0.527138 0.348806
0.473899 0.527916 0.327062
0.516442 0.533867 0.307118
0.561044 0.544091 0.282719
0.600366 0.557748 0.267933
0.63714 0.570153 0.258778
0.67422 0.578897 0.249699
0.711406 0.580636 0.235874
0.747875 0.577508 0.213443
0.782147 0.571389 0.18027
0.813916 0.563729 0.131167
0.845533 0.555489 0.0644236
0.876127 0.546273 0.000198367
0.898665 0.533639 0
0.916548 0.520195 0
0.931426 0.513298 0
0.945113 0.512001 0
0.958892 0.514305 0
0.972702 0.518395 0
0.985306 0.523049 0
0.348592 0.540139 0.503288
0.35259 0.543313 0.504784
0.356664 0.546349 0.505928
0.360586 0.549249 0.506432
0.364584 0.552193 0.5066
0.368032 0.554803 0.505318
0.370916 0.556802 0.502007
0.373892 0.558175 0.496254
0.377768 0.558663 0.488075
0.382193 0.558343 0.476768
0.388708 0.557443 0.461509
0.398337 0.555932 0.443107
0.412192 0.553124 0.418585
0.436606 0.549462 0.389044
0.472221 0.547875 0.362707
0.51284 0.551827 0.344625
0.555291 0.560296 0.321935
0.596857 0.572778 0.298756
0.633738 0.587884 0.285756
0.669047 0.600824 0.27509
0.704417 0.608682 0.263096
0.739406 0.608515 0.245853
0.774136 0.603433 0.220554
0.806256 0.594934 0.18468
0.837385 0.585733 0.132326
0.868467 0.576608 0.0631876
0.896681 0.565957 0
0.917632 0.552026 0
0.934798 0.538308 0
0.94876 0.530617 0
0.961852 0.528786 0
0.975372 0.530938 0
0.987808 0.534676 0
0.379141 0.562554 0.524315
0.382727 0.565408 0.525719
0.386755 0.568643 0.52752
0.390356 0.571481 0.528496
0.393576 0.574105 0.529046
