app/src/main/assets/filters/Dramatic BlackWalker-S.cube
TITLE "Generated by Resolve"
#LUMIXPHOTOSTYLE STD
LUT_3D_SIZE 9
0.0433051 0.0537575 0.0565042
0.0608377 0.0675669 0.0700542
0.109026 0.094316 0.0869154
0.173861 0.112764 0.0880446
0.245899 0.125124 0.0763714
0.311025 0.135164 0.0694133
0.368872 0.147478 0.068513
0.429603 0.157549 0.0741131
0.487556 0.165362 0.0818494
0.0512856 0.0648051 0.0680705
0.0699931 0.0831464 0.08159
0.131609 0.110796 0.0923934
0.213916 0.132753 0.0849012
0.302419 0.148028 0.0652781
0.372992 0.158556 0.0577249
0.420279 0.164324 0.063035
0.476875 0.171786 0.0709239
0.533654 0.178515 0.080415
0.0752117 0.101564 0.107027
0.0856184 0.121126 0.118715
0.17084 0.151583 0.106798
0.29604 0.169512 0.0573587
0.407568 0.191974 0.029099
0.483894 0.206912 0.0295109
0.540719 0.2159 0.038941
0.592233 0.224094 0.0487221
0.64509 0.234745 0.0584878
0.108385 0.174105 0.182055
0.112642 0.196643 0.194125
0.159716 0.228336 0.15375
0.374243 0.226337 0.062623
0.52726 0.235874 0.00968948
0.619867 0.256931 0.0244907
0.680629 0.275013 0.0361181
0.73196 0.293629 0.0446937
0.776516 0.310964 0.0507515
0.127825 0.273304 0.273289
0.129854 0.296284 0.278523
0.161669 0.31635 0.197086
0.358572 0.325277 0.135561
0.603876 0.327428 0.00250248
0.722225 0.327276 0.00567636
0.789944 0.350134 0.0186923
0.839689 0.371588 0.0239567
0.883604 0.391394 0.027512
0.18436 0.383627 0.360937
0.200565 0.402228 0.359716
0.226841 0.415427 0.306905
0.376074 0.411124 0.20087
0.571557 0.439231 0.16347
0.754421 0.436912 0
0.843519 0.420096 0
0.902571 0.437568 0
0.948333 0.459205 0
0.291936 0.490318 0.452964
0.306783 0.50547 0.458244
0.32195 0.514305 0.433097
0.392935 0.507378 0.338018
0.563043 0.527916 0.251835
0.720088 0.550179 0.203357
0.854734 0.525795 0.000274662
0.927184 0.494835 0
0.981704 0.511345 0
0.408408 0.582666 0.544274
0.421881 0.594232 0.550439
0.430488 0.601419 0.541375
0.444724 0.596429 0.490669
0.543053 0.593591 0.396078
0.694362 0.646983 0.318608
0.823651 0.651957 0.225834
0.936507 0.604074 0
0.991913 0.562448 0
0.514839 0.662257 0.631678
0.525475 0.671992 0.637705
0.531106 0.678019 0.631693
0.538949 0.676966 0.600961
0.568841 0.669947 0.5205
0.677714 0.694041 0.44007
0.800916 0.755947 0.367529
0.922637 0.739742 0.217044
0.996368 0.682963 0
0.0476081 0.0594339 0.0625467
0.0612802 0.0754406 0.0810254
0.115511 0.0994278 0.107088
0.176364 0.111177 0.0984817
0.252369 0.129198 0.0840772
0.317601 0.140352 0.0712749
0.373342 0.14934 0.0677958
0.43093 0.157992 0.0739147
0.490288 0.16556 0.0824903
0.0611124 0.077821 0.0822614
0.0730602 0.0948653 0.100862
0.136446 0.125109 0.122652
0.225467 0.14229 0.106554
0.313313 0.150423 0.0786297
0.378088 0.155367 0.0652934
0.422065 0.162493 0.0658579
0.476677 0.168963 0.0742199
0.53875 0.17644 0.0844892
0.0865034 0.116594 0.124544
0.097261 0.138094 0.147204
0.162661 0.17377 0.149477
0.306233 0.187671 0.0967117
0.422126 0.202426 0.0507973
0.49662 0.210788 0.0327153
0.547158 0.218341 0.0384375
0.596948 0.224826 0.0497139
0.651926 0.233539 0.0622873
0.117006 0.188693 0.200931
0.12282 0.211994 0.222827
0.144305 0.245747 0.194949
0.370153 0.248722 0.118013
0.540612 0.251484 0.00759899
0.63299 0.271046 0.0155947
0.690333 0.28716 0.0294194
0.739193 0.303471 0.03888
0.782971 0.319799 0.0457618
0.138293 0.285191 0.293202
0.145388 0.309483 0.309483
0.156817 0.336065 0.266087
0.350362 0.347463 0.169787
0.604227 0.347066 0.0572518
0.728908 0.342306 0
0.797406 0.365499 0.00682078
0.846006 0.384543 0.0131075
0.890486 0.404028 0.0174868
0.207202 0.395132 0.385031
0.222766 0.416251 0.394568
0.238895 0.434638 0.365484
0.361898 0.43238 0.243748
0.560739 0.456779 0.202991
0.753109 0.452934 0.0472572
0.845808 0.432425 0
0.906737 0.450538 0
0.953597 0.474052 0
0.310262 0.502052 0.478248
0.325307 0.518883 0.488716
0.338979 0.529915 0.472648
0.388098 0.525124 0.385565
0.55375 0.536858 0.289876
0.712963 0.566751 0.243336
0.854002 0.540185 0.0448005
0.932204 0.506493 0
0.986068 0.523903 0
0.424399 0.592004 0.563455
0.438239 0.6047 0.572488
0.447288 0.613108 0.566995
0.458686 0.611551 0.526314
0.533242 0.602289 0.426307
0.68835 0.652628 0.352056
0.820813 0.669429 0.263966
0.939529 0.617884 0.0237583
0.995346 0.575006 0
0.529091 0.669184 0.645045
0.540795 0.67982 0.652461
0.546059 0.687831 0.649592
0.552575 0.689403 0.624582
0.576455 0.681376 0.551568
0.673609 0.698863 0.467964
0.800137 0.762432 0.395865
0.92079 0.754696 0.25037
0.997528 0.696056 0.0174563
0.0639963 0.0822766 0.0873579
0.0738079 0.098436 0.105745
0.104677 0.125475 0.142107
0.218219 0.146777 0.161196
0.291951 0.129854 0.124163
0.338964 0.124804 0.101808
0.380194 0.130892 0.0936751
0.438972 0.14226 0.0973983
0.502434 0.151659 0.106081
0.0787366 0.103441 0.110338
0.0889448 0.120241 0.128954
0.116793 0.149554 0.166979
0.252445 0.167605 0.178515
0.341268 0.144305 0.126467
0.397452 0.141451 0.100099
0.431693 0.144564 0.0923323
0.485176 0.152483 0.098436
0.541726 0.158755 0.10959
0.101411 0.141741 0.152483
0.112734 0.164477 0.177462
0.127062 0.198428 0.214481
0.300832 0.225589 0.208026
0.440681 0.216205 0.142184
0.513436 0.205997 0.0999161
0.562325 0.2009 0.0751965
0.596078 0.201663 0.0758373
0.64741 0.204974 0.0896162
0.130373 0.212146 0.228885
0.137697 0.23566 0.253651
0.144625 0.269963 0.285344
0.335409 0.306035 0.22977
0.542214 0.295171 0.138766
0.645991 0.305699 0.0810407
0.703883 0.313603 0.0531014
0.745281 0.319829 0.0441291
0.782162 0.323156 0.0485084
0.160006 0.304631 0.321859
0.174517 0.328679 0.344045
0.191333 0.360845 0.365011
0.29546 0.390356 0.256107
0.579507 0.387472 0.193668
0.734234 0.37998 0.0520943
0.811688 0.405386 0.014725
0.85713 0.418158 0.00508125
0.899062 0.433463 0.00112917
0.243168 0.411688 0.416876
0.26273 0.433524 0.434318
0.279103 0.458991 0.444831
0.319402 0.472526 0.356191
0.53579 0.489403 0.277501
0.74081 0.483925 0.187976
0.851652 0.465873 0.00856031
0.913237 0.486702 0.00112917
0.958358 0.506661 0
0.347021 0.514046 0.50544
0.367468 0.531182 0.519646
0.380514 0.549172 0.525048
0.396139 0.558602 0.482292
0.517891 0.55462 0.373037
0.690333 0.591302 0.317723
0.846815 0.569665 0.181933
0.938064 0.535134 0
0.990662 0.557671 0
0.45362 0.600443 0.586664
0.469673 0.61326 0.597665
0.480323 0.626154 0.602258
0.487083 0.636225 0.585946
0.516243 0.622858 0.491447
0.670726 0.659251 0.416007
0.809476 0.69723 0.334798
0.937392 0.644373 0.149126
0.998688 0.602014 0
0.553124 0.67657 0.663783
0.5664 0.688273 0.67306
0.574487 0.698863 0.6757
0.579355 0.708827 0.66627
0.5935 0.702739 0.61033
0.664118 0.706981 0.520073
0.792279 0.768307 0.450889
0.911238 0.782849 0.319188
0.998978 0.719203 0.122911
0.0903944 0.124468 0.133959
0.0964828 0.138048 0.149401
0.103029 0.158938 0.177508
0.181033 0.182147 0.222187
0.358144 0.197436 0.216617
0.447211 0.176333 0.177142
0.493843 0.162127 0.149157
0.542138 0.158816 0.134844
0.591943 0.163012 0.128817
0.101976 0.144076 0.155291
0.108751 0.160266 0.173205
0.114748 0.18584 0.205188
0.19498 0.210163 0.25127
0.409201 0.228824 0.245274
0.509819 0.200443 0.198932
0.558801 0.183017 0.168429
0.598047 0.175402 0.149935
0.643977 0.176379 0.140658
0.119905 0.181537 0.196078
0.129183 0.204471 0.221073
0.139406 0.236561 0.255818
0.200519 0.266697 0.303532
0.455146 0.277623 0.286778
0.566369 0.233524 0.221515
0.619272 0.208469 0.180148
0.657008 0.19675 0.157046
0.699306 0.19556 0.14342
0.145312 0.248692 0.268009
0.153216 0.273243 0.293095
0.171206 0.30341 0.323995
0.209049 0.34815 0.367605
0.492622 0.358877 0.339529
0.623682 0.350195 0.285908
0.691234 0.335698 0.240574
0.747112 0.315755 0.196399
0.793286 0.295018 0.164309
0.195377 0.33608 0.355749
0.216648 0.360082 0.378347
0.245289 0.387442 0.403677
0.278004 0.429419 0.436988
0.521965 0.464683 0.357763
0.697978 0.453849 0.302754
0.790524 0.467155 0.259312
0.853407 0.468956 0.211978
0.901701 0.472419 0.176638
0.290028 0.435691 0.448005
0.31078 0.457328 0.468193
0.33283 0.480476 0.48864
0.359625 0.513527 0.508568
0.468772 0.530205 0.404944
0.704906 0.541329 0.355535
0.837888 0.525246 0.247257
0.913314 0.544671 0.204837
0.965316 0.559106 0.168353
0.392508 0.531518 0.536171
0.4121 0.546578 0.549935
0.429786 0.564416 0.565011
0.447761 0.588083 0.575036
0.471275 0.593393 0.501381
0.656489 0.621973 0.4262
0.829343 0.620203 0.345174
0.94107 0.585992 0.164584
0.991867 0.608896 0.150072
0.490578 0.61236 0.615412
0.507454 0.624002 0.626093
0.521508 0.636316 0.634058
0.535698 0.655634 0.641978
0.54226 0.665843 0.607614
0.637263 0.668696 0.511788
0.789548 0.725292 0.436423
0.925414 0.690608 0.308019
1 0.64741 0.0766613
0.58735 0.685145 0.686076
0.601358 0.697246 0.697063
0.610574 0.710277 0.705119
0.620584 0.727611 0.710369
0.627436 0.739284 0.692287
0.663798 0.725826 0.594858
0.777752 0.774639 0.530724
0.896269 0.821103 0.430518
0.998489 0.757076 0.271992
0.114382 0.179416 0.194583
0.117769 0.190799 0.207813
0.119341 0.209491 0.231159
0.133761 0.221622 0.259113
0.312718 0.24593 0.300649
0.503761 0.256992 0.275685
0.58613 0.232898 0.238697
0.637018 0.217823 0.214847
0.677287 0.211582 0.201144
0.123415 0.19765 0.214359
0.127352 0.213199 0.231586
0.130144 0.237675 0.260166
0.144198 0.256901 0.296635
0.347341 0.282536 0.336156
0.553338 0.298436 0.314794
0.633524 0.270787 0.276127
0.684382 0.249409 0.246326
0.720638 0.236606 0.225925
0.138674 0.234699 0.253651
0.146075 0.258137 0.278111
0.156909 0.28806 0.309667
0.174258 0.316396 0.351003
0.359869 0.331258 0.386069
0.583597 0.354269 0.367864
0.66862 0.322087 0.32604
0.72433 0.29163 0.286213
0.761944 0.269215 0.254856
0.167239 0.298848 0.319387
0.183856 0.321904 0.342412
0.211231 0.351263 0.370626
0.25153 0.39086 0.409064
0.358404 0.410193 0.451789
0.605814 0.429923 0.437064
0.702663 0.395026 0.391089
0.766186 0.350439 0.333318
0.811322 0.313802 0.285298
0.240818 0.379889 0.397299
0.262745 0.403784 0.420294
0.292607 0.427695 0.442634
0.331319 0.462058 0.475074
0.380774 0.506264 0.519188
0.628916 0.520928 0.507057
0.742718 0.522393 0.475364
0.82182 0.507454 0.422995
0.880613 0.473411 0.363607
0.338369 0.469566 0.482033
0.360037 0.48954 0.501701
0.384634 0.509194 0.520806
0.416358 0.534951 0.545907
0.45182 0.568444 0.571908
0.646281 0.607141 0.506996
0.794491 0.60763 0.48127
0.883848 0.621118 0.440589
0.949538 0.624231 0.391913
0.437263 0.552728 0.562936
0.455634 0.566461 0.576761
0.472999 0.582284 0.594171
0.496498 0.6009 0.610864
0.524849 0.629618 0.62916
0.598306 0.648264 0.556085
0.797665 0.676661 0.495857
0.919921 0.662943 0.415213
0.98735 0.677516 0.377005
0.528222 0.624765 0.637339
0.545129 0.636255 0.648997
0.56144 0.648081 0.659693
0.580118 0.665324 0.673808
0.602289 0.692775 0.688411
0.621683 0.702907 0.629145
0.76614 0.745342 0.555123
0.912459 0.749828 0.457053
0.998718 0.707576 0.325902
0.620813 0.694484 0.705653
0.636118 0.706477 0.717739
0.648936 0.719371 0.729168
0.663783 0.73698 0.742
0.679698 0.762737 0.754192
0.686992 0.77702 0.718471
0.762921 0.787717 0.6271
0.882475 0.851194 0.555886
0.992813 0.809995 0.412375
0.133623 0.24506 0.2663
0.135073 0.255421 0.277897
0.137179 0.271015 0.29659
0.142 0.290776 0.326268
0.203906 0.288167 0.350591
0.455817 0.322942 0.368399
0.626642 0.329717 0.34342
0.690394 0.30869 0.313451
0.730556 0.284108 0.281666
0.142504 0.263218 0.284855
0.147082 0.277989 0.30074
0.155184 0.300404 0.326101
0.171298 0.328832 0.364538
0.240497 0.327565 0.392248
0.496925 0.366918 0.408408
0.662303 0.376669 0.388998
0.725582 0.354711 0.358663
0.767514 0.322133 0.318273
0.164904 0.299992 0.321462
0.179217 0.321889 0.343709
0.200214 0.348882 0.371389
0.227024 0.379889 0.408774
0.27425 0.382849 0.440787
0.512352 0.412345 0.455665
0.681895 0.433768 0.446723
0.749187 0.408911 0.41323
0.797742 0.365301 0.360769
0.21883 0.359411 0.378515
0.241352 0.38201 0.399863
0.268544 0.407874 0.424918
0.301488 0.442069 0.459617
0.33434 0.461051 0.499153
0.507515 0.472236 0.517952
0.69218 0.503334 0.518685
0.772717 0.479164 0.487327
0.832074 0.42771 0.424002
0.296178 0.43267 0.447883
0.319081 0.452918 0.467048
0.344076 0.475883 0.489235
0.381003 0.504768 0.516945
0.423468 0.539437 0.553429
0.515984 0.550378 0.588022
0.710872 0.577005 0.58996
0.804776 0.551598 0.556664
0.87097 0.497536 0.4878
0.386969 0.509407 0.520806
0.407416 0.528466 0.541268
0.431647 0.542428 0.553567
0.459373 0.565469 0.578592
0.495857 0.592233 0.60705
0.541695 0.622644 0.638666
0.747005 0.64947 0.635004
0.852659 0.651377 0.607691
0.923033 0.635721 0.564782
0.479515 0.579965 0.592874
0.497475 0.592844 0.606516
0.515099 0.60592 0.621164
0.539284 0.621973 0.637659
0.571099 0.643763 0.659861
0.607706 0.675868 0.686183
0.762249 0.724025 0.628016
0.896117 0.733303 0.605844
0.970794 0.74464 0.571969
0.568643 0.643748 0.660594
0.585779 0.655268 0.672404
0.601419 0.666529 0.683268
0.621744 0.681636 0.69865
0.647395 0.703532 0.719249
0.675975 0.736858 0.742535
0.740673 0.765682 0.687022
0.893446 0.808957 0.595743
0.992905 0.780774 0.534081
0.658534 0.711437 0.728847
0.673976 0.723354 0.741283
0.687022 0.73402 0.752331
0.702434 0.749157 0.766949
0.722789 0.770138 0.786053
0.743755 0.805966 0.80766
0.75787 0.830732 0.745739
0.864042 0.872053 0.692805
0.986755 0.875715 0.546899
0.167544 0.318883 0.343786
0.172824 0.32813 0.353735
0.182498 0.340887 0.36875
0.196872 0.360555 0.394736
0.213962 0.367788 0.421271
0.355962 0.360082 0.442985
0.580438 0.405417 0.438697
0.718379 0.414557 0.426642
0.77232 0.396048 0.399619
0.184543 0.337346 0.361273
0.197101 0.351064 0.375586
0.214649 0.371908 0.398199
0.23888 0.398489 0.431067
0.266575 0.412451 0.46595
0.402441 0.403571 0.484138
0.615015 0.448554 0.483879
0.743282 0.461967 0.483909
0.799405 0.442161 0.454154
0.223911 0.37377 0.39469
0.245716 0.392691 0.413397
0.26688 0.416556 0.438071
0.293965 0.443946 0.470176
0.323064 0.462531 0.506569
0.420798 0.450141 0.526253
0.629129 0.490013 0.533059
0.758541 0.509544 0.541375
0.819226 0.490532 0.513649
0.286748 0.425986 0.442603
0.307652 0.445899 0.461814
0.330861 0.467704 0.483574
0.361105 0.495033 0.512779
0.390738 0.519051 0.547585
0.440162 0.50927 0.576257
0.634272 0.534722 0.588724
0.773953 0.564691 0.603357
0.839643 0.546471 0.579248
0.359075 0.488182 0.501244
0.381323 0.505455 0.517861
0.405158 0.52372 0.536004
0.435279 0.547189 0.560037
0.468559 0.573938 0.5906
0.494835 0.581765 0.626993
0.636728 0.591669 0.647562
0.793393 0.624262 0.661158
0.865003 0.60943 0.644083
0.44036 0.550973 0.563317
0.459144 0.565713 0.578943
0.47866 0.579187 0.592584
0.504067 0.597757 0.612787
0.539055 0.620966 0.637156
0.578866 0.648142 0.667414
0.658396 0.661631 0.701534
0.817685 0.6878 0.713512
0.898589 0.674281 0.695659
0.522347 0.609644 0.624063
0.540368 0.621454 0.636439
0.55697 0.633753 0.651316
0.580468 0.648432 0.664942
0.611536 0.670268 0.688212
0.650233 0.697276 0.716289
0.693843 0.730312 0.750942
0.859602 0.764889 0.756786
0.941558 0.75819 0.731579
0.609949 0.669306 0.687083
0.626764 0.681346 0.699535
0.642008 0.692256 0.710735
0.662104 0.706416 0.725429
0.688365 0.726513 0.746609
0.719081 0.752178 0.773754
0.752667 0.788006 0.805066
0.873259 0.848447 0.763027
0.978668 0.850904 0.732387
0.696742 0.735103 0.755642
0.711406 0.747021 0.768399
0.723796 0.757244 0.779232
0.740063 0.770291 0.793744
0.760723 0.789685 0.812573
0.787533 0.814633 0.836072
0.815076 0.851957 0.860868
0.857679 0.901946 0.813016
0.971527 0.931197 0.743084
0.240787 0.39649 0.421393
0.247868 0.40415 0.42945
0.257038 0.414664 0.442039
0.272602 0.431617 0.463661
0.297032 0.449805 0.493645
0.327977 0.43653 0.514168
0.51931 0.445869 0.525109
0.68423 0.486809 0.531884
0.789761 0.496773 0.536767
0.261036 0.414343 0.437522
0.274449 0.427893 0.451423
0.292668 0.445045 0.470344
0.31841 0.468177 0.498375
0.345571 0.488106 0.531518
0.37641 0.474632 0.555413
0.556771 0.482383 0.567895
0.71783 0.522499 0.582406
0.817411 0.532616 0.587396
0.301213 0.446967 0.466743
0.319966 0.46482 0.484871
0.341039 0.483116 0.504417
0.367056 0.505104 0.530465
0.393698 0.524483 0.562051
0.41677 0.5178 0.590982
0.5664 0.514824 0.608621
0.737011 0.554482 0.626993
0.835492 0.56614 0.631174
0.357687 0.491325 0.507073
0.377676 0.508629 0.524651
0.399588 0.523888 0.539971
0.424094 0.544854 0.564202
0.451148 0.566003 0.594598
0.472587 0.571237 0.628122
0.566979 0.558862 0.652461
0.746731 0.590784 0.674464
0.852857 0.608606 0.679927
0.426154 0.541375 0.554635
0.445106 0.555215 0.56846
0.463478 0.569512 0.583841
0.487663 0.587915 0.604425
0.516945 0.609415 0.631251
0.54313 0.625345 0.662943
0.589258 0.617472 0.699214
0.753735 0.637995 0.721508
0.873594 0.661295 0.732158
0.494438 0.590753 0.605234
0.511849 0.603464 0.619348
0.529915 0.615473 0.631891
0.55404 0.631312 0.648432
0.586114 0.652461 0.670542
0.621057 0.677943 0.699855
0.647761 0.687984 0.740734
0.762371 0.699779 0.769375
0.891356 0.72134 0.784405
0.56994 0.642008 0.659098
0.587488 0.653849 0.671595
0.604089 0.665064 0.68307
0.625452 0.68011 0.698436
0.654826 0.700847 0.720073
0.690105 0.727031 0.747463
0.727794 0.75761 0.78233
0.794873 0.776303 0.822583
0.913405 0.792386 0.834546
0.652583 0.699443 0.718883
0.669093 0.711406 0.731777
0.682658 0.722484 0.742992
0.700862 0.736294 0.757061
0.725032 0.755795 0.778347
0.755444 0.779675 0.804105
0.79205 0.810407 0.834287
0.832715 0.845121 0.865995
0.949233 0.878798 0.875715
0.733974 0.763775 0.786816
0.748165 0.77528 0.799176
0.76022 0.785763 0.809491
0.776577 0.798611 0.822843
0.797406 0.816815 0.840009
0.824063 0.839277 0.86096
0.855955 0.866972 0.884123
0.890547 0.902831 0.908431
0.965988 0.957763 0.897398
0.321904 0.47158 0.495766
0.329198 0.477211 0.502007
0.338033 0.485023 0.511559
0.353445 0.497917 0.528618
0.375036 0.514138 0.554284
0.398337 0.522454 0.584833
0.468727 0.496239 0.600229
0.652064 0.521431 0.622324
0.779965 0.545876 0.630198
0.343053 0.48687 0.509636
0.356939 0.498421 0.521904
0.373938 0.512306 0.537591
0.395636 0.529442 0.559503
0.422019 0.547143 0.588357
0.441947 0.554009 0.620249
0.508721 0.528389 0.641245
0.686213 0.549996 0.668086
0.811582 0.570687 0.673533
0.380743 0.51487 0.534966
0.398459 0.527932 0.548455
0.41561 0.541634 0.564401
0.437308 0.558526 0.585824
0.462806 0.575677 0.613809
0.481956 0.584115 0.646006
0.52668 0.562676 0.675334
0.69572 0.577035 0.701671
0.829694 0.59852 0.713954
0.429847 0.548516 0.565744
0.446952 0.561303 0.579187
0.463523 0.57435 0.594568
0.484627 0.590112 0.614786
0.510033 0.607065 0.639673
0.532601 0.620111 0.671107
0.556542 0.609506 0.709651
0.698894 0.612879 0.734661
0.842329 0.636103 0.757168
0.487205 0.587549 0.603479
0.504082 0.599176 0.616175
0.520134 0.611139 0.630549
0.542428 0.625956 0.64683
0.569543 0.644526 0.670588
0.597986 0.663478 0.700618
0.617212 0.670161 0.742733
0.709941 0.661845 0.772732
0.853101 0.682551 0.801297
0.550805 0.629923 0.647807
0.568185 0.641093 0.65919
0.58526 0.652247 0.670619
0.60679 0.667124 0.686442
0.634745 0.687572 0.7084
0.666636 0.711574 0.737423
0.692775 0.731456 0.776257
0.739818 0.72697 0.818326
0.861509 0.744549 0.843519
0.621469 0.677516 0.696178
0.638315 0.68957 0.708736
0.653834 0.700496 0.720287
0.673625 0.714977 0.735348
0.699809 0.735073 0.756588
0.730739 0.760311 0.783902
0.765164 0.789166 0.817166
0.796185 0.803708 0.858259
0.884688 0.820203 0.881605
0.696971 0.733288 0.754604
0.712108 0.745418 0.767636
0.725109 0.755917 0.77908
0.741665 0.769894 0.7935
0.764416 0.788144 0.812772
0.79324 0.812299 0.836225
0.827268 0.841505 0.863081
0.865843 0.874754 0.891096
0.92398 0.900908 0.917082
0.772854 0.795392 0.820371
0.787198 0.807019 0.831708
0.797955 0.818082 0.841321
0.813138 0.83035 0.852995
0.833158 0.846067 0.867582
0.859739 0.868986 0.885924
0.890669 0.896406 0.906157
0.924437 0.926192 0.926741
0.957321 0.956909 0.943481
