app/src/main/assets/filters/Dramatic BlackWalker-S.cube
TITLE "Generated by Resolve"
#LUMIXPHOTOSTYLE STD
LUT_3D_SIZE 5
0.0433051 0.0537575 0.0565042
0.109026 0.094316 0.0869154
0.245899 0.125124 0.0763714
0.368872 0.147478 0.068513
0.487556 0.165362 0.0818494
0.0752117 0.101564 0.107027
0.17084 0.151583 0.106798
0.407568 0.191974 0.029099
0.540719 0.2159 0.038941
0.64509 0.234745 0.0584878
0.127825 0.273304 0.273289
0.161669 0.31635 0.197086
0.603876 0.327428 0.00250248
0.789944 0.350134 0.0186923
0.883604 0.391394 0.027512
0.291936 0.490318 0.452964
0.32195 0.514305 0.433097
0.563043 0.527916 0.251835
0.854734 0.525795 0.000274662
0.981704 0.511345 0
0.514839 0.662257 0.631678
0.531106 0.678019 0.631693
0.568841 0.669947 0.5205
0.800916 0.755947 0.367529
0.996368 0.682963 0
0.0639963 0.0822766 0.0873579
0.104677 0.125475 0.142107
0.291951 0.129854 0.124163
0.380194 0.130892 0.0936751
0.502434 0.151659 0.106081
0.101411 0.141741 0.152483
0.127062 0.198428 0.214481
0.440681 0.216205 0.142184
0.562325 0.2009 0.0751965
0.64741 0.204974 0.0896162
0.160006 0.304631 0.321859
0.191333 0.360845 0.365011
0.579507 0.387472 0.193668
0.811688 0.405386 0.014725
0.899062 0.433463 0.00112917
0.347021 0.514046 0.50544
0.380514 0.549172 0.525048
0.517891 0.55462 0.373037
0.846815 0.569665 0.181933
0.990662 0.557671 0
0.553124 0.67657 0.663783
0.574487 0.698863 0.6757
0.5935 0.702739 0.61033
0.792279 0.768307 0.450889
0.998978 0.719203 0.122911
0.114382 0.179416 0.194583
0.119341 0.209491 0.231159
0.312718 0.24593 0.300649
0.58613 0.232898 0.238697
0.677287 0.211582 0.201144
0.138674 0.234699 0.253651
0.156909 0.28806 0.309667
0.359869 0.331258 0.386069
0.66862 0.322087 0.32604
0.761944 0.269215 0.254856
0.240818 0.379889 0.397299
0.292607 0.427695 0.442634
0.380774 0.506264 0.519188
0.742718 0.522393 0.475364
0.880613 0.473411 0.363607
0.437263 0.552728 0.562936
0.472999 0.582284 0.594171
0.524849 0.629618 0.62916
0.797665 0.676661 0.495857
0.98735 0.677516 0.377005
0.620813 0.694484 0.705653
0.648936 0.719371 0.729168
0.679698 0.762737 0.754192
0.762921 0.787717 0.6271
0.992813 0.809995 0.412375
0.167544 0.318883 0.343786
0.182498 0.340887 0.36875
0.213962 0.367788 0.421271
0.580438 0.405417 0.438697
0.77232 0.396048 0.399619
0.223911 0.37377 0.39469
0.26688 0.416556 0.438071
0.323064 0.462531 0.506569
0.629129 0.490013 0.533059
0.819226 0.490532 0.513649
0.359075 0.488182 0.501244
0.405158 0.52372 0.536004
0.468559 0.573938 0.5906
0.636728 0.591669 0.647562
0.865003 0.60943 0.644083
0.522347 0.609644 0.624063
0.55697 0.633753 0.651316
0.611536 0.670268 0.688212
0.693843 0.730312 0.750942
0.941558 0.75819 0.731579
0.696742 0.735103 0.755642
0.723796 0.757244 0.779232
0.760723 0.789685 0.812573
0.815076 0.851957 0.860868
0.971527 0.931197 0.743084
0.321904 0.47158 0.495766
0.338033 0.485023 0.511559
0.375036 0.514138 0.554284
0.468727 0.496239 0.600229
0.779965 0.545876 0.630198
0.380743 0.51487 0.534966
0.41561 0.541634 0.564401
0.462806 0.575677 0.613809
0.52668 0.562676 0.675334
0.829694 0.59852 0.713954
0.487205 0.587549 0.603479
0.520134 0.611139 0.630549
0.569543 0.644526 0.670588
0.617212 0.670161 0.742733
0.853101 0.682551 0.801297
0.621469 0.677516 0.696178
0.653834 0.700496 0.720287
0.699809 0.735073 0.756588
0.765164 0.789166 0.817166
0.884688 0.820203 0.881605
0.772854 0.795392 0.820371
0.797955 0.818082 0.841321
0.833158 0.846067 0.867582
0.890669 0.896406 0.906157
0.957321 0.956909 0.943481
