app/src/main/assets/filters/e100.cube
# Created from e100.plut
LUT_3D_SIZE 5
DOMAIN_MIN 0.0 0.0 0.0
DOMAIN_MAX 1.0 1.0 1.0
0.054902 0.047059 0.062745
0.200977 0.039216 0.050980
0.433326 0.011765 0.027451
0.730388 0.000000 0.000000
0.909804 0.000000 0.000000
0.004898 0.197055 0.100984
0.153918 0.196078 0.089220
0.458335 0.192157 0.026963
0.756863 0.199023 0.000000
0.929412 0.201968 0.000000
0.000000 0.503929 0.162737
0.000000 0.503929 0.162737
0.307836 0.496086 0.097063
0.743130 0.514214 0.000000
0.956863 0.509804 0.000000
0.000000 0.772549 0.285298
0.000000 0.772549 0.285298
0.000000 0.764706 0.259800
0.568627 0.763973 0.174762
0.916670 0.772549 0.000977
0.000000 0.921569 0.458824
0.000000 0.921569 0.458824
0.000000 0.921569 0.458824
0.439216 0.917647 0.439216
0.796078 0.921569 0.356863
0.111757 0.040192 0.204898
0.228428 0.035538 0.192157
0.451957 0.000488 0.153429
0.734310 0.000000 0.072541
0.905882 0.000977 0.002945
0.025483 0.177447 0.225238
0.193133 0.179660 0.217029
0.470832 0.165805 0.163485
0.755886 0.145159 0.068635
0.922301 0.175738 0.000000
0.000000 0.500008 0.277455
0.000000 0.500496 0.273533
0.353918 0.494362 0.207111
0.761761 0.503929 0.074510
0.952941 0.496086 0.002945
0.000000 0.768627 0.351965
0.000000 0.768627 0.351965
0.000000 0.760784 0.311772
0.583886 0.760784 0.234867
0.919615 0.768627 0.016419
0.000000 0.921569 0.464714
0.000000 0.921569 0.475486
0.000000 0.921569 0.503426
0.468635 0.917647 0.488228
0.803922 0.921569 0.413718
0.252934 0.000000 0.456870
0.348531 0.000000 0.451469
0.552941 0.000000 0.432349
0.795102 0.000000 0.366674
0.915679 0.000000 0.276478
0.157351 0.104906 0.466178
0.305882 0.104417 0.464210
0.547555 0.104662 0.438727
0.787869 0.019364 0.364218
0.919615 0.000000 0.278431
0.000000 0.467643 0.511772
0.000732 0.470100 0.510780
0.489220 0.496071 0.500008
0.792157 0.463966 0.419364
0.949020 0.437263 0.331380
0.000000 0.771572 0.548043
0.000000 0.770459 0.548043
0.177203 0.763729 0.546075
0.665690 0.760784 0.496818
0.935790 0.756863 0.418143
0.000000 0.921569 0.588235
0.000000 0.921569 0.595102
0.000000 0.921569 0.612741
0.557839 0.921569 0.625483
0.837263 0.921569 0.584314
0.450004 0.000000 0.738231
0.534066 0.000000 0.737255
0.701961 0.000000 0.731365
0.883330 0.059068 0.706615
0.960784 0.187259 0.675486
0.386267 0.000000 0.745098
0.475486 0.000000 0.742153
0.680385 0.000000 0.737255
0.882353 0.053498 0.708278
0.960784 0.187259 0.675486
0.036271 0.340200 0.745098
0.242405 0.346319 0.745098
0.594858 0.388479 0.749020
0.849027 0.461769 0.726467
0.951476 0.483330 0.680385
0.000000 0.725490 0.772549
0.000000 0.725490 0.772549
0.354162 0.728435 0.774762
0.772549 0.756680 0.767895
0.945098 0.742153 0.727199
0.000000 0.933333 0.760784
0.000000 0.933333 0.764706
0.000000 0.933333 0.768627
0.634318 0.929412 0.788235
0.895094 0.929412 0.783337
0.556863 0.000000 0.933333
0.617639 0.000000 0.933333
0.768627 0.007843 0.921569
0.943130 0.201968 0.909804
0.964706 0.270588 0.898039
0.552941 0.000000 0.933333
0.614710 0.000000 0.933333
0.766674 0.005875 0.921569
0.943130 0.202945 0.909804
0.964706 0.270588 0.898039
0.441169 0.143130 0.937255
0.521080 0.112749 0.933333
0.705882 0.045090 0.929412
0.922545 0.192157 0.913725
0.964706 0.272541 0.898039
0.014710 0.625483 0.937255
0.055146 0.625483 0.937255
0.504906 0.631373 0.933333
0.821576 0.679408 0.925490
0.949020 0.710780 0.918624
0.184314 0.917647 0.949020
0.184314 0.917647 0.949020
0.221576 0.917647 0.949020
0.684321 0.929412 0.941176
0.941176 0.937255 0.941176
