app/src/main/assets/filters/e100.cube
# Created from e100.plut
LUT_3D_SIZE 33
DOMAIN_MIN 0.0 0.0 0.0
DOMAIN_MAX 1.0 1.0 1.0
0.054902 0.047059 0.062745
0.062623 0.047059 0.062745
0.077943 0.047059 0.058824
0.093385 0.047059 0.058824
0.112261 0.043137 0.058824
0.131502 0.043137 0.058824
0.154650 0.043137 0.054902
0.177813 0.043137 0.054902
0.200977 0.039216 0.050980
0.224140 0.039216 0.050980
0.247303 0.035294 0.047059
0.274388 0.035294 0.047059
0.300008 0.031373 0.043137
0.330877 0.027451 0.040803
0.363973 0.021317 0.037003
0.398657 0.017517 0.033204
0.433326 0.011765 0.027451
0.468009 0.006012 0.021698
0.506615 0.000000 0.017899
0.541299 0.000000 0.010178
0.579904 0.000000 0.006378
0.618509 0.000000 0.000000
0.657115 0.000000 0.000000
0.695705 0.000000 0.000000
0.730388 0.000000 0.000000
0.765072 0.000000 0.000000
0.802945 0.000000 0.000000
0.837125 0.000000 0.000000
0.864714 0.000000 0.000000
0.891295 0.000000 0.000000
0.909804 0.000000 0.000000
0.909804 0.000000 0.000000
0.909804 0.000000 0.000000
0.054902 0.050858 0.062745
0.062501 0.050858 0.062745
0.074144 0.050858 0.058824
0.089570 0.050858 0.058824
0.108354 0.050858 0.058824
0.131502 0.050858 0.058824
0.150851 0.050858 0.058824
0.173922 0.046937 0.054902
0.197055 0.046937 0.054810
0.223072 0.043046 0.050980
0.247303 0.043015 0.050889
0.273045 0.040406 0.047059
0.300008 0.035172 0.043137
0.330877 0.031250 0.043061
0.363973 0.025116 0.037003
0.396567 0.017517 0.033204
0.431373 0.013657 0.027451
0.468009 0.006012 0.021698
0.506615 0.000000 0.017899
0.541299 0.000000 0.010178
0.579904 0.000000 0.006378
0.618509 0.000000 0.000000
0.655879 0.000000 0.000000
0.691875 0.000000 0.000000
0.730388 0.000000 0.000000
0.765072 0.000000 0.000000
0.802945 0.000000 0.000000
0.833921 0.000000 0.000000
0.864714 0.000000 0.000000
0.891295 0.000000 0.000000
0.909804 0.000000 0.000000
0.909804 0.000000 0.000000
0.909804 0.000000 0.000000
0.050980 0.062501 0.062745
0.055024 0.062501 0.062745
0.070329 0.062501 0.062516
0.085786 0.062272 0.058824
0.104448 0.058579 0.058824
0.127001 0.058579 0.058824
0.150729 0.058579 0.058824
0.173892 0.058381 0.054902
0.197055 0.054658 0.054902
0.220218 0.054658 0.050980
0.246159 0.051881 0.050980
0.273045 0.050568 0.047059
0.300008 0.046662 0.043137
0.330877 0.044236 0.043137
0.363836 0.040436 0.037003
0.398520 0.032715 0.031373
0.431373 0.024994 0.027451
0.468009 0.017273 0.021698
0.504906 0.009552 0.017899
0.541299 0.002182 0.010178
0.579904 0.000000 0.006378
0.618509 0.000000 0.000000
0.655879 0.000000 0.000000
0.691783 0.000000 0.000000
0.730388 0.000000 0.000000
0.765072 0.000000 0.000000
0.802945 0.000000 0.000000
0.833829 0.000000 0.000000
0.864714 0.000000 0.000000
0.891295 0.000000 0.000000
0.909804 0.000000 0.000000
0.909804 0.000000 0.000000
0.909804 0.000000 0.000000
0.047059 0.081254 0.066300
0.051225 0.081254 0.062852
0.062623 0.077699 0.066300
0.081621 0.077699 0.063081
0.100542 0.077333 0.062379
0.123659 0.073777 0.062379
0.146807 0.073777 0.059495
0.169970 0.073777 0.058534
0.193408 0.073503 0.054902
0.220218 0.069856 0.052079
0.247303 0.069856 0.050980
0.274266 0.067155 0.047059
0.303685 0.065705 0.043137
0.334432 0.061784 0.043137
0.367681 0.057877 0.037003
0.400488 0.051713 0.033036
0.435111 0.047913 0.025681
0.469902 0.040192 0.021698
0.506249 0.032471 0.015900
0.541299 0.024750 0.010315
0.579904 0.017029 0.004150
0.618509 0.010910 0.000000
0.655634 0.007111 0.000000
0.691783 0.007111 0.000000
0.730388 0.003555 0.000000
0.765072 0.002777 0.000000
0.802945 0.000000 0.000000
0.833829 0.000000 0.000000
0.864714 0.000000 0.000000
0.891295 0.000000 0.000000
0.909804 0.000000 0.000000
0.909804 0.000000 0.000000
0.909804 0.000000 0.000000
0.043626 0.100496 0.070100
0.043626 0.100496 0.070100
0.051469 0.100496 0.070100
0.070466 0.097063 0.070100
0.093202 0.097063 0.070100
0.116838 0.096574 0.066712
0.139467 0.093141 0.066178
0.166049 0.092760 0.062257
0.189700 0.089220 0.059312
0.219120 0.089220 0.055863
0.246235 0.088884 0.054566
0.276967 0.085298 0.050660
0.307347 0.084993 0.046754
0.338231 0.082475 0.043137
0.373037 0.078676 0.037003
0.406241 0.074876 0.031373
0.440925 0.071077 0.025483
0.475364 0.066789 0.018006
0.510048 0.061067 0.012039
0.548653 0.055268 0.006455
0.585779 0.047547 0.000305
0.621942 0.043259 0.000000
0.660533 0.037263 0.000000
0.698039 0.035798 0.000000
0.732967 0.032349 0.000000
0.767758 0.028550 0.000000
0.802548 0.025483 0.000000
0.833829 0.024460 0.000000
0.864637 0.021561 0.000000
0.891295 0.017639 0.000000
0.909804 0.017426 0.000000
0.909804 0.013718 0.000000
0.909804 0.013718 0.000000
0.035904 0.123033 0.081743
0.035904 0.123033 0.081743
0.036484 0.123033 0.081163
0.054719 0.123033 0.077821
0.078721 0.119738 0.077287
0.108583 0.116945 0.073899
0.131746 0.113115 0.073899
0.158816 0.112505 0.069978
0.184924 0.111894 0.066056
0.215198 0.111894 0.062135
0.246082 0.111894 0.058396
0.276967 0.107973 0.054505
0.309911 0.107973 0.048524
0.344366 0.107607 0.044480
0.377188 0.104051 0.037003
0.413718 0.101671 0.029282
0.448402 0.097856 0.025483
0.483085 0.095583 0.017777
0.517769 0.091661 0.010056
0.555032 0.087739 0.002579
0.593500 0.085664 0.000000
0.629664 0.081865 0.000000
0.668254 0.077638 0.000000
0.702937 0.074754 0.000000
0.738079 0.071290 0.000000
0.772061 0.070832 0.000000
0.806256 0.070100 0.000000
0.837751 0.066911 0.000000
0.868544 0.066300 0.000000
0.894606 0.066239 0.000000
0.910048 0.062333 0.000000
0.913725 0.061662 0.000000
0.913725 0.057847 0.000000
0.024994 0.146807 0.085542
0.024994 0.146807 0.085542
0.024460 0.146807 0.085542
0.032410 0.146807 0.085542
0.059068 0.143389 0.085542
0.093141 0.142885 0.082109
0.120699 0.142153 0.081025
0.147753 0.135744 0.077699
0.177203 0.135042 0.073777
0.210376 0.135042 0.070756
0.242161 0.136049 0.063233
0.275608 0.135042 0.058335
0.310292 0.135042 0.052445
0.344976 0.132418 0.046616
0.379660 0.130709 0.038407
0.414343 0.127199 0.029282
0.452567 0.126467 0.025483
0.489311 0.126467 0.017777
0.525490 0.125734 0.008652
0.560174 0.122545 0.000443
0.598779 0.121813 0.000000
0.637385 0.121569 0.000000
0.675975 0.117891 0.000000
0.710658 0.117693 0.000000
0.744366 0.117159 0.000000
0.779171 0.113970 0.000000
0.810193 0.113237 0.000000
0.844846 0.114351 0.000000
0.875334 0.113237 0.000000
0.899077 0.113237 0.000000
0.917159 0.113191 0.000000
0.920836 0.109316 0.000000
0.920836 0.109316 0.000000
0.013474 0.169970 0.093263
0.013474 0.169970 0.093263
0.013474 0.169970 0.093263
0.013474 0.169970 0.093263
0.031983 0.169970 0.093263
0.067506 0.169253 0.089342
0.101595 0.166629 0.089342
0.134874 0.165377 0.085420
0.168719 0.165194 0.081498
0.203189 0.165194 0.077577
0.237278 0.165194 0.070954
0.271992 0.162615 0.065248
0.306691 0.161273 0.057527
0.341909 0.161273 0.048646
0.379660 0.161273 0.042649
0.418265 0.157748 0.034653
0.456001 0.157351 0.025055
0.491539 0.157351 0.017777
0.529778 0.157351 0.006607
0.567895 0.157351 0.000000
0.606500 0.157351 0.000000
0.645090 0.157061 0.000000
0.682750 0.156497 0.000000
0.717525 0.156497 0.000000
0.752087 0.157259 0.000000
0.786893 0.159564 0.000000
0.817777 0.159564 0.000000
0.849516 0.159564 0.000000
0.879530 0.159670 0.000000
0.905760 0.160418 0.000000
0.920958 0.159564 0.000000
0.924636 0.159564 0.000000
0.924636 0.155642 0.000000
0.004898 0.197055 0.100984
0.004898 0.197055 0.100984
0.004898 0.197055 0.100984
0.004898 0.197055 0.100984
0.009186 0.197055 0.100984
0.036606 0.197055 0.097673
0.074754 0.197055 0.096269
0.114885 0.196078 0.093141
0.153918 0.196078 0.089220
0.188602 0.193133 0.085298
0.224506 0.192462 0.078676
0.261250 0.192798 0.070954
0.299504 0.192157 0.063233
0.338109 0.192157 0.055512
0.376287 0.192157 0.044846
0.416876 0.192157 0.037125
0.458335 0.192157 0.026963
0.495460 0.192157 0.015412
0.535348 0.193439 0.006134
0.572671 0.195102 0.000000
0.611276 0.195102 0.000000
0.649546 0.195102 0.000000
0.686580 0.195102 0.000000
0.721355 0.195102 0.000000
0.756863 0.199023 0.000000
0.790906 0.199023 0.000000
0.823102 0.199573 0.000000
0.856367 0.202945 0.000000
0.886885 0.205890 0.000000
0.910811 0.205890 0.000000
0.925734 0.205890 0.000000
0.929412 0.201968 0.000000
0.929412 0.201968 0.000000
0.000000 0.226963 0.105882
0.000000 0.226963 0.105882
0.000000 0.226963 0.105882
0.000000 0.229511 0.105882
0.000000 0.229419 0.105882
0.007202 0.229786 0.104784
0.039948 0.229786 0.104784
0.081865 0.229786 0.099992
0.124300 0.226963 0.096941
0.165621 0.226963 0.093812
0.206958 0.226963 0.089097
0.246448 0.226963 0.079652
0.286809 0.226963 0.070954
0.327565 0.226963 0.063233
0.368994 0.229786 0.053315
0.413016 0.229786 0.041794
0.455451 0.229786 0.030823
0.495460 0.229786 0.017777
0.537987 0.229786 0.006134
0.578271 0.233051 0.000000
0.616251 0.233707 0.000000
0.655650 0.233707 0.000000
0.691295 0.233707 0.000000
0.726772 0.234806 0.000000
0.761486 0.237629 0.000000
0.796201 0.241550 0.000000
0.829282 0.242069 0.000000
0.860349 0.245472 0.000000
0.891051 0.245472 0.000000
0.917281 0.249393 0.000000
0.932479 0.248280 0.000000
0.936156 0.245472 0.000000
0.936156 0.245472 0.000000
0.000000 0.264454 0.112505
0.000000 0.264454 0.112505
0.000000 0.264454 0.112505
0.000000 0.264454 0.112505
0.000000 0.264454 0.112505
0.000000 0.264454 0.112505
0.007401 0.264454 0.112505
0.041642 0.264454 0.108583
0.086519 0.264454 0.105333
0.134783 0.264454 0.101839
0.181018 0.264454 0.094957
0.226963 0.264454 0.090318
0.272053 0.264454 0.081834
0.314458 0.264454 0.072053
0.360098 0.264454 0.061036
0.401968 0.265110 0.049516
0.448280 0.268376 0.034073
0.490684 0.268376 0.019852
0.536477 0.270100 0.008331
0.580514 0.272297 0.000000
0.621820 0.273320 0.000000
0.660410 0.274998 0.000000
0.698177 0.276219 0.000000
0.733700 0.276219 0.000000
0.768383 0.279225 0.000000
0.802472 0.280140 0.000000
0.837003 0.284062 0.000000
0.867887 0.284688 0.000000
0.895933 0.287984 0.000000
0.921447 0.287984 0.000000
0.936355 0.287984 0.000000
0.941176 0.284062 0.000000
0.941176 0.284062 0.000000
0.000000 0.299138 0.120226
0.000000 0.299138 0.120226
0.000000 0.299138 0.120226
0.000000 0.299138 0.120226
0.000000 0.299138 0.120226
0.000000 0.299138 0.120226
0.000000 0.299138 0.120226
0.010925 0.299138 0.116594
0.044968 0.299138 0.113024
0.093523 0.299138 0.109560
0.147189 0.299138 0.105760
0.196414 0.299138 0.098039
0.245243 0.299138 0.091279
0.293065 0.299138 0.082597
0.342763 0.299901 0.068757
0.387747 0.303059 0.053315
0.436637 0.305028 0.037873
0.482963 0.306981 0.023148
0.529290 0.310903 0.009461
0.575616 0.310903 0.000000
0.621424 0.313985 0.000000
0.661646 0.314824 0.000000
0.702815 0.317403 0.000000
0.738476 0.317784 0.000000
0.775128 0.318746 0.000000
0.807919 0.321614 0.000000
0.840803 0.322667 0.000000
0.872831 0.322881 0.000000
0.902083 0.326589 0.000000
0.925246 0.326589 0.000000
0.941588 0.323934 0.000000
0.947585 0.322667 0.000000
0.945098 0.322667 0.000000
0.000000 0.337743 0.127947
0.000000 0.337743 0.127947
0.000000 0.337743 0.127947
0.000000 0.337743 0.127947
0.000000 0.337743 0.127947
0.000000 0.337743 0.127947
0.000000 0.337743 0.127947
0.000000 0.337743 0.124880
0.011032 0.337743 0.121080
0.048844 0.337743 0.117281
0.101442 0.337743 0.113481
0.157855 0.337743 0.109178
0.212741 0.337743 0.101961
0.268360 0.337743 0.091310
0.319615 0.337743 0.078920
0.369848 0.341665 0.061036
0.419364 0.343633 0.045594
0.468879 0.345586 0.027695
0.516915 0.349508 0.011429
0.565438 0.350500 0.002335
0.611765 0.353429 0.000000
0.657588 0.356390 0.000000
0.700710 0.357351 0.000000
0.740597 0.357351 0.000000
0.777447 0.360174 0.000000
0.811810 0.361273 0.000000
0.844877 0.361730 0.000000
0.876967 0.365194 0.000000
0.906065 0.365194 0.000000
0.929046 0.365194 0.000000
0.945495 0.361273 0.000000
0.951476 0.361273 0.000000
0.951476 0.361273 0.000000
0.000000 0.380270 0.135668
0.000000 0.380270 0.135668
0.000000 0.380270 0.135668
0.000000 0.380270 0.135668
0.000000 0.380270 0.135668
0.000000 0.380270 0.135668
0.000000 0.380270 0.135668
0.000000 0.380270 0.135668
0.000000 0.380270 0.130541
0.013931 0.380270 0.125002
0.052689 0.380270 0.121202
0.110170 0.379217 0.117403
0.172396 0.379675 0.111727
0.233494 0.380270 0.102907
0.291386 0.380270 0.090440
0.344854 0.380270 0.072663
0.398901 0.380270 0.054475
0.449027 0.384192 0.035187
0.500450 0.388113 0.014588
0.549996 0.392035 0.002335
0.598657 0.392905 0.000000
0.644984 0.395956 0.000000
0.691295 0.397177 0.000000
0.736522 0.399878 0.000000
0.775128 0.399878 0.000000
0.813382 0.402213 0.000000
0.846815 0.402502 0.000000
0.880888 0.403799 0.000000
0.909880 0.403799 0.000000
0.932631 0.403799 0.000000
0.949264 0.402060 0.000000
0.952941 0.399878 0.000000
0.952941 0.399878 0.000000
0.000000 0.422797 0.143389
0.000000 0.422797 0.143389
0.000000 0.422797 0.143389
0.000000 0.422797 0.143389
0.000000 0.422797 0.143389
0.000000 0.422797 0.143389
0.000000 0.422797 0.143389
0.000000 0.422797 0.143389
0.000000 0.421515 0.140444
0.000000 0.418875 0.134310
0.014420 0.418875 0.131624
0.057649 0.418875 0.126574
0.120348 0.418875 0.120684
0.188815 0.418875 0.113603
0.255665 0.418875 0.101961
0.315557 0.418875 0.085344
0.373526 0.418875 0.066056
0.425864 0.421622 0.045960
0.479896 0.425483 0.023545
0.533242 0.429328 0.004532
0.584802 0.432105 0.000000
0.631128 0.435142 0.000000
0.679652 0.438483 0.000000
0.725978 0.438483 0.000000
0.769665 0.439033 0.000000
0.809934 0.442405 0.000000
0.846815 0.442405 0.000000
0.880888 0.442405 0.000000
0.911269 0.440192 0.000000
0.934432 0.440040 0.000000
0.949264 0.438483 0.000000
0.952941 0.438483 0.000000
0.952941 0.436271 0.000000
0.000000 0.461402 0.151110
0.000000 0.461402 0.151110
0.000000 0.461402 0.151110
0.000000 0.461402 0.151110
0.000000 0.461402 0.151110
0.000000 0.461402 0.151110
0.000000 0.461402 0.151110
0.000000 0.461402 0.151110
0.000000 0.461402 0.151110
0.000000 0.461402 0.144366
0.001266 0.458122 0.139345
0.019562 0.457481 0.135424
0.065782 0.457481 0.132280
0.136034 0.457481 0.125246
0.210361 0.457481 0.113481
0.279789 0.457481 0.098894
0.341604 0.457481 0.080644
0.399634 0.458335 0.061402
0.456733 0.461402 0.038239
0.510780 0.464088 0.015824
0.566918 0.467933 0.001297
0.615686 0.471794 0.000000
0.665934 0.474388 0.000000
0.712261 0.477089 0.000000
0.758114 0.477089 0.000000
0.800580 0.478920 0.000000
0.842298 0.479316 0.000000
0.878798 0.481010 0.000000
0.907576 0.480522 0.000000
0.932174 0.477089 0.000000
0.949264 0.477089 0.000000
0.955032 0.473167 0.000000
0.955032 0.473167 0.000000
0.000000 0.503929 0.162737
0.000000 0.503929 0.162737
0.000000 0.503929 0.162737
0.000000 0.503914 0.162737
0.000000 0.503929 0.162737
0.000000 0.503929 0.162737
0.000000 0.503929 0.162737
0.000000 0.503929 0.162737
0.000000 0.503929 0.162737
0.000000 0.502510 0.157961
0.000000 0.500008 0.151598
0.001282 0.498711 0.147066
0.022065 0.496086 0.142641
0.077821 0.496086 0.136889
0.154528 0.498039 0.127199
0.233524 0.496086 0.113481
0.307836 0.496086 0.097063
0.372488 0.496086 0.077760
0.431373 0.498039 0.055634
0.487617 0.500008 0.032471
0.545586 0.502693 0.012741
0.598962 0.506554 0.001282
0.649149 0.508461 0.000000
0.696818 0.511772 0.000000
0.743130 0.514214 0.000000
0.789029 0.515679 0.000000
0.831128 0.514092 0.000000
0.871382 0.515679 0.000000
0.905638 0.515679 0.000000
0.930510 0.515496 0.000000
0.949264 0.513725 0.000000
0.956863 0.511772 0.000000
0.956863 0.509804 0.000000
0.000000 0.546441 0.170459
0.000000 0.546441 0.170459
0.000000 0.546441 0.170459
0.000000 0.546441 0.170459
0.000000 0.546441 0.170459
0.000000 0.546441 0.170459
0.000000 0.546441 0.170459
0.000000 0.546441 0.170459
0.000000 0.546441 0.170459
0.000000 0.544945 0.170459
0.000000 0.542519 0.162417
0.000000 0.539239 0.157336
0.002609 0.537301 0.153475
0.031037 0.534676 0.148531
0.096635 0.534676 0.139635
0.181735 0.534676 0.128054
0.263478 0.534676 0.117403
0.338735 0.534676 0.098039
0.405463 0.534676 0.078798
0.463371 0.535531 0.055634
0.519982 0.537453 0.030640
0.576471 0.541314 0.009537
0.630518 0.543175 0.000000
0.679530 0.546441 0.000000
0.725856 0.548989 0.000000
0.772183 0.550362 0.000000
0.816419 0.548867 0.000000
0.858503 0.552453 0.000000
0.896559 0.550362 0.000000
0.924758 0.550195 0.000000
0.947433 0.548531 0.000000
0.952941 0.546441 0.000000
0.952941 0.544610 0.000000
0.000000 0.579416 0.178180
0.000000 0.579416 0.178180
0.000000 0.579416 0.178180
0.000000 0.579416 0.178180
0.000000 0.579416 0.178180
0.000000 0.579416 0.178180
0.000000 0.579416 0.178180
0.000000 0.579416 0.178180
0.000000 0.579416 0.178180
0.000000 0.579416 0.178180
0.000000 0.577890 0.176669
0.000000 0.577203 0.169482
0.000000 0.573281 0.165042
0.004944 0.571969 0.159274
0.044633 0.569360 0.154162
0.121889 0.569360 0.145281
0.212619 0.568505 0.133700
0.298283 0.569360 0.120287
0.371572 0.569360 0.101961
0.436362 0.570260 0.078798
0.495338 0.572213 0.054810
0.553307 0.576074 0.028550
0.610590 0.577890 0.008820
0.660777 0.581125 0.000000
0.708339 0.581674 0.000000
0.754650 0.584680 0.000000
0.800977 0.583337 0.000000
0.844831 0.585397 0.000000
0.885298 0.585046 0.000000
0.918746 0.584894 0.000000
0.941558 0.583337 0.000000
0.952941 0.581125 0.000000
0.952941 0.579416 0.000000
0.000000 0.615808 0.189822
0.000000 0.615808 0.189822
0.000000 0.615808 0.189822
0.000000 0.615808 0.189822
0.000000 0.615808 0.189822
0.000000 0.615808 0.189822
0.000000 0.615808 0.189822
0.000000 0.615808 0.189822
0.000000 0.615808 0.189822
0.000000 0.615808 0.189822
0.000000 0.615808 0.189822
0.000000 0.611887 0.181552
0.000000 0.608560 0.176608
0.000000 0.607965 0.170871
0.012589 0.604044 0.167895
0.065324 0.604044 0.162737
0.152758 0.604044 0.154971
0.248188 0.604044 0.142275
0.333791 0.604044 0.125826
0.405432 0.604044 0.105882
0.468132 0.606378 0.082841
0.527031 0.608759 0.055879
0.584192 0.610788 0.029648
0.638239 0.612543 0.011078
0.691691 0.614618 0.001190
0.739223 0.618143 0.000000
0.785534 0.618143 0.000000
0.831250 0.618143 0.000000
0.871443 0.619730 0.000000
0.908095 0.619577 0.000000
0.936156 0.617990 0.000000
0.947555 0.615763 0.000000
0.951354 0.614221 0.000000
0.000000 0.649027 0.206867
0.000000 0.649027 0.206867
0.000000 0.649027 0.206867
0.000000 0.649027 0.206867
0.000000 0.649027 0.206867
0.000000 0.649027 0.206867
0.000000 0.649027 0.206867
0.000000 0.649027 0.206867
0.000000 0.649027 0.206867
0.000000 0.649027 0.206867
0.000000 0.649027 0.206867
0.000000 0.647410 0.203647
0.000000 0.645090 0.192645
0.000000 0.641779 0.187854
0.000000 0.641169 0.183978
0.024292 0.637949 0.180102
0.094850 0.637263 0.175006
0.193210 0.637263 0.163363
0.288487 0.637263 0.150637
0.369360 0.637263 0.134432
0.437263 0.637263 0.115190
0.498177 0.640208 0.088228
0.557870 0.641169 0.061036
0.615076 0.645090 0.033951
0.669123 0.645716 0.013855
0.719234 0.649027 0.001144
0.768627 0.649760 0.000000
0.812497 0.652934 0.000000
0.858335 0.652934 0.000000
0.893019 0.652934 0.000000
0.924758 0.652781 0.000000
0.943679 0.650446 0.000000
0.945098 0.649027 0.000000
0.000000 0.683818 0.222309
0.000000 0.683818 0.222309
0.000000 0.683818 0.222309
0.000000 0.683818 0.222309
0.000000 0.683818 0.222309
0.000000 0.683818 0.222309
0.000000 0.683818 0.222309
0.000000 0.683818 0.222309
0.000000 0.683818 0.222309
0.000000 0.683818 0.222309
0.000000 0.683818 0.222309
0.000000 0.683818 0.222309
0.000000 0.680415 0.214832
0.000000 0.676524 0.207172
0.000000 0.674540 0.202701
0.004822 0.672053 0.198779
0.046204 0.672053 0.193561
0.133318 0.672053 0.186526
0.236393 0.672053 0.175631
0.329961 0.672053 0.162997
0.405524 0.672053 0.146075
0.472053 0.672053 0.124269
0.531243 0.672862 0.098116
0.588708 0.675975 0.069001
0.645960 0.675975 0.042679
0.696086 0.678843 0.019074
0.746197 0.682734 0.005631
0.795315 0.683818 0.000000
0.839292 0.683818 0.000000
0.881132 0.683818 0.000000
0.912016 0.683818 0.000000
0.932235 0.683818 0.000000
0.939834 0.683818 0.000000
0.000000 0.714702 0.238972
0.000000 0.714702 0.238972
0.000000 0.714702 0.238972
0.000000 0.714702 0.238972
0.000000 0.714702 0.238972
0.000000 0.714702 0.238972
0.000000 0.714702 0.238972
0.000000 0.714702 0.238972
0.000000 0.714702 0.238972
0.000000 0.714702 0.238972
0.000000 0.714702 0.238972
0.000000 0.714702 0.238972
0.000000 0.713024 0.238972
0.000000 0.709178 0.225376
0.000000 0.706859 0.220539
0.000000 0.704784 0.216709
0.014588 0.702937 0.212863
0.078798 0.702937 0.207599
0.180148 0.702937 0.201968
0.281621 0.702937 0.191547
0.369360 0.702937 0.178424
0.441169 0.702937 0.158953
0.502937 0.702937 0.138018
0.563607 0.702937 0.109575
0.619547 0.705943 0.080949
0.672923 0.706859 0.051575
0.723033 0.709560 0.027726
0.772549 0.710780 0.010712
0.818875 0.713634 0.001068
0.862135 0.714702 0.000000
0.900496 0.714702 0.000000
0.924514 0.714702 0.000000
0.933333 0.714702 0.000000
0.000000 0.744488 0.262135
0.000000 0.744488 0.262135
0.000000 0.744488 0.262135
0.000000 0.744488 0.262135
0.000000 0.744488 0.262135
0.000000 0.744488 0.262135
0.000000 0.744488 0.262135
0.000000 0.744488 0.262135
0.000000 0.744488 0.262135
0.000000 0.744488 0.262135
0.000000 0.744488 0.262135
0.000000 0.744488 0.262135
0.000000 0.744488 0.262135
0.000000 0.741665 0.255802
0.000000 0.737743 0.244236
0.000000 0.737743 0.238605
0.002823 0.733822 0.234684
0.035737 0.736645 0.228916
0.125628 0.736645 0.225605
0.233051 0.736645 0.218509
0.331548 0.736645 0.209308
0.410925 0.736645 0.193866
0.475975 0.736645 0.175616
0.536950 0.736645 0.154360
0.594888 0.736645 0.128191
0.649516 0.736645 0.097307
0.699138 0.736645 0.066423
0.749386 0.738186 0.038972
0.795712 0.740703 0.018982
0.841764 0.744488 0.005753
0.881300 0.745586 0.000000
0.912963 0.745586 0.000000
0.924392 0.744488 0.000000
0.000000 0.772549 0.285298
0.000000 0.772549 0.285298
0.000000 0.772549 0.285298
0.000000 0.772549 0.285298
0.000000 0.772549 0.285298
0.000000 0.772549 0.285298
0.000000 0.772549 0.285298
0.000000 0.772549 0.285298
0.000000 0.772549 0.285298
0.000000 0.772549 0.285298
0.000000 0.772549 0.285298
0.000000 0.772549 0.285298
0.000000 0.772549 0.285298
0.000000 0.772549 0.285298
0.000000 0.768627 0.272175
0.000000 0.767651 0.263600
0.000000 0.764706 0.259800
0.011215 0.764706 0.254444
0.074510 0.764706 0.250553
0.180545 0.761364 0.245472
0.287739 0.760784 0.237751
0.376196 0.760784 0.229007
0.449027 0.760784 0.214221
0.510780 0.760784 0.195560
0.568627 0.763973 0.174762
0.622675 0.764706 0.145251
0.675975 0.764706 0.116854
0.722911 0.765164 0.086610
0.772549 0.768627 0.055390
0.818875 0.771572 0.031525
0.863844 0.772549 0.014221
0.896452 0.772549 0.005753
0.916670 0.772549 0.000977
0.000000 0.799512 0.308461
0.000000 0.799512 0.308461
0.000000 0.799512 0.308461
0.000000 0.799512 0.308461
0.000000 0.799512 0.308461
0.000000 0.799512 0.308461
0.000000 0.799512 0.308461
0.000000 0.799512 0.308461
0.000000 0.802579 0.308461
0.000000 0.802579 0.308461
0.000000 0.802579 0.308461
0.000000 0.802579 0.308461
0.000000 0.802579 0.308461
0.000000 0.802579 0.308461
0.000000 0.799512 0.302800
0.000000 0.797024 0.289250
0.000000 0.795163 0.285359
0.003281 0.794736 0.281453
0.039948 0.794736 0.277562
0.131228 0.793484 0.274022
0.243214 0.791669 0.268956
0.342824 0.791669 0.261769
0.418402 0.792630 0.252232
0.483818 0.794736 0.237385
0.544823 0.794736 0.221164
0.599512 0.794919 0.197986
0.652811 0.795590 0.171695
0.699748 0.795590 0.141665
0.749386 0.795590 0.107240
0.795712 0.798657 0.079042
0.838117 0.799512 0.048539
0.876371 0.802579 0.028504
0.900252 0.802579 0.019120
0.000000 0.829664 0.332357
0.000000 0.829664 0.332357
0.000000 0.829664 0.332357
0.000000 0.829664 0.332357
0.000000 0.829664 0.332357
0.000000 0.829664 0.332357
0.000000 0.829664 0.332357
0.000000 0.829664 0.332357
0.000000 0.829664 0.332357
0.000000 0.829664 0.332357
0.000000 0.829664 0.332357
0.000000 0.829664 0.332357
0.000000 0.829664 0.332357
0.000000 0.829664 0.332357
0.000000 0.829664 0.332357
0.000000 0.826078 0.320684
0.000000 0.822553 0.313115
0.000000 0.821820 0.310903
0.020996 0.821820 0.307424
0.092714 0.821820 0.304906
0.203433 0.821820 0.300984
0.307607 0.821820 0.296452
0.392630 0.821820 0.288731
0.461524 0.821820 0.277607
0.519921 0.821820 0.265202
0.576349 0.821820 0.245136
0.629664 0.821820 0.225879
