app/src/main/assets/filters/e100.cube
# Created from e100.plut
LUT_3D_SIZE 9
DOMAIN_MIN 0.0 0.0 0.0
DOMAIN_MAX 1.0 1.0 1.0
0.054902 0.047059 0.062745
0.112261 0.043137 0.058824
0.200977 0.039216 0.050980
0.300008 0.031373 0.043137
0.433326 0.011765 0.027451
0.579904 0.000000 0.006378
0.730388 0.000000 0.000000
0.864714 0.000000 0.000000
0.909804 0.000000 0.000000
0.043626 0.100496 0.070100
0.093202 0.097063 0.070100
0.189700 0.089220 0.059312
0.307347 0.084993 0.046754
0.440925 0.071077 0.025483
0.585779 0.047547 0.000305
0.732967 0.032349 0.000000
0.864637 0.021561 0.000000
0.909804 0.013718 0.000000
0.004898 0.197055 0.100984
0.009186 0.197055 0.100984
0.153918 0.196078 0.089220
0.299504 0.192157 0.063233
0.458335 0.192157 0.026963
0.611276 0.195102 0.000000
0.756863 0.199023 0.000000
0.886885 0.205890 0.000000
0.929412 0.201968 0.000000
0.000000 0.337743 0.127947
0.000000 0.337743 0.127947
0.011032 0.337743 0.121080
0.212741 0.337743 0.101961
0.419364 0.343633 0.045594
0.611765 0.353429 0.000000
0.777447 0.360174 0.000000
0.906065 0.365194 0.000000
0.951476 0.361273 0.000000
0.000000 0.503929 0.162737
0.000000 0.503929 0.162737
0.000000 0.503929 0.162737
0.022065 0.496086 0.142641
0.307836 0.496086 0.097063
0.545586 0.502693 0.012741
0.743130 0.514214 0.000000
0.905638 0.515679 0.000000
0.956863 0.509804 0.000000
0.000000 0.649027 0.206867
0.000000 0.649027 0.206867
0.000000 0.649027 0.206867
0.000000 0.645090 0.192645
0.094850 0.637263 0.175006
0.437263 0.637263 0.115190
0.669123 0.645716 0.013855
0.858335 0.652934 0.000000
0.945098 0.649027 0.000000
0.000000 0.772549 0.285298
0.000000 0.772549 0.285298
0.000000 0.772549 0.285298
0.000000 0.772549 0.285298
0.000000 0.764706 0.259800
0.287739 0.760784 0.237751
0.568627 0.763973 0.174762
0.772549 0.768627 0.055390
0.916670 0.772549 0.000977
0.000000 0.875975 0.390188
0.000000 0.875975 0.390188
0.000000 0.875975 0.390188
0.000000 0.875975 0.390188
0.000000 0.875731 0.380392
0.154711 0.872053 0.370581
0.488365 0.872053 0.353552
0.692164 0.875975 0.297002
0.853925 0.875975 0.197055
0.000000 0.921569 0.458824
0.000000 0.921569 0.458824
0.000000 0.921569 0.458824
0.000000 0.921569 0.458824
0.000000 0.921569 0.458824
0.081865 0.917647 0.447059
0.439216 0.917647 0.439216
0.642161 0.917647 0.414710
0.796078 0.921569 0.356863
0.066178 0.047059 0.112749
0.120104 0.043137 0.112261
0.208331 0.039216 0.104417
0.305394 0.031373 0.089220
0.439216 0.011765 0.063722
0.583825 0.000000 0.024994
0.730877 0.000000 0.000000
0.864714 0.000000 0.000000
0.909804 0.000000 0.000000
0.054902 0.093141 0.120531
0.107897 0.089265 0.116976
0.199802 0.084977 0.107851
0.310842 0.077150 0.090349
0.442893 0.055848 0.063722
0.584070 0.035309 0.021836
0.730388 0.017533 0.000000
0.864714 0.010300 0.000000
0.909804 0.003861 0.000000
0.017517 0.192157 0.143130
0.029068 0.192157 0.140566
0.163302 0.188357 0.127672
0.306859 0.188235 0.105165
0.460777 0.184680 0.066911
0.612375 0.183825 0.016007
0.756008 0.184680 0.000000
0.886763 0.195102 0.000000
0.928435 0.194125 0.000000
0.000000 0.337743 0.161944
0.000000 0.337743 0.159625
0.015305 0.334661 0.147250
0.220401 0.335348 0.121874
0.424994 0.339712 0.076310
0.615686 0.349630 0.010117
0.777081 0.353429 0.000000
0.905898 0.357687 0.000000
0.949020 0.353918 0.000000
0.000000 0.500252 0.176959
0.000000 0.501961 0.175006
0.000000 0.501961 0.171328
0.025986 0.496086 0.145342
0.312627 0.496086 0.101961
0.549508 0.500740 0.017151
0.747066 0.511833 0.000000
0.905638 0.513512 0.000000
0.956863 0.507836 0.000000
0.000000 0.646876 0.204410
0.000000 0.649027 0.204410
0.000000 0.649027 0.204410
0.000000 0.643565 0.191836
0.099413 0.637263 0.173526
0.441169 0.637263 0.111269
0.673045 0.645090 0.010910
0.858335 0.651072 0.000000
0.945098 0.646571 0.000000
0.000000 0.771572 0.281498
0.000000 0.771572 0.281498
0.000000 0.771572 0.282506
0.000000 0.771572 0.285298
0.000000 0.764706 0.258335
0.294255 0.760784 0.237751
0.572457 0.763973 0.171572
0.772549 0.767773 0.052644
0.916670 0.772549 0.000977
0.000000 0.875975 0.390188
0.000000 0.875975 0.390188
0.000000 0.875975 0.390188
0.000000 0.875975 0.390188
0.000000 0.872053 0.376959
0.162341 0.872053 0.367422
0.492287 0.872053 0.350988
0.692653 0.872068 0.296147
0.857420 0.875975 0.193561
0.000000 0.921569 0.458824
0.000000 0.921569 0.458824
0.000000 0.921569 0.458824
0.000000 0.921569 0.458824
0.000000 0.921569 0.458824
0.091844 0.917647 0.447059
0.446082 0.917647 0.441794
0.645594 0.917647 0.411276
0.799512 0.921569 0.356863
0.111757 0.040192 0.204898
0.151354 0.040192 0.200977
0.228428 0.035538 0.192157
0.331868 0.029541 0.178561
0.451957 0.000488 0.153429
0.591669 0.000000 0.118990
0.734310 0.000000 0.072541
0.868132 0.000000 0.013230
0.905882 0.000977 0.002945
0.084932 0.074022 0.208331
0.135790 0.073167 0.204776
0.223316 0.070222 0.196567
0.327855 0.059297 0.178332
0.450004 0.021073 0.151965
0.589715 0.000000 0.117159
0.733364 0.000000 0.069612
0.864714 0.000000 0.013230
0.905882 0.000977 0.002945
0.025483 0.177447 0.225238
0.066911 0.177447 0.223865
0.193133 0.179660 0.217029
0.330541 0.175738 0.195743
0.470832 0.165805 0.163485
0.614679 0.152209 0.122362
0.755886 0.145159 0.068635
0.879622 0.164096 0.013230
0.922301 0.175738 0.000000
0.000000 0.333822 0.250492
0.000000 0.333822 0.250492
0.049027 0.336278 0.240528
0.268269 0.336416 0.216052
0.456870 0.336461 0.183032
0.632715 0.334661 0.136156
0.777081 0.333333 0.068635
0.902144 0.333700 0.012375
0.945708 0.333700 0.000000
0.000000 0.500008 0.277455
0.000000 0.500008 0.276539
0.000000 0.500496 0.273533
0.056870 0.496086 0.239521
0.353918 0.494362 0.207111
0.578119 0.498222 0.149752
0.761761 0.503929 0.074510
0.909499 0.500984 0.015320
0.952941 0.496086 0.002945
0.000000 0.645090 0.303792
0.000000 0.645090 0.301595
0.000000 0.645090 0.299886
0.000000 0.641169 0.280537
0.142275 0.637263 0.246937
0.463127 0.637263 0.204837
0.686915 0.641428 0.112963
0.865782 0.644862 0.020981
0.947555 0.639338 0.001099
0.000000 0.768627 0.351965
0.000000 0.768627 0.351965
0.000000 0.768627 0.351965
0.000000 0.768627 0.351965
0.000000 0.760784 0.311772
0.323033 0.759808 0.292653
0.583886 0.760784 0.234867
0.783337 0.765072 0.120104
0.919615 0.768627 0.016419
0.000000 0.875975 0.430030
0.000000 0.875975 0.433463
0.000000 0.875975 0.433921
0.000000 0.875975 0.438102
0.000000 0.870771 0.425177
0.205707 0.869490 0.406867
0.503426 0.872053 0.390127
0.699886 0.872053 0.332845
0.860777 0.872053 0.231983
0.000000 0.921569 0.464714
0.000000 0.921569 0.467643
0.000000 0.921569 0.475486
0.000000 0.921569 0.487861
0.000000 0.921569 0.503426
0.147433 0.917647 0.484321
0.468635 0.917647 0.488228
0.653437 0.917647 0.464210
0.803922 0.921569 0.413718
0.177447 0.028916 0.323522
0.210483 0.025299 0.319615
0.276478 0.023896 0.312749
0.373953 0.017151 0.301472
0.495827 0.000000 0.284810
0.622553 0.000000 0.245533
0.745708 0.000000 0.194980
0.868132 0.000000 0.142458
0.905882 0.000000 0.122057
0.145281 0.037064 0.327459
0.188724 0.033799 0.323522
0.268894 0.031006 0.315679
0.371633 0.022354 0.302998
0.493385 0.000000 0.282353
0.618631 0.000000 0.243687
0.743999 0.000000 0.192813
0.866850 0.000000 0.142458
0.905882 0.000000 0.120592
0.044724 0.150851 0.338231
0.119707 0.150851 0.335439
0.241093 0.154406 0.334310
0.366964 0.157351 0.318166
0.493568 0.140444 0.290745
0.621897 0.092653 0.248096
0.751965 0.064210 0.199176
0.875120 0.063737 0.144610
0.917037 0.072053 0.121691
0.000000 0.314214 0.359747
0.000000 0.314214 0.359747
0.108217 0.318135 0.357351
0.325978 0.325978 0.347066
0.495155 0.324514 0.317861
0.643397 0.307561 0.275975
0.776013 0.290455 0.220584
0.896696 0.285847 0.157900
0.939712 0.286763 0.130877
0.000000 0.495583 0.388235
0.000000 0.496666 0.388235
0.000000 0.497734 0.385290
0.153155 0.500008 0.371633
0.421073 0.500008 0.345586
0.622309 0.496818 0.306584
0.784253 0.487373 0.256931
0.911269 0.475822 0.193225
0.952941 0.470832 0.160296
0.000000 0.648096 0.417639
0.000000 0.648096 0.415198
0.000000 0.648096 0.415198
0.000000 0.645090 0.405814
0.249485 0.642100 0.378408
0.519112 0.641169 0.340749
0.721569 0.641169 0.288731
0.880690 0.635721 0.228611
0.951476 0.630884 0.191180
0.000000 0.768627 0.448524
0.000000 0.768627 0.448524
0.000000 0.768627 0.448524
0.000000 0.768017 0.448524
0.043320 0.760784 0.425681
0.390463 0.760403 0.399283
0.615503 0.760784 0.356710
0.803418 0.761151 0.281605
0.924514 0.760784 0.211276
0.000000 0.875975 0.507836
0.000000 0.875975 0.507836
0.000000 0.875669 0.508339
0.000000 0.873350 0.512184
0.013657 0.868376 0.507439
0.295155 0.868132 0.485847
0.539712 0.868132 0.471077
0.718563 0.868315 0.426871
0.869917 0.872053 0.350484
0.000000 0.921569 0.534310
0.000000 0.921569 0.538231
0.000000 0.921569 0.543267
0.000000 0.921569 0.553002
0.000000 0.921569 0.561761
0.263722 0.920104 0.553002
0.510292 0.917647 0.549996
0.675486 0.917647 0.533822
0.815686 0.921569 0.493629
0.252934 0.000000 0.456870
0.283574 0.000000 0.454902
0.348531 0.000000 0.451469
0.439948 0.000000 0.443870
0.552941 0.000000 0.432349
0.684321 0.000000 0.418143
0.795102 0.000000 0.366674
0.893141 0.000000 0.300984
0.915679 0.000000 0.276478
0.222065 0.001968 0.460533
0.256367 0.000214 0.460563
0.334554 0.000000 0.456870
0.436027 0.000000 0.445838
0.552941 0.000000 0.433326
0.682597 0.000000 0.416175
0.792340 0.000000 0.366232
0.890135 0.000000 0.299474
0.915679 0.000000 0.276478
0.157351 0.104906 0.466178
0.210849 0.104906 0.466178
0.305882 0.104417 0.464210
0.425483 0.105882 0.454963
0.547555 0.104662 0.438727
0.676478 0.077089 0.414221
0.787869 0.019364 0.364218
0.889708 0.000000 0.300557
0.919615 0.000000 0.278431
0.000000 0.264210 0.480888
0.014282 0.265690 0.481621
0.187381 0.272541 0.480888
0.384588 0.294362 0.481163
0.537377 0.310780 0.468757
0.669093 0.295583 0.433860
0.784741 0.252201 0.375006
0.891814 0.215595 0.315435
0.933333 0.221576 0.294606
0.000000 0.467643 0.511772
0.000000 0.467643 0.511772
0.000732 0.470100 0.510780
0.247303 0.481621 0.507225
0.489220 0.496071 0.500008
0.658335 0.492653 0.468376
0.792157 0.463966 0.419364
0.905394 0.440681 0.359197
0.949020 0.437263 0.331380
0.000000 0.641917 0.537255
0.000000 0.641917 0.537255
0.000000 0.641917 0.534798
0.019303 0.641917 0.528649
0.371817 0.645090 0.520348
0.588449 0.645090 0.497765
0.762936 0.637507 0.459129
0.898222 0.622797 0.419211
0.949020 0.614710 0.393622
0.000000 0.771572 0.548043
0.000000 0.771572 0.548043
0.000000 0.770459 0.548043
0.000000 0.768322 0.549996
0.177203 0.763729 0.546075
0.478126 0.760784 0.531930
0.665690 0.760784 0.496818
0.836759 0.760784 0.447974
0.935790 0.756863 0.418143
0.000000 0.875975 0.573037
0.000000 0.875761 0.573037
0.000000 0.875486 0.576959
0.000000 0.873777 0.579599
0.030884 0.868132 0.587015
0.396323 0.864363 0.581857
0.590936 0.864210 0.567590
0.748531 0.867918 0.532357
0.885542 0.868635 0.482597
0.000000 0.921569 0.588235
0.000000 0.921569 0.588235
0.000000 0.921569 0.595102
0.000000 0.921569 0.603922
0.000000 0.921569 0.612741
0.354650 0.921569 0.627451
0.557839 0.921569 0.625483
0.708095 0.921569 0.613230
0.837263 0.921569 0.584314
0.354910 0.000000 0.599512
0.380392 0.000000 0.603433
0.437751 0.000000 0.599512
0.524025 0.000000 0.595590
0.625238 0.000000 0.587747
0.734310 0.000000 0.575982
0.841169 0.031739 0.555398
0.928252 0.036759 0.511269
0.942641 0.025483 0.480888
0.328252 0.000000 0.603433
0.355337 0.000000 0.603433
0.415564 0.000000 0.603433
0.511559 0.000000 0.599512
0.622644 0.000000 0.589548
0.733837 0.000000 0.575982
0.839704 0.030777 0.555398
0.927977 0.036759 0.511269
0.942641 0.025483 0.480888
0.270588 0.016785 0.609812
0.306950 0.013367 0.609262
0.386770 0.008453 0.607355
0.495689 0.008453 0.603433
0.614710 0.008453 0.593133
0.730770 0.014343 0.577813
0.837263 0.038483 0.554772
0.925048 0.036149 0.507652
0.942641 0.025483 0.480888
0.105821 0.210239 0.613718
0.178363 0.211765 0.614527
0.306828 0.215686 0.614649
0.454322 0.227863 0.614069
0.594339 0.255390 0.609812
0.720851 0.280858 0.593194
0.825483 0.289937 0.559777
0.916548 0.240864 0.507347
0.942641 0.223041 0.480888
0.000000 0.406134 0.628672
0.000000 0.406134 0.629755
0.046693 0.408331 0.629908
0.320562 0.423041 0.629877
0.543999 0.453925 0.632105
0.699779 0.480888 0.621592
0.810788 0.470344 0.579904
0.907836 0.429068 0.519615
0.945098 0.416419 0.489952
0.000000 0.609812 0.655940
0.000000 0.609812 0.655940
0.000000 0.610361 0.655940
0.093538 0.613718 0.656870
0.436759 0.626261 0.652934
0.653498 0.638727 0.649577
0.788922 0.633829 0.619242
0.897124 0.606867 0.571206
0.949020 0.594675 0.542153
0.000000 0.763241 0.665690
0.000000 0.763241 0.665690
0.000000 0.763241 0.665690
0.000000 0.760555 0.665324
0.254841 0.760784 0.664149
0.557458 0.760784 0.658534
0.725490 0.760784 0.644480
0.864439 0.756863 0.614710
0.944121 0.752941 0.596567
0.000000 0.879896 0.667338
0.000000 0.879896 0.667338
0.000000 0.877760 0.668940
0.000000 0.875975 0.671260
0.014618 0.872053 0.675486
0.448341 0.867826 0.679408
0.646082 0.867643 0.672953
0.788540 0.867826 0.649516
0.906371 0.868132 0.620096
0.000000 0.926955 0.647547
0.000000 0.926955 0.647547
0.000000 0.926955 0.653315
0.000000 0.929412 0.662684
0.000000 0.929412 0.676967
0.321630 0.925490 0.697612
0.603922 0.921569 0.706371
0.748531 0.921752 0.702449
0.864210 0.925490 0.682841
0.450004 0.000000 0.738231
0.475608 0.000000 0.737255
0.534066 0.000000 0.737255
0.609689 0.000000 0.735424
0.701961 0.000000 0.731365
0.794614 0.000000 0.724392
0.883330 0.059068 0.706615
0.953429 0.182971 0.689830
0.960784 0.187259 0.675486
0.447425 0.000000 0.740810
0.466667 0.000000 0.740810
0.519112 0.000000 0.741176
0.598672 0.000000 0.737255
0.690929 0.000000 0.733333
0.790692 0.000000 0.724392
0.883330 0.056870 0.706615
0.950851 0.180392 0.687572
0.960784 0.187259 0.675486
0.386267 0.000000 0.745098
0.413107 0.000000 0.745098
0.475486 0.000000 0.742153
0.570809 0.000000 0.741176
0.680385 0.000000 0.737255
0.786770 0.000000 0.726101
0.882353 0.053498 0.708278
0.950484 0.179629 0.687251
0.960784 0.187259 0.675486
0.304295 0.133333 0.741176
0.339117 0.130022 0.741176
0.418540 0.125734 0.744274
0.529412 0.123659 0.741176
0.653498 0.150973 0.737255
0.771252 0.196078 0.729000
0.870954 0.253651 0.711635
0.944106 0.313237 0.688869
0.956863 0.316670 0.675486
0.036271 0.340200 0.745098
0.078492 0.340200 0.745098
0.242405 0.346319 0.745098
0.427817 0.356130 0.747494
0.594858 0.388479 0.749020
0.742336 0.428611 0.745281
0.849027 0.461769 0.726467
0.929412 0.481376 0.698528
0.951476 0.483330 0.680385
0.000000 0.540688 0.754040
0.000000 0.539590 0.754040
0.000000 0.539590 0.754040
0.191119 0.546975 0.754040
0.479652 0.567224 0.755886
0.687053 0.601831 0.758648
0.818143 0.626688 0.748135
0.909895 0.619593 0.713375
0.949020 0.607843 0.689342
0.000000 0.725490 0.772549
0.000000 0.725490 0.772549
0.000000 0.725490 0.772549
0.006134 0.725490 0.772549
0.354162 0.728435 0.774762
0.600214 0.741390 0.771298
0.772549 0.756680 0.767895
0.883818 0.752667 0.745586
0.945098 0.742153 0.727199
0.000000 0.871199 0.784314
0.000000 0.871199 0.784314
0.000000 0.868635 0.784314
0.000000 0.868635 0.784314
0.085481 0.864714 0.779416
0.473533 0.863722 0.775982
0.697917 0.863996 0.776837
0.833341 0.867277 0.765179
0.925978 0.867155 0.753429
0.000000 0.933333 0.760784
0.000000 0.933333 0.760784
0.000000 0.933333 0.764706
0.000000 0.933333 0.764706
0.000000 0.933333 0.768627
0.260410 0.929412 0.775494
0.634318 0.929412 0.788235
0.790814 0.929412 0.791180
0.895094 0.929412 0.783337
0.526467 0.000000 0.860288
0.545586 0.000000 0.860288
0.595102 0.000000 0.860288
0.670771 0.000000 0.860288
0.761028 0.000000 0.856611
0.848524 0.040192 0.849027
0.928435 0.122545 0.839826
0.964706 0.224994 0.825483
0.964706 0.227939 0.813733
0.533822 0.000000 0.860792
0.553368 0.000000 0.860792
0.602457 0.000000 0.860288
0.678126 0.000000 0.860761
0.760021 0.000244 0.856825
0.844877 0.036622 0.852293
0.927947 0.119661 0.839826
0.964706 0.224994 0.825483
0.964706 0.227939 0.813733
0.521080 0.000000 0.864210
0.536767 0.000000 0.864210
0.582910 0.000000 0.863569
0.651270 0.000000 0.864210
0.737255 0.000000 0.860655
0.833707 0.028794 0.852934
0.924361 0.115785 0.841047
0.964706 0.221576 0.825483
0.964706 0.227939 0.813733
0.444114 0.008576 0.864210
0.470314 0.006439 0.864210
0.524331 0.002152 0.864210
0.609995 0.000000 0.863416
0.714855 0.001068 0.860792
0.820722 0.031815 0.855085
0.918486 0.112703 0.843748
0.964706 0.221073 0.825483
0.964706 0.232227 0.813733
0.305638 0.283330 0.864210
0.344854 0.283085 0.861006
0.424567 0.280888 0.860288
0.530877 0.278676 0.860700
0.656992 0.296941 0.860410
0.786114 0.345434 0.856611
0.891661 0.394369 0.846326
0.957107 0.444358 0.829419
0.957107 0.465446 0.815930
0.021195 0.479896 0.860792
0.021195 0.479896 0.860792
0.124407 0.482490 0.860288
0.360800 0.490623 0.856870
0.557687 0.509316 0.856519
0.722850 0.545769 0.856672
0.853025 0.586130 0.852445
0.940414 0.615137 0.840421
0.952941 0.626474 0.829419
0.000000 0.668132 0.864714
0.000000 0.668132 0.864714
0.000000 0.668132 0.864210
0.090303 0.670710 0.863981
0.402335 0.673228 0.860288
0.626123 0.690806 0.857237
0.799512 0.725978 0.860258
0.910735 0.748592 0.852125
0.949020 0.752941 0.842161
0.000061 0.833341 0.883391
0.000061 0.833341 0.883391
0.000061 0.833341 0.883391
0.000336 0.833341 0.879957
0.283177 0.833341 0.876249
0.538781 0.836942 0.872541
0.730388 0.848310 0.868635
0.868513 0.859861 0.867765
0.941176 0.860716 0.864271
0.000977 0.925490 0.883818
0.000977 0.925490 0.883818
0.000977 0.925490 0.883818
0.000977 0.925490 0.883818
0.009064 0.925490 0.879896
0.388052 0.929412 0.872541
0.639216 0.929412 0.872053
0.822492 0.933333 0.875486
0.925490 0.933333 0.872053
0.556863 0.000000 0.933333
0.572061 0.000000 0.933333
0.617639 0.000000 0.933333
0.685786 0.000000 0.929412
0.768627 0.007843 0.921569
0.859312 0.111772 0.917647
0.943130 0.201968 0.909804
0.964706 0.267155 0.901472
0.964706 0.270588 0.898039
0.556863 0.000000 0.933333
0.572549 0.000000 0.933333
0.617639 0.000000 0.933333
0.685786 0.000000 0.929412
0.766918 0.007843 0.921569
0.859312 0.111772 0.917647
0.943130 0.202945 0.909804
0.964706 0.267155 0.901472
0.964706 0.270588 0.898039
0.552941 0.000000 0.933333
0.572061 0.000000 0.933333
0.614710 0.000000 0.933333
0.683330 0.000000 0.929412
0.766674 0.005875 0.921569
0.859312 0.110658 0.917647
0.943130 0.202945 0.909804
0.964706 0.267155 0.901472
0.964706 0.270588 0.898039
0.540200 0.000000 0.933333
0.559319 0.000000 0.933333
0.603433 0.000000 0.933333
0.669123 0.000000 0.929412
0.751232 0.000732 0.924758
0.847486 0.093629 0.917647
0.936767 0.194491 0.912749
0.964706 0.263722 0.901472
0.964706 0.270588 0.898039
0.441169 0.143130 0.937255
0.466178 0.133577 0.937255
0.521080 0.112749 0.933333
0.606622 0.073533 0.933333
0.705882 0.045090 0.929412
0.818875 0.094118 0.920836
0.922545 0.192157 0.913725
0.964706 0.259800 0.901961
0.964706 0.272541 0.898039
0.249516 0.429908 0.937255
0.276478 0.429908 0.937255
0.376837 0.425986 0.937255
0.496574 0.423529 0.933333
0.626230 0.423529 0.929412
0.758892 0.447059 0.924025
0.880522 0.489708 0.914824
0.955581 0.524514 0.905882
0.959319 0.539712 0.905882
0.014710 0.625483 0.937255
0.014710 0.625483 0.937255
0.055146 0.625483 0.937255
0.299016 0.626474 0.937255
0.504906 0.631373 0.933333
0.677211 0.650126 0.929412
0.821576 0.679408 0.925490
0.933333 0.704295 0.918624
0.949020 0.710780 0.918624
0.052934 0.794614 0.941176
0.052934 0.794614 0.941176
0.052934 0.794614 0.941176
0.102693 0.794614 0.941176
0.388724 0.796811 0.941176
0.580392 0.802457 0.941176
0.748531 0.815198 0.937255
0.890745 0.837263 0.933333
0.948531 0.845090 0.933822
0.184314 0.917647 0.949020
0.184314 0.917647 0.949020
0.184314 0.917647 0.949020
0.184314 0.917647 0.949020
0.221576 0.917647 0.949020
0.500496 0.921569 0.947555
0.684321 0.929412 0.941176
0.841184 0.933333 0.941176
0.941176 0.937255 0.941176
