app/src/main/assets/filters/Eternal.cube
# Created by Adobe Lightroom plugin Export LUT (1.24.0)
# www.johnrellis.com/lightroom/exportlut.htm
# Photo: P1190097.jpg
# Color profile: C:\Program Files (x86)\Common Files\Adobe\Color\Profiles\Recommended\sRGB Color Space Profile.icm
LUT_3D_SIZE 9
DOMAIN_MIN 0.0 0.0 0.0
DOMAIN_MAX 1.0 1.0 1.0
0.000671 0.000000 0.000458
0.081941 0.009705 0.007721
0.210239 0.030365 0.003967
0.377050 0.060517 0.001404
0.575738 0.097139 0.009247
0.747311 0.132357 0.023529
0.876097 0.162264 0.045533
0.955901 0.197818 0.072908
0.999969 0.225559 0.096010
0.000916 0.108461 0.026886
0.076905 0.114015 0.015412
0.192599 0.121736 0.031830
0.361212 0.141176 0.045960
0.572595 0.169039 0.050752
0.746883 0.197757 0.057557
0.874937 0.221927 0.069306
0.955596 0.248203 0.090028
1.000000 0.272404 0.109712
0.024140 0.228153 0.089693
0.071595 0.229343 0.087892
0.178286 0.236790 0.062043
0.349645 0.248539 0.070985
0.557397 0.288884 0.106264
0.739010 0.323064 0.107912
0.872648 0.345525 0.106538
0.954803 0.366705 0.122866
1.000000 0.387610 0.139162
0.047303 0.396612 0.142733
0.081422 0.397894 0.141360
0.181796 0.401587 0.133425
0.356054 0.409369 0.103395
0.555444 0.413916 0.099428
0.736690 0.457404 0.127443
0.862242 0.483375 0.155276
0.950103 0.503044 0.174746
1.000000 0.519310 0.187228
0.068360 0.574762 0.183810
0.097536 0.577111 0.180789
0.198398 0.577813 0.176364
0.374273 0.580285 0.159518
0.568750 0.579614 0.129030
0.721431 0.567437 0.120607
0.857694 0.590295 0.146273
0.947356 0.615473 0.203433
0.999664 0.635126 0.250706
0.121981 0.705226 0.241611
0.149508 0.705348 0.239628
0.242344 0.704799 0.236301
0.408972 0.704952 0.229099
0.570825 0.706386 0.195193
0.721157 0.701686 0.160525
0.842527 0.688106 0.148257
0.942016 0.696956 0.177493
0.998779 0.721187 0.236332
0.219272 0.807645 0.334173
0.250034 0.807370 0.332433
0.343664 0.806668 0.330053
0.478920 0.806577 0.326452
0.604273 0.807675 0.306401
0.720333 0.809903 0.248173
0.837766 0.806363 0.202731
0.935729 0.793088 0.190127
0.993805 0.796994 0.209598
0.384497 0.898283 0.456489
0.416022 0.897978 0.455695
0.483406 0.897612 0.453986
0.572320 0.897520 0.451759
0.662379 0.898070 0.445472
0.746914 0.900175 0.414984
0.834531 0.904173 0.337713
0.928496 0.901244 0.264927
0.988098 0.893492 0.245212
0.554986 0.973785 0.579126
0.570306 0.973693 0.578546
0.606470 0.973571 0.577295
0.659724 0.973480 0.575402
0.721584 0.973571 0.572930
0.784634 0.974365 0.563195
0.848203 0.976745 0.532738
0.918181 0.980072 0.468574
0.977356 0.979706 0.391272
0.000580 0.006500 0.146578
0.080110 0.006653 0.144198
0.196689 0.030518 0.138857
0.363378 0.059663 0.138369
0.572992 0.087251 0.135836
0.746578 0.114260 0.131044
0.874388 0.143587 0.127779
0.955352 0.178958 0.136965
0.999939 0.211978 0.152865
0.000031 0.111757 0.145632
0.074372 0.113558 0.146609
0.184115 0.123354 0.147860
0.355138 0.139773 0.149233
0.569665 0.159823 0.147097
0.745693 0.179629 0.140902
0.873533 0.200870 0.137057
0.955016 0.230289 0.148653
1.000000 0.258976 0.163241
0.034974 0.228641 0.168185
0.078981 0.229343 0.170291
0.174197 0.234745 0.159701
0.343023 0.253635 0.167910
0.557702 0.285679 0.179049
0.742794 0.312444 0.168978
0.871519 0.331853 0.164950
0.954070 0.355688 0.174990
1.000000 0.381598 0.187076
0.047425 0.397955 0.199466
0.082124 0.399237 0.198734
0.181399 0.401251 0.195682
0.352850 0.408209 0.172091
0.556420 0.415839 0.164462
0.735531 0.457465 0.191440
0.860777 0.480934 0.209384
0.949798 0.500999 0.222873
1.000000 0.517449 0.232456
0.071260 0.575097 0.234958
0.101411 0.577050 0.232792
0.200748 0.577539 0.228855
0.374304 0.579187 0.214786
0.567468 0.578637 0.178408
0.721401 0.567285 0.164126
0.857755 0.592248 0.192294
0.946197 0.617914 0.256474
0.998657 0.637049 0.301183
0.130800 0.704555 0.288823
0.159945 0.704494 0.287602
0.253605 0.703822 0.283818
0.415076 0.703548 0.278599
0.573358 0.704860 0.246983
0.720760 0.700832 0.199802
0.842008 0.687678 0.183230
0.941833 0.698665 0.213962
0.997620 0.724422 0.288884
0.234867 0.806760 0.373449
0.268345 0.806455 0.371954
0.360754 0.805661 0.369543
0.489143 0.805356 0.366949
0.610346 0.806332 0.351324
0.722805 0.808560 0.298131
0.837827 0.805539 0.234867
0.935546 0.792905 0.219181
0.993439 0.798093 0.240024
0.399481 0.897734 0.482887
0.429480 0.897429 0.481666
0.493507 0.897032 0.480171
0.578729 0.896849 0.477974
0.667109 0.897307 0.473304
0.750210 0.899290 0.447852
0.836240 0.903075 0.382269
0.928801 0.900664 0.297581
0.987915 0.893400 0.269413
0.560021 0.973632 0.593988
0.575189 0.973541 0.593439
0.610224 0.973388 0.592309
0.662440 0.973297 0.590448
0.724086 0.973358 0.587793
0.787045 0.974029 0.579461
0.849912 0.976318 0.552148
0.919127 0.979583 0.494209
0.977508 0.979461 0.424048
0.000977 0.010864 0.289372
0.071015 0.015869 0.285832
0.188815 0.031983 0.278660
0.345769 0.065614 0.275608
0.558282 0.075105 0.281712
0.741939 0.081147 0.276555
0.871061 0.113130 0.272343
0.953246 0.158846 0.276616
0.999969 0.201083 0.282658
0.007416 0.120272 0.279881
0.072908 0.120302 0.278172
0.179904 0.123598 0.275914
0.341772 0.135653 0.278325
0.566125 0.129580 0.277226
0.745022 0.136660 0.272618
0.870787 0.164218 0.272648
0.952972 0.205905 0.279454
1.000000 0.245182 0.287999
0.029786 0.233097 0.277317
0.075959 0.235080 0.279240
0.179660 0.240116 0.283116
0.358068 0.247807 0.281224
0.572839 0.264683 0.283635
0.744350 0.283299 0.284001
0.868193 0.305241 0.286320
0.951904 0.335149 0.295903
1.000000 0.367498 0.307408
0.042481 0.400214 0.297093
0.080873 0.402869 0.299016
0.190494 0.404730 0.301793
0.354894 0.408759 0.289433
0.565332 0.425391 0.296269
0.732387 0.456672 0.318578
0.859678 0.475227 0.323674
0.949554 0.495094 0.330785
1.000000 0.515251 0.343969
0.079530 0.576165 0.332860
0.112123 0.577325 0.333501
0.215854 0.577142 0.332708
0.383368 0.576745 0.328893
0.567987 0.577020 0.297612
0.722774 0.569451 0.284581
0.854337 0.598138 0.327947
0.943236 0.623163 0.375555
0.996704 0.641474 0.401617
0.154513 0.702968 0.382849
0.186343 0.702571 0.382605
0.285039 0.701564 0.380713
0.435218 0.700465 0.378637
0.581964 0.701472 0.359716
0.721096 0.698665 0.312230
0.840696 0.687343 0.284306
0.941283 0.704646 0.330144
0.994690 0.732570 0.410925
0.274357 0.804868 0.453071
0.310796 0.804471 0.452491
0.398901 0.803494 0.450813
0.513359 0.802853 0.449622
0.625605 0.803403 0.442176
0.729519 0.805509 0.403937
0.838163 0.803494 0.339727
0.935058 0.792874 0.305516
0.992462 0.801633 0.337469
0.428046 0.896727 0.536553
0.454566 0.896483 0.535821
0.512779 0.895872 0.534356
0.591852 0.895659 0.532830
0.676387 0.895933 0.530083
0.757351 0.897490 0.513756
0.839872 0.900908 0.466773
0.929351 0.899443 0.397620
0.987518 0.893523 0.355291
0.570886 0.973388 0.627039
0.585595 0.973266 0.626520
0.618433 0.972992 0.625422
0.668666 0.972839 0.623590
0.729732 0.972808 0.621057
0.792355 0.973297 0.615503
0.853849 0.975402 0.593713
0.921202 0.978576 0.546929
0.977752 0.978912 0.490974
0.001312 0.027588 0.448676
0.079286 0.032624 0.444953
0.201541 0.044923 0.439246
0.364416 0.059937 0.432654
0.554345 0.079652 0.429786
0.725124 0.091066 0.434241
0.859373 0.104524 0.433448
0.948272 0.144106 0.434791
1.000000 0.192844 0.441230
0.012940 0.129213 0.442023
0.076173 0.126314 0.440314
0.194339 0.125704 0.437537
0.360754 0.131075 0.431922
0.555200 0.138125 0.430549
0.727443 0.140627 0.434363
0.860044 0.147585 0.432319
0.948363 0.186130 0.435218
1.000000 0.233829 0.442573
0.014923 0.252720 0.438239
0.068727 0.250645 0.437903
0.182467 0.245518 0.437934
0.360998 0.248569 0.434241
0.560540 0.257664 0.433967
0.733852 0.257572 0.433051
0.861753 0.270939 0.430304
0.948455 0.311009 0.438178
1.000000 0.357275 0.447852
0.040223 0.406226 0.435767
0.079164 0.408362 0.437812
0.191989 0.411383 0.439918
0.376806 0.416815 0.443122
0.580804 0.422156 0.440467
0.738552 0.437903 0.443427
0.858549 0.457618 0.449470
0.946471 0.483803 0.461158
0.999725 0.509514 0.472175
0.076417 0.575647 0.452705
0.111238 0.577569 0.454688
0.226688 0.577844 0.457588
0.410773 0.576410 0.462562
0.575799 0.576287 0.446326
0.727901 0.581353 0.451637
0.846921 0.607691 0.485756
0.940581 0.626856 0.502556
0.995972 0.642908 0.510460
0.176761 0.701534 0.490761
0.214878 0.700923 0.492531
0.330846 0.699184 0.495949
0.471962 0.697169 0.499397
0.601312 0.696986 0.495125
0.723781 0.695888 0.458961
0.839750 0.689235 0.439796
0.939666 0.716701 0.493568
0.990967 0.742672 0.542748
0.322271 0.802914 0.545800
0.360571 0.802426 0.546258
0.439796 0.801480 0.547112
0.541711 0.800381 0.547417
0.644404 0.800412 0.545953
0.739803 0.801785 0.526604
0.839078 0.800687 0.480873
0.934264 0.793393 0.451057
0.990936 0.808743 0.489937
0.453193 0.896056 0.604578
0.478004 0.895750 0.604608
0.532219 0.895171 0.604089
0.606195 0.894530 0.603204
0.687312 0.894652 0.601709
0.766537 0.895598 0.594110
0.844480 0.898497 0.563134
0.930053 0.897856 0.515526
0.987091 0.893706 0.481636
0.583917 0.973205 0.674983
0.597467 0.973083 0.674678
0.629236 0.972778 0.673823
0.677272 0.972442 0.672511
0.736355 0.972290 0.670619
0.799283 0.972442 0.667140
0.859495 0.974151 0.651850
0.924071 0.977203 0.615503
0.978210 0.978149 0.570825
0.029206 0.048951 0.600671
0.094697 0.048310 0.600885
0.221836 0.054475 0.597620
0.391638 0.062776 0.593378
0.574090 0.072328 0.586816
0.729427 0.086213 0.577600
0.851621 0.113558 0.571801
0.941039 0.154818 0.571557
0.997406 0.195315 0.576043
0.022095 0.133730 0.597559
0.082185 0.127993 0.597803
0.207584 0.124605 0.597040
0.385473 0.124697 0.593072
0.572045 0.127626 0.586664
0.729000 0.135958 0.577752
0.850126 0.158663 0.572503
0.940703 0.197024 0.573114
0.997162 0.234440 0.577996
0.013916 0.264073 0.594507
0.070771 0.259922 0.594354
0.192294 0.252964 0.594934
0.378027 0.252903 0.591608
0.572107 0.255436 0.586786
0.727413 0.261936 0.579126
0.846036 0.284459 0.575586
0.940398 0.309606 0.577447
0.996826 0.346838 0.582879
0.043519 0.425330 0.592859
0.082887 0.426398 0.594842
0.199374 0.425391 0.594446
0.383856 0.420783 0.590692
0.576867 0.420996 0.587854
0.724636 0.428840 0.582177
0.845182 0.439887 0.580957
0.941833 0.456916 0.584009
0.997375 0.483772 0.590967
0.085054 0.577905 0.593317
0.120058 0.578790 0.594018
0.230320 0.578759 0.593744
0.417243 0.578454 0.592981
0.592767 0.580163 0.594110
0.734005 0.582818 0.591974
0.850950 0.594110 0.595850
0.942626 0.610742 0.603967
0.995941 0.627070 0.610895
0.167605 0.699947 0.599878
0.201816 0.699428 0.600671
0.324010 0.697932 0.603021
0.482521 0.696315 0.606470
0.621942 0.695369 0.611841
0.729641 0.694606 0.595789
0.842832 0.700374 0.597436
0.937346 0.728023 0.632349
0.990234 0.744076 0.643671
0.312139 0.802396 0.632349
0.353826 0.801968 0.632990
0.441657 0.801022 0.634882
0.553033 0.799802 0.637751
0.657710 0.799039 0.640436
0.750271 0.799588 0.635706
0.841001 0.798734 0.602777
0.934386 0.794888 0.583429
0.990082 0.818692 0.624750
0.453773 0.896361 0.675257
0.482002 0.895995 0.675837
0.539971 0.895293 0.676905
0.615869 0.894438 0.678676
0.696925 0.893889 0.679408
0.776059 0.894285 0.677607
0.850034 0.896391 0.658808
0.930846 0.896605 0.620966
0.987091 0.893584 0.594293
0.594446 0.973388 0.730312
0.607874 0.973205 0.730526
0.639643 0.972808 0.731044
0.686763 0.972381 0.731197
0.744533 0.971923 0.730343
0.806943 0.971801 0.728176
0.866880 0.972656 0.720394
0.927306 0.975525 0.693721
0.978820 0.977264 0.656641
0.040803 0.068513 0.727565
0.099214 0.065126 0.729610
0.226017 0.067140 0.728817
0.396185 0.072145 0.726436
0.572198 0.079103 0.723262
0.725185 0.089723 0.716274
0.851041 0.107301 0.703731
0.940063 0.150607 0.692226
0.992798 0.203220 0.692134
0.029603 0.136477 0.725063
0.085298 0.129244 0.726497
0.209689 0.126497 0.727321
0.388617 0.127321 0.725307
0.569970 0.130953 0.722286
0.724086 0.136812 0.715572
0.849638 0.148775 0.703395
0.939086 0.191928 0.693294
0.991974 0.247837 0.694514
0.033600 0.275181 0.721401
0.081056 0.269566 0.722866
0.201419 0.261448 0.723568
0.382055 0.261540 0.721401
0.569970 0.262089 0.719112
0.722499 0.263432 0.713497
0.846098 0.271824 0.703456
0.936736 0.309789 0.696803
0.990661 0.356664 0.700191
0.070832 0.437049 0.719509
0.105440 0.436835 0.721889
0.227024 0.433814 0.720333
0.397925 0.431067 0.716640
0.576471 0.430213 0.714260
0.722286 0.430823 0.710231
0.840482 0.437385 0.703944
0.932891 0.461189 0.702541
0.990936 0.477150 0.705318
0.126772 0.583886 0.721218
0.164065 0.584375 0.720790
0.279118 0.585595 0.718715
0.442359 0.585443 0.715450
0.594690 0.580926 0.712245
0.727230 0.578485 0.709529
0.838712 0.579706 0.706661
0.936126 0.585718 0.707546
0.993835 0.595209 0.709651
0.192630 0.698421 0.718532
0.232609 0.698177 0.718013
0.342962 0.697414 0.716884
0.484382 0.696437 0.715480
0.618189 0.695979 0.714778
0.739467 0.696803 0.715694
0.851164 0.700710 0.715358
0.941924 0.713924 0.721767
0.993652 0.727443 0.727352
0.271672 0.800687 0.724575
0.311254 0.800381 0.724697
0.404242 0.799619 0.724819
0.526940 0.798795 0.725368
0.649317 0.798581 0.727169
0.759976 0.798886 0.732296
0.844511 0.797910 0.715724
0.936461 0.804776 0.717525
0.987182 0.830716 0.749477
0.405859 0.896910 0.747860
0.439063 0.896544 0.748287
0.510124 0.895903 0.749447
0.602380 0.895140 0.751797
0.697597 0.894347 0.755093
0.783627 0.894041 0.758297
0.857786 0.894865 0.753079
0.932006 0.895476 0.722835
0.987121 0.893767 0.704128
0.580591 0.974609 0.786069
0.597162 0.974395 0.786801
0.636072 0.973816 0.788693
0.691249 0.972992 0.791318
0.751644 0.972198 0.793179
0.814939 0.971527 0.793301
0.876097 0.971496 0.790738
0.931395 0.973632 0.774441
0.979644 0.976074 0.744106
0.042359 0.088685 0.836057
0.095796 0.083009 0.839261
0.222385 0.084199 0.839322
0.396490 0.089021 0.837736
0.565393 0.096559 0.835691
0.713100 0.106752 0.832792
0.840665 0.119722 0.826169
0.938659 0.145174 0.810575
0.993683 0.186770 0.801450
0.036042 0.146517 0.834440
0.086580 0.138491 0.836759
0.210300 0.136049 0.838102
0.390967 0.138857 0.836545
0.565270 0.142824 0.834501
0.713222 0.150027 0.831632
0.840024 0.159548 0.825101
0.937926 0.182162 0.810330
0.992828 0.222751 0.802029
0.054108 0.287297 0.831144
0.094820 0.279850 0.834318
0.212680 0.270848 0.834531
0.389776 0.271580 0.832639
0.569848 0.273899 0.830869
0.715877 0.276585 0.828275
0.838804 0.280278 0.822477
0.936339 0.294560 0.810239
0.990875 0.337926 0.804501
0.098482 0.451942 0.831876
0.140017 0.450874 0.832212
0.251774 0.447028 0.830686
0.414527 0.442908 0.827695
0.582269 0.441840 0.825559
0.722347 0.442542 0.823239
0.837858 0.444038 0.818479
0.933654 0.451820 0.810666
0.989258 0.470924 0.807523
0.173281 0.595941 0.830350
0.213504 0.596216 0.829618
0.320989 0.595758 0.827756
0.463020 0.591791 0.824857
0.602075 0.586053 0.821897
0.730282 0.581659 0.819974
0.839750 0.579553 0.816373
0.933776 0.581567 0.812009
0.988647 0.591882 0.810971
0.255467 0.706294 0.828061
0.294133 0.706325 0.827481
0.384558 0.706050 0.826169
0.503746 0.705165 0.824247
0.624903 0.702693 0.822110
0.739376 0.696986 0.819699
0.844602 0.693751 0.816953
0.935668 0.695491 0.814694
0.990082 0.701930 0.814939
0.311650 0.800259 0.825864
0.347845 0.800015 0.825467
0.428748 0.799527 0.824491
0.537591 0.798856 0.823148
0.647547 0.798367 0.821805
0.752712 0.798398 0.820829
0.851011 0.799252 0.820737
0.941192 0.807675 0.823148
0.991089 0.820035 0.827604
0.357794 0.895384 0.830045
0.391913 0.895109 0.829923
0.466621 0.894560 0.829648
0.566613 0.894011 0.829374
0.669429 0.893858 0.829465
0.771542 0.894224 0.830838
0.865599 0.894774 0.835874
0.933776 0.894652 0.820096
0.986603 0.900053 0.820737
0.520409 0.976257 0.845823
0.541833 0.976104 0.846159
0.591058 0.975647 0.846983
0.659052 0.974945 0.848692
0.738430 0.973846 0.851835
0.821164 0.972076 0.857725
0.886809 0.971099 0.859007
0.937652 0.971557 0.854124
0.980682 0.974578 0.831693
0.046906 0.110597 0.924468
0.095552 0.104341 0.928222
0.220523 0.104891 0.929778
0.398810 0.110628 0.929686
0.565850 0.119265 0.929564
0.705806 0.130739 0.929168
0.829770 0.144869 0.926940
0.933349 0.165347 0.916472
0.991699 0.187106 0.906310
0.050874 0.157717 0.923857
0.095796 0.149264 0.927794
0.217685 0.148531 0.929198
0.398138 0.154177 0.929046
0.568078 0.161349 0.928862
0.707729 0.171725 0.928222
0.830442 0.183352 0.925902
0.933074 0.198856 0.915770
0.991150 0.220737 0.905974
0.077180 0.300450 0.924590
0.116518 0.292638 0.927886
0.231052 0.284031 0.927794
0.403967 0.284947 0.927184
0.576043 0.289372 0.926665
0.714473 0.294621 0.925292
0.833127 0.301457 0.923003
0.932860 0.312322 0.914092
0.989960 0.327764 0.905638
0.137362 0.469856 0.927276
0.178531 0.467536 0.927306
0.284398 0.461982 0.926085
0.435676 0.455756 0.923919
0.593683 0.454444 0.922423
0.725582 0.454719 0.920897
0.837552 0.456031 0.918791
0.933135 0.461097 0.911803
0.988922 0.465797 0.905394
0.229526 0.608759 0.924895
0.270665 0.607965 0.924315
0.361761 0.604913 0.923003
0.482765 0.599603 0.920989
0.612482 0.592035 0.918944
0.734890 0.586450 0.917601
0.842496 0.584009 0.915740
0.934661 0.585718 0.910277
0.988800 0.586816 0.905486
0.311406 0.716518 0.922606
0.347051 0.716396 0.922057
0.422431 0.715511 0.920958
0.525811 0.713222 0.919280
0.636500 0.707698 0.917266
0.744930 0.700862 0.915282
0.847654 0.696468 0.913603
0.936187 0.696651 0.909392
0.988891 0.697353 0.905913
0.383642 0.808469 0.920134
0.413184 0.808438 0.919707
0.479652 0.808377 0.918791
0.568048 0.808225 0.917479
0.663050 0.807645 0.915953
0.758175 0.805539 0.914214
0.851469 0.800320 0.912169
0.937041 0.798978 0.909087
0.988342 0.801450 0.906371
0.423468 0.894682 0.916960
0.449622 0.894560 0.916655
0.510155 0.894255 0.915862
0.592493 0.893950 0.914794
0.680507 0.893828 0.913573
0.769894 0.894011 0.912261
0.858701 0.894285 0.910948
0.937224 0.895384 0.910063
0.986786 0.905028 0.913634
0.479408 0.975280 0.919951
0.504967 0.975128 0.919921
0.555932 0.974945 0.919829
0.626551 0.974548 0.919829
0.705653 0.974304 0.920043
0.792142 0.973693 0.920653
0.883116 0.972229 0.923156
0.951110 0.969726 0.929412
0.981720 0.972259 0.923095
0.055299 0.127657 0.989685
0.102052 0.124300 0.990295
0.219852 0.125246 0.991485
0.396490 0.131044 0.991485
0.560540 0.139895 0.991577
0.694850 0.153079 0.991699
0.814450 0.170443 0.991638
0.921508 0.191562 0.990539
0.985382 0.217960 0.986053
0.065522 0.171908 0.989197
0.109773 0.165988 0.990295
0.224552 0.166384 0.990997
0.400244 0.172152 0.991058
0.564477 0.180423 0.991150
0.698238 0.190066 0.991241
0.816495 0.205295 0.991180
0.922301 0.227939 0.989990
0.985382 0.257877 0.985779
0.102876 0.308904 0.989410
0.147127 0.302647 0.990021
0.250309 0.294591 0.990143
0.413642 0.296025 0.990051
0.576654 0.301366 0.990143
0.708766 0.310033 0.990173
0.822690 0.321569 0.989960
0.924743 0.336522 0.988617
0.985351 0.356603 0.985077
0.187533 0.480964 0.989319
0.226902 0.478065 0.989227
0.318547 0.471778 0.988983
0.453010 0.464210 0.988495
0.598627 0.460548 0.988403
0.722713 0.459968 0.988403
0.830320 0.462165 0.988373
0.927794 0.469276 0.987121
0.985565 0.479103 0.984375
0.305486 0.616480 0.988098
0.335637 0.615076 0.987945
0.403388 0.611902 0.987701
0.503319 0.605066 0.987274
0.620264 0.595209 0.986877
0.735470 0.588800 0.986877
0.838132 0.586938 0.986877
0.931029 0.589990 0.985779
0.985931 0.596216 0.983642
0.394293 0.723140 0.987274
0.420874 0.722835 0.987091
0.480079 0.722072 0.986755
0.564538 0.719875 0.986206
0.653773 0.713252 0.985687
0.750088 0.704311 0.985412
0.846494 0.698970 0.985351
0.934142 0.699428 0.984436
0.986145 0.704250 0.982361
0.474006 0.814267 0.986389
0.494942 0.814359 0.986236
0.541100 0.814450 0.985962
0.608789 0.814450 0.985473
0.688014 0.813657 0.984833
0.774197 0.811154 0.983948
0.855528 0.803525 0.983215
0.937072 0.800626 0.982238
0.985687 0.805661 0.980316
0.519341 0.903502 0.983642
0.538170 0.903593 0.983490
0.578790 0.903868 0.983154
0.638880 0.904265 0.982605
0.710536 0.904814 0.981903
0.788479 0.905455 0.980926
0.870634 0.906096 0.979522
0.942626 0.904814 0.977783
0.982574 0.908476 0.976196
0.578424 0.977569 0.978363
0.592493 0.977508 0.978241
0.626703 0.977386 0.977935
0.677943 0.977234 0.977630
0.744076 0.976867 0.977081
0.820584 0.976135 0.976410
0.900175 0.974578 0.975525
0.960418 0.972686 0.974975
0.985046 0.972045 0.975616
