app/src/main/assets/filters/Eternal.cube
# Created by Adobe Lightroom plugin Export LUT (1.24.0)
# www.johnrellis.com/lightroom/exportlut.htm
# Photo: P1190097.jpg
# Color profile: C:\Program Files (x86)\Common Files\Adobe\Color\Profiles\Recommended\sRGB Color Space Profile.icm
LUT_3D_SIZE 5
DOMAIN_MIN 0.0 0.0 0.0
DOMAIN_MAX 1.0 1.0 1.0
0.000671 0.000000 0.000458
0.210239 0.030365 0.003967
0.575738 0.097139 0.009247
0.876097 0.162264 0.045533
0.999969 0.225559 0.096010
0.024140 0.228153 0.089693
0.178286 0.236790 0.062043
0.557397 0.288884 0.106264
0.872648 0.345525 0.106538
1.000000 0.387610 0.139162
0.068360 0.574762 0.183810
0.198398 0.577813 0.176364
0.568750 0.579614 0.129030
0.857694 0.590295 0.146273
0.999664 0.635126 0.250706
0.219272 0.807645 0.334173
0.343664 0.806668 0.330053
0.604273 0.807675 0.306401
0.837766 0.806363 0.202731
0.993805 0.796994 0.209598
0.554986 0.973785 0.579126
0.606470 0.973571 0.577295
0.721584 0.973571 0.572930
0.848203 0.976745 0.532738
0.977356 0.979706 0.391272
0.000977 0.010864 0.289372
0.188815 0.031983 0.278660
0.558282 0.075105 0.281712
0.871061 0.113130 0.272343
0.999969 0.201083 0.282658
0.029786 0.233097 0.277317
0.179660 0.240116 0.283116
0.572839 0.264683 0.283635
0.868193 0.305241 0.286320
1.000000 0.367498 0.307408
0.079530 0.576165 0.332860
0.215854 0.577142 0.332708
0.567987 0.577020 0.297612
0.854337 0.598138 0.327947
0.996704 0.641474 0.401617
0.274357 0.804868 0.453071
0.398901 0.803494 0.450813
0.625605 0.803403 0.442176
0.838163 0.803494 0.339727
0.992462 0.801633 0.337469
0.570886 0.973388 0.627039
0.618433 0.972992 0.625422
0.729732 0.972808 0.621057
0.853849 0.975402 0.593713
0.977752 0.978912 0.490974
0.029206 0.048951 0.600671
0.221836 0.054475 0.597620
0.574090 0.072328 0.586816
0.851621 0.113558 0.571801
0.997406 0.195315 0.576043
0.013916 0.264073 0.594507
0.192294 0.252964 0.594934
0.572107 0.255436 0.586786
0.846036 0.284459 0.575586
0.996826 0.346838 0.582879
0.085054 0.577905 0.593317
0.230320 0.578759 0.593744
0.592767 0.580163 0.594110
0.850950 0.594110 0.595850
0.995941 0.627070 0.610895
0.312139 0.802396 0.632349
0.441657 0.801022 0.634882
0.657710 0.799039 0.640436
0.841001 0.798734 0.602777
0.990082 0.818692 0.624750
0.594446 0.973388 0.730312
0.639643 0.972808 0.731044
0.744533 0.971923 0.730343
0.866880 0.972656 0.720394
0.978820 0.977264 0.656641
0.042359 0.088685 0.836057
0.222385 0.084199 0.839322
0.565393 0.096559 0.835691
0.840665 0.119722 0.826169
0.993683 0.186770 0.801450
0.054108 0.287297 0.831144
0.212680 0.270848 0.834531
0.569848 0.273899 0.830869
0.838804 0.280278 0.822477
0.990875 0.337926 0.804501
0.173281 0.595941 0.830350
0.320989 0.595758 0.827756
0.602075 0.586053 0.821897
0.839750 0.579553 0.816373
0.988647 0.591882 0.810971
0.311650 0.800259 0.825864
0.428748 0.799527 0.824491
0.647547 0.798367 0.821805
0.851011 0.799252 0.820737
0.991089 0.820035 0.827604
0.520409 0.976257 0.845823
0.591058 0.975647 0.846983
0.738430 0.973846 0.851835
0.886809 0.971099 0.859007
0.980682 0.974578 0.831693
0.055299 0.127657 0.989685
0.219852 0.125246 0.991485
0.560540 0.139895 0.991577
0.814450 0.170443 0.991638
0.985382 0.217960 0.986053
0.102876 0.308904 0.989410
0.250309 0.294591 0.990143
0.576654 0.301366 0.990143
0.822690 0.321569 0.989960
0.985351 0.356603 0.985077
0.305486 0.616480 0.988098
0.403388 0.611902 0.987701
0.620264 0.595209 0.986877
0.838132 0.586938 0.986877
0.985931 0.596216 0.983642
0.474006 0.814267 0.986389
0.541100 0.814450 0.985962
0.688014 0.813657 0.984833
0.855528 0.803525 0.983215
0.985687 0.805661 0.980316
0.578424 0.977569 0.978363
0.626703 0.977386 0.977935
0.744076 0.976867 0.977081
0.900175 0.974578 0.975525
0.985046 0.972045 0.975616
