app/src/main/assets/filters/Eternal.cube
# Created by Adobe Lightroom plugin Export LUT (1.24.0)
# www.johnrellis.com/lightroom/exportlut.htm
# Photo: P1190097.jpg
# Color profile: C:\Program Files (x86)\Common Files\Adobe\Color\Profiles\Recommended\sRGB Color Space Profile.icm
LUT_3D_SIZE 33
DOMAIN_MIN 0.0 0.0 0.0
DOMAIN_MAX 1.0 1.0 1.0
0.000671 0.000000 0.000458
0.019715 0.002228 0.002045
0.038209 0.004120 0.003662
0.057404 0.006561 0.005646
0.081941 0.009705 0.007721
0.110445 0.014374 0.007843
0.142580 0.019745 0.006409
0.175174 0.025330 0.005035
0.210239 0.030365 0.003967
0.246952 0.036957 0.002502
0.286381 0.044831 0.002564
0.330083 0.053101 0.001129
0.377050 0.060517 0.001404
0.426764 0.067964 0.002075
0.477058 0.076448 0.001831
0.527153 0.087068 0.005432
0.575738 0.097139 0.009247
0.622126 0.106966 0.012573
0.665949 0.115175 0.017395
0.707759 0.122866 0.020294
0.747311 0.132357 0.023529
0.783841 0.140932 0.029755
0.816861 0.149599 0.034668
0.847532 0.156619 0.039857
0.876097 0.162264 0.045533
0.901030 0.169802 0.052186
0.922271 0.178714 0.059571
0.940948 0.189090 0.067597
0.955901 0.197818 0.072908
0.970031 0.206027 0.078096
0.983398 0.209812 0.083314
0.996521 0.217075 0.089631
0.999969 0.225559 0.096010
0.001221 0.024018 0.006226
0.019776 0.026032 0.004700
0.037476 0.027161 0.005554
0.055756 0.031037 0.009247
0.079744 0.035737 0.010712
0.108095 0.040497 0.010346
0.141207 0.044282 0.007721
0.173220 0.048829 0.007355
0.208164 0.052918 0.006348
0.244419 0.058778 0.006195
0.283604 0.064179 0.006470
0.327642 0.070222 0.006500
0.374701 0.076387 0.006775
0.425025 0.084382 0.007996
0.475929 0.092805 0.011078
0.526421 0.102144 0.013214
0.575311 0.110811 0.017823
0.621820 0.119539 0.020600
0.666163 0.126406 0.024994
0.708248 0.134829 0.028229
0.747707 0.144015 0.031281
0.784024 0.152224 0.034852
0.817105 0.160067 0.039307
0.847257 0.166476 0.045380
0.875853 0.171389 0.050477
0.900847 0.177859 0.056611
0.922118 0.188632 0.063722
0.940887 0.198581 0.070710
0.955840 0.206180 0.076326
0.970031 0.213748 0.081239
0.983337 0.218051 0.086580
0.996490 0.224277 0.092195
0.999969 0.232670 0.098116
0.001892 0.048768 0.014282
0.018616 0.049928 0.012879
0.036774 0.052827 0.009247
0.056580 0.054108 0.009033
0.079377 0.058656 0.011322
0.105104 0.062654 0.014221
0.135561 0.066499 0.014374
0.169070 0.069917 0.012665
0.205203 0.073030 0.011170
0.241550 0.077150 0.011597
0.280491 0.082399 0.013184
0.324834 0.088197 0.014862
0.372107 0.094728 0.015717
0.422919 0.101961 0.017609
0.474647 0.109499 0.019501
0.525444 0.117525 0.022461
0.574853 0.125063 0.026123
0.621729 0.132540 0.029816
0.666346 0.140902 0.032929
0.708400 0.148806 0.035676
0.747982 0.156954 0.037934
0.784329 0.164767 0.040742
0.816678 0.171603 0.045808
0.846921 0.177127 0.051209
0.875608 0.181918 0.054688
0.900664 0.189761 0.060578
0.922026 0.199985 0.067567
0.940795 0.209049 0.074922
0.955779 0.215366 0.079835
0.969970 0.222812 0.084749
0.983276 0.227420 0.089235
0.996429 0.232303 0.095308
1.000000 0.240421 0.100771
0.001465 0.076967 0.020356
0.019959 0.077363 0.019471
0.036255 0.079652 0.016846
0.055695 0.082063 0.013184
0.079164 0.082765 0.011902
0.105745 0.086336 0.012390
0.133822 0.089906 0.016114
0.163607 0.093507 0.021210
0.196597 0.097505 0.024659
0.233951 0.101381 0.025879
0.274632 0.105379 0.026032
0.320897 0.110842 0.026459
0.368566 0.116609 0.028595
0.420325 0.122835 0.030793
0.472602 0.129824 0.031983
0.524315 0.137026 0.034760
0.574060 0.144930 0.037446
0.621485 0.152895 0.039918
0.666102 0.160006 0.042908
0.708125 0.167880 0.044678
0.747616 0.175174 0.047089
0.783719 0.181949 0.050294
0.816220 0.187716 0.053376
0.846525 0.193790 0.057862
0.875273 0.199893 0.061707
0.900420 0.206516 0.066926
0.921813 0.215335 0.073396
0.940703 0.223575 0.079744
0.955718 0.229313 0.083955
0.969879 0.236118 0.088991
0.983215 0.240208 0.093629
0.996368 0.243656 0.099123
1.000000 0.252079 0.104799
0.000916 0.108461 0.026886
0.016724 0.109102 0.025940
0.034028 0.109682 0.024994
0.053101 0.112001 0.019837
0.076905 0.114015 0.015412
0.103212 0.113222 0.015198
0.132296 0.114595 0.016144
0.163210 0.118135 0.021454
0.192599 0.121736 0.031830
0.226596 0.125734 0.038727
0.264775 0.129946 0.042023
0.310948 0.135042 0.045014
0.361212 0.141176 0.045960
0.416114 0.147372 0.045624
0.470008 0.154299 0.045686
0.522515 0.161746 0.048341
0.572595 0.169039 0.050752
0.620142 0.176669 0.052888
0.664942 0.183780 0.054719
0.707149 0.191012 0.056367
0.746883 0.197757 0.057557
0.783047 0.204837 0.059907
0.815610 0.211154 0.062776
0.846006 0.216922 0.066255
0.874937 0.221927 0.069306
0.900145 0.227909 0.074311
0.921630 0.235172 0.080201
0.940520 0.243320 0.085664
0.955596 0.248203 0.090028
0.969787 0.253025 0.094575
0.983154 0.256809 0.098939
0.996277 0.262669 0.104097
1.000000 0.272404 0.109712
0.000427 0.137911 0.039490
0.017853 0.138369 0.038575
0.033692 0.138705 0.038148
0.051118 0.139651 0.035584
0.071870 0.142336 0.028046
0.099031 0.143679 0.022522
0.128145 0.142336 0.022217
0.159152 0.142336 0.024598
0.191562 0.146029 0.030915
0.224918 0.150362 0.041474
0.260075 0.155764 0.053101
0.303349 0.161410 0.059571
0.352178 0.167636 0.063294
0.405921 0.174533 0.064759
0.461952 0.181765 0.065187
0.517357 0.189090 0.064668
0.570459 0.196292 0.064149
0.618677 0.203433 0.065339
0.663783 0.211490 0.067048
0.706447 0.218875 0.067597
0.746242 0.225681 0.069184
0.782406 0.232029 0.070466
0.815061 0.237797 0.073243
0.845548 0.243595 0.075044
0.874418 0.248692 0.077760
0.899779 0.253971 0.081849
0.921294 0.260136 0.087709
0.940368 0.266392 0.093416
0.955444 0.271885 0.096986
0.969665 0.276371 0.101381
0.983032 0.282383 0.105592
0.996124 0.288182 0.110597
1.000000 0.297246 0.115908
0.005371 0.167147 0.055451
0.021515 0.167269 0.055512
0.035584 0.167514 0.054475
0.050690 0.168185 0.053193
0.069154 0.169741 0.048768
0.093477 0.172274 0.040589
0.122438 0.173190 0.033967
0.154452 0.171633 0.033906
0.186404 0.170962 0.035798
0.222293 0.174716 0.042390
0.260868 0.180606 0.052369
0.302312 0.187076 0.064485
0.348577 0.194125 0.073518
0.400031 0.201511 0.078309
0.454505 0.209812 0.081086
0.509789 0.218143 0.081941
0.563531 0.226291 0.081636
0.614069 0.234195 0.081392
0.661707 0.241581 0.080262
0.705715 0.249180 0.079408
0.745602 0.256168 0.080018
0.781674 0.262486 0.080903
0.814420 0.267887 0.082887
0.844999 0.272862 0.084657
0.873838 0.277928 0.086885
0.899413 0.283238 0.090761
0.921080 0.289708 0.095888
0.940154 0.295720 0.101381
0.955261 0.300938 0.105196
0.969512 0.305974 0.109133
0.982849 0.311986 0.113252
0.996002 0.317144 0.117464
1.000000 0.325170 0.122652
0.014191 0.195712 0.073121
0.027649 0.195895 0.073487
0.040375 0.195987 0.072694
0.053407 0.196506 0.072328
0.069184 0.197421 0.069917
0.089998 0.199771 0.064057
0.115908 0.202274 0.055268
0.148928 0.203189 0.048066
0.181888 0.201511 0.045747
0.217746 0.201175 0.047486
0.257298 0.205295 0.053986
0.303349 0.213107 0.062623
0.350164 0.221622 0.073243
0.399878 0.230625 0.082979
0.452186 0.239475 0.089570
0.505760 0.248081 0.094759
0.558465 0.256840 0.096437
0.608972 0.265263 0.097108
0.656519 0.273320 0.096773
0.701411 0.281041 0.095521
0.743130 0.288701 0.093141
0.780636 0.295079 0.092470
0.813809 0.300877 0.092958
0.844358 0.306035 0.094911
0.873320 0.310887 0.096712
0.898985 0.316320 0.099825
0.920684 0.322271 0.104860
0.940002 0.327886 0.109834
0.955077 0.333196 0.113527
0.969360 0.337743 0.117098
0.982696 0.342992 0.121309
0.995758 0.348821 0.125368
1.000000 0.356268 0.130861
0.024140 0.228153 0.089693
0.035065 0.228275 0.089509
0.044373 0.228519 0.089845
0.056245 0.228763 0.088838
0.071595 0.229343 0.087892
0.089937 0.230838 0.084688
0.112459 0.233066 0.077790
0.144381 0.235904 0.068544
0.178286 0.236790 0.062043
0.215305 0.235721 0.059083
0.254246 0.235752 0.059419
0.299626 0.239963 0.063294
0.349645 0.248539 0.070985
0.403632 0.259037 0.079622
0.454627 0.268803 0.091035
0.506279 0.278843 0.100130
0.557397 0.288884 0.106264
0.606409 0.297856 0.109010
0.653162 0.306737 0.110048
0.697566 0.315282 0.109102
0.739010 0.323064 0.107912
0.776516 0.329839 0.107027
0.810666 0.335332 0.107149
0.842679 0.340673 0.106477
0.872648 0.345525 0.106538
0.898497 0.350378 0.109377
0.920287 0.355932 0.114504
0.939666 0.361486 0.119356
0.954803 0.366705 0.122866
0.969146 0.371679 0.126162
0.982422 0.376349 0.130190
0.995483 0.381079 0.134524
1.000000 0.387610 0.139162
0.031922 0.263798 0.105348
0.040803 0.263859 0.105043
0.049531 0.263920 0.105135
0.059541 0.264073 0.104768
0.074159 0.264775 0.104067
0.091859 0.265904 0.101839
0.112825 0.267521 0.097414
0.142550 0.269718 0.089754
0.176028 0.272801 0.080934
0.214511 0.273655 0.074159
0.253941 0.273106 0.071138
0.298497 0.273411 0.070069
0.346807 0.277348 0.072419
0.400427 0.286870 0.079255
0.457008 0.299138 0.086610
0.509758 0.310460 0.098116
0.559319 0.321508 0.107607
0.607294 0.332036 0.114046
0.652522 0.341222 0.117769
0.695613 0.349615 0.119814
0.736202 0.357458 0.119600
0.773190 0.364233 0.120119
0.807279 0.370001 0.120607
0.839261 0.375647 0.120974
0.869261 0.380621 0.121675
0.896635 0.385595 0.122621
0.919341 0.390814 0.125673
0.939391 0.396033 0.129000
0.954528 0.400855 0.132418
0.968811 0.405493 0.135897
0.982116 0.410407 0.139467
0.995148 0.415137 0.143801
1.000000 0.420783 0.148959
0.038209 0.304814 0.119509
0.045991 0.304906 0.119020
0.053864 0.305028 0.119112
0.063172 0.305364 0.119051
0.076020 0.306157 0.118013
0.093507 0.306889 0.117311
0.115419 0.308110 0.114656
0.144015 0.309850 0.109407
0.175418 0.312657 0.101198
0.214206 0.316014 0.091524
0.255192 0.316991 0.084535
0.300359 0.316381 0.081331
0.347417 0.316747 0.079683
0.398413 0.319524 0.081392
0.452979 0.328405 0.086824
0.509209 0.340520 0.094850
0.562860 0.352972 0.102785
0.609400 0.364050 0.112123
0.653986 0.374731 0.119844
0.696315 0.384558 0.124788
0.735348 0.392645 0.128298
0.771176 0.399207 0.130159
0.804562 0.405188 0.131960
0.836271 0.410712 0.133700
0.866117 0.415869 0.134920
0.893919 0.420905 0.136629
0.916899 0.426184 0.139864
0.937713 0.431220 0.143862
0.953521 0.435798 0.145144
0.968292 0.439979 0.146670
0.981811 0.444099 0.149630
0.994781 0.448707 0.153780
1.000000 0.453895 0.158541
0.042512 0.349493 0.131685
0.050202 0.349584 0.131563
0.057221 0.349706 0.131289
0.067018 0.350042 0.131411
0.079438 0.350713 0.130251
0.094575 0.351720 0.129641
0.118318 0.352361 0.127749
0.146822 0.353491 0.124636
0.178256 0.355474 0.119020
0.215030 0.358373 0.111025
0.257206 0.361791 0.101564
0.303685 0.362219 0.094972
0.351232 0.361273 0.090547
0.401007 0.361089 0.088685
0.451728 0.362829 0.089052
0.505211 0.370794 0.093690
0.559136 0.382391 0.100008
0.610681 0.395453 0.106111
0.655879 0.407080 0.114687
0.697597 0.417365 0.123659
0.736110 0.426581 0.130434
0.771115 0.433753 0.135866
0.803342 0.439368 0.140993
0.834226 0.444800 0.144656
0.863584 0.450019 0.147189
0.891539 0.455146 0.150027
0.914519 0.460487 0.154330
0.935973 0.465705 0.158572
0.951751 0.470344 0.160647
0.966583 0.474708 0.162509
0.980468 0.478431 0.164401
0.993896 0.482246 0.166537
1.000000 0.486244 0.169253
0.047303 0.396612 0.142733
0.053956 0.396735 0.142458
0.060578 0.396826 0.142519
0.070008 0.397223 0.141787
0.081422 0.397894 0.141360
0.096620 0.398718 0.140322
0.121065 0.399512 0.138918
0.149783 0.400183 0.136873
0.181796 0.401587 0.133425
0.218631 0.403632 0.127077
0.259068 0.406378 0.119417
0.307683 0.409522 0.109346
0.356054 0.409369 0.103395
0.406195 0.407904 0.099336
0.455573 0.407019 0.097139
0.505119 0.407599 0.096284
0.555444 0.413916 0.099428
0.605768 0.424140 0.104891
0.654170 0.436316 0.110628
0.698970 0.448219 0.117617
0.736690 0.457404 0.127443
0.771267 0.465400 0.136049
0.803372 0.472267 0.143801
0.833738 0.478309 0.150454
0.862242 0.483375 0.155276
0.889769 0.488228 0.159670
0.912627 0.493111 0.164797
0.933959 0.498299 0.170871
0.950103 0.503044 0.174746
0.964965 0.507774 0.177890
0.978851 0.511711 0.180911
0.992248 0.515404 0.184146
1.000000 0.519310 0.187228
0.051148 0.444068 0.152926
0.057496 0.444251 0.152956
0.064088 0.444465 0.152346
0.073274 0.444892 0.151736
0.084047 0.445563 0.151156
0.098695 0.446143 0.149813
0.123720 0.446784 0.148989
0.152651 0.447425 0.147524
0.185611 0.448280 0.144472
0.222629 0.449653 0.139773
0.263523 0.451698 0.133700
0.310430 0.454108 0.125338
0.360998 0.456733 0.116579
0.411841 0.455543 0.110719
0.461219 0.453651 0.106630
0.509575 0.451850 0.103731
0.556207 0.451453 0.102510
0.602350 0.455787 0.104891
0.649042 0.464363 0.109773
0.694301 0.475410 0.115450
0.735683 0.485847 0.122347
0.771237 0.494240 0.131838
0.803189 0.501823 0.141909
0.833494 0.508507 0.151858
0.861906 0.514580 0.159243
0.889067 0.520012 0.166049
0.911406 0.524834 0.173526
0.932403 0.529503 0.181064
0.948730 0.534234 0.186526
0.963500 0.538933 0.191226
0.977356 0.543267 0.196078
0.990631 0.547234 0.201480
1.000000 0.551049 0.206607
0.055634 0.490120 0.162997
0.061921 0.490364 0.162814
0.068757 0.490852 0.162234
0.076631 0.491524 0.161532
0.088014 0.492134 0.160678
0.103365 0.492592 0.159518
0.126467 0.493172 0.158358
0.154849 0.493629 0.157198
0.189792 0.494057 0.155184
0.227146 0.495003 0.151858
0.268772 0.496284 0.145907
0.314672 0.498116 0.138308
0.363958 0.500114 0.130282
0.417029 0.502037 0.121675
0.466743 0.500053 0.116945
0.515068 0.497383 0.112673
0.560235 0.495003 0.109987
0.603662 0.493751 0.108614
0.645930 0.496040 0.109926
0.689021 0.502617 0.114351
0.729580 0.511254 0.120027
0.767941 0.520043 0.127199
0.802731 0.528588 0.134920
0.833036 0.535546 0.147189
0.861479 0.542351 0.157992
0.888670 0.548699 0.167880
0.910979 0.554101 0.179049
0.931701 0.559075 0.189120
0.947845 0.563684 0.196933
0.962432 0.568292 0.204959
0.976104 0.572625 0.211917
0.989166 0.576776 0.218296
1.000000 0.580865 0.224369
0.061097 0.533776 0.173098
0.067109 0.534234 0.172152
0.073274 0.534813 0.171664
0.081209 0.535424 0.170871
0.091890 0.536187 0.169711
0.108553 0.536553 0.168765
0.129732 0.537011 0.167971
0.156985 0.537377 0.166476
0.193545 0.537407 0.165164
0.232578 0.537896 0.162783
0.274907 0.538811 0.158297
0.320165 0.540032 0.152499
0.368597 0.541375 0.144289
0.419226 0.542962 0.135470
0.472145 0.544335 0.126864
0.520043 0.541527 0.122744
0.564996 0.538354 0.118990
0.607385 0.535271 0.115969
0.647303 0.533135 0.114351
0.685725 0.533318 0.115145
0.724208 0.537530 0.118898
0.762051 0.544610 0.125246
0.797604 0.552209 0.132143
0.831357 0.560357 0.140322
0.860838 0.567346 0.151400
0.888121 0.573999 0.164004
0.910582 0.580072 0.178378
0.931426 0.585870 0.191836
0.947539 0.591119 0.204105
0.961852 0.596063 0.214450
0.975311 0.600488 0.223453
0.988067 0.604486 0.231449
0.999969 0.608667 0.240116
0.068360 0.574762 0.183810
0.073884 0.575372 0.182712
0.079438 0.575952 0.182101
0.087495 0.576532 0.181704
0.097536 0.577111 0.180789
0.113100 0.577386 0.179232
0.133974 0.577630 0.178683
0.162234 0.577752 0.177523
0.198398 0.577813 0.176364
0.237858 0.578088 0.174716
0.281926 0.578668 0.171450
0.326909 0.579431 0.166049
0.374273 0.580285 0.159518
0.423621 0.581415 0.151369
0.473762 0.582391 0.142184
0.523919 0.582940 0.133150
0.568750 0.579614 0.129030
0.610651 0.575799 0.125216
0.649592 0.571832 0.122042
0.686244 0.568780 0.120638
0.721431 0.567437 0.120607
0.757198 0.570123 0.124269
0.791958 0.575830 0.130007
0.825864 0.582788 0.137728
0.857694 0.590295 0.146273
0.887480 0.597467 0.156588
0.910094 0.603388 0.172152
0.931151 0.609430 0.188113
0.947356 0.615473 0.203433
0.961639 0.621424 0.217166
0.974914 0.626612 0.229252
0.987427 0.630945 0.240208
0.999664 0.635126 0.250706
0.077058 0.612177 0.194949
0.082307 0.612665 0.194278
0.087617 0.613123 0.193515
0.095491 0.613581 0.192966
0.107362 0.613794 0.192111
0.121370 0.614008 0.191012
0.139834 0.614191 0.190066
0.169558 0.614130 0.189181
0.205295 0.614099 0.188022
0.244724 0.614221 0.186770
0.288945 0.614466 0.184817
0.334417 0.614923 0.180819
0.380621 0.615442 0.174777
0.428107 0.616175 0.166690
0.475654 0.616846 0.158145
0.523369 0.617304 0.149264
0.570062 0.616938 0.140352
0.611719 0.613275 0.135744
0.650813 0.609125 0.131502
0.687373 0.604883 0.128664
0.721553 0.601648 0.126619
0.754696 0.599634 0.126802
0.787472 0.600916 0.129671
0.820401 0.605524 0.135439
0.852323 0.611658 0.143435
0.883085 0.618921 0.152468
0.908721 0.625299 0.164126
0.930724 0.631250 0.180789
0.947112 0.637476 0.196384
0.961517 0.643793 0.212070
0.974731 0.649805 0.227420
0.987091 0.655177 0.242435
0.999115 0.660029 0.256077
0.088746 0.645655 0.207126
0.092775 0.646052 0.206638
0.099001 0.646265 0.206058
0.108003 0.646387 0.205570
0.118959 0.646540 0.204562
0.133211 0.646723 0.203861
0.152071 0.646723 0.202823
0.180240 0.646571 0.201785
0.214023 0.646479 0.200748
0.254612 0.646448 0.199832
0.297948 0.646632 0.198062
0.342565 0.646845 0.195163
0.388037 0.647211 0.189975
0.433448 0.647700 0.183078
0.478370 0.648310 0.174868
0.523827 0.648646 0.165682
0.568322 0.648829 0.156527
0.611933 0.647944 0.147738
0.651026 0.644251 0.143343
0.687709 0.640162 0.139071
0.722042 0.635981 0.135348
0.754604 0.632654 0.133608
0.785367 0.630274 0.133455
0.816373 0.630610 0.135866
0.847318 0.634211 0.141421
0.877958 0.639673 0.149447
0.904479 0.645655 0.160861
0.928557 0.651850 0.174044
0.946868 0.658228 0.186801
0.961303 0.664515 0.203738
0.974609 0.670619 0.220462
0.986908 0.676539 0.237858
0.998840 0.682185 0.255070
0.103395 0.676509 0.223423
0.108858 0.676600 0.223026
0.114565 0.676692 0.222721
0.122438 0.676844 0.222080
0.133486 0.676875 0.221530
0.147219 0.676936 0.220829
0.167330 0.676844 0.219699
0.193545 0.676722 0.218631
0.225254 0.676539 0.217929
0.265965 0.676478 0.216861
0.309636 0.676509 0.215640
0.352972 0.676692 0.212802
0.397253 0.676997 0.208133
0.441077 0.677333 0.200961
0.483803 0.677760 0.192447
0.526360 0.678157 0.183444
0.568566 0.678340 0.174228
0.610101 0.678401 0.164981
0.650507 0.677150 0.156680
0.687282 0.673640 0.151736
0.721675 0.669612 0.147066
0.754665 0.665614 0.143404
0.785153 0.662196 0.141360
0.814817 0.659785 0.140627
0.843809 0.659480 0.142428
0.873320 0.662196 0.147799
0.900389 0.666316 0.157137
0.924743 0.671443 0.169436
0.944579 0.677516 0.181460
0.960662 0.684138 0.193149
0.974487 0.690333 0.209567
0.986847 0.696193 0.228305
0.998749 0.702235 0.248142
0.121981 0.705226 0.241611
0.126864 0.705226 0.241215
0.131930 0.705318 0.240757
0.139040 0.705379 0.240452
0.149508 0.705348 0.239628
0.164065 0.705257 0.238743
0.182986 0.705135 0.238163
0.208621 0.705013 0.237583
0.242344 0.704799 0.236301
0.281010 0.704616 0.235569
0.323095 0.704646 0.234440
0.366400 0.704768 0.232853
0.408972 0.704952 0.229099
0.450843 0.705287 0.223301
0.491920 0.705592 0.215640
0.531518 0.705989 0.205905
0.570825 0.706386 0.195193
0.610040 0.706538 0.185092
0.648890 0.706477 0.175296
0.686580 0.705043 0.166140
0.721157 0.701686 0.160525
0.754086 0.697780 0.156008
0.784817 0.693904 0.152041
0.814328 0.690700 0.149142
0.842527 0.688106 0.148257
0.870298 0.687312 0.149630
0.896818 0.688930 0.155673
0.921172 0.692042 0.165957
0.942016 0.696956 0.177493
0.958404 0.702907 0.188724
0.973388 0.709255 0.201022
0.986816 0.715236 0.214389
0.998779 0.721187 0.236332
0.141878 0.732784 0.261570
0.146273 0.732723 0.261234
0.151278 0.732692 0.261112
0.158022 0.732662 0.260960
0.166598 0.732631 0.260227
0.182010 0.732479 0.259434
0.200473 0.732387 0.258701
0.228611 0.732143 0.257939
0.262638 0.731960 0.257145
0.299443 0.731746 0.255863
0.339635 0.731777 0.255161
0.382422 0.731838 0.253880
0.423102 0.732052 0.251347
0.463081 0.732235 0.246586
0.502068 0.732601 0.240116
0.539239 0.732937 0.231571
0.575921 0.733394 0.221408
0.612329 0.733700 0.210147
0.648798 0.733852 0.197513
0.685054 0.733761 0.186007
0.720272 0.732204 0.176455
0.753231 0.729000 0.170901
0.783841 0.725277 0.165194
0.813657 0.721492 0.160800
0.841672 0.718318 0.157717
0.869017 0.715938 0.156649
0.894469 0.714382 0.158328
0.918181 0.714778 0.164950
0.939635 0.717647 0.174868
0.956115 0.722438 0.184817
0.971405 0.727993 0.196353
0.985321 0.733639 0.209079
0.998566 0.739467 0.222843
0.163668 0.758419 0.282689
0.167575 0.758419 0.282567
0.172763 0.758328 0.282414
0.179934 0.758297 0.282261
0.189242 0.758267 0.281712
0.203189 0.758145 0.280888
0.226261 0.757931 0.280095
0.252964 0.757717 0.279606
0.285863 0.757504 0.278416
0.321111 0.757290 0.277592
0.360418 0.757321 0.276768
0.400519 0.757351 0.275273
0.440101 0.757504 0.273747
0.477333 0.757656 0.269780
0.513787 0.757931 0.264042
0.549157 0.758328 0.256626
0.583398 0.758724 0.246677
0.617029 0.759182 0.234958
0.650752 0.759579 0.221286
0.684840 0.759792 0.209140
0.718776 0.759701 0.196292
0.752041 0.758145 0.186252
0.782803 0.755062 0.180087
0.812375 0.751614 0.175113
0.840757 0.748104 0.170382
0.867979 0.745205 0.167147
0.893431 0.742428 0.166262
0.916442 0.740169 0.169009
0.937804 0.740017 0.174807
0.954070 0.742916 0.182559
0.969421 0.747524 0.192325
0.983490 0.752438 0.204501
0.996948 0.757900 0.217533
0.189700 0.783413 0.307897
0.194034 0.783352 0.307652
0.198398 0.783322 0.307347
0.206760 0.783261 0.306737
0.218235 0.783139 0.305821
0.234257 0.783017 0.305211
0.255619 0.782864 0.304814
0.280766 0.782681 0.304112
0.311589 0.782498 0.303258
0.347662 0.782223 0.302525
0.383825 0.782223 0.301518
0.421363 0.782284 0.300877
0.458381 0.782376 0.299199
0.494209 0.782498 0.296300
0.527977 0.782803 0.291447
0.561151 0.783139 0.283970
0.592889 0.783627 0.273930
0.624170 0.784115 0.261143
0.655268 0.784634 0.247959
0.686702 0.785092 0.234134
0.718563 0.785367 0.219791
0.750698 0.785367 0.206424
0.781521 0.783810 0.197513
0.811124 0.781033 0.191226
0.839292 0.777737 0.185458
0.866819 0.774563 0.180331
0.892180 0.771298 0.177707
0.915404 0.767941 0.178012
0.936706 0.765682 0.180148
0.952483 0.765927 0.183658
0.967620 0.768521 0.190585
0.981720 0.772335 0.200687
0.995300 0.777035 0.212680
0.219272 0.807645 0.334173
0.224521 0.807553 0.333928
0.230045 0.807553 0.333623
0.237766 0.807492 0.333043
0.250034 0.807370 0.332433
0.266636 0.807187 0.331731
0.286534 0.807065 0.331670
0.312749 0.806882 0.331182
0.343664 0.806668 0.330053
0.376287 0.806485 0.329473
0.410285 0.806424 0.328801
0.444617 0.806485 0.327672
0.478920 0.806577 0.326452
0.512657 0.806668 0.324285
0.544305 0.806912 0.320378
0.574731 0.807248 0.314702
0.604273 0.807675 0.306401
0.633326 0.808194 0.295323
0.662165 0.808774 0.281498
0.690822 0.809445 0.265385
0.720333 0.809903 0.248173
0.750332 0.810330 0.232975
0.780240 0.810300 0.219333
0.809628 0.808927 0.209262
0.837766 0.806363 0.202731
0.864988 0.803464 0.196811
0.890776 0.800046 0.192142
0.914000 0.796292 0.190219
0.935729 0.793088 0.190127
0.951415 0.791745 0.190402
0.966125 0.791897 0.192844
0.980163 0.793729 0.199649
0.993805 0.796994 0.209598
0.251713 0.831205 0.362646
0.257267 0.831144 0.362585
0.263371 0.831083 0.362188
0.271763 0.831022 0.361883
0.283635 0.830900 0.361120
0.302464 0.830747 0.360662
0.324651 0.830594 0.360204
0.349981 0.830411 0.359594
0.377844 0.830198 0.358923
0.407507 0.830045 0.358068
0.438727 0.830014 0.357397
0.470039 0.830045 0.356847
0.501335 0.830137 0.355810
0.532555 0.830228 0.354314
0.561669 0.830442 0.351629
0.590112 0.830716 0.346807
0.617639 0.831144 0.340093
0.644221 0.831662 0.330114
0.671046 0.832273 0.318242
0.697292 0.832975 0.303655
0.724086 0.833707 0.287358
0.751888 0.834318 0.268620
0.779690 0.834897 0.249210
0.808164 0.835080 0.234409
0.835996 0.833677 0.223484
0.863035 0.831479 0.215702
0.888670 0.828336 0.209598
0.912444 0.824491 0.205966
0.934508 0.820890 0.203983
0.950256 0.818784 0.201846
0.964965 0.817716 0.201602
0.978851 0.817472 0.203403
0.992401 0.818814 0.209751
0.292180 0.854307 0.393652
0.298558 0.854246 0.393164
0.305730 0.854185 0.392981
0.315526 0.854093 0.392370
0.329137 0.853971 0.392004
0.346258 0.853819 0.391608
0.365759 0.853696 0.391333
0.388403 0.853544 0.390692
0.413672 0.853361 0.390143
0.440192 0.853269 0.389410
0.469154 0.853178 0.388800
0.496681 0.853269 0.388281
0.525444 0.853300 0.387671
0.553277 0.853391 0.386236
0.580987 0.853544 0.384222
0.606500 0.853788 0.380804
0.632166 0.854124 0.375341
0.656916 0.854612 0.367498
0.681178 0.855222 0.356939
