app/src/main/assets/filters/fl3.cube
# Created from fl3.plut
LUT_3D_SIZE 9
DOMAIN_MIN 0.0 0.0 0.0
DOMAIN_MAX 1.0 1.0 1.0
0.016587 0.016037 0.020981
0.106126 0.012497 0.011185
0.267536 0.023239 0.008011
0.463767 0.047257 0.009384
0.644556 0.074876 0.008942
0.771267 0.135714 0.015763
0.876173 0.248035 0.030945
0.967712 0.317540 0.032456
0.999588 0.387671 0.033387
0.004807 0.103929 0.044633
0.077180 0.107347 0.035889
0.284291 0.099794 0.025956
0.463264 0.122744 0.020752
0.631556 0.146334 0.008896
0.763287 0.199313 0.010178
0.869490 0.277302 0.017502
0.965576 0.336507 0.024521
0.999680 0.396948 0.031632
0.000015 0.252598 0.085222
0.002655 0.264652 0.082765
0.164553 0.270817 0.084520
0.462455 0.248447 0.072206
0.618173 0.274510 0.050782
0.744594 0.313161 0.024201
0.845853 0.363638 0.008835
0.939528 0.411078 0.009049
0.994446 0.443885 0.023774
0.000061 0.420233 0.148836
0.000397 0.427390 0.148180
0.023316 0.443580 0.147326
0.291417 0.441978 0.154940
0.598917 0.397086 0.111696
0.731029 0.418708 0.099901
0.827787 0.461738 0.100816
0.916930 0.506386 0.081163
0.977981 0.550225 0.101656
0.128191 0.545586 0.215610
0.138460 0.550942 0.218509
0.169802 0.565423 0.228550
0.231891 0.583246 0.238666
0.436301 0.580774 0.247181
0.695659 0.542031 0.232349
0.815442 0.555932 0.205081
0.895720 0.600046 0.237812
0.961654 0.634699 0.216098
0.317769 0.644282 0.336248
0.325368 0.647333 0.338491
0.349355 0.657008 0.346761
0.391180 0.674464 0.362905
0.452750 0.695857 0.367300
0.576089 0.698756 0.356374
0.770718 0.672633 0.361868
0.881971 0.689921 0.363836
0.940215 0.722271 0.388373
0.491798 0.734035 0.425345
0.494438 0.735073 0.425772
0.507027 0.740124 0.426886
0.527047 0.747860 0.425910
0.558648 0.761364 0.443320
0.615488 0.781979 0.476890
0.727535 0.794202 0.500740
0.855406 0.789700 0.509819
0.929473 0.803937 0.520226
0.614618 0.808621 0.560311
0.619059 0.810544 0.561837
0.632410 0.815534 0.566873
0.654658 0.823453 0.574868
0.683848 0.832639 0.579614
0.716915 0.839307 0.577935
0.755322 0.847211 0.579294
0.867460 0.856336 0.603021
0.927413 0.857954 0.629694
0.696040 0.853468 0.630610
0.697612 0.854246 0.632181
0.702022 0.856153 0.634806
0.708904 0.856748 0.630777
0.722988 0.858824 0.628305
0.745037 0.863432 0.631510
0.836286 0.872786 0.647684
0.915419 0.875166 0.663569
0.929503 0.878386 0.679240
0.014084 0.038590 0.102876
0.114961 0.034409 0.095445
0.280995 0.040284 0.082765
0.468284 0.052308 0.058839
0.647227 0.084794 0.030747
0.776715 0.137728 0.025940
0.883513 0.246693 0.041764
0.970504 0.318196 0.036225
0.999680 0.388449 0.034836
0.005234 0.128344 0.136233
0.102800 0.124605 0.125841
0.292561 0.114641 0.101183
0.473579 0.121614 0.071717
0.643961 0.141085 0.039628
0.776928 0.184695 0.024369
0.884367 0.264591 0.030640
0.972976 0.330800 0.033021
0.999863 0.396445 0.035782
0.006149 0.262272 0.151858
0.028733 0.272282 0.155993
0.215137 0.272541 0.141543
0.466804 0.260151 0.123033
0.621378 0.279988 0.083848
0.751583 0.309621 0.032914
0.855390 0.355550 0.013367
0.949523 0.401968 0.014481
0.997101 0.437766 0.034119
0.004074 0.417838 0.176074
0.005631 0.424964 0.177081
0.052766 0.442115 0.188006
0.337362 0.438941 0.187991
0.601587 0.407919 0.169451
0.733745 0.425772 0.141573
0.833310 0.462333 0.110201
0.922499 0.504326 0.079835
0.982696 0.547387 0.100710
0.126848 0.545617 0.231937
0.137453 0.550515 0.232822
0.171527 0.565255 0.240253
0.247898 0.583078 0.256733
0.461570 0.578134 0.267277
0.699382 0.543481 0.252506
0.821576 0.557168 0.220142
0.903349 0.599634 0.236072
0.966766 0.633829 0.211475
0.320165 0.646632 0.348394
0.327489 0.649729 0.351263
0.351095 0.658762 0.358053
0.392020 0.675441 0.371084
0.451881 0.695720 0.372519
0.585458 0.695323 0.358968
0.776623 0.671260 0.365393
0.886900 0.689448 0.365408
0.943603 0.722210 0.391638
0.489296 0.734813 0.436530
0.493874 0.736751 0.436637
0.504982 0.741497 0.437720
0.526146 0.749523 0.436652
0.559304 0.763180 0.451713
0.616495 0.784054 0.484062
0.727352 0.794156 0.502480
0.858198 0.789197 0.510491
0.932250 0.803723 0.520699
0.612482 0.810315 0.571130
0.618143 0.812573 0.572915
0.632181 0.817899 0.577203
0.653971 0.825132 0.582132
0.682490 0.833707 0.585000
0.715587 0.840726 0.582589
0.753445 0.849592 0.582620
0.866697 0.858793 0.606516
0.929091 0.859495 0.634882
0.695689 0.855192 0.637629
0.697612 0.855848 0.637964
0.701595 0.857160 0.638346
0.707897 0.858656 0.637552
0.722362 0.860761 0.634257
0.745144 0.866484 0.639887
0.833997 0.876081 0.655879
0.915145 0.877592 0.669856
0.930159 0.879698 0.683070
0.012573 0.111620 0.260029
0.079911 0.120531 0.264988
0.268666 0.114351 0.206271
0.464836 0.120272 0.192081
0.631937 0.139666 0.178500
0.772503 0.183871 0.145693
0.886549 0.258350 0.119768
0.974578 0.321386 0.044495
0.999847 0.391592 0.040314
0.002747 0.185061 0.308202
0.094987 0.181994 0.304952
0.290730 0.173404 0.266621
0.481468 0.167025 0.241978
0.646586 0.169085 0.202365
0.781933 0.210925 0.169268
0.895277 0.266178 0.107790
0.980346 0.329351 0.041749
0.999969 0.398505 0.043915
0.015900 0.315389 0.333516
0.078721 0.315770 0.328832
0.283665 0.306340 0.306996
0.475212 0.295201 0.276539
0.629587 0.296712 0.229908
0.761822 0.314199 0.175021
0.875319 0.345052 0.109926
0.972839 0.384283 0.051575
0.999649 0.431922 0.065324
0.110887 0.437842 0.340703
0.132128 0.442847 0.343877
0.210575 0.452522 0.344945
0.403555 0.450797 0.319371
0.607218 0.435782 0.297292
0.734157 0.447074 0.249149
0.840330 0.471122 0.175372
0.935515 0.503227 0.103944
0.991943 0.540444 0.110201
0.171756 0.555184 0.351293
0.185626 0.559945 0.351431
0.227558 0.571572 0.357809
0.311635 0.587076 0.366186
0.507820 0.580865 0.355673
0.705943 0.558862 0.349371
0.824521 0.573449 0.319097
0.916121 0.602243 0.252934
0.974868 0.634546 0.217853
0.329610 0.652583 0.398566
0.338018 0.656153 0.401190
0.359304 0.664546 0.406195
0.398062 0.678767 0.410452
0.457740 0.697017 0.414282
0.608499 0.694118 0.409598
0.785702 0.676616 0.420645
0.896468 0.693492 0.406455
0.953918 0.723186 0.407126
0.488289 0.737575 0.460746
0.492714 0.739651 0.461967
0.503487 0.745205 0.466072
0.524376 0.754696 0.472541
0.559197 0.769162 0.485832
0.616770 0.789578 0.509270
0.727291 0.795132 0.512047
0.864759 0.789273 0.523461
0.939590 0.804486 0.531273
0.614542 0.816159 0.598871
0.619028 0.818326 0.600931
0.631250 0.823804 0.605081
0.649454 0.829984 0.606653
0.677272 0.837476 0.604105
0.711376 0.844556 0.597223
0.748608 0.856046 0.595178
0.869612 0.862959 0.617929
0.932753 0.863905 0.648447
0.693599 0.859159 0.652995
0.695491 0.859602 0.652567
0.700954 0.861280 0.652613
0.706722 0.863600 0.654047
0.721950 0.868070 0.656107
0.743908 0.874495 0.662745
0.832837 0.884077 0.676677
0.914672 0.882536 0.683009
0.931975 0.882307 0.691249
0.035523 0.213489 0.437430
0.095003 0.222065 0.451255
0.230686 0.239811 0.436912
0.448219 0.220737 0.349203
0.605035 0.197116 0.296132
0.769665 0.237751 0.259251
0.868482 0.295796 0.271244
0.970748 0.334508 0.106249
0.999924 0.398962 0.061875
0.030335 0.255589 0.478096
0.124620 0.258396 0.480079
0.271641 0.272129 0.461540
0.457465 0.252552 0.386023
0.618753 0.236301 0.332418
0.777127 0.261845 0.291020
0.874495 0.311131 0.291203
0.974655 0.347784 0.118318
0.999985 0.408316 0.073182
0.005783 0.372259 0.487953
0.057725 0.372122 0.490181
0.292119 0.359747 0.479500
0.473106 0.352178 0.450126
0.629541 0.344228 0.419638
0.771115 0.341512 0.382712
0.882658 0.365866 0.345190
0.972107 0.405203 0.213230
0.999985 0.443381 0.127672
0.076677 0.484764 0.506218
0.122454 0.487510 0.504967
0.280110 0.485908 0.496635
0.461158 0.480079 0.479850
0.617029 0.470558 0.455619
0.742947 0.468437 0.416617
0.854307 0.481453 0.369711
0.953063 0.509743 0.304616
0.998047 0.539117 0.236164
0.233600 0.580011 0.512657
0.249592 0.583368 0.513512
0.316472 0.589044 0.513008
0.414923 0.596719 0.512047
0.559457 0.595132 0.492332
0.718837 0.583597 0.474876
0.827024 0.596292 0.437934
0.920027 0.619776 0.364828
0.981872 0.643442 0.301274
0.373297 0.663813 0.511513
0.380133 0.666285 0.513298
0.397833 0.673732 0.517586
0.434806 0.687678 0.529244
0.498207 0.703304 0.534310
0.643839 0.700465 0.520470
0.799405 0.691020 0.524010
0.904601 0.708568 0.505196
0.963775 0.731289 0.467277
0.497414 0.747951 0.540352
0.502190 0.750530 0.543435
0.513405 0.756680 0.549905
0.532860 0.766903 0.561807
0.565637 0.781598 0.574792
0.619318 0.798520 0.583719
0.734096 0.801038 0.575372
0.875380 0.796857 0.592279
0.948425 0.811994 0.593973
0.618830 0.824933 0.637354
0.621805 0.826596 0.639155
0.630549 0.830991 0.642695
0.645716 0.838056 0.647089
0.667857 0.846311 0.647822
0.702785 0.853513 0.638346
0.748241 0.863340 0.635904
0.887236 0.867124 0.656535
0.937713 0.873274 0.678172
0.689754 0.872343 0.700542
0.691783 0.872847 0.699962
0.696437 0.873762 0.698100
0.706584 0.876555 0.697429
0.722377 0.881392 0.699321
0.749233 0.890349 0.710292
0.826658 0.900389 0.724529
0.910536 0.891798 0.709926
0.934127 0.889387 0.712840
0.103624 0.289403 0.559854
0.161303 0.298772 0.578454
0.287373 0.342458 0.615671
0.422904 0.382071 0.623774
0.567376 0.375128 0.542229
0.716899 0.364981 0.463371
0.851225 0.350637 0.385840
0.937072 0.397162 0.340429
0.996658 0.421149 0.158312
0.123903 0.328542 0.597482
0.196643 0.331640 0.609628
0.325536 0.362524 0.627054
0.439765 0.394049 0.626902
0.580270 0.403586 0.567269
0.717479 0.383993 0.490242
0.856062 0.369863 0.409888
0.938247 0.417319 0.371603
0.996567 0.433280 0.177722
0.053513 0.438636 0.630060
0.131960 0.435813 0.628656
0.333715 0.422965 0.624872
0.480613 0.429816 0.617273
0.610697 0.434501 0.584131
0.725933 0.427390 0.541650
0.862440 0.422782 0.475868
0.945571 0.461723 0.439094
0.996368 0.472099 0.257343
0.047700 0.536156 0.633295
0.098466 0.536950 0.632822
0.277287 0.533242 0.628168
0.470024 0.521355 0.617044
0.616739 0.513832 0.599695
0.744900 0.504219 0.579629
0.863142 0.505653 0.555840
0.959640 0.522377 0.500740
0.998520 0.554467 0.416892
0.230365 0.621759 0.646845
0.251713 0.623484 0.646540
0.328649 0.624475 0.641886
0.461616 0.622019 0.631022
0.604685 0.618158 0.618143
0.729381 0.611414 0.601068
0.838743 0.613611 0.576455
0.937514 0.627115 0.539757
0.993988 0.643992 0.501900
0.404547 0.695705 0.653468
0.415259 0.697139 0.652552
0.443748 0.700587 0.649180
0.496300 0.704692 0.644083
0.570291 0.712688 0.645518
0.685466 0.714122 0.634882
0.815290 0.710964 0.627115
0.911894 0.726055 0.596582
0.973281 0.742702 0.549981
0.528435 0.764309 0.654871
0.532494 0.765713 0.654612
0.542596 0.770672 0.656275
0.558938 0.779797 0.661006
0.586450 0.793774 0.671031
0.641138 0.808133 0.676570
0.759701 0.809903 0.669764
0.889708 0.807996 0.673838
0.958190 0.821546 0.665354
0.624872 0.837568 0.695216
0.627756 0.839139 0.696025
0.635569 0.843503 0.698787
0.648005 0.850629 0.703761
0.666773 0.860716 0.711543
0.697673 0.872343 0.719539
0.757992 0.884321 0.725628
0.878798 0.884871 0.724788
0.942779 0.885756 0.725338
0.696147 0.885359 0.743023
0.698085 0.886366 0.744625
0.702922 0.889281 0.749096
0.712245 0.894194 0.757031
0.731868 0.902266 0.767803
0.763973 0.913481 0.782193
0.812985 0.920531 0.787381
0.894484 0.913802 0.770642
0.933516 0.909743 0.769284
0.177096 0.369604 0.647410
0.227192 0.373968 0.663294
0.357855 0.402014 0.704601
0.444114 0.433585 0.720623
0.543221 0.469947 0.698634
0.649058 0.477729 0.650752
0.791485 0.458289 0.557137
0.905303 0.465064 0.501930
0.973739 0.475273 0.383597
0.194995 0.406241 0.677867
0.251804 0.405249 0.691188
0.379873 0.416327 0.718227
0.462913 0.444404 0.721065
0.561624 0.482139 0.702251
0.661189 0.487251 0.656153
0.795743 0.476539 0.576867
0.908629 0.477333 0.514900
0.974548 0.486793 0.407385
0.195956 0.482734 0.712840
0.253285 0.483467 0.720104
0.392142 0.478782 0.726909
0.511086 0.489220 0.727779
0.597528 0.515221 0.720882
0.692653 0.520134 0.675105
0.806744 0.518639 0.620615
0.917861 0.503822 0.541207
0.979995 0.516152 0.459434
0.104677 0.591867 0.737148
0.174563 0.593103 0.738827
0.332753 0.588205 0.738201
0.500145 0.575051 0.734173
0.625650 0.575998 0.732677
0.728603 0.583780 0.710353
0.824964 0.575982 0.667170
0.928679 0.557778 0.590311
0.992279 0.575280 0.527810
0.202014 0.668330 0.751568
0.235660 0.668696 0.751080
0.335317 0.667247 0.746990
0.466377 0.665415 0.741039
0.616266 0.655955 0.731029
0.733013 0.652522 0.722560
0.835966 0.652857 0.706004
0.931899 0.650843 0.662486
0.994507 0.653666 0.606043
0.370153 0.742290 0.774243
0.383749 0.741665 0.770611
0.427939 0.737682 0.759380
0.501503 0.737255 0.752499
0.605509 0.737316 0.744717
0.722713 0.733822 0.734096
0.828504 0.731792 0.724559
0.922576 0.738674 0.695811
0.982223 0.746990 0.657343
0.520943 0.810193 0.798047
0.529900 0.808942 0.792706
0.553307 0.805203 0.777066
0.589837 0.802914 0.759777
0.635096 0.807370 0.753567
0.697093 0.816983 0.759274
0.794675 0.819944 0.754986
0.906096 0.820935 0.748150
0.968643 0.831861 0.730739
0.633799 0.860472 0.778653
0.638056 0.860777 0.776440
0.649165 0.861707 0.770352
0.663401 0.865904 0.767117
0.683558 0.876127 0.773312
0.708858 0.890822 0.787518
0.774624 0.900832 0.793423
0.871351 0.902739 0.790509
0.947646 0.901061 0.792691
0.708385 0.899474 0.791333
0.711452 0.900343 0.791440
0.717906 0.902815 0.793179
0.729274 0.907668 0.798672
0.749004 0.916152 0.809766
0.778103 0.926070 0.822690
0.821103 0.933623 0.831159
0.886412 0.937835 0.836759
0.929107 0.940352 0.846586
0.234180 0.440864 0.711513
0.288411 0.439353 0.723507
0.383825 0.436545 0.739895
0.449409 0.448142 0.739010
0.550027 0.507469 0.750240
0.631586 0.549798 0.757870
0.733440 0.568170 0.719326
0.851194 0.547860 0.633371
0.937621 0.524102 0.542916
0.255665 0.451026 0.721996
0.307088 0.447669 0.731746
0.389700 0.441779 0.743130
0.469322 0.462150 0.742367
0.570779 0.524712 0.758968
0.641794 0.562463 0.767056
0.742458 0.579461 0.726360
0.852811 0.556085 0.641260
0.941665 0.530831 0.547829
0.265202 0.498833 0.735332
0.302541 0.497093 0.740352
0.408331 0.497215 0.748272
0.524453 0.520836 0.758755
0.610239 0.559014 0.779034
0.669505 0.593866 0.785245
0.763973 0.605509 0.740948
0.856031 0.583551 0.666026
0.948882 0.561913 0.574640
0.270268 0.606928 0.768627
0.307668 0.610620 0.773236
0.399588 0.615763 0.782803
0.540291 0.613642 0.794217
0.650752 0.619837 0.808515
0.722393 0.648219 0.810315
0.788815 0.652338 0.773663
0.863111 0.642496 0.714488
0.956893 0.625559 0.630396
0.300755 0.714794 0.823453
0.326665 0.716396 0.826017
0.399466 0.716091 0.827909
0.520073 0.713939 0.827893
0.648569 0.708217 0.829969
0.752193 0.703731 0.826886
0.824445 0.705074 0.800687
0.892699 0.699794 0.745800
0.966201 0.694285 0.683360
0.366964 0.785443 0.855467
0.379736 0.786343 0.855558
0.432837 0.784009 0.851637
0.514809 0.780301 0.844190
0.621057 0.779461 0.840208
0.739178 0.771984 0.832105
0.832792 0.768658 0.824414
0.911864 0.767834 0.794629
0.976608 0.758892 0.739803
0.491875 0.852399 0.890822
0.499687 0.851926 0.888243
0.525048 0.850263 0.881636
0.577707 0.843885 0.867399
0.642939 0.840970 0.855650
0.727810 0.839780 0.845884
0.826078 0.836393 0.836347
0.918791 0.836255 0.827619
0.976089 0.841489 0.803906
0.609323 0.914000 0.924834
0.615076 0.913558 0.922332
0.632486 0.910506 0.910750
0.662654 0.904891 0.890394
0.705058 0.899382 0.865614
0.754330 0.902388 0.855299
0.811414 0.909987 0.858045
0.895155 0.913085 0.855863
0.962783 0.914549 0.858045
0.699962 0.934249 0.896696
0.704906 0.933867 0.894179
0.717266 0.932509 0.885206
0.738781 0.930617 0.871199
0.765164 0.931136 0.859144
0.795087 0.936080 0.856703
0.839704 0.944732 0.866209
0.909224 0.954147 0.881727
0.944991 0.961013 0.901534
0.286381 0.455344 0.730938
0.328588 0.450355 0.737789
0.382284 0.444465 0.744579
0.460380 0.464317 0.747173
0.576333 0.535576 0.770291
0.638972 0.580911 0.792035
0.713436 0.627161 0.802625
0.800732 0.637629 0.765316
0.868894 0.619501 0.701366
0.299657 0.459495 0.734401
0.339117 0.453727 0.740459
0.389258 0.450050 0.745663
0.486839 0.485786 0.752789
0.593591 0.549569 0.776699
0.649500 0.591623 0.797986
0.723049 0.638117 0.809491
0.803357 0.650050 0.776791
0.871672 0.633646 0.714122
0.287709 0.522286 0.745754
0.320699 0.520684 0.749218
0.418936 0.525139 0.757061
0.543587 0.548150 0.772595
0.624842 0.580102 0.792645
0.679713 0.621180 0.814054
0.749050 0.669047 0.829358
0.811460 0.677531 0.802426
0.879362 0.667460 0.744625
0.333852 0.624506 0.783993
0.362585 0.628611 0.787991
0.440894 0.633265 0.796063
0.571572 0.631891 0.808682
0.665354 0.643397 0.825681
0.735424 0.680049 0.847501
0.784314 0.711589 0.860670
0.837583 0.725231 0.843305
0.897002 0.717006 0.787366
0.380774 0.742229 0.854887
0.396750 0.742580 0.856275
0.457832 0.739925 0.856886
0.586145 0.737652 0.860883
0.694759 0.743694 0.879179
0.782345 0.749889 0.894072
0.831983 0.771603 0.906157
0.878614 0.783658 0.890654
0.926879 0.765438 0.818616
0.433951 0.833967 0.919005
0.441382 0.835935 0.921004
0.472908 0.837507 0.921889
0.556878 0.835431 0.919997
0.672328 0.828931 0.917845
0.774350 0.821683 0.918456
0.858305 0.817350 0.917693
0.901503 0.828153 0.913619
0.943084 0.810697 0.855009
0.493370 0.885832 0.939910
0.499565 0.886778 0.940642
0.525261 0.886778 0.940124
0.577722 0.886213 0.937881
0.651606 0.882170 0.931777
0.742733 0.877516 0.926360
0.843931 0.870314 0.919722
0.918135 0.868559 0.913436
0.953170 0.870954 0.898238
0.598062 0.939879 0.972457
0.602945 0.940505 0.972580
0.615625 0.941100 0.971771
0.644556 0.940597 0.968338
0.700481 0.935729 0.957900
0.765484 0.930922 0.944808
0.837568 0.928435 0.933761
0.918883 0.926055 0.925704
0.972671 0.927413 0.923110
0.688472 0.959915 0.978134
0.694789 0.960052 0.976104
0.710613 0.960281 0.972702
0.737377 0.959808 0.966262
0.769329 0.958007 0.955795
0.810178 0.956023 0.940398
0.878080 0.959533 0.931914
0.934325 0.968872 0.938430
0.964630 0.973297 0.947127
0.315785 0.462333 0.738155
0.347616 0.456168 0.742489
0.383276 0.451026 0.745815
0.485252 0.490883 0.756756
0.599908 0.557580 0.781781
0.655634 0.600076 0.804013
0.723491 0.657740 0.834226
0.785260 0.702358 0.851850
0.839017 0.727443 0.855863
0.320531 0.476539 0.742596
0.342901 0.470817 0.744778
0.396414 0.469932 0.749004
0.515724 0.518791 0.764828
0.612558 0.570306 0.787823
0.666804 0.610651 0.809735
0.734722 0.669306 0.841001
0.792966 0.713115 0.860868
0.845701 0.741665 0.869291
0.303914 0.550072 0.754971
0.333562 0.552651 0.757931
0.434730 0.559503 0.767605
0.566995 0.576120 0.786313
0.638697 0.599664 0.803510
0.700008 0.643778 0.828397
0.761273 0.698955 0.859831
0.813367 0.740383 0.884611
0.863386 0.775006 0.899748
0.374548 0.647623 0.799252
0.399771 0.650477 0.802243
0.475395 0.652842 0.808972
0.596536 0.652033 0.821393
0.684276 0.669032 0.841001
0.753872 0.703975 0.865492
0.800107 0.743160 0.893050
0.849607 0.787366 0.923323
0.883268 0.809613 0.931792
0.416342 0.769268 0.877958
0.429419 0.768643 0.878202
0.497475 0.762310 0.875715
0.637827 0.756573 0.879881
0.725032 0.763897 0.897368
0.802411 0.775463 0.915953
0.853941 0.804425 0.939635
0.886030 0.831678 0.956817
0.904768 0.841917 0.956268
0.467048 0.848646 0.934463
0.473198 0.849958 0.935515
0.496986 0.854002 0.938705
0.614267 0.852247 0.941939
0.727596 0.852918 0.949599
0.816739 0.856367 0.961151
0.890867 0.855589 0.968582
0.912413 0.861189 0.967178
0.919326 0.862989 0.957153
0.519112 0.902205 0.962020
0.526604 0.903563 0.963485
0.552941 0.905608 0.965713
0.599649 0.907576 0.966903
0.677165 0.907469 0.967208
0.787182 0.907301 0.970657
0.874281 0.903105 0.971832
0.925566 0.899260 0.968414
0.940887 0.900267 0.954910
0.602258 0.950500 0.986404
0.606897 0.951751 0.987304
0.621958 0.954025 0.988525
0.651118 0.955596 0.988464
0.700420 0.955352 0.986664
0.766217 0.951064 0.980209
0.849622 0.947784 0.976959
0.929686 0.943374 0.971633
0.964141 0.939895 0.960082
0.690867 0.964446 0.989578
0.695872 0.964797 0.989593
0.709667 0.965713 0.989456
0.732753 0.966690 0.988312
0.766247 0.966949 0.985138
0.811063 0.967819 0.981598
0.886671 0.974014 0.980896
0.943923 0.980667 0.980606
0.975067 0.980148 0.977691
