app/src/main/assets/filters/fl3.cube
# Created from fl3.plut
LUT_3D_SIZE 5
DOMAIN_MIN 0.0 0.0 0.0
DOMAIN_MAX 1.0 1.0 1.0
0.016587 0.016037 0.020981
0.267536 0.023239 0.008011
0.644556 0.074876 0.008942
0.876173 0.248035 0.030945
0.999588 0.387671 0.033387
0.000015 0.252598 0.085222
0.164553 0.270817 0.084520
0.618173 0.274510 0.050782
0.845853 0.363638 0.008835
0.994446 0.443885 0.023774
0.128191 0.545586 0.215610
0.169802 0.565423 0.228550
0.436301 0.580774 0.247181
0.815442 0.555932 0.205081
0.961654 0.634699 0.216098
0.491798 0.734035 0.425345
0.507027 0.740124 0.426886
0.558648 0.761364 0.443320
0.727535 0.794202 0.500740
0.929473 0.803937 0.520226
0.696040 0.853468 0.630610
0.702022 0.856153 0.634806
0.722988 0.858824 0.628305
0.836286 0.872786 0.647684
0.929503 0.878386 0.679240
0.012573 0.111620 0.260029
0.268666 0.114351 0.206271
0.631937 0.139666 0.178500
0.886549 0.258350 0.119768
0.999847 0.391592 0.040314
0.015900 0.315389 0.333516
0.283665 0.306340 0.306996
0.629587 0.296712 0.229908
0.875319 0.345052 0.109926
0.999649 0.431922 0.065324
0.171756 0.555184 0.351293
0.227558 0.571572 0.357809
0.507820 0.580865 0.355673
0.824521 0.573449 0.319097
0.974868 0.634546 0.217853
0.488289 0.737575 0.460746
0.503487 0.745205 0.466072
0.559197 0.769162 0.485832
0.727291 0.795132 0.512047
0.939590 0.804486 0.531273
0.693599 0.859159 0.652995
0.700954 0.861280 0.652613
0.721950 0.868070 0.656107
0.832837 0.884077 0.676677
0.931975 0.882307 0.691249
0.103624 0.289403 0.559854
0.287373 0.342458 0.615671
0.567376 0.375128 0.542229
0.851225 0.350637 0.385840
0.996658 0.421149 0.158312
0.053513 0.438636 0.630060
0.333715 0.422965 0.624872
0.610697 0.434501 0.584131
0.862440 0.422782 0.475868
0.996368 0.472099 0.257343
0.230365 0.621759 0.646845
0.328649 0.624475 0.641886
0.604685 0.618158 0.618143
0.838743 0.613611 0.576455
0.993988 0.643992 0.501900
0.528435 0.764309 0.654871
0.542596 0.770672 0.656275
0.586450 0.793774 0.671031
0.759701 0.809903 0.669764
0.958190 0.821546 0.665354
0.696147 0.885359 0.743023
0.702922 0.889281 0.749096
0.731868 0.902266 0.767803
0.812985 0.920531 0.787381
0.933516 0.909743 0.769284
0.234180 0.440864 0.711513
0.383825 0.436545 0.739895
0.550027 0.507469 0.750240
0.733440 0.568170 0.719326
0.937621 0.524102 0.542916
0.265202 0.498833 0.735332
0.408331 0.497215 0.748272
0.610239 0.559014 0.779034
0.763973 0.605509 0.740948
0.948882 0.561913 0.574640
0.300755 0.714794 0.823453
0.399466 0.716091 0.827909
0.648569 0.708217 0.829969
0.824445 0.705074 0.800687
0.966201 0.694285 0.683360
0.491875 0.852399 0.890822
0.525048 0.850263 0.881636
0.642939 0.840970 0.855650
0.826078 0.836393 0.836347
0.976089 0.841489 0.803906
0.699962 0.934249 0.896696
0.717266 0.932509 0.885206
0.765164 0.931136 0.859144
0.839704 0.944732 0.866209
0.944991 0.961013 0.901534
0.315785 0.462333 0.738155
0.383276 0.451026 0.745815
0.599908 0.557580 0.781781
0.723491 0.657740 0.834226
0.839017 0.727443 0.855863
0.303914 0.550072 0.754971
0.434730 0.559503 0.767605
0.638697 0.599664 0.803510
0.761273 0.698955 0.859831
0.863386 0.775006 0.899748
0.416342 0.769268 0.877958
0.497475 0.762310 0.875715
0.725032 0.763897 0.897368
0.853941 0.804425 0.939635
0.904768 0.841917 0.956268
0.519112 0.902205 0.962020
0.552941 0.905608 0.965713
0.677165 0.907469 0.967208
0.874281 0.903105 0.971832
0.940887 0.900267 0.954910
0.690867 0.964446 0.989578
0.709667 0.965713 0.989456
0.766247 0.966949 0.985138
0.886671 0.974014 0.980896
0.975067 0.980148 0.977691
