app/src/main/assets/filters/fl3.cube
# Created from fl3.plut
LUT_3D_SIZE 33
DOMAIN_MIN 0.0 0.0 0.0
DOMAIN_MAX 1.0 1.0 1.0
0.016587 0.016037 0.020981
0.024689 0.015335 0.019242
0.042557 0.014237 0.016602
0.070893 0.013138 0.013779
0.106126 0.012497 0.011185
0.144274 0.012848 0.009049
0.182834 0.014817 0.007874
0.223423 0.018479 0.007691
0.267536 0.023239 0.008011
0.315282 0.028351 0.008392
0.364736 0.033875 0.008591
0.414191 0.040375 0.009049
0.463767 0.047257 0.009384
0.512139 0.053712 0.009674
0.559457 0.059480 0.009445
0.603128 0.066117 0.009201
0.644556 0.074876 0.008942
0.682719 0.086076 0.009110
0.718044 0.099153 0.010147
0.747463 0.114839 0.012467
0.771267 0.135714 0.015763
0.793591 0.163912 0.019303
0.818738 0.195972 0.023087
0.847883 0.225666 0.026902
0.876173 0.248035 0.030945
0.902647 0.265782 0.033371
0.926497 0.282216 0.034394
0.948745 0.299611 0.033524
0.967712 0.317540 0.032456
0.982254 0.336873 0.031525
0.992111 0.357412 0.031540
0.997452 0.376196 0.032486
0.999588 0.387671 0.033387
0.014649 0.025452 0.021759
0.022522 0.025116 0.020111
0.040574 0.024430 0.017578
0.069886 0.023438 0.014832
0.106813 0.022522 0.012222
0.146670 0.022370 0.009934
0.186526 0.023697 0.008331
0.227329 0.026764 0.007599
0.270634 0.031083 0.007523
0.317098 0.036316 0.007904
0.365667 0.042237 0.008347
0.414755 0.049165 0.008957
0.463722 0.056077 0.009247
0.511620 0.062348 0.009476
0.558724 0.067399 0.009277
0.603067 0.072969 0.009110
0.645014 0.080400 0.008789
0.683436 0.090501 0.008881
0.718624 0.103120 0.009857
0.747951 0.119036 0.012146
0.771847 0.140734 0.015244
0.794079 0.169284 0.018509
0.819028 0.200977 0.021973
0.847822 0.229389 0.025788
0.876127 0.250645 0.029801
0.902785 0.267674 0.032395
0.926909 0.283894 0.033539
0.949264 0.301213 0.033021
0.968139 0.319020 0.032151
0.982574 0.338293 0.031388
0.992294 0.358724 0.031403
0.997543 0.377356 0.032364
0.999619 0.388678 0.033249
0.011627 0.044327 0.025193
0.018570 0.044633 0.023713
0.035828 0.044739 0.021347
0.065553 0.044129 0.018708
0.104860 0.042832 0.016098
0.148058 0.041779 0.013718
0.191058 0.041855 0.011582
0.233127 0.043687 0.009964
0.275685 0.047105 0.008957
0.320195 0.052140 0.008927
0.367147 0.058259 0.009384
0.415549 0.065309 0.009857
0.463676 0.072145 0.009735
0.510658 0.078340 0.009445
0.556710 0.083207 0.009033
0.601129 0.088029 0.008789
0.643229 0.094087 0.008408
0.681895 0.102754 0.008438
0.717067 0.114565 0.009339
0.746822 0.130373 0.011429
0.771542 0.152468 0.014069
0.794308 0.180453 0.016846
0.819242 0.210513 0.019852
0.847440 0.236347 0.023484
0.875547 0.255802 0.027253
0.902419 0.271870 0.029923
0.926970 0.287739 0.031312
0.949676 0.304677 0.031464
0.968566 0.322118 0.031159
0.982986 0.341161 0.030854
0.992569 0.361318 0.031052
0.997711 0.379553 0.032074
0.999664 0.390539 0.032944
0.008087 0.071580 0.032883
0.013138 0.072358 0.031510
0.027451 0.073274 0.029267
0.055161 0.073320 0.026658
0.095750 0.072068 0.024109
0.143465 0.070146 0.021729
0.191852 0.068605 0.019303
0.237598 0.068559 0.016861
0.281056 0.070466 0.014832
0.324468 0.074891 0.014054
0.369467 0.081224 0.014267
0.416312 0.088502 0.014313
0.463066 0.095460 0.013245
0.508797 0.101656 0.011444
0.553353 0.106767 0.009766
0.596872 0.111391 0.008652
0.638331 0.116716 0.007965
0.676814 0.124407 0.007843
0.711879 0.135576 0.008606
0.742580 0.151034 0.010300
0.768978 0.172198 0.012268
0.793240 0.197818 0.014374
0.818601 0.224292 0.016724
0.846082 0.246677 0.019791
0.873610 0.264225 0.022827
0.900435 0.279561 0.025284
0.925490 0.294881 0.026993
0.948775 0.310918 0.028107
0.968109 0.327474 0.028809
0.982940 0.345785 0.029343
0.992676 0.365255 0.030182
0.997833 0.382727 0.031495
0.999710 0.393194 0.032502
0.004807 0.103929 0.044633
0.007675 0.105074 0.043336
0.017395 0.106767 0.041138
0.039536 0.107836 0.038453
0.077180 0.107347 0.035889
0.127291 0.105104 0.033631
0.182452 0.102098 0.031342
0.235843 0.099809 0.028672
0.284291 0.099794 0.025956
0.329290 0.102861 0.024186
0.373266 0.108751 0.023606
0.418189 0.115755 0.022843
0.463264 0.122744 0.020752
0.507530 0.128893 0.017212
0.550408 0.134630 0.013581
0.591958 0.140032 0.010697
0.631556 0.146334 0.008896
0.668696 0.154696 0.008072
0.703075 0.166110 0.008225
0.734691 0.180789 0.009064
0.763287 0.199313 0.010178
0.789868 0.220661 0.011566
0.816052 0.242283 0.013245
0.842847 0.261219 0.015457
0.869490 0.277302 0.017502
0.895979 0.292195 0.019348
0.921401 0.306798 0.021073
0.945327 0.321447 0.022797
0.965576 0.336507 0.024521
0.981399 0.353277 0.026215
0.991989 0.371191 0.028199
0.997620 0.387274 0.030243
0.999680 0.396948 0.031632
0.002182 0.139391 0.057511
0.003311 0.140551 0.056260
0.008286 0.142596 0.054154
0.022690 0.144610 0.051514
0.052155 0.145525 0.048951
0.098680 0.144274 0.046815
0.157504 0.140963 0.045106
0.220478 0.136782 0.043122
0.279530 0.134096 0.040665
0.331518 0.134752 0.038346
0.377646 0.139406 0.036805
0.421271 0.146212 0.035065
0.464302 0.153536 0.032166
0.506737 0.159823 0.027527
0.548119 0.165621 0.022416
0.588098 0.171267 0.017517
0.626047 0.178332 0.013535
0.661616 0.187671 0.010605
0.694850 0.199603 0.008972
0.726543 0.213626 0.008377
0.756420 0.229419 0.008408
0.784665 0.246632 0.008927
0.811398 0.263951 0.009781
0.837629 0.280262 0.011032
0.863416 0.295277 0.012253
0.889418 0.309728 0.013550
0.914839 0.323583 0.015000
0.938964 0.337072 0.016739
0.960204 0.350530 0.018906
0.977523 0.365042 0.021439
0.989914 0.380301 0.024598
0.996735 0.394141 0.027726
0.999405 0.402625 0.029862
0.000702 0.176013 0.068498
0.000992 0.177203 0.067460
0.002808 0.179507 0.065751
0.009766 0.182406 0.063554
0.027787 0.185000 0.061341
0.063294 0.185809 0.059571
0.118257 0.183917 0.058610
0.187167 0.179339 0.057786
0.258915 0.174228 0.056260
0.323430 0.171084 0.053895
0.377691 0.172061 0.051255
0.424201 0.176684 0.048142
0.466880 0.183444 0.044404
0.507698 0.190326 0.039689
0.547219 0.196994 0.034577
0.585382 0.203723 0.029129
0.621775 0.211612 0.023377
0.656184 0.221210 0.017777
0.688884 0.232486 0.013077
0.720562 0.245045 0.009903
0.750835 0.258610 0.008118
0.779324 0.273060 0.007324
0.805722 0.287877 0.007233
0.831266 0.302525 0.007675
0.856596 0.316670 0.008423
0.882383 0.330434 0.009339
0.907546 0.343679 0.010376
0.931228 0.356680 0.011643
0.952865 0.369100 0.013535
0.971603 0.381460 0.016114
0.986236 0.393576 0.019898
0.994903 0.404532 0.024048
0.998566 0.411368 0.027085
0.000137 0.213977 0.077180
0.000168 0.215183 0.076539
0.000534 0.217533 0.075456
0.002808 0.220859 0.073884
0.010788 0.224720 0.072114
0.031754 0.228016 0.070710
0.073930 0.229053 0.070436
0.138872 0.226474 0.070924
0.218250 0.220722 0.071015
0.297002 0.214267 0.069764
0.365255 0.210391 0.067094
0.421225 0.210575 0.062852
0.468162 0.214496 0.057725
0.509850 0.220493 0.052293
0.548196 0.227512 0.047532
0.584619 0.235325 0.042969
0.619104 0.243900 0.037552
0.652277 0.253361 0.031128
0.684779 0.263355 0.024170
0.716960 0.274205 0.017777
0.747463 0.286076 0.012467
0.775418 0.299062 0.008743
0.800748 0.312795 0.006806
0.825406 0.326558 0.006348
0.850431 0.339879 0.006806
0.876219 0.352682 0.007431
0.901076 0.365194 0.008026
0.924132 0.377890 0.008652
0.945541 0.389899 0.009949
0.965179 0.400992 0.012024
0.981567 0.410864 0.015763
0.992096 0.419532 0.020325
0.996872 0.424964 0.023926
0.000015 0.252598 0.085222
0.000015 0.253895 0.084962
0.000061 0.256382 0.084520
0.000412 0.260029 0.083787
0.002655 0.264652 0.082765
0.011841 0.269657 0.081910
0.037888 0.273579 0.082002
0.089052 0.274388 0.083177
0.164553 0.270817 0.084520
0.251484 0.263554 0.084581
0.334615 0.255589 0.082719
0.405219 0.250004 0.078447
0.462455 0.248447 0.072206
0.509529 0.250965 0.065156
0.549630 0.256718 0.059068
0.585367 0.265064 0.054673
0.618173 0.274510 0.050782
0.649790 0.284108 0.046128
0.681529 0.293263 0.039872
0.713817 0.302693 0.032303
0.744594 0.313161 0.024201
0.772442 0.324804 0.016968
0.797238 0.337575 0.011994
0.821271 0.350698 0.009506
0.845853 0.363638 0.008835
0.871351 0.375875 0.008667
0.895781 0.387655 0.008606
0.918471 0.399603 0.008469
0.939528 0.411078 0.009049
0.959579 0.421576 0.010498
0.976883 0.430793 0.014282
0.988785 0.438804 0.019455
0.994446 0.443885 0.023774
0.000000 0.294423 0.096391
0.000000 0.295720 0.096468
0.000000 0.298146 0.096498
0.000015 0.301671 0.096330
0.000290 0.306218 0.095888
0.003052 0.311620 0.095399
0.015671 0.316976 0.095598
0.049516 0.320546 0.096666
0.111131 0.320333 0.098192
0.195087 0.315373 0.098985
0.286107 0.306859 0.098512
0.370947 0.297322 0.095613
0.442802 0.289708 0.089799
0.501213 0.286076 0.081178
0.547677 0.287541 0.072328
0.585931 0.293492 0.065278
0.618799 0.302266 0.060838
0.649546 0.311925 0.057954
0.679698 0.321492 0.055116
0.710460 0.330938 0.050538
0.740352 0.340826 0.043458
0.768231 0.351354 0.034882
0.793668 0.362966 0.027024
0.818219 0.375357 0.021317
0.842588 0.388067 0.017792
0.867262 0.400061 0.015579
0.890806 0.411322 0.014145
0.913115 0.422248 0.013214
0.934020 0.432883 0.013153
0.954314 0.442985 0.014359
0.972137 0.452689 0.018296
0.985077 0.461692 0.024277
0.991531 0.467659 0.029297
0.000000 0.338018 0.111604
0.000000 0.339178 0.111818
0.000000 0.341344 0.112062
0.000000 0.344488 0.112276
0.000031 0.348470 0.112230
0.000687 0.353246 0.112032
0.005692 0.358495 0.112032
0.024933 0.363226 0.112520
0.068437 0.365789 0.113329
0.138659 0.364538 0.114000
0.226017 0.358907 0.114717
0.318120 0.349355 0.114244
0.404608 0.337987 0.110658
0.479042 0.328069 0.102098
0.537514 0.323110 0.090410
0.582345 0.324071 0.078614
0.618326 0.329641 0.069612
0.650370 0.337652 0.064820
0.679973 0.347036 0.064149
0.708278 0.357153 0.065263
0.735607 0.367666 0.064439
0.762234 0.378134 0.059953
0.788266 0.388998 0.052644
0.814038 0.400412 0.044785
0.839307 0.412497 0.037705
0.863752 0.424323 0.032151
0.886488 0.435691 0.028199
0.907820 0.446326 0.025971
0.928054 0.456489 0.025467
0.948196 0.466285 0.027008
0.966567 0.476722 0.031861
0.980667 0.487251 0.039307
0.988052 0.494530 0.045411
0.000000 0.381888 0.130358
0.000000 0.382925 0.130663
0.000000 0.384802 0.130983
0.000000 0.387396 0.131136
0.000000 0.390570 0.130907
0.000137 0.394415 0.130510
0.001785 0.398779 0.130098
0.011460 0.403326 0.129946
0.038346 0.407111 0.130083
0.090013 0.409003 0.130770
0.164370 0.407675 0.132570
0.254917 0.401495 0.134203
0.350149 0.390524 0.133120
0.440314 0.376852 0.126268
0.514183 0.365713 0.114244
0.570611 0.360006 0.099489
0.612802 0.360510 0.085557
0.648112 0.365164 0.076417
0.679194 0.372793 0.074037
0.707103 0.382376 0.078004
0.732662 0.393271 0.083040
0.757137 0.404440 0.085389
0.782193 0.415488 0.082734
0.807996 0.426383 0.076417
0.834089 0.437507 0.067994
0.859113 0.448707 0.059663
0.882078 0.459937 0.052934
0.902724 0.470817 0.049134
0.921950 0.481376 0.048661
0.941253 0.491844 0.051438
0.959899 0.503273 0.057130
0.975082 0.514900 0.064820
0.983459 0.522866 0.070634
0.000061 0.420233 0.148836
0.000092 0.421103 0.148989
0.000122 0.422644 0.149065
0.000198 0.424765 0.148836
0.000397 0.427390 0.148180
0.000809 0.430655 0.147433
0.002029 0.434516 0.146777
0.007233 0.438956 0.146715
0.023316 0.443580 0.147326
0.058671 0.447822 0.149004
0.117067 0.450477 0.151843
0.197604 0.449149 0.154635
0.291417 0.441978 0.154940
0.388922 0.428946 0.150042
0.475944 0.414267 0.139986
0.546304 0.402655 0.126482
0.598917 0.397086 0.111696
0.639857 0.397314 0.099641
0.674281 0.401755 0.093080
0.704265 0.409201 0.094423
0.731029 0.418708 0.099901
0.755123 0.429267 0.105547
0.778698 0.440146 0.107683
0.802762 0.450813 0.105669
0.827787 0.461738 0.100816
0.852811 0.472786 0.093751
0.876585 0.484062 0.086732
0.897826 0.495186 0.081697
0.916930 0.506386 0.081163
0.935454 0.518059 0.084794
0.953704 0.530556 0.090852
0.969116 0.542489 0.097353
0.977981 0.550225 0.101656
0.005478 0.452522 0.163897
0.005783 0.453391 0.163958
0.006348 0.454932 0.163928
0.007279 0.457069 0.163653
0.008759 0.459754 0.163165
0.011017 0.463127 0.162722
0.014420 0.467140 0.162722
0.019944 0.471839 0.163607
0.031525 0.477073 0.165362
0.055894 0.482506 0.168048
0.098726 0.487388 0.171191
0.163027 0.489860 0.173678
0.243656 0.487739 0.173632
0.334936 0.479057 0.169818
0.425193 0.465431 0.163058
0.506920 0.450614 0.154696
0.573037 0.439658 0.144793
0.624262 0.434577 0.134340
0.664286 0.434989 0.125109
0.697795 0.439139 0.120943
0.727474 0.445869 0.121462
0.754101 0.454078 0.124041
0.778256 0.463539 0.126162
0.800885 0.473640 0.126619
0.823087 0.484977 0.127489
0.846067 0.496559 0.126375
0.869413 0.508034 0.123705
0.891814 0.519097 0.119921
0.912261 0.530571 0.118944
0.931441 0.543099 0.121614
0.949462 0.556069 0.125750
0.964294 0.567636 0.129564
0.972763 0.574640 0.131502
0.027649 0.482399 0.178378
0.028321 0.483162 0.178317
0.029572 0.484550 0.178256
0.031586 0.486564 0.178119
0.034699 0.489265 0.178164
0.039353 0.492836 0.178546
0.045838 0.497154 0.179706
0.054063 0.502205 0.181857
0.065797 0.507790 0.184787
0.084092 0.513710 0.188144
0.113573 0.519493 0.191302
0.158526 0.523964 0.193149
0.218875 0.525612 0.192218
0.292470 0.522499 0.188632
0.372961 0.513787 0.184756
0.455421 0.500740 0.182238
0.532677 0.486961 0.179355
0.597925 0.476738 0.173602
0.648646 0.471962 0.164935
0.687465 0.472221 0.156985
0.720195 0.475715 0.151736
0.749981 0.480751 0.147677
0.776898 0.487449 0.145037
0.800687 0.495735 0.143755
0.821469 0.506859 0.148074
0.841886 0.519051 0.153704
0.863050 0.531395 0.158602
0.885298 0.542794 0.159335
0.907088 0.554253 0.158541
0.927871 0.566430 0.157763
0.946517 0.578698 0.157229
0.961166 0.589212 0.157076
0.969268 0.595377 0.156878
0.070832 0.513161 0.193942
0.071946 0.513909 0.194064
0.073976 0.515267 0.194415
0.077150 0.517296 0.195010
0.081865 0.520073 0.196109
0.088563 0.523751 0.197757
0.097093 0.528130 0.200107
0.106844 0.532998 0.203082
0.117845 0.538064 0.206409
0.131014 0.543267 0.209705
0.148974 0.548516 0.212573
0.176455 0.553338 0.214237
0.216464 0.556924 0.213382
0.269306 0.558022 0.210636
0.332326 0.555261 0.208743
0.404410 0.547448 0.210132
0.482551 0.535485 0.212619
0.558968 0.522454 0.212085
0.623423 0.512581 0.206638
0.672526 0.507744 0.198474
0.709712 0.507744 0.190204
0.741878 0.510216 0.181476
0.771084 0.514641 0.173831
0.797589 0.520867 0.168917
0.820066 0.530251 0.171984
0.840131 0.541619 0.180468
0.859358 0.553964 0.191150
0.879683 0.565805 0.197665
0.900938 0.577310 0.198657
0.922606 0.588708 0.194827
0.942443 0.599725 0.189059
0.957870 0.609125 0.184710
0.966232 0.614710 0.182681
0.128191 0.545586 0.215610
0.129244 0.546166 0.215900
0.131121 0.547189 0.216434
0.134066 0.548730 0.217197
0.138460 0.550942 0.218509
0.144686 0.553933 0.220310
0.152331 0.557488 0.222690
0.160830 0.561379 0.225437
0.169802 0.565423 0.228550
0.179309 0.569665 0.231830
0.190387 0.574212 0.235065
0.206622 0.578882 0.237675
0.231891 0.583246 0.238666
0.267811 0.586816 0.238437
0.313298 0.588678 0.238926
0.368933 0.587228 0.242313
0.436301 0.580774 0.247181
0.512306 0.569650 0.249836
0.586603 0.557000 0.247623
0.648875 0.546944 0.241077
0.695659 0.542031 0.232349
0.731350 0.541588 0.222293
0.761776 0.544213 0.212696
0.789899 0.548806 0.205478
0.815442 0.555932 0.205081
0.837797 0.565377 0.211566
0.857481 0.576699 0.223133
0.876356 0.588495 0.233387
0.895720 0.600046 0.237812
0.916167 0.610895 0.234287
0.936080 0.620966 0.226474
0.952422 0.629511 0.219455
0.961654 0.634699 0.216098
0.181460 0.573983 0.239933
0.182300 0.574411 0.240330
0.183795 0.575204 0.240970
0.186175 0.576379 0.241840
0.189792 0.578134 0.243091
0.194888 0.580468 0.244694
0.201022 0.583215 0.246708
0.207858 0.586252 0.249119
0.214908 0.589502 0.252140
0.222583 0.593103 0.255772
0.231250 0.597147 0.259876
0.243305 0.601785 0.264164
0.261204 0.606638 0.267857
0.286687 0.611429 0.270787
0.319417 0.615717 0.273518
0.359548 0.618616 0.277348
0.409537 0.618402 0.282048
0.472175 0.612787 0.285542
0.543404 0.602304 0.285512
0.614023 0.589761 0.281071
0.672892 0.580133 0.273472
0.717250 0.575357 0.264332
0.750927 0.575418 0.255665
0.779965 0.578515 0.248798
0.807233 0.583948 0.246204
0.832258 0.591424 0.248890
0.854322 0.600809 0.256977
0.873823 0.611475 0.266758
0.892073 0.622477 0.273869
0.910536 0.633127 0.274556
0.928939 0.643122 0.270527
0.944732 0.651652 0.265583
0.954070 0.656855 0.263020
0.227512 0.598657 0.269612
0.228046 0.598947 0.269932
0.229068 0.599496 0.270436
0.230838 0.600305 0.270954
0.233677 0.601541 0.271595
0.237690 0.603204 0.272450
0.242817 0.605325 0.273915
0.249165 0.607919 0.276204
0.256458 0.610986 0.279561
0.264820 0.614588 0.283879
0.274067 0.618662 0.289021
0.285512 0.623392 0.294621
0.300374 0.628580 0.300160
0.320180 0.634028 0.305089
0.344778 0.639475 0.309392
0.373754 0.644633 0.313100
0.408026 0.648508 0.316381
0.451987 0.648753 0.318334
0.508858 0.643503 0.318120
0.575219 0.633127 0.314580
0.640589 0.621439 0.308431
0.694530 0.612573 0.301167
0.735637 0.608698 0.294926
0.767987 0.609155 0.290272
0.797009 0.612665 0.287755
0.823972 0.618341 0.287694
0.848600 0.625788 0.291081
0.870405 0.634745 0.297414
0.889616 0.644678 0.304814
0.907164 0.655116 0.310353
0.923674 0.665476 0.313283
0.937713 0.674418 0.314214
0.946197 0.679881 0.314626
0.269917 0.620447 0.301656
0.270436 0.620706 0.302007
0.271626 0.621256 0.302586
0.273655 0.622095 0.303212
0.276707 0.623285 0.303807
0.280720 0.624857 0.304570
0.285969 0.626947 0.306004
0.292760 0.629664 0.308537
0.300908 0.632990 0.312200
0.310353 0.636881 0.316838
0.320714 0.641245 0.322301
0.332570 0.646113 0.328115
0.346258 0.651316 0.333730
0.362478 0.656779 0.338415
0.381353 0.662394 0.342092
0.402396 0.668055 0.344381
0.425696 0.673472 0.345373
0.454032 0.677272 0.344961
0.492683 0.677607 0.343557
0.544320 0.672526 0.340322
0.604211 0.663127 0.335515
0.662531 0.652399 0.330251
0.712062 0.644511 0.326940
0.752071 0.641001 0.325948
0.785550 0.641779 0.326162
0.814939 0.645518 0.326238
0.841291 0.651286 0.326680
0.865141 0.658534 0.328756
0.886488 0.667048 0.333455
0.905119 0.676661 0.340215
0.921157 0.686976 0.347906
0.933791 0.696315 0.354620
0.941192 0.702129 0.358709
0.317769 0.644282 0.336248
0.318318 0.644556 0.336645
0.319738 0.645182 0.337316
0.322057 0.646082 0.337957
0.325368 0.647333 0.338491
0.329381 0.648859 0.339208
0.334615 0.650950 0.340734
0.341222 0.653651 0.343313
0.349355 0.657008 0.346761
0.358556 0.660853 0.350729
0.368521 0.665095 0.355016
0.379324 0.669642 0.359228
0.391180 0.674464 0.362905
0.404562 0.679576 0.365698
0.419516 0.684977 0.367544
0.435615 0.690455 0.368124
0.452750 0.695857 0.367300
0.471901 0.700694 0.365240
0.496818 0.703929 0.362768
0.531167 0.703624 0.359716
0.576089 0.698756 0.356374
0.627451 0.690455 0.353964
0.679896 0.681727 0.354498
0.728496 0.675364 0.357977
0.770718 0.672633 0.361868
0.805356 0.673533 0.363729
0.833951 0.677195 0.363348
0.858930 0.682841 0.362676
0.881971 0.689921 0.363836
0.902586 0.698283 0.367956
0.920043 0.707729 0.375082
0.933013 0.716609 0.382956
0.940215 0.722271 0.388373
0.368048 0.669261 0.367147
0.368612 0.669535 0.367514
0.369955 0.670130 0.368154
0.372091 0.671000 0.368811
0.375143 0.672251 0.369528
0.378958 0.673854 0.370459
0.383886 0.676005 0.372076
0.389731 0.678584 0.374289
0.396704 0.681621 0.376822
0.404746 0.685084 0.379232
0.413809 0.688930 0.381277
0.423529 0.693004 0.382910
0.433570 0.697154 0.383963
0.444266 0.701518 0.384588
0.455818 0.706111 0.384649
0.468208 0.710887 0.383963
0.481331 0.715602 0.382467
0.495308 0.720104 0.380499
0.511788 0.724041 0.378775
0.533394 0.726314 0.377523
0.563088 0.725856 0.377218
0.602884 0.722087 0.378958
0.651484 0.716167 0.383948
0.704173 0.709987 0.391455
0.753384 0.705470 0.398276
0.793805 0.703716 0.401770
0.825574 0.704860 0.401846
0.852033 0.708476 0.400351
0.876387 0.713909 0.399283
0.898695 0.720745 0.399680
0.918105 0.728695 0.402808
0.932631 0.736324 0.407767
0.940597 0.741253 0.411902
0.417090 0.694530 0.392233
0.417487 0.694713 0.392432
0.418387 0.695125 0.392828
0.419852 0.695735 0.393240
0.422156 0.696712 0.393820
0.425360 0.698131 0.394644
0.429633 0.700069 0.396048
0.434531 0.702251 0.397543
0.440024 0.704662 0.398810
0.446326 0.707317 0.399344
0.453590 0.710292 0.399069
0.461692 0.713542 0.398215
0.469947 0.716884 0.397147
0.478660 0.720500 0.396567
0.487816 0.724285 0.396216
0.497704 0.728237 0.395926
0.508019 0.732128 0.395590
0.519036 0.735927 0.395789
0.531533 0.739605 0.396963
0.546899 0.743069 0.399603
0.567315 0.745830 0.403906
0.596765 0.747158 0.410697
0.637446 0.746242 0.419440
0.686870 0.743236 0.428748
0.736660 0.739208 0.435691
0.779553 0.735866 0.438911
0.814298 0.734539 0.439277
0.843366 0.735683 0.438621
0.869795 0.739208 0.438010
0.893660 0.744518 0.437308
0.914443 0.751003 0.437446
0.930175 0.757137 0.438819
0.938872 0.761059 0.440558
0.458320 0.716060 0.410208
0.458534 0.716152 0.410254
0.459052 0.716365 0.410361
0.460029 0.716762 0.410559
0.461723 0.717510 0.410941
0.464500 0.718776 0.411597
0.468238 0.720516 0.412573
0.472511 0.722408 0.413413
0.476829 0.724254 0.413657
0.481819 0.726207 0.412970
0.487663 0.728420 0.411429
0.494453 0.730953 0.409674
0.501198 0.733577 0.408530
0.508049 0.736446 0.408713
0.515175 0.739467 0.409873
0.523354 0.742763 0.411582
0.532341 0.746242 0.413916
0.542489 0.749950 0.417472
0.554147 0.753994 0.422538
0.568414 0.758587 0.429526
0.586328 0.763561 0.438087
0.611170 0.768154 0.448157
0.644541 0.771038 0.457816
0.685481 0.771466 0.465858
0.727535 0.769741 0.470848
0.766094 0.766949 0.473075
0.800504 0.764538 0.473960
0.832349 0.763607 0.474830
0.862409 0.765087 0.476188
0.888731 0.768841 0.476921
0.910292 0.774136 0.477333
0.925902 0.779217 0.477806
0.934401 0.782437 0.478553
0.491798 0.734035 0.425345
0.491920 0.734096 0.425376
0.492302 0.734249 0.425467
0.493065 0.734554 0.425605
0.494438 0.735073 0.425772
0.496712 0.735988 0.426078
0.499809 0.737285 0.426566
0.503456 0.738750 0.426963
0.507027 0.740124 0.426886
0.510994 0.741588 0.426215
0.515572 0.743297 0.425299
0.521157 0.745434 0.424933
0.527047 0.747860 0.425910
0.533486 0.750713 0.428687
0.540566 0.753918 0.432837
0.549020 0.757488 0.437720
0.558648 0.761364 0.443320
0.569924 0.765637 0.450004
0.582818 0.770443 0.457832
0.597894 0.775998 0.467124
0.615488 0.781979 0.476890
0.637522 0.787701 0.486503
0.664637 0.791867 0.493614
0.695933 0.793973 0.498299
0.727535 0.794202 0.500740
0.757748 0.793103 0.502342
0.788220 0.791348 0.503990
0.821164 0.789715 0.506386
0.855406 0.789700 0.509819
0.885496 0.791974 0.513237
0.907927 0.796368 0.516335
0.922301 0.800961 0.518685
0.929473 0.803937 0.520226
0.517876 0.748699 0.443565
0.518029 0.748791 0.443656
0.518486 0.748989 0.443809
0.519387 0.749340 0.444053
0.520989 0.749966 0.444343
0.523476 0.750942 0.444923
0.526741 0.752255 0.445823
0.530510 0.753811 0.447074
0.534173 0.755306 0.448173
0.538064 0.756924 0.449210
0.542458 0.758724 0.450370
0.547753 0.760998 0.452567
0.553826 0.763668 0.456245
0.560937 0.766918 0.461570
0.569207 0.770703 0.468025
0.579065 0.774960 0.474968
0.590204 0.779553 0.482353
0.602945 0.784436 0.489952
0.616770 0.789609 0.497795
0.631815 0.795117 0.505806
0.648249 0.800610 0.513252
0.667155 0.805493 0.519371
0.688808 0.809003 0.522774
0.712016 0.811200 0.524468
0.734569 0.812436 0.525444
0.756497 0.812924 0.527047
0.781872 0.812482 0.529366
0.814405 0.811353 0.532891
0.851667 0.810864 0.537835
0.885237 0.812238 0.543664
0.908476 0.815778 0.549584
0.921508 0.819852 0.554528
0.927077 0.822629 0.557534
0.545205 0.765499 0.474052
0.545434 0.765637 0.474250
0.546044 0.765942 0.474601
0.547127 0.766430 0.475074
0.548943 0.767208 0.475792
0.551629 0.768292 0.476921
0.555062 0.769680 0.478431
0.558968 0.771283 0.480461
0.562951 0.772961 0.482612
0.567285 0.774899 0.485298
0.572168 0.777035 0.488319
0.578012 0.779614 0.492317
0.585000 0.782620 0.497200
0.593561 0.786313 0.503151
0.603464 0.790570 0.509789
0.614557 0.795209 0.516472
0.626139 0.799893 0.523049
0.638437 0.804456 0.528878
0.650965 0.808835 0.534127
0.664027 0.813123 0.538628
0.677699 0.817121 0.542367
0.692683 0.820523 0.544945
0.709148 0.823011 0.545937
0.725948 0.824842 0.546197
0.742123 0.826413 0.546502
0.758755 0.827924 0.547845
0.781292 0.828855 0.550423
