app/src/main/assets/filters/Fresh Bright.cube
# Created by Adobe Lightroom plugin Export LUT (1.24.0)
# www.johnrellis.com/lightroom/exportlut.htm
# Photo: 兔小呆样片 A (78).jpg
# Color profile: C:\Program Files (x86)\Common Files\Adobe\Color\Profiles\Recommended\sRGB Color Space Profile.icm
LUT_3D_SIZE 9
#LUMIXPHOTOSTYLE STD
DOMAIN_MIN 0.0 0.0 0.0
DOMAIN_MAX 1.0 1.0 1.0
0.000000 0.000000 0.000000
0.160189 0.000000 0.000000
0.452308 0.000000 0.000000
0.680995 0.000000 0.000000
0.835050 0.000000 0.000000
0.936370 0.000000 0.000000
1.000000 0.000000 0.000000
1.000000 0.000000 0.000000
1.000000 0.000000 0.000000
0.000000 0.126253 0.057008
0.176150 0.153628 0.000000
0.433082 0.163394 0.000000
0.668879 0.123262 0.000000
0.826352 0.095766 0.000000
0.929839 0.091432 0.000000
1.000000 0.090730 0.000000
1.000000 0.086397 0.000000
1.000000 0.050446 0.000000
0.000000 0.339818 0.130831
0.000000 0.337987 0.080385
0.452766 0.402716 0.000000
0.635157 0.391089 0.000000
0.787106 0.385870 0.000000
0.907958 0.354681 0.000000
0.986389 0.330449 0.000000
1.000000 0.310124 0.000000
1.000000 0.309941 0.000000
0.000000 0.505180 0.238041
0.000000 0.498512 0.218479
0.148745 0.525628 0.120638
0.644373 0.573785 0.000000
0.767544 0.551110 0.000000
0.847501 0.546685 0.000000
0.935424 0.532952 0.000000
1.000000 0.526390 0.000000
1.000000 0.541894 0.000000
0.000000 0.611261 0.330907
0.000000 0.606256 0.320989
0.000000 0.603418 0.285405
0.443336 0.647181 0.207309
0.757351 0.677455 0.134951
0.847105 0.652399 0.069368
0.899351 0.650355 0.147005
0.974975 0.656916 0.145418
1.000000 0.670771 0.243565
0.000000 0.686976 0.411536
0.000000 0.683558 0.404883
0.090028 0.677913 0.384894
0.319768 0.686580 0.343053
0.610529 0.727291 0.306645
0.838193 0.754147 0.275090
0.919677 0.738705 0.233127
0.966033 0.741176 0.275181
1.000000 0.756771 0.300114
0.154330 0.754238 0.495460
0.187442 0.751675 0.491005
0.249760 0.746426 0.478096
0.334539 0.742336 0.450843
0.498573 0.759945 0.416876
0.732082 0.802609 0.405463
0.918822 0.832029 0.373938
0.996399 0.821836 0.334264
1.000000 0.827329 0.363684
0.306004 0.841367 0.591882
0.321386 0.839261 0.588647
0.355230 0.834592 0.580133
0.406989 0.828336 0.562829
0.486976 0.826780 0.534874
0.641505 0.848173 0.510246
0.840269 0.888884 0.497932
1.000000 0.911986 0.448341
1.000000 0.900450 0.403204
0.384039 0.962463 0.704067
0.395880 0.961181 0.701869
0.423194 0.958007 0.696162
0.465888 0.952941 0.685328
0.526574 0.947051 0.666529
0.625422 0.946502 0.638636
0.788144 0.962280 0.610559
0.966400 0.983520 0.570153
1.000000 0.975097 0.475837
0.000000 0.000000 0.147372
0.152560 0.000000 0.138125
0.454231 0.000000 0.081971
0.678828 0.000000 0.000000
0.835111 0.000000 0.000000
0.933898 0.000000 0.000000
1.000000 0.000000 0.000000
1.000000 0.000000 0.000000
1.000000 0.000000 0.000000
0.000000 0.159060 0.170169
0.181094 0.154604 0.151522
0.435859 0.167025 0.121126
0.662654 0.133272 0.012940
0.829679 0.022156 0.000000
0.929564 0.103578 0.000000
1.000000 0.136507 0.000000
1.000000 0.120027 0.000000
1.000000 0.072663 0.000000
0.000000 0.361242 0.227665
0.000000 0.349065 0.205020
0.458808 0.400305 0.133181
0.621820 0.401617 0.119356
0.775723 0.401740 0.000000
0.895171 0.375586 0.000000
0.986755 0.331029 0.000000
1.000000 0.318700 0.000000
1.000000 0.318425 0.000000
0.000000 0.514946 0.295964
0.000000 0.506310 0.283085
0.210117 0.525017 0.226658
0.643244 0.572869 0.161135
0.754635 0.556390 0.142031
0.837766 0.554284 0.140230
0.925353 0.545190 0.025452
1.000000 0.531395 0.000000
1.000000 0.543297 0.000000
0.000000 0.615869 0.365606
0.000000 0.610285 0.357397
0.077058 0.604974 0.328496
0.457191 0.645563 0.275181
0.754482 0.677058 0.246159
0.837583 0.655299 0.221012
0.892088 0.654627 0.244938
0.969909 0.661799 0.236759
1.000000 0.671199 0.245396
0.000000 0.689204 0.434394
0.000000 0.685634 0.428443
0.170932 0.679347 0.410315
0.341863 0.685817 0.373907
0.614710 0.726131 0.349523
0.835599 0.754238 0.334844
0.913390 0.740383 0.305089
0.961151 0.743557 0.329656
1.000000 0.758877 0.341344
0.197635 0.755856 0.510307
0.224002 0.753170 0.506035
0.276371 0.747585 0.493935
0.351385 0.742672 0.468452
0.503838 0.758999 0.437964
0.732448 0.802152 0.433173
0.916716 0.832303 0.412879
0.992401 0.822873 0.380652
1.000000 0.828763 0.400366
0.317845 0.843015 0.601526
0.332708 0.840909 0.598383
0.365118 0.836027 0.590021
0.414649 0.829404 0.573297
0.490394 0.826902 0.546044
0.641169 0.847715 0.523430
0.839231 0.888884 0.515648
1.000000 0.912261 0.475044
1.000000 0.901152 0.435981
0.384558 0.964202 0.709773
0.396612 0.962890 0.707637
0.424170 0.959655 0.701961
0.466682 0.954467 0.691249
0.526452 0.948363 0.672694
0.623255 0.947173 0.644862
0.785885 0.962615 0.617853
0.965179 0.983795 0.582269
1.000000 0.975219 0.497780
0.000000 0.002564 0.346075
0.101808 0.000000 0.339239
0.439002 0.000000 0.320104
0.678706 0.000000 0.261265
0.818906 0.000000 0.204440
0.921050 0.000000 0.092592
1.000000 0.000000 0.000000
1.000000 0.000000 0.000000
1.000000 0.000000 0.000000
0.000000 0.156252 0.353613
0.172366 0.152865 0.346258
0.453712 0.110658 0.323247
0.664149 0.084230 0.280735
0.806729 0.133761 0.224582
0.907805 0.169162 0.134188
0.991302 0.156985 0.000000
1.000000 0.089204 0.000000
1.000000 0.093233 0.000000
0.000000 0.410590 0.359289
0.154574 0.392309 0.359625
0.443336 0.397986 0.339086
0.611810 0.412665 0.326970
0.763027 0.415534 0.287938
0.869688 0.412848 0.231113
0.955200 0.405066 0.138827
1.000000 0.378332 0.000000
1.000000 0.327764 0.000000
0.000000 0.543328 0.395544
0.104952 0.528496 0.389319
0.294560 0.525078 0.361273
0.635767 0.570855 0.349248
0.730068 0.564630 0.340703
0.821134 0.565850 0.328710
0.909483 0.562554 0.292210
0.998535 0.557733 0.219150
1.000000 0.543755 0.000000
0.000000 0.628901 0.437110
0.136110 0.621607 0.431067
0.251621 0.611109 0.410986
0.481910 0.642664 0.382513
0.747036 0.676173 0.386450
0.817746 0.660121 0.373083
0.878080 0.662409 0.375036
0.961120 0.670222 0.360327
1.000000 0.674769 0.305760
0.175357 0.695521 0.485237
0.213077 0.691371 0.480232
0.277928 0.683650 0.465583
0.385626 0.684840 0.436988
0.621851 0.723873 0.429786
0.829282 0.754391 0.437385
0.899748 0.743435 0.418280
0.951110 0.748074 0.424201
1.000000 0.762936 0.422705
0.270726 0.760616 0.545037
0.290349 0.757595 0.541070
0.329656 0.751125 0.530327
0.388190 0.744381 0.508110
0.514519 0.756924 0.483070
0.732265 0.801114 0.489509
0.911925 0.833005 0.487831
0.983703 0.824949 0.465248
1.000000 0.831693 0.470619
0.342535 0.847807 0.624872
0.356695 0.845487 0.621790
0.387121 0.840116 0.613794
0.432013 0.832517 0.598199
0.498329 0.827634 0.572259
0.639246 0.846586 0.552911
0.836149 0.888853 0.554223
0.996277 0.912932 0.530449
1.000000 0.902647 0.500908
0.384192 0.968811 0.723995
0.396643 0.967437 0.721920
0.425299 0.964080 0.716396
0.467903 0.958556 0.705959
0.525994 0.951812 0.687922
0.617334 0.948913 0.660090
0.779416 0.963409 0.634485
0.962036 0.984588 0.608850
1.000000 0.975555 0.544579
0.000000 0.003357 0.508629
0.009308 0.000000 0.507805
0.410529 0.000000 0.496529
0.663783 0.000000 0.464881
0.821073 0.000000 0.416907
0.901335 0.000000 0.382330
0.973083 0.166415 0.339086
1.000000 0.216159 0.267674
1.000000 0.139010 0.031556
0.000000 0.164034 0.507988
0.159121 0.158724 0.505821
0.436866 0.129946 0.497292
0.657221 0.042573 0.467506
0.802487 0.087831 0.430091
0.887419 0.217166 0.394720
0.962188 0.283482 0.352148
1.000000 0.305608 0.286412
1.000000 0.262272 0.103853
0.000000 0.397498 0.510124
0.195651 0.397253 0.504479
0.441688 0.392096 0.493904
0.628321 0.387518 0.474037
0.765103 0.398718 0.447578
0.854704 0.422766 0.419379
0.935668 0.438575 0.386053
1.000000 0.441047 0.331456
1.000000 0.418128 0.207706
0.000000 0.582238 0.509545
0.220218 0.573999 0.507561
0.408728 0.543114 0.499153
0.611505 0.566247 0.494301
0.710292 0.572259 0.486122
0.807523 0.574182 0.469642
0.897734 0.574060 0.443427
0.988647 0.572168 0.401343
1.000000 0.562066 0.321172
0.242863 0.658534 0.531853
0.308659 0.648676 0.528252
0.385840 0.628412 0.514519
0.510460 0.639918 0.496193
0.733272 0.673945 0.516808
0.791348 0.664759 0.505028
0.864866 0.670405 0.498787
0.954925 0.676600 0.477607
1.000000 0.678279 0.430243
0.319188 0.709285 0.557977
0.343725 0.704189 0.553948
0.385595 0.693629 0.542473
0.443702 0.686030 0.519524
0.628443 0.720851 0.522545
0.819638 0.754421 0.546624
0.880858 0.746395 0.531426
0.939666 0.753048 0.525139
1.000000 0.766079 0.512718
0.348089 0.771725 0.599023
0.364477 0.768063 0.595422
0.396735 0.759792 0.585626
0.439185 0.749660 0.566766
0.527337 0.753841 0.543633
0.729061 0.799344 0.560235
0.905150 0.834226 0.576898
0.971954 0.827390 0.559045
1.000000 0.835142 0.552880
0.368872 0.858213 0.662287
0.383124 0.855589 0.659327
0.413581 0.849241 0.651514
0.455207 0.839719 0.636988
0.511406 0.831113 0.613214
0.631952 0.844358 0.594324
0.829160 0.888670 0.605554
0.991089 0.914214 0.601678
1.000000 0.904662 0.579889
0.377661 0.977417 0.748562
0.392035 0.976013 0.746639
0.423987 0.972412 0.741451
0.469612 0.966369 0.731441
0.525566 0.958495 0.714473
0.607568 0.952575 0.686580
0.766171 0.964660 0.661036
0.956237 0.986084 0.645930
1.000000 0.976104 0.605859
0.000000 0.004120 0.634150
0.026001 0.000000 0.634546
0.389105 0.000000 0.631556
0.626734 0.000000 0.615686
0.799924 0.000000 0.582391
0.900969 0.000000 0.537224
0.962280 0.181918 0.510491
1.000000 0.276555 0.484016
1.000000 0.279576 0.429175
0.000000 0.182010 0.630182
0.184298 0.176516 0.629633
0.420142 0.156497 0.627131
0.629664 0.129610 0.614130
0.787716 0.092103 0.583825
0.882811 0.181735 0.545708
0.950530 0.298466 0.520317
1.000000 0.343023 0.491890
1.000000 0.337469 0.435950
0.060456 0.395972 0.626703
0.251682 0.397223 0.623926
0.440223 0.394141 0.619501
0.619257 0.387549 0.609430
0.756069 0.387732 0.585595
0.847898 0.413794 0.560388
0.927947 0.442023 0.538323
1.000000 0.451972 0.507988
1.000000 0.439002 0.452277
0.158572 0.569116 0.627283
0.287266 0.567620 0.624170
0.450050 0.563745 0.616724
0.600366 0.558740 0.605402
0.719966 0.559350 0.594232
0.809049 0.566308 0.579767
0.896971 0.570550 0.562860
0.989807 0.567681 0.534691
1.000000 0.553674 0.481361
0.275151 0.685786 0.627070
0.350561 0.681300 0.625330
0.468757 0.667506 0.621912
0.548760 0.640894 0.602747
0.708583 0.669093 0.618860
0.771145 0.668635 0.609796
0.863218 0.672419 0.597925
0.959869 0.672419 0.574456
1.000000 0.666468 0.531487
0.398779 0.734432 0.640253
0.428443 0.729488 0.639124
0.480354 0.715938 0.632380
0.521141 0.697627 0.613855
0.627070 0.715419 0.608576
0.806882 0.753536 0.641993
0.860227 0.747768 0.625513
0.935058 0.755856 0.615686
1.000000 0.763058 0.593286
0.409430 0.793362 0.668605
0.427070 0.789517 0.666011
0.461891 0.779324 0.657496
0.499947 0.763607 0.640314
0.546380 0.752804 0.614191
0.717433 0.795285 0.630091
0.898192 0.835660 0.659876
0.959442 0.829007 0.642817
1.000000 0.837339 0.629572
0.379583 0.877440 0.713100
0.397162 0.874571 0.710536
0.433265 0.867216 0.702998
0.479591 0.854826 0.688594
0.529290 0.840574 0.666438
0.618097 0.841489 0.642512
0.815702 0.887724 0.658595
0.986236 0.915953 0.671321
1.000000 0.906584 0.653254
0.352361 0.990570 0.783413
0.373846 0.989136 0.782315
0.414771 0.985565 0.778073
0.469703 0.979065 0.769345
0.528588 0.969818 0.753811
0.600183 0.960143 0.727138
0.743984 0.966308 0.698329
0.946777 0.988220 0.693385
1.000000 0.976867 0.671473
0.000000 0.034424 0.732570
0.149630 0.002625 0.733059
0.390570 0.000000 0.732845
0.599084 0.000000 0.726955
0.764828 0.000000 0.708370
0.881376 0.000000 0.672480
0.957061 0.125154 0.637049
1.000000 0.286961 0.620752
1.000000 0.323308 0.600458
0.084291 0.207462 0.727626
0.241093 0.203006 0.727657
0.423438 0.189761 0.727199
0.605554 0.176211 0.722683
0.759213 0.184482 0.706355
0.868070 0.199924 0.672786
0.943755 0.276219 0.642542
1.000000 0.355779 0.627131
1.000000 0.369757 0.605280
0.210086 0.404456 0.721157
0.305760 0.404913 0.720089
0.449958 0.402502 0.718318
0.603082 0.397223 0.714809
0.741329 0.396887 0.701717
0.838590 0.408392 0.673426
0.918608 0.437598 0.653559
1.000000 0.461524 0.639796
1.000000 0.451362 0.614740
0.272313 0.561120 0.718349
0.346197 0.561181 0.716426
0.466712 0.560998 0.712367
0.594598 0.557275 0.708186
0.715816 0.553429 0.697322
0.805509 0.558526 0.679896
0.893706 0.565942 0.669612
0.987610 0.563195 0.655329
1.000000 0.541650 0.624750
0.333410 0.676722 0.719814
0.386175 0.675410 0.718288
0.483101 0.672236 0.714595
0.593408 0.666926 0.708095
0.691981 0.661707 0.700465
0.782925 0.661860 0.692866
0.874449 0.661128 0.683772
0.972778 0.654810 0.668055
1.000000 0.639399 0.636927
0.413306 0.757565 0.720394
0.447700 0.755367 0.719631
0.514794 0.749081 0.717617
0.590448 0.734676 0.712367
0.639429 0.711513 0.692378
0.785733 0.747768 0.716182
0.848936 0.745968 0.703609
0.947936 0.748714 0.690730
1.000000 0.743465 0.664118
0.443244 0.818723 0.738094
0.462715 0.816403 0.737331
0.504204 0.809903 0.734493
0.557580 0.795132 0.725307
0.599329 0.770199 0.701381
0.695247 0.786282 0.693965
0.890288 0.835996 0.735714
0.946685 0.828367 0.715206
1.000000 0.835080 0.700893
0.382238 0.899443 0.770382
0.401312 0.897734 0.769345
0.443458 0.892912 0.766110
0.501915 0.882078 0.757321
0.558190 0.862181 0.735348
0.613428 0.844388 0.703853
0.791470 0.883726 0.714107
0.980743 0.918242 0.745998
1.000000 0.908812 0.726223
0.250370 1.000000 0.818051
0.285985 1.000000 0.818112
0.357824 1.000000 0.818082
0.452277 0.996826 0.816983
0.535332 0.987274 0.806973
0.603601 0.973999 0.783902
0.712520 0.968872 0.748531
0.931426 0.990692 0.750271
1.000000 0.977691 0.745876
0.115206 0.088167 0.815335
0.243198 0.071778 0.815366
0.410498 0.015595 0.815122
0.583154 0.000000 0.813230
0.739193 0.000000 0.805753
0.863157 0.060212 0.787869
0.953094 0.144778 0.758206
1.000000 0.270115 0.733303
1.000000 0.353460 0.723445
0.216434 0.234928 0.811673
0.301854 0.231479 0.811368
0.440162 0.221775 0.810605
0.592279 0.207523 0.808743
0.736202 0.209201 0.802487
0.855406 0.234134 0.786313
0.942473 0.273289 0.758663
1.000000 0.346441 0.736660
1.000000 0.397772 0.727352
0.286290 0.415198 0.806271
0.351019 0.415015 0.805509
0.464607 0.412818 0.803830
0.594598 0.406622 0.801358
0.723720 0.401343 0.796475
0.836698 0.405219 0.783200
0.920500 0.426581 0.759945
0.994018 0.460426 0.743954
1.000000 0.475837 0.735470
0.326299 0.561456 0.802548
0.379583 0.561730 0.801633
0.476814 0.561303 0.799496
0.589685 0.557610 0.796262
0.704952 0.549737 0.791836
0.811978 0.545586 0.781155
0.895354 0.555657 0.764157
0.978576 0.564996 0.754055
1.000000 0.555138 0.743771
0.355627 0.670558 0.802518
0.399390 0.669886 0.801633
0.483772 0.668269 0.799527
0.583185 0.664363 0.796292
0.685206 0.656062 0.792050
0.788998 0.648981 0.783291
0.880583 0.647669 0.771023
0.972717 0.646021 0.762509
1.000000 0.630335 0.750057
0.383551 0.761715 0.807218
0.416754 0.760494 0.806577
0.483986 0.757412 0.804990
0.569574 0.752193 0.802152
0.665553 0.744076 0.797024
0.769528 0.735286 0.789303
0.868284 0.734890 0.781796
0.964935 0.730953 0.773800
1.000000 0.714107 0.756771
0.423529 0.840574 0.813413
0.446235 0.839902 0.812863
0.496681 0.837980 0.811307
0.570703 0.832883 0.808072
0.654597 0.818845 0.801419
0.708064 0.785275 0.775570
0.869352 0.830320 0.809049
0.941955 0.824796 0.792203
1.000000 0.818540 0.774685
0.396277 0.918151 0.830930
0.417243 0.917235 0.830625
0.464210 0.914611 0.829801
0.531365 0.908995 0.827848
0.605310 0.896941 0.821897
0.662531 0.870146 0.797543
0.751125 0.870451 0.774685
0.972595 0.920684 0.826627
1.000000 0.911864 0.803189
0.161013 1.000000 0.860197
0.212406 1.000000 0.860319
0.302495 1.000000 0.860624
0.409613 1.000000 0.861265
0.521874 1.000000 0.861906
0.629206 0.995697 0.856626
0.700130 0.978820 0.822995
0.904448 0.992432 0.814328
1.000000 0.979828 0.829343
0.250217 0.117281 0.902403
0.322484 0.105348 0.901854
0.447578 0.068879 0.900633
0.590509 0.000000 0.898833
0.732784 0.000000 0.896025
0.862608 0.000000 0.889494
0.967437 0.047608 0.875181
1.000000 0.212100 0.849332
1.000000 0.342046 0.828153
0.299443 0.251652 0.900633
0.359869 0.247990 0.899931
0.470100 0.237827 0.898314
0.600458 0.217380 0.896086
0.732815 0.188510 0.893217
0.857115 0.183291 0.887510
0.960357 0.220218 0.874266
1.000000 0.300359 0.849607
1.000000 0.390509 0.829984
0.335302 0.420508 0.897734
0.386969 0.419501 0.896910
0.484596 0.415900 0.894926
0.602411 0.407111 0.891936
0.723964 0.391272 0.888609
0.841947 0.377813 0.883909
0.944244 0.383307 0.872557
1.000000 0.426001 0.850523
1.000000 0.474617 0.834012
0.341985 0.562005 0.895140
0.389380 0.561364 0.894591
0.480140 0.558984 0.893034
0.590997 0.553216 0.890013
0.705592 0.541680 0.886015
0.819333 0.525719 0.881437
0.922850 0.519127 0.871885
0.998627 0.541497 0.853056
1.000000 0.557366 0.838834
0.330419 0.671229 0.893431
0.375463 0.670283 0.893187
0.461036 0.667262 0.892607
0.565606 0.660182 0.891173
0.677516 0.648585 0.887968
0.792966 0.634821 0.883024
0.901762 0.625208 0.874052
0.987243 0.629847 0.856840
1.000000 0.633265 0.844297
0.298772 0.764858 0.894743
0.342229 0.763455 0.894560
0.424903 0.759701 0.894194
0.526390 0.752255 0.893492
0.639857 0.741482 0.891600
0.760098 0.728115 0.887816
0.881407 0.716487 0.879271
0.976410 0.716915 0.863523
1.000000 0.716426 0.855497
0.284367 0.855497 0.899840
0.323095 0.854459 0.899687
0.398749 0.851774 0.899321
0.497810 0.846983 0.898528
0.609339 0.839414 0.896788
0.727535 0.828031 0.893004
0.852232 0.814450 0.886076
0.961944 0.813443 0.878111
1.000000 0.807004 0.874327
0.323827 0.938415 0.902983
0.353735 0.937926 0.902770
0.417945 0.936553 0.902159
0.507500 0.934142 0.901122
0.610651 0.930297 0.899596
0.717769 0.921019 0.897246
0.798672 0.886809 0.880613
0.951812 0.919738 0.906096
1.000000 0.911803 0.892912
0.186923 1.000000 0.912596
0.234867 1.000000 0.912749
0.322454 1.000000 0.913146
0.429816 1.000000 0.914092
0.543816 1.000000 0.916197
0.661799 1.000000 0.920348
0.774136 1.000000 0.924559
0.852537 0.988495 0.895872
1.000000 0.988159 0.931121
0.325597 0.028931 0.993256
0.381079 0.000000 0.992462
0.485847 0.000000 0.990692
0.612726 0.000000 0.988434
0.744594 0.000000 0.986847
0.878111 0.000000 0.986328
1.000000 0.000000 0.983703
1.000000 0.000000 0.972015
1.000000 0.077333 0.940917
0.358923 0.219547 0.993164
0.408850 0.213016 0.992279
0.505425 0.193942 0.990234
0.624994 0.145937 0.987518
0.750484 0.000000 0.985290
0.877836 0.000000 0.984466
1.000000 0.000000 0.982391
1.000000 0.000000 0.971374
1.000000 0.219394 0.940826
0.368505 0.400732 0.992493
0.415900 0.398383 0.991638
0.508385 0.391394 0.989563
0.623651 0.375433 0.986328
0.744320 0.341253 0.983032
0.866148 0.277104 0.981170
0.985870 0.204929 0.979614
1.000000 0.222599 0.970092
1.000000 0.366308 0.940795
0.330724 0.549523 0.991180
0.381292 0.547662 0.990723
0.477974 0.542626 0.989319
0.596521 0.532586 0.986572
0.718898 0.513939 0.982788
0.840208 0.479957 0.979461
0.960815 0.435889 0.977386
1.000000 0.423743 0.969329
1.000000 0.492470 0.941436
0.217075 0.663478 0.988708
0.290745 0.661891 0.988769
0.410590 0.657465 0.988708
0.541802 0.648005 0.987823
0.672328 0.631403 0.985443
0.802335 0.609094 0.981781
0.929473 0.581170 0.977996
1.000000 0.563287 0.970336
1.000000 0.591913 0.942992
0.000000 0.764096 0.985840
0.000000 0.762234 0.986175
0.271855 0.757076 0.986969
0.446906 0.746731 0.987915
0.604028 0.733455 0.987610
0.748104 0.714534 0.985565
0.889891 0.690089 0.982177
1.000000 0.670436 0.974243
1.000000 0.687312 0.946136
0.000000 0.863554 0.984680
0.000000 0.861906 0.984955
0.000000 0.857450 0.985718
0.307774 0.848875 0.987030
0.509728 0.836362 0.988098
0.681880 0.821805 0.987579
0.835996 0.804349 0.985229
0.990814 0.781491 0.979553
1.000000 0.791348 0.952575
0.000000 0.963989 0.985565
0.000000 0.962829 0.985687
0.000000 0.959899 0.986053
0.131380 0.954772 0.986725
0.422278 0.946868 0.987457
0.610437 0.935637 0.987915
0.781277 0.920958 0.986847
0.934142 0.907286 0.983398
1.000000 0.913756 0.969482
0.000000 1.000000 0.976654
0.000000 1.000000 0.976593
0.000000 1.000000 0.976440
0.214694 1.000000 0.976226
0.454841 1.000000 0.976074
0.641474 1.000000 0.976379
0.811032 1.000000 0.978363
0.938781 1.000000 0.990021
1.000000 1.000000 1.000000
