app/src/main/assets/filters/Fresh Bright.cube
# Created by Adobe Lightroom plugin Export LUT (1.24.0)
# www.johnrellis.com/lightroom/exportlut.htm
# Photo: 兔小呆样片 A (78).jpg
# Color profile: C:\Program Files (x86)\Common Files\Adobe\Color\Profiles\Recommended\sRGB Color Space Profile.icm
LUT_3D_SIZE 5
#LUMIXPHOTOSTYLE STD
DOMAIN_MIN 0.0 0.0 0.0
DOMAIN_MAX 1.0 1.0 1.0
0.000000 0.000000 0.000000
0.452308 0.000000 0.000000
0.835050 0.000000 0.000000
1.000000 0.000000 0.000000
1.000000 0.000000 0.000000
0.000000 0.339818 0.130831
0.452766 0.402716 0.000000
0.787106 0.385870 0.000000
0.986389 0.330449 0.000000
1.000000 0.309941 0.000000
0.000000 0.611261 0.330907
0.000000 0.603418 0.285405
0.757351 0.677455 0.134951
0.899351 0.650355 0.147005
1.000000 0.670771 0.243565
0.154330 0.754238 0.495460
0.249760 0.746426 0.478096
0.498573 0.759945 0.416876
0.918822 0.832029 0.373938
1.000000 0.827329 0.363684
0.384039 0.962463 0.704067
0.423194 0.958007 0.696162
0.526574 0.947051 0.666529
0.788144 0.962280 0.610559
1.000000 0.975097 0.475837
0.000000 0.002564 0.346075
0.439002 0.000000 0.320104
0.818906 0.000000 0.204440
1.000000 0.000000 0.000000
1.000000 0.000000 0.000000
0.000000 0.410590 0.359289
0.443336 0.397986 0.339086
0.763027 0.415534 0.287938
0.955200 0.405066 0.138827
1.000000 0.327764 0.000000
0.000000 0.628901 0.437110
0.251621 0.611109 0.410986
0.747036 0.676173 0.386450
0.878080 0.662409 0.375036
1.000000 0.674769 0.305760
0.270726 0.760616 0.545037
0.329656 0.751125 0.530327
0.514519 0.756924 0.483070
0.911925 0.833005 0.487831
1.000000 0.831693 0.470619
0.384192 0.968811 0.723995
0.425299 0.964080 0.716396
0.525994 0.951812 0.687922
0.779416 0.963409 0.634485
1.000000 0.975555 0.544579
0.000000 0.004120 0.634150
0.389105 0.000000 0.631556
0.799924 0.000000 0.582391
0.962280 0.181918 0.510491
1.000000 0.279576 0.429175
0.060456 0.395972 0.626703
0.440223 0.394141 0.619501
0.756069 0.387732 0.585595
0.927947 0.442023 0.538323
1.000000 0.439002 0.452277
0.275151 0.685786 0.627070
0.468757 0.667506 0.621912
0.708583 0.669093 0.618860
0.863218 0.672419 0.597925
1.000000 0.666468 0.531487
0.409430 0.793362 0.668605
0.461891 0.779324 0.657496
0.546380 0.752804 0.614191
0.898192 0.835660 0.659876
1.000000 0.837339 0.629572
0.352361 0.990570 0.783413
0.414771 0.985565 0.778073
0.528588 0.969818 0.753811
0.743984 0.966308 0.698329
1.000000 0.976867 0.671473
0.115206 0.088167 0.815335
0.410498 0.015595 0.815122
0.739193 0.000000 0.805753
0.953094 0.144778 0.758206
1.000000 0.353460 0.723445
0.286290 0.415198 0.806271
0.464607 0.412818 0.803830
0.723720 0.401343 0.796475
0.920500 0.426581 0.759945
1.000000 0.475837 0.735470
0.355627 0.670558 0.802518
0.483772 0.668269 0.799527
0.685206 0.656062 0.792050
0.880583 0.647669 0.771023
1.000000 0.630335 0.750057
0.423529 0.840574 0.813413
0.496681 0.837980 0.811307
0.654597 0.818845 0.801419
0.869352 0.830320 0.809049
1.000000 0.818540 0.774685
0.161013 1.000000 0.860197
0.302495 1.000000 0.860624
0.521874 1.000000 0.861906
0.700130 0.978820 0.822995
1.000000 0.979828 0.829343
0.325597 0.028931 0.993256
0.485847 0.000000 0.990692
0.744594 0.000000 0.986847
1.000000 0.000000 0.983703
1.000000 0.077333 0.940917
0.368505 0.400732 0.992493
0.508385 0.391394 0.989563
0.744320 0.341253 0.983032
0.985870 0.204929 0.979614
1.000000 0.366308 0.940795
0.217075 0.663478 0.988708
0.410590 0.657465 0.988708
0.672328 0.631403 0.985443
0.929473 0.581170 0.977996
1.000000 0.591913 0.942992
0.000000 0.863554 0.984680
0.000000 0.857450 0.985718
0.509728 0.836362 0.988098
0.835996 0.804349 0.985229
1.000000 0.791348 0.952575
0.000000 1.000000 0.976654
0.000000 1.000000 0.976440
0.454841 1.000000 0.976074
0.811032 1.000000 0.978363
1.000000 1.000000 1.000000
