app/src/main/assets/filters/Fresh Bright.cube
# Created by Adobe Lightroom plugin Export LUT (1.24.0)
# www.johnrellis.com/lightroom/exportlut.htm
# Photo: 兔小呆样片 A (78).jpg
# Color profile: C:\Program Files (x86)\Common Files\Adobe\Color\Profiles\Recommended\sRGB Color Space Profile.icm
LUT_3D_SIZE 33
#LUMIXPHOTOSTYLE STD
DOMAIN_MIN 0.0 0.0 0.0
DOMAIN_MAX 1.0 1.0 1.0
0.000000 0.000000 0.000000
0.030884 0.000000 0.000000
0.063508 0.000000 0.000000
0.102632 0.000000 0.000000
0.160189 0.000000 0.000000
0.231296 0.000000 0.000000
0.307134 0.000000 0.000000
0.381903 0.000000 0.000000
0.452308 0.000000 0.000000
0.517357 0.000000 0.000000
0.577081 0.000000 0.000000
0.631647 0.000000 0.000000
0.680995 0.000000 0.000000
0.725338 0.000000 0.000000
0.765469 0.000000 0.000000
0.801816 0.000000 0.000000
0.835050 0.000000 0.000000
0.865263 0.000000 0.000000
0.891814 0.000000 0.000000
0.915404 0.000000 0.000000
0.936370 0.000000 0.000000
0.955047 0.000000 0.000000
0.972442 0.000000 0.000000
0.989685 0.000000 0.000000
1.000000 0.000000 0.000000
1.000000 0.000000 0.000000
1.000000 0.000000 0.000000
1.000000 0.000000 0.000000
1.000000 0.000000 0.000000
1.000000 0.000000 0.000000
1.000000 0.000000 0.000000
1.000000 0.000000 0.000000
1.000000 0.000000 0.000000
0.000000 0.021332 0.006287
0.032227 0.022675 0.000000
0.058167 0.024781 0.000000
0.097871 0.027771 0.001495
0.158389 0.020569 0.000000
0.231540 0.000000 0.000000
0.307897 0.000000 0.000000
0.382635 0.000000 0.000000
0.452430 0.000000 0.000000
0.517052 0.000000 0.000000
0.576440 0.000000 0.000000
0.630884 0.000000 0.000000
0.680079 0.000000 0.000000
0.724300 0.000000 0.000000
0.764462 0.000000 0.000000
0.800809 0.000000 0.000000
0.833982 0.000000 0.000000
0.864195 0.000000 0.000000
0.890806 0.000000 0.000000
0.914458 0.000000 0.000000
0.935393 0.000000 0.000000
0.954162 0.000000 0.000000
0.971557 0.000000 0.000000
0.988830 0.000000 0.000000
1.000000 0.000000 0.000000
1.000000 0.000000 0.000000
1.000000 0.000000 0.000000
1.000000 0.000000 0.000000
1.000000 0.000000 0.000000
1.000000 0.000000 0.000000
1.000000 0.000000 0.000000
1.000000 0.000000 0.000000
1.000000 0.000000 0.000000
0.000000 0.047150 0.024231
0.012970 0.047333 0.010132
0.064698 0.050813 0.000000
0.103517 0.053162 0.000000
0.155154 0.060243 0.002502
0.227176 0.053559 0.000000
0.303990 0.028199 0.000000
0.380194 0.000000 0.000000
0.449866 0.000000 0.000000
0.514672 0.000000 0.000000
0.574304 0.000000 0.000000
0.628931 0.000000 0.000000
0.678248 0.000000 0.000000
0.722652 0.000000 0.000000
0.762844 0.000000 0.000000
0.799313 0.000000 0.000000
0.832609 0.000000 0.000000
0.862821 0.000000 0.000000
0.889586 0.000000 0.000000
0.913207 0.000000 0.000000
0.934203 0.000000 0.000000
0.953094 0.000000 0.000000
0.970550 0.000000 0.000000
0.987854 0.000000 0.000000
1.000000 0.000000 0.000000
1.000000 0.000000 0.000000
1.000000 0.000000 0.000000
1.000000 0.000000 0.000000
1.000000 0.000000 0.000000
1.000000 0.000000 0.000000
1.000000 0.000000 0.000000
1.000000 0.000000 0.000000
1.000000 0.000000 0.000000
0.000000 0.080934 0.044312
0.000000 0.077913 0.033906
0.031495 0.085573 0.016510
0.112642 0.094301 0.000000
0.170138 0.095796 0.000000
0.226139 0.105226 0.000000
0.296788 0.105928 0.000000
0.371832 0.095613 0.000000
0.443366 0.075380 0.000000
0.509422 0.050904 0.000000
0.569879 0.017639 0.000000
0.624994 0.000000 0.000000
0.674739 0.000000 0.000000
0.719448 0.000000 0.000000
0.759915 0.000000 0.000000
0.796658 0.000000 0.000000
0.830137 0.000000 0.000000
0.860594 0.000000 0.000000
0.887510 0.000000 0.000000
0.911345 0.000000 0.000000
0.932494 0.000000 0.000000
0.951415 0.000000 0.000000
0.968933 0.000000 0.000000
0.986358 0.000000 0.000000
1.000000 0.000000 0.000000
1.000000 0.000000 0.000000
1.000000 0.000000 0.000000
1.000000 0.000000 0.000000
1.000000 0.000000 0.000000
1.000000 0.000000 0.000000
1.000000 0.000000 0.000000
1.000000 0.000000 0.000000
1.000000 0.000000 0.000000
0.000000 0.126253 0.057008
0.000000 0.122072 0.049195
0.000000 0.124300 0.034607
0.061921 0.140810 0.013062
0.176150 0.153628 0.000000
0.246952 0.152316 0.000000
0.302403 0.159945 0.000000
0.365209 0.165530 0.000000
0.433082 0.163394 0.000000
0.499611 0.155306 0.000000
0.562432 0.142306 0.000000
0.618341 0.133181 0.000000
0.668879 0.123262 0.000000
0.714382 0.114137 0.000000
0.755306 0.106203 0.000000
0.792477 0.100130 0.000000
0.826352 0.095766 0.000000
0.857176 0.093599 0.000000
0.884459 0.091951 0.000000
0.908446 0.091829 0.000000
0.929839 0.091432 0.000000
0.949035 0.090944 0.000000
0.966674 0.091005 0.000000
0.984222 0.091524 0.000000
1.000000 0.090730 0.000000
1.000000 0.090761 0.000000
1.000000 0.090211 0.000000
1.000000 0.088869 0.000000
1.000000 0.086397 0.000000
1.000000 0.082490 0.000000
1.000000 0.075746 0.000000
1.000000 0.066102 0.000000
1.000000 0.050446 0.000000
0.000000 0.178836 0.070497
0.000000 0.174807 0.063539
0.000000 0.173739 0.051820
0.000000 0.183902 0.025696
0.114412 0.206699 0.000000
0.248020 0.219516 0.000000
0.324987 0.215274 0.000000
0.376928 0.219303 0.000000
0.431159 0.224857 0.000000
0.490455 0.226474 0.000000
0.550958 0.223148 0.000000
0.608453 0.215854 0.000000
0.661738 0.204959 0.000000
0.707454 0.200992 0.000000
0.748684 0.198398 0.000000
0.786404 0.193790 0.000000
0.820890 0.189914 0.000000
0.852354 0.186648 0.000000
0.880003 0.183902 0.000000
0.904509 0.180941 0.000000
0.926207 0.178073 0.000000
0.945647 0.175235 0.000000
0.963592 0.172427 0.000000
0.981384 0.169894 0.000000
0.999145 0.167453 0.000000
1.000000 0.165011 0.000000
1.000000 0.162539 0.000000
1.000000 0.159792 0.000000
1.000000 0.156283 0.000000
1.000000 0.152377 0.000000
1.000000 0.147433 0.000000
1.000000 0.140352 0.000000
1.000000 0.131441 0.000000
0.000000 0.234043 0.086885
0.000000 0.230381 0.080507
0.000000 0.228244 0.070649
0.000000 0.232181 0.048219
0.000000 0.249790 0.007782
0.184634 0.274846 0.000000
0.320531 0.284794 0.000000
0.397955 0.277592 0.000000
0.446448 0.277684 0.000000
0.493111 0.282109 0.000000
0.543664 0.285344 0.000000
0.596582 0.284886 0.000000
0.647822 0.281224 0.000000
0.695674 0.274968 0.000000
0.741024 0.264347 0.000000
0.779599 0.260288 0.000000
0.813748 0.260258 0.000000
0.845670 0.256962 0.000000
0.874144 0.252903 0.000000
0.899199 0.248539 0.000000
0.921447 0.244114 0.000000
0.941283 0.239658 0.000000
0.959564 0.235447 0.000000
0.977691 0.231357 0.000000
0.995666 0.227695 0.000000
1.000000 0.223911 0.000000
1.000000 0.220432 0.000000
1.000000 0.216648 0.000000
1.000000 0.212528 0.000000
1.000000 0.208164 0.000000
1.000000 0.202914 0.000000
1.000000 0.196750 0.000000
1.000000 0.189120 0.000000
0.000000 0.288365 0.107240
0.000000 0.285100 0.101442
0.000000 0.282902 0.092714
0.000000 0.283055 0.076234
0.000000 0.293248 0.039002
0.070283 0.315587 0.000000
0.258701 0.338933 0.000000
0.389197 0.346227 0.000000
0.464668 0.337163 0.000000
0.509697 0.334478 0.000000
0.549859 0.336950 0.000000
0.591882 0.340337 0.000000
0.636500 0.341741 0.000000
0.681636 0.340185 0.000000
0.724727 0.336065 0.000000
0.765866 0.329107 0.000000
0.805234 0.318364 0.000000
0.838682 0.313451 0.000000
0.866667 0.312749 0.000000
0.892485 0.307561 0.000000
0.915343 0.301915 0.000000
0.935760 0.296361 0.000000
0.954559 0.290867 0.000000
0.973083 0.285679 0.000000
0.991424 0.281163 0.000000
1.000000 0.276616 0.000000
1.000000 0.272251 0.000000
1.000000 0.267613 0.000000
1.000000 0.263035 0.000000
1.000000 0.258091 0.000000
1.000000 0.252659 0.000000
1.000000 0.246616 0.000000
1.000000 0.239506 0.000000
0.000000 0.339818 0.130831
0.000000 0.337163 0.125826
0.000000 0.335088 0.118715
0.000000 0.333562 0.105806
0.000000 0.337987 0.080385
0.000000 0.353216 0.027771
0.162234 0.377142 0.000000
0.330846 0.397772 0.000000
0.452766 0.402716 0.000000
0.524376 0.392920 0.000000
0.565789 0.387915 0.000000
0.600183 0.388586 0.000000
0.635157 0.391089 0.000000
0.672175 0.393194 0.000000
0.711269 0.393103 0.000000
0.749966 0.390539 0.000000
0.787106 0.385870 0.000000
0.822965 0.378302 0.000000
0.856626 0.367071 0.000000
0.885252 0.357885 0.000000
0.907958 0.354681 0.000000
0.929076 0.348058 0.000000
0.948486 0.341619 0.000000
0.967559 0.335760 0.000000
0.986389 0.330449 0.000000
1.000000 0.325261 0.000000
1.000000 0.320226 0.000000
1.000000 0.315251 0.000000
1.000000 0.310124 0.000000
1.000000 0.304753 0.000000
1.000000 0.299107 0.000000
1.000000 0.292882 0.000000
1.000000 0.309941 0.000000
0.000000 0.387640 0.157015
0.000000 0.385382 0.152590
0.000000 0.383307 0.146700
0.000000 0.381506 0.136599
0.000000 0.382177 0.118776
0.000000 0.390936 0.084993
0.000000 0.409461 0.019715
0.244694 0.432898 0.000000
0.398474 0.450538 0.000000
0.509941 0.453773 0.000000
0.576501 0.443977 0.000000
0.614618 0.437415 0.000000
0.644312 0.436286 0.000000
0.673548 0.437629 0.000000
0.704707 0.439368 0.000000
0.737819 0.440101 0.000000
0.772335 0.438758 0.000000
0.805936 0.435615 0.000000
0.837430 0.429847 0.000000
0.866972 0.421302 0.000000
0.894987 0.409522 0.000000
0.921599 0.394324 0.000000
0.941375 0.388739 0.000000
0.961151 0.382238 0.000000
0.980560 0.376318 0.000000
0.999695 0.370703 0.000000
1.000000 0.365393 0.000000
1.000000 0.360082 0.000000
1.000000 0.354620 0.000000
1.000000 0.348943 0.000000
1.000000 0.353307 0.000000
1.000000 0.369909 0.000000
1.000000 0.389685 0.000000
0.000000 0.431159 0.184268
0.000000 0.429175 0.180423
0.000000 0.427344 0.175479
0.000000 0.425391 0.167361
0.000000 0.424323 0.154177
0.000000 0.428138 0.131228
0.000000 0.440467 0.092592
0.142550 0.460426 0.022431
0.320470 0.482155 0.000000
0.459754 0.496742 0.000000
0.560693 0.498909 0.000000
0.621759 0.489509 0.000000
0.657069 0.482094 0.000000
0.683284 0.479377 0.000000
0.708125 0.479591 0.000000
0.734371 0.480659 0.000000
0.762722 0.481453 0.000000
0.792477 0.480964 0.000000
0.821927 0.478279 0.000000
0.849607 0.473610 0.000000
0.875486 0.467109 0.000000
0.899962 0.458595 0.000000
0.924163 0.448219 0.000000
0.948760 0.436011 0.000000
0.969909 0.428229 0.000000
0.990204 0.421637 0.000000
1.000000 0.416968 0.000000
1.000000 0.414618 0.000000
1.000000 0.415625 0.000000
1.000000 0.420722 0.000000
1.000000 0.428809 0.000000
1.000000 0.438605 0.000000
1.000000 0.449592 0.000000
0.000000 0.470314 0.211551
0.000000 0.468513 0.208347
0.000000 0.466865 0.204257
0.000000 0.464912 0.197818
0.000000 0.463264 0.187320
0.000000 0.463935 0.171023
0.000000 0.470832 0.144717
0.000000 0.485359 0.104280
0.236210 0.505425 0.039277
0.389532 0.524804 0.000000
0.514733 0.536980 0.000000
0.605188 0.538537 0.000000
0.661494 0.529808 0.000000
0.694362 0.521935 0.000000
0.718044 0.518181 0.000000
0.739498 0.517266 0.000000
0.761807 0.517632 0.000000
0.785580 0.517937 0.000000
0.810300 0.517235 0.000000
0.835630 0.514916 0.000000
0.859953 0.511040 0.000000
0.882933 0.505974 0.000000
0.905760 0.500206 0.000000
0.928801 0.493782 0.000000
0.952178 0.486122 0.000000
0.973205 0.481270 0.000000
0.992737 0.478645 0.000000
1.000000 0.477577 0.000000
1.000000 0.478340 0.000000
1.000000 0.481025 0.000000
1.000000 0.485603 0.000000
1.000000 0.491737 0.000000
1.000000 0.499153 0.000000
0.000000 0.505180 0.238041
0.000000 0.503655 0.235233
0.000000 0.502159 0.232059
0.000000 0.500267 0.226627
0.000000 0.498512 0.218479
0.000000 0.497536 0.206119
0.000000 0.500450 0.187381
0.000000 0.509850 0.159609
0.148745 0.525628 0.120638
0.314763 0.544701 0.068147
0.451331 0.561822 0.000885
0.562707 0.572381 0.000000
0.644373 0.573785 0.000000
0.696681 0.565728 0.000000
0.727535 0.557824 0.000000
0.749050 0.553185 0.000000
0.767544 0.551110 0.000000
0.786069 0.550256 0.000000
0.805600 0.549737 0.000000
0.826169 0.548669 0.000000
0.847501 0.546685 0.000000
0.869108 0.543694 0.000000
0.890990 0.540368 0.000000
0.913115 0.536828 0.000000
0.935424 0.532952 0.000000
0.957916 0.528527 0.000000
0.978698 0.525811 0.000000
0.997742 0.525597 0.000000
1.000000 0.526390 0.000000
1.000000 0.528435 0.000000
1.000000 0.531792 0.000000
1.000000 0.536370 0.000000
1.000000 0.541894 0.000000
0.000000 0.536217 0.263218
0.000000 0.534905 0.260990
0.000000 0.533471 0.258091
0.000000 0.531762 0.253758
0.000000 0.529931 0.247135
0.000000 0.528435 0.237430
0.000000 0.528771 0.223453
0.000000 0.533989 0.203159
0.040284 0.545098 0.175387
0.244419 0.561212 0.140047
0.383520 0.579126 0.100313
0.505638 0.594537 0.059113
0.605219 0.603998 0.001160
0.679316 0.605280 0.000000
0.727687 0.597894 0.000000
0.756283 0.589593 0.000000
0.775631 0.583948 0.000000
0.791440 0.580682 0.000000
0.806821 0.578912 0.000000
0.822965 0.577630 0.000000
0.840146 0.576318 0.000000
0.858793 0.574884 0.000000
0.879026 0.573358 0.000000
0.900267 0.571679 0.000000
0.921721 0.569909 0.000000
0.943481 0.567864 0.000000
0.965393 0.565606 0.000000
0.985779 0.564752 0.000000
1.000000 0.566094 0.000000
1.000000 0.568231 0.000000
1.000000 0.571191 0.000000
1.000000 0.575097 0.002472
1.000000 0.579736 0.095979
0.000000 0.563897 0.286931
0.000000 0.562707 0.285008
0.000000 0.561395 0.282658
0.000000 0.559808 0.278965
0.000000 0.558007 0.273503
0.000000 0.556359 0.265721
0.000000 0.555383 0.254795
0.000000 0.557488 0.239567
0.000000 0.564569 0.218631
0.182528 0.576867 0.192050
0.320592 0.592889 0.161593
0.444007 0.609613 0.131960
0.553216 0.623682 0.106203
0.643000 0.632288 0.073915
0.709743 0.633021 0.000000
0.753872 0.625544 0.000000
0.780240 0.616938 0.000000
0.797818 0.610651 0.000000
0.811673 0.606653 0.000000
0.824704 0.604150 0.000000
0.838529 0.602502 0.000000
0.853880 0.601648 0.000061
0.871214 0.601190 0.014343
0.890257 0.600916 0.014343
0.910613 0.600641 0.000122
0.931609 0.600214 0.000000
0.952789 0.599725 0.000000
0.974243 0.598993 0.000000
0.994079 0.599817 0.000000
1.000000 0.602319 0.000000
1.000000 0.605371 0.051057
1.000000 0.609064 0.116304
1.000000 0.613367 0.163455
0.000000 0.588678 0.309453
0.000000 0.587640 0.307774
0.000000 0.586542 0.305730
0.000000 0.585016 0.302586
0.000000 0.583307 0.298009
0.000000 0.581537 0.291539
0.000000 0.580194 0.282719
0.000000 0.580194 0.270634
0.000000 0.584100 0.254582
0.131350 0.592676 0.234134
0.267643 0.605676 0.209720
0.385962 0.621332 0.184115
0.496895 0.637049 0.162387
0.595514 0.649928 0.145663
0.675563 0.656977 0.125185
0.735439 0.656764 0.078126
0.775814 0.649348 0.000000
0.800504 0.640803 0.000000
0.816861 0.634302 0.000000
0.829557 0.629999 0.000000
0.841459 0.627405 0.024231
0.854246 0.626184 0.063111
0.868650 0.625879 0.085023
0.884794 0.626215 0.097444
0.902708 0.626947 0.102632
0.922148 0.627771 0.101198
0.942535 0.628534 0.090852
0.963287 0.629206 0.068574
0.984375 0.629725 0.023163
1.000000 0.631983 0.071687
1.000000 0.635431 0.128267
1.000000 0.639277 0.171450
1.000000 0.643549 0.209079
0.000000 0.611261 0.330907
0.000000 0.610315 0.329381
0.000000 0.609308 0.327550
0.000000 0.607904 0.324895
0.000000 0.606256 0.320989
0.000000 0.604547 0.315404
0.000000 0.602991 0.308049
0.000000 0.601984 0.298192
0.000000 0.603418 0.285405
0.096681 0.608881 0.269291
0.227848 0.618616 0.249760
0.337041 0.631952 0.228061
0.443336 0.647181 0.207309
0.543572 0.661799 0.191745
0.631678 0.672724 0.181521
0.703273 0.678218 0.167086
0.757351 0.677455 0.134951
0.795224 0.670832 0.086549
0.819028 0.662898 0.047303
0.834836 0.656550 0.043885
0.847105 0.652399 0.069368
0.858518 0.650080 0.097261
0.870695 0.649195 0.119203
0.884154 0.649409 0.135561
0.899351 0.650355 0.147005
0.916320 0.651820 0.153719
0.934844 0.653498 0.156191
0.954620 0.655238 0.153964
0.974975 0.656916 0.145418
0.995789 0.658412 0.129580
1.000000 0.662043 0.169223
1.000000 0.666285 0.208499
1.000000 0.670771 0.243565
0.000000 0.631861 0.351446
0.000000 0.631006 0.350103
0.000000 0.630060 0.348486
0.000000 0.628809 0.346044
0.000000 0.627253 0.342596
0.000000 0.625574 0.337896
0.000000 0.623987 0.331609
0.000000 0.622644 0.323369
0.000000 0.622492 0.312749
0.083375 0.625422 0.299596
0.201663 0.632166 0.283635
0.299718 0.642695 0.265446
0.397040 0.656153 0.246708
0.493446 0.670466 0.230747
0.583856 0.683223 0.221073
0.662806 0.692348 0.215061
0.727413 0.696895 0.203983
0.777798 0.696773 0.177920
0.813901 0.691188 0.142611
0.837095 0.684047 0.117983
0.852750 0.678248 0.113619
0.864897 0.674403 0.125277
0.876005 0.672358 0.143496
0.887633 0.671748 0.160555
0.900511 0.672328 0.174533
0.914946 0.673762 0.185550
0.930968 0.675807 0.193118
0.948730 0.678157 0.197543
0.967712 0.680781 0.199191
0.987884 0.683162 0.195377
1.000000 0.685786 0.193576
1.000000 0.690486 0.234104
1.000000 0.695308 0.269352
0.000000 0.651087 0.371466
0.000000 0.650263 0.370184
0.000000 0.649439 0.368750
0.000000 0.648280 0.366613
0.000000 0.646845 0.363531
0.000000 0.645228 0.359380
0.000000 0.643610 0.353948
0.000000 0.642115 0.346899
0.000000 0.641169 0.337896
0.093568 0.642206 0.326726
0.189822 0.646448 0.313512
0.274754 0.654261 0.298253
0.360998 0.665248 0.281804
0.449561 0.678065 0.266636
0.537194 0.690974 0.255650
0.618830 0.702083 0.250004
0.690272 0.710170 0.246342
0.750332 0.715145 0.236545
0.798001 0.715846 0.213962
0.832700 0.711269 0.184848
0.855344 0.704952 0.164736
0.870878 0.699611 0.159640
0.882933 0.696071 0.166659
0.893858 0.694270 0.180758
0.905089 0.693935 0.195010
0.917418 0.694820 0.207980
0.931273 0.696590 0.218601
0.946654 0.699092 0.226780
0.963653 0.702022 0.232364
0.982177 0.705226 0.235416
1.000000 0.708431 0.234836
1.000000 0.712398 0.249607
1.000000 0.717617 0.287602
0.000000 0.669520 0.391363
0.000000 0.668818 0.390204
0.000000 0.668086 0.388891
0.000000 0.667018 0.386938
0.000000 0.665736 0.384192
0.000000 0.664271 0.380468
0.000000 0.662654 0.375647
0.000000 0.661158 0.369451
0.013794 0.659937 0.361639
0.117952 0.659602 0.351995
0.190341 0.661799 0.340734
0.261234 0.667048 0.327764
0.335332 0.675349 0.313756
0.414374 0.686122 0.299657
0.495705 0.698054 0.288060
0.575738 0.709682 0.280949
0.650202 0.719722 0.278264
0.716579 0.728054 0.275395
0.772824 0.733608 0.266300
0.818143 0.734951 0.246006
0.851469 0.731289 0.220615
0.873686 0.725643 0.202823
0.889128 0.720760 0.197452
0.901213 0.717525 0.201785
0.911986 0.715938 0.213199
0.922972 0.715846 0.225803
0.934936 0.716976 0.237705
0.948272 0.719081 0.248142
0.963256 0.721920 0.256596
0.979736 0.725368 0.263035
0.997833 0.729091 0.266972
1.000000 0.732906 0.268193
1.000000 0.738003 0.298253
0.000000 0.686976 0.411536
0.000000 0.686336 0.410437
0.000000 0.685664 0.409216
0.000000 0.684749 0.407416
0.000000 0.683558 0.404883
0.000000 0.682185 0.401587
0.000000 0.680690 0.397284
0.000000 0.679225 0.391730
0.090028 0.677913 0.384894
0.147829 0.676997 0.376471
0.200809 0.677546 0.366461
0.257481 0.680690 0.355200
0.319768 0.686580 0.343053
0.388098 0.695033 0.330480
0.461494 0.705379 0.319066
0.536675 0.716426 0.310704
0.610529 0.727291 0.306645
0.679744 0.737575 0.305333
0.741878 0.746273 0.302892
0.795132 0.752224 0.293858
0.838193 0.754147 0.275090
0.870390 0.751156 0.252323
0.892241 0.746120 0.236027
0.907652 0.741695 0.230167
0.919677 0.738705 0.233127
0.930419 0.737331 0.242374
0.941253 0.737423 0.253758
0.952972 0.738766 0.264927
0.966033 0.741176 0.275181
0.980652 0.744381 0.283848
0.996918 0.748226 0.290623
1.000000 0.752407 0.295293
1.000000 0.756771 0.300114
0.000000 0.703609 0.431952
0.000000 0.703029 0.430884
0.000000 0.702449 0.429786
0.000000 0.701595 0.428199
0.000000 0.700526 0.425910
0.000000 0.699306 0.422858
0.030915 0.697902 0.418921
0.095155 0.696468 0.414038
0.140169 0.695125 0.407935
0.179751 0.693996 0.400488
0.217990 0.693538 0.391577
0.262181 0.694972 0.381598
0.313207 0.698817 0.370825
0.371069 0.705074 0.359594
0.435096 0.713497 0.348852
0.503563 0.723354 0.339971
0.573907 0.734188 0.334173
0.643000 0.745296 0.331853
0.708034 0.755856 0.331395
0.766629 0.764828 0.328893
0.817136 0.771084 0.319921
0.858335 0.773404 0.302190
0.889403 0.771023 0.281254
0.910948 0.766537 0.265873
0.926299 0.762448 0.259739
0.938384 0.759701 0.261631
0.949157 0.758541 0.269261
0.959960 0.758846 0.279576
0.971618 0.760403 0.290135
0.984558 0.763058 0.300145
0.999054 0.766598 0.308904
1.000000 0.770748 0.315801
1.000000 0.775265 0.320592
0.000000 0.719661 0.452735
0.000000 0.719203 0.451850
0.000000 0.718624 0.450874
0.005829 0.717861 0.449348
0.049958 0.716884 0.447303
0.088624 0.715724 0.444495
0.121767 0.714412 0.440955
0.152529 0.713008 0.436622
0.181704 0.711727 0.431189
0.210849 0.710506 0.424537
0.240574 0.709651 0.416602
0.273991 0.709773 0.407477
0.314214 0.711879 0.397711
0.362219 0.716243 0.387579
0.416907 0.722774 0.377539
0.477607 0.731319 0.368566
0.542443 0.741421 0.361547
0.608759 0.752499 0.357733
0.673884 0.763790 0.356725
0.735256 0.774563 0.356634
0.790829 0.783719 0.353918
0.838926 0.790158 0.344671
0.878447 0.792752 0.327642
0.908598 0.790860 0.307836
0.929778 0.786801 0.293217
0.945129 0.783017 0.286778
0.957366 0.780514 0.287724
0.968292 0.779538 0.294102
0.979187 0.780056 0.303563
0.990875 0.781827 0.313573
1.000000 0.784756 0.323278
1.000000 0.788540 0.331792
1.000000 0.792874 0.338720
0.080964 0.736416 0.473945
0.092195 0.735958 0.473091
0.104067 0.735439 0.472145
0.118807 0.734676 0.470832
0.135866 0.733730 0.468910
0.154788 0.732631 0.466468
0.174929 0.731319 0.463325
0.196078 0.729915 0.459327
0.218082 0.728481 0.454505
0.240879 0.727169 0.448646
0.264652 0.726070 0.441627
0.290745 0.725429 0.433326
0.322057 0.726192 0.424292
0.360754 0.728878 0.414954
0.406531 0.733822 0.405554
0.459113 0.740871 0.396674
0.517144 0.749813 0.389166
0.578759 0.760159 0.383978
0.641718 0.771450 0.381567
0.703517 0.782895 0.381353
0.761746 0.793759 0.381140
0.814633 0.802976 0.377783
0.860563 0.809506 0.368200
0.898558 0.812284 0.351537
0.928008 0.810727 0.332525
0.948913 0.807004 0.318395
0.964294 0.803525 0.311772
0.976715 0.801236 0.311986
0.987884 0.800443 0.317205
0.998932 0.801144 0.325841
1.000000 0.803128 0.335302
1.000000 0.806210 0.344549
1.000000 0.810117 0.352728
0.154330 0.754238 0.495460
0.160494 0.753780 0.494728
0.167086 0.753292 0.493874
0.176272 0.752590 0.492683
0.187442 0.751675 0.491005
0.200778 0.750576 0.488746
0.215854 0.749325 0.485908
0.232303 0.747921 0.482368
0.249760 0.746426 0.478096
0.268528 0.745022 0.472877
0.288518 0.743709 0.466590
0.310094 0.742672 0.459266
0.334539 0.742336 0.450843
0.365332 0.743679 0.442054
0.403113 0.747036 0.433143
0.447669 0.752468 0.424537
0.498573 0.759945 0.416876
0.554284 0.769131 0.410681
0.613306 0.779690 0.406897
0.673335 0.791073 0.405493
0.732082 0.802609 0.405463
0.787564 0.813443 0.404852
0.837980 0.822629 0.400732
0.882109 0.829160 0.390509
0.918822 0.832029 0.373938
0.947601 0.830686 0.355474
0.968414 0.827237 0.341466
0.983825 0.823911 0.334600
0.996399 0.821836 0.334264
1.000000 0.821164 0.338598
1.000000 0.822019 0.346380
1.000000 0.824155 0.355138
1.000000 0.827329 0.363684
0.202884 0.773434 0.517693
0.207462 0.772976 0.517082
0.212589 0.772488 0.516258
0.219120 0.771847 0.515129
0.227787 0.770993 0.513603
0.238285 0.769924 0.511589
0.250431 0.768673 0.509056
0.263828 0.767269 0.505882
0.278599 0.765774 0.501976
0.294499 0.764279 0.497353
0.311681 0.762844 0.491829
0.330236 0.761563 0.485328
0.350500 0.760616 0.477760
0.374884 0.760708 0.469490
0.405524 0.762570 0.461006
0.442817 0.766415 0.452705
0.486671 0.772305 0.444923
0.536004 0.780026 0.438270
0.589837 0.789425 0.433326
0.646479 0.800107 0.430426
0.703792 0.811460 0.429480
0.759854 0.822934 0.429358
0.812772 0.833677 0.427832
0.861112 0.842741 0.422614
0.903685 0.849180 0.411597
0.939361 0.851987 0.394842
0.967376 0.850706 0.376715
0.988006 0.847349 0.362890
1.000000 0.844175 0.355657
1.000000 0.842191 0.354589
1.000000 0.841672 0.358221
1.000000 0.842649 0.364813
1.000000 0.844846 0.372534
0.241917 0.794156 0.541009
0.245670 0.793759 0.540337
0.249638 0.793301 0.539635
0.255161 0.792660 0.538598
0.262425 0.791836 0.537224
0.271000 0.790799 0.535363
0.281132 0.789609 0.533074
0.292515 0.788266 0.530205
0.305364 0.786770 0.526726
0.319432 0.785214 0.522576
0.334508 0.783688 0.517693
0.350896 0.782254 0.511864
0.368688 0.781033 0.505180
0.388678 0.780270 0.497505
0.413397 0.780789 0.489448
0.444129 0.783108 0.481392
0.481086 0.787320 0.473732
0.523949 0.793423 0.466743
