app/src/main/assets/filters/Hasselblad.cube
# Created from Hasselblad.plut
LUT_3D_SIZE 5
DOMAIN_MIN 0.0 0.0 0.0
DOMAIN_MAX 1.0 1.0 1.0
0.000000 0.000000 0.000000
0.215366 0.000000 0.000000
0.521202 0.000000 0.000000
0.826093 0.000000 0.000000
1.000000 0.000000 0.000000
0.000000 0.214038 0.000000
0.211444 0.208652 0.000000
0.519799 0.168536 0.000000
0.825299 0.000000 0.000000
1.000000 0.000000 0.000000
0.000000 0.518288 0.000000
0.182315 0.516365 0.000000
0.511101 0.504356 0.000000
0.820294 0.478889 0.000000
1.000000 0.450767 0.000000
0.000000 0.821576 0.000000
0.105211 0.820447 0.000000
0.492515 0.813687 0.000000
0.810025 0.799588 0.000000
1.000000 0.784680 0.000000
0.000000 1.000000 0.000000
0.000000 1.000000 0.000000
0.472572 1.000000 0.000000
0.799130 1.000000 0.000000
1.000000 0.999969 0.000000
0.000000 0.000000 0.211597
0.211246 0.000000 0.210056
0.519829 0.000000 0.199786
0.825376 0.000000 0.176913
1.000000 0.000000 0.153277
0.000000 0.213275 0.209018
0.207446 0.207858 0.207446
0.518364 0.166720 0.196750
0.824475 0.000000 0.173388
1.000000 0.000000 0.149462
0.000000 0.517998 0.190661
0.177615 0.515969 0.188586
0.509560 0.504051 0.177646
0.819471 0.478523 0.154299
1.000000 0.450156 0.123033
0.000000 0.821378 0.151904
0.095842 0.820218 0.149798
0.491096 0.813474 0.134737
0.809171 0.799283 0.095781
1.000000 0.784405 0.000000
0.000000 1.000000 0.086580
0.000000 1.000000 0.081483
0.471107 1.000000 0.037354
0.798367 1.000000 0.000000
1.000000 0.999969 0.000000
0.000000 0.000000 0.511604
0.184466 0.000000 0.511040
0.511574 0.000000 0.507836
0.820569 0.000000 0.500969
1.000000 0.000000 0.493782
0.000000 0.205737 0.510628
0.179278 0.198535 0.510170
0.510124 0.157748 0.506844
0.819730 0.000000 0.499977
1.000000 0.000000 0.492790
0.000000 0.515251 0.505180
0.147951 0.513298 0.504601
0.501320 0.501259 0.501259
0.814771 0.475471 0.494301
1.000000 0.447120 0.487114
0.000000 0.819821 0.493431
0.000000 0.818708 0.492836
0.482216 0.811933 0.489357
0.804395 0.797757 0.482307
1.000000 0.782757 0.474800
0.000000 1.000000 0.480995
0.000000 1.000000 0.480491
0.461646 1.000000 0.476875
0.793362 1.000000 0.469596
1.000000 0.999954 0.461738
0.000000 0.000000 0.810941
0.114565 0.000000 0.810605
0.494102 0.000000 0.808698
0.810819 0.000000 0.804852
1.000000 0.000000 0.800839
0.000000 0.187228 0.810376
0.104341 0.180331 0.810040
0.492546 0.135744 0.808133
0.809995 0.000000 0.804273
1.000000 0.000000 0.800275
0.000000 0.509834 0.807172
0.006012 0.507881 0.806851
0.483101 0.495750 0.805005
0.804898 0.469581 0.801053
1.000000 0.440467 0.797024
0.000000 0.816739 0.800656
0.000000 0.815610 0.800305
0.463340 0.808804 0.798367
0.794400 0.794476 0.794461
1.000000 0.779522 0.790387
0.000000 1.000000 0.793713
0.000000 1.000000 0.793408
0.441794 1.000000 0.791440
0.783200 0.999985 0.787472
0.999969 0.999954 0.783337
0.000000 0.000000 1.000000
0.000000 0.000000 1.000000
0.475242 0.000000 1.000000
0.800534 0.000000 1.000000
1.000000 0.000000 0.999985
0.000000 0.167300 1.000000
0.000000 0.160082 1.000000
0.473671 0.103441 1.000000
0.799695 0.000000 1.000000
1.000000 0.000000 0.999985
0.000000 0.504189 1.000000
0.000000 0.502220 1.000000
0.463890 0.489799 1.000000
0.794553 0.463111 0.999985
1.000000 0.433722 0.999969
0.000000 0.813458 0.999985
0.000000 0.812436 0.999985
0.442863 0.805585 0.999985
0.783871 0.791180 0.999969
0.999969 0.776120 0.999954
0.000000 1.000000 0.999969
0.000000 1.000000 0.999969
0.420127 1.000000 0.999969
0.772503 0.999985 0.999954
0.999710 0.999939 0.999939
