app/src/main/assets/filters/Hasselblad_portrait.cube
# Created from Hasselblad_portrait.plut
LUT_3D_SIZE 5
DOMAIN_MIN 0.0 0.0 0.0
DOMAIN_MAX 1.0 1.0 1.0
0.024567 0.019806 0.021027
0.288518 0.022599 0.036439
0.548425 0.067491 0.057267
0.840681 0.094255 0.070146
0.996490 0.156725 0.077165
0.139467 0.291508 0.051057
0.229969 0.258671 0.032883
0.564034 0.298116 0.087022
0.830961 0.287037 0.084977
0.999832 0.234470 0.086793
0.285924 0.551598 0.120836
0.311025 0.514580 0.060182
0.463462 0.503746 0.046616
0.802289 0.529366 0.079911
0.994705 0.509514 0.058106
0.253513 0.713710 0.174594
0.255589 0.714336 0.173739
0.581094 0.740734 0.051637
0.739773 0.754101 0.028367
0.970306 0.757046 0.089754
0.262150 0.714855 0.180117
0.272404 0.717205 0.177951
0.733089 0.878599 0.092393
0.819959 0.930907 0.117708
0.892821 0.951766 0.152163
0.073228 0.058473 0.279713
0.258656 0.066361 0.268528
0.535760 0.105959 0.284977
0.822354 0.065904 0.248875
0.969100 0.054139 0.250889
0.086122 0.259754 0.239750
0.239994 0.246784 0.246586
0.490547 0.243366 0.256809
0.759625 0.240513 0.253849
0.984863 0.230716 0.237552
0.284596 0.504189 0.195209
0.301320 0.490959 0.214923
0.484565 0.498421 0.244419
0.751934 0.504524 0.246601
0.999207 0.482567 0.255055
0.250858 0.713756 0.178607
0.253620 0.716060 0.182635
0.460472 0.715480 0.230732
0.732555 0.750469 0.233173
0.948943 0.736080 0.196429
0.261265 0.715099 0.181064
0.262165 0.715084 0.180194
0.372824 0.746014 0.163058
0.797086 0.917632 0.136614
0.926421 0.967254 0.223514
0.174044 0.114702 0.587228
0.237369 0.112444 0.568673
0.543145 0.120745 0.528145
0.787961 0.143053 0.508080
0.994034 0.145113 0.471015
0.058183 0.256626 0.487922
0.217212 0.241825 0.506477
0.520623 0.245518 0.482780
0.745815 0.245075 0.497047
0.993988 0.187945 0.447059
0.082017 0.495171 0.477882
0.235386 0.498573 0.486992
0.488670 0.498375 0.496590
0.760815 0.491295 0.511437
0.979644 0.477516 0.494163
0.165072 0.753552 0.599878
0.267994 0.759213 0.581186
0.520653 0.754528 0.480201
0.729549 0.748363 0.493980
0.994598 0.724147 0.495949
0.268360 0.718517 0.191073
0.273823 0.720455 0.194949
0.328634 0.732540 0.237034
0.763958 0.883757 0.390616
0.964340 0.979767 0.466087
0.388815 0.164477 0.814893
0.395865 0.163149 0.816617
0.474296 0.178836 0.831083
0.793103 0.176532 0.778103
0.923995 0.205295 0.746899
0.144549 0.242908 0.758907
0.233204 0.238041 0.756115
0.485740 0.237797 0.745113
0.826932 0.281788 0.736980
0.942855 0.261418 0.727932
0.153796 0.511086 0.754284
0.228458 0.504768 0.737743
0.491035 0.494347 0.747982
0.744244 0.493462 0.749645
0.959533 0.491966 0.735103
0.162081 0.749874 0.730388
0.252323 0.755673 0.741085
0.469688 0.749660 0.743526
0.739223 0.748959 0.748028
0.968978 0.735149 0.750042
0.236927 0.798581 0.660700
0.251591 0.801144 0.661280
0.322484 0.806821 0.659449
0.709590 0.856611 0.604334
0.968444 0.979919 0.725612
0.500008 0.203220 0.919020
0.507591 0.206058 0.924437
0.522560 0.211704 0.934630
0.571832 0.230396 0.947784
0.866087 0.239734 0.862608
0.445686 0.233494 0.912825
0.473793 0.229175 0.925353
0.521630 0.223301 0.946532
0.608515 0.255772 0.955856
0.889616 0.246281 0.865293
0.183383 0.460044 0.934463
0.245533 0.456428 0.929580
0.533379 0.451148 0.906783
0.775082 0.477058 0.929046
0.902190 0.460487 0.920089
0.111894 0.721508 0.976196
0.191409 0.706889 0.964279
0.521386 0.707424 0.937163
0.700771 0.719142 0.938735
0.941650 0.697459 0.904112
0.409705 0.876570 0.819547
0.440711 0.887495 0.833341
0.565896 0.926345 0.884169
0.733974 0.952743 0.940917
0.973526 0.980423 0.976272
