app/src/main/assets/filters/Hasselblad.cube
# Created from Hasselblad.plut
LUT_3D_SIZE 9
DOMAIN_MIN 0.0 0.0 0.0
DOMAIN_MAX 1.0 1.0 1.0
0.000000 0.000000 0.000000
0.088212 0.000000 0.000000
0.215366 0.000000 0.000000
0.364218 0.000000 0.000000
0.521202 0.000000 0.000000
0.678126 0.000000 0.000000
0.826093 0.000000 0.000000
0.953185 0.000000 0.000000
1.000000 0.000000 0.000000
0.000000 0.087617 0.000000
0.086412 0.085145 0.000000
0.214817 0.085145 0.000000
0.363912 0.078660 0.000000
0.521004 0.069047 0.000000
0.677958 0.046983 0.000000
0.825986 0.000000 0.000000
0.953079 0.000000 0.000000
1.000000 0.000000 0.000000
0.000000 0.214038 0.000000
0.086412 0.213291 0.000000
0.211444 0.208652 0.000000
0.361975 0.194629 0.000000
0.519799 0.168536 0.000000
0.677073 0.124346 0.000000
0.825299 0.000000 0.000000
0.952499 0.000000 0.000000
1.000000 0.000000 0.000000
0.000000 0.361883 0.000000
0.081651 0.361440 0.000000
0.201862 0.358831 0.000000
0.356786 0.352163 0.000000
0.516625 0.340307 0.000000
0.674876 0.321706 0.000000
0.823438 0.297108 0.000000
0.951019 0.268101 0.000000
1.000000 0.242969 0.000000
0.000000 0.518288 0.000000
0.074800 0.518013 0.000000
0.182315 0.516365 0.000000
0.348058 0.512093 0.000000
0.511101 0.504356 0.000000
0.670771 0.493202 0.000000
0.820294 0.478889 0.000000
0.948333 0.463355 0.000000
1.000000 0.450767 0.000000
0.000000 0.674495 0.000000
0.061295 0.674296 0.000000
0.154345 0.673106 0.000000
0.335225 0.669886 0.000000
0.502770 0.664485 0.000000
0.664912 0.656443 0.000000
0.815717 0.646235 0.000000
0.944472 0.635538 0.000000
1.000000 0.626917 0.000000
0.000000 0.821576 0.000000
0.040604 0.821424 0.000000
0.105211 0.820447 0.000000
0.317922 0.818021 0.000000
0.492515 0.813687 0.000000
0.657618 0.807431 0.000000
0.810025 0.799588 0.000000
0.939696 0.791302 0.000000
1.000000 0.784680 0.000000
0.000000 0.948058 0.000000
0.000000 0.947921 0.000000
0.000000 0.947097 0.000000
0.298558 0.945022 0.000000
0.481483 0.941390 0.000000
0.649897 0.936095 0.000000
0.803891 0.929580 0.000000
0.934661 0.922637 0.000000
1.000000 0.917220 0.000000
0.000000 1.000000 0.000000
0.000000 1.000000 0.000000
0.000000 1.000000 0.000000
0.282918 1.000000 0.000000
0.472572 1.000000 0.000000
0.643717 1.000000 0.000000
0.799130 1.000000 0.000000
0.930663 0.999985 0.000000
1.000000 0.999969 0.000000
0.000000 0.000000 0.086488
0.086336 0.000000 0.085786
0.214786 0.000000 0.085786
0.363928 0.000000 0.084077
0.521004 0.000000 0.081758
0.677974 0.000000 0.077653
0.826001 0.000000 0.072892
0.953094 0.000000 0.067079
1.000000 0.000000 0.062486
0.000000 0.087251 0.085313
0.084596 0.084779 0.084596
0.214252 0.084779 0.084596
0.363577 0.078065 0.082948
0.520806 0.068193 0.080751
0.677821 0.045594 0.076341
0.825864 0.000000 0.071504
0.953002 0.000000 0.065431
1.000000 0.000000 0.060807
0.000000 0.213931 0.085313
0.084596 0.213184 0.084596
0.210895 0.208545 0.084596
0.361639 0.194415 0.082948
0.519600 0.168276 0.080751
0.676936 0.123857 0.076341
0.825177 0.000000 0.071504
0.952422 0.000000 0.065431
1.000000 0.000000 0.060807
0.000000 0.361761 0.082368
0.080034 0.361349 0.081666
0.201221 0.358740 0.081666
0.356512 0.352041 0.079881
0.516442 0.340215 0.077363
0.674723 0.321599 0.072908
0.823346 0.296956 0.067674
0.950927 0.267948 0.061387
1.000000 0.242802 0.056123
0.000000 0.518242 0.078279
0.073014 0.517967 0.077455
0.181689 0.516304 0.077455
0.347738 0.512047 0.075563
0.510887 0.504311 0.073045
0.670634 0.493141 0.068147
0.820172 0.478843 0.062348
0.948241 0.463249 0.055222
1.000000 0.450675 0.049058
0.000000 0.674449 0.070756
0.059281 0.674235 0.069856
0.153750 0.673045 0.069856
0.334874 0.669856 0.067536
0.502586 0.664439 0.064469
0.664775 0.656397 0.059098
0.815610 0.646189 0.051850
0.944381 0.635492 0.043091
1.000000 0.626856 0.027146
0.000000 0.821546 0.061418
0.032578 0.821393 0.060441
0.103990 0.820417 0.060441
0.317571 0.817990 0.057862
0.492332 0.813657 0.053590
0.657450 0.807401 0.046647
0.809903 0.799557 0.032578
0.939605 0.791241 0.009934
1.000000 0.784634 0.000000
0.000000 0.948028 0.047669
0.000000 0.947890 0.046372
0.000000 0.947066 0.046372
0.298131 0.945006 0.043275
0.481285 0.941360 0.033249
0.649729 0.936065 0.013779
0.803799 0.929534 0.000000
0.934569 0.922591 0.000000
1.000000 0.917174 0.000000
0.000000 1.000000 0.028153
0.000000 1.000000 0.024643
0.000000 1.000000 0.024643
0.282475 1.000000 0.016373
0.472374 1.000000 0.004501
0.643580 1.000000 0.000000
0.799039 1.000000 0.000000
0.930556 0.999985 0.000000
1.000000 0.999969 0.000000
0.000000 0.000000 0.211597
0.086336 0.000000 0.211383
0.211246 0.000000 0.210056
0.361868 0.000000 0.206867
0.519829 0.000000 0.199786
0.677241 0.000000 0.189456
0.825376 0.000000 0.176913
0.952575 0.000000 0.163561
1.000000 0.000000 0.153277
0.000000 0.087251 0.211246
0.084596 0.084779 0.211032
0.210712 0.084779 0.209689
0.361532 0.078065 0.206424
0.519631 0.068193 0.199374
0.677089 0.045594 0.188983
0.825238 0.000000 0.176425
0.952483 0.000000 0.163073
1.000000 0.000000 0.152773
0.000000 0.213275 0.209018
0.084596 0.212528 0.208789
0.207446 0.207858 0.207446
0.359548 0.193545 0.203891
0.518364 0.166720 0.196750
0.676036 0.121416 0.186450
0.824475 0.000000 0.173388
0.951827 0.000000 0.160296
1.000000 0.000000 0.149462
0.000000 0.361379 0.203021
0.080034 0.360967 0.202731
0.197192 0.358190 0.200992
0.354803 0.351476 0.196719
0.515267 0.339651 0.189609
0.673777 0.321187 0.179248
0.822660 0.296345 0.166705
0.950301 0.267155 0.153384
1.000000 0.241627 0.140902
0.000000 0.517998 0.190661
0.073014 0.517708 0.190372
0.177615 0.515969 0.188586
0.345907 0.511650 0.184771
0.509560 0.504051 0.177646
0.669703 0.492866 0.167254
0.819471 0.478523 0.154299
0.947692 0.462730 0.138247
1.000000 0.450156 0.123033
0.000000 0.674128 0.173342
0.059281 0.673915 0.173053
0.149874 0.672633 0.171267
0.332555 0.669673 0.167483
0.501503 0.664057 0.159945
0.663844 0.656077 0.149813
0.814862 0.646006 0.132616
0.943816 0.635187 0.111681
1.000000 0.626505 0.090883
0.000000 0.821378 0.151904
0.032578 0.821225 0.151614
0.095842 0.820218 0.149798
0.315694 0.817792 0.144381
0.491096 0.813474 0.134737
0.656504 0.807172 0.119188
0.809171 0.799283 0.095781
0.939040 0.790982 0.060090
1.000000 0.784405 0.000000
0.000000 0.947829 0.120623
0.000000 0.947692 0.120134
0.000000 0.946838 0.117220
0.295827 0.944823 0.110399
0.480034 0.941176 0.096681
0.648722 0.935943 0.070863
0.803128 0.929320 0.005097
0.933944 0.922408 0.000000
1.000000 0.916915 0.000000
0.000000 1.000000 0.086580
0.000000 1.000000 0.085878
0.000000 1.000000 0.081483
0.279973 1.000000 0.071107
0.471107 1.000000 0.037354
0.642603 1.000000 0.000000
0.798367 1.000000 0.000000
0.929946 0.999985 0.000000
1.000000 0.999969 0.000000
0.000000 0.000000 0.357183
0.081910 0.000000 0.357061
0.202502 0.000000 0.356497
0.357198 0.000000 0.354528
0.516808 0.000000 0.351324
0.674952 0.000000 0.346639
0.823606 0.000000 0.340917
0.951064 0.000000 0.334188
1.000000 0.000000 0.328954
0.000000 0.085634 0.356970
0.080125 0.083253 0.356847
0.201801 0.083253 0.356283
0.356878 0.076402 0.354345
0.516609 0.066453 0.351110
0.674800 0.043091 0.346456
0.823484 0.000000 0.340673
0.950973 0.000000 0.333989
1.000000 0.000000 0.328740
0.000000 0.210666 0.355856
0.080125 0.209934 0.355734
0.197452 0.204700 0.354925
0.354940 0.190051 0.353002
0.515358 0.164050 0.349783
0.673899 0.115785 0.345113
0.822736 0.000000 0.339315
0.950362 0.000000 0.332753
1.000000 0.000000 0.327535
0.000000 0.359792 0.352575
0.074952 0.359350 0.352468
0.187030 0.356603 0.351904
0.350134 0.349920 0.349950
0.512276 0.337926 0.346761
0.671595 0.319448 0.342046
0.820951 0.294453 0.335943
0.948898 0.264958 0.329152
1.000000 0.239551 0.324163
0.000000 0.517006 0.347234
0.067323 0.516732 0.347112
0.167391 0.514961 0.346334
0.341253 0.510643 0.344564
0.506554 0.503044 0.341161
0.667506 0.491814 0.336233
0.817746 0.477455 0.329763
0.946227 0.461723 0.323232
1.000000 0.448997 0.318074
0.000000 0.673396 0.339223
0.051164 0.673198 0.339101
0.136233 0.672053 0.338247
0.327489 0.668956 0.336080
0.498375 0.663325 0.332555
0.661631 0.655329 0.327642
0.813123 0.645243 0.321218
0.942382 0.634409 0.314565
1.000000 0.625879 0.308934
0.000000 0.820813 0.328405
0.009857 0.820645 0.328267
0.069017 0.819684 0.327398
0.310201 0.817212 0.325521
0.487968 0.812879 0.321920
0.654292 0.806653 0.316823
0.807401 0.798825 0.310185
0.937545 0.790387 0.302693
1.000000 0.783841 0.296849
0.000000 0.947356 0.317174
0.000000 0.947219 0.317021
0.000000 0.946395 0.316289
0.289952 0.944350 0.314305
0.476616 0.940734 0.310445
0.646464 0.935454 0.304646
0.801358 0.928908 0.297551
0.932479 0.921920 0.290181
1.000000 0.916457 0.284443
0.000000 1.000000 0.307912
0.000000 1.000000 0.307759
0.000000 1.000000 0.306783
0.272999 1.000000 0.304387
0.467826 1.000000 0.300481
0.640330 1.000000 0.294713
0.796612 1.000000 0.287816
0.928496 0.999969 0.279927
1.000000 0.999954 0.273350
0.000000 0.000000 0.511604
0.075776 0.000000 0.511513
0.184466 0.000000 0.511040
0.348974 0.000000 0.509911
0.511574 0.000000 0.507836
0.671107 0.000000 0.504784
0.820569 0.000000 0.500969
0.948547 0.000000 0.497002
1.000000 0.000000 0.493782
0.000000 0.083833 0.511452
0.073701 0.081392 0.511391
0.183719 0.081392 0.510918
0.348669 0.074342 0.509773
0.511360 0.063828 0.507698
0.670970 0.034257 0.504646
0.820462 0.000000 0.500816
0.948455 0.000000 0.496849
1.000000 0.000000 0.493645
0.000000 0.205737 0.510628
0.073701 0.204746 0.510567
0.179278 0.198535 0.510170
0.346731 0.183917 0.508919
0.510124 0.157748 0.506844
0.670039 0.105898 0.503777
0.819730 0.000000 0.499977
0.947860 0.000000 0.495949
1.000000 0.000000 0.492790
0.000000 0.357244 0.508629
0.067765 0.356802 0.508568
0.168200 0.354040 0.508080
0.341634 0.347372 0.506935
0.506783 0.335088 0.504860
0.667811 0.316396 0.501808
0.817899 0.291188 0.497932
0.946365 0.261265 0.493904
1.000000 0.234974 0.490684
0.000000 0.515251 0.505180
0.059281 0.514977 0.505104
0.147951 0.513298 0.504601
0.332021 0.508980 0.503319
0.501320 0.501259 0.501259
0.663722 0.489982 0.498085
0.814771 0.475471 0.494301
0.943648 0.459800 0.490150
1.000000 0.447120 0.487114
0.000000 0.672221 0.499931
0.036759 0.672023 0.499855
0.107225 0.670756 0.499443
0.318242 0.667704 0.498131
0.492805 0.662150 0.495979
0.657755 0.654139 0.492805
0.810147 0.643900 0.489021
0.939803 0.633097 0.484886
1.000000 0.624475 0.481590
0.000000 0.819821 0.493431
0.000000 0.819669 0.493355
0.000000 0.818708 0.492836
0.299870 0.816266 0.491569
0.482216 0.811933 0.489357
0.650370 0.805631 0.486229
0.804395 0.797757 0.482307
0.934966 0.789471 0.478126
1.000000 0.782757 0.474800
0.000000 0.946532 0.486503
0.000000 0.946395 0.486412
0.000000 0.945586 0.485893
0.279469 0.943542 0.484703
0.470802 0.939910 0.482429
0.642405 0.934646 0.479164
0.798215 0.928069 0.475166
0.929870 0.921141 0.470863
1.000000 0.915602 0.467674
0.000000 1.000000 0.480995
0.000000 1.000000 0.480934
0.000000 1.000000 0.480491
0.261524 1.000000 0.479118
0.461646 1.000000 0.476875
0.636225 1.000000 0.473579
0.793362 1.000000 0.469596
0.925887 0.999969 0.465187
1.000000 0.999954 0.461738
0.000000 0.000000 0.665736
0.063127 0.000000 0.665675
0.158190 0.000000 0.665309
0.336706 0.000000 0.664408
0.503838 0.000000 0.662882
0.665599 0.000000 0.660685
0.816236 0.000000 0.657984
0.944961 0.000000 0.655055
1.000000 0.000000 0.652888
0.000000 0.080690 0.665644
0.060655 0.077943 0.665583
0.157458 0.077943 0.665217
0.336370 0.070710 0.664302
0.503639 0.059419 0.662776
0.665461 0.018875 0.660578
0.816114 0.000000 0.657877
0.944854 0.000000 0.654963
1.000000 0.000000 0.652796
0.000000 0.197574 0.665019
0.060655 0.196582 0.664958
0.152377 0.190753 0.664591
0.334188 0.175708 0.663798
0.502403 0.148653 0.662242
0.664530 0.087419 0.660044
0.815412 0.000000 0.657252
0.944198 0.000000 0.654429
1.000000 0.000000 0.652155
0.000000 0.353307 0.663584
0.052628 0.352880 0.663523
0.139239 0.350301 0.663157
0.328618 0.343603 0.662226
0.499031 0.330922 0.660716
0.662211 0.312154 0.658595
0.813596 0.286488 0.655802
0.942702 0.255848 0.652934
1.000000 0.227955 0.650675
0.000000 0.512825 0.660960
0.039521 0.512551 0.660899
0.110246 0.510780 0.660533
0.319249 0.506432 0.659709
0.493278 0.498741 0.658152
0.658045 0.487449 0.655940
0.810346 0.472908 0.653162
0.940017 0.456901 0.650263
1.000000 0.444266 0.647974
0.000000 0.670527 0.657206
0.000153 0.670314 0.657145
0.006928 0.669123 0.656779
0.304433 0.665934 0.655955
0.484825 0.660365 0.654414
0.652110 0.652232 0.652216
0.805707 0.642069 0.649363
0.936080 0.631220 0.646418
1.000000 0.622568 0.644175
0.000000 0.818479 0.652613
0.000000 0.818326 0.652552
0.000000 0.817319 0.652171
0.285344 0.814862 0.651255
0.474022 0.810498 0.649714
0.644602 0.804227 0.647440
0.799939 0.796246 0.644663
0.931212 0.787991 0.641703
1.000000 0.781308 0.639429
0.000000 0.945373 0.647623
0.000000 0.945235 0.647562
0.000000 0.944411 0.647181
0.262684 0.942351 0.646311
0.462272 0.938705 0.644755
0.636530 0.933455 0.642512
0.793713 0.926894 0.639719
0.926177 0.919860 0.636683
1.000000 0.914397 0.634333
0.000000 1.000000 0.643763
0.000000 1.000000 0.643702
0.000000 1.000000 0.643305
0.243977 1.000000 0.642374
0.452964 1.000000 0.640818
0.630350 1.000000 0.638605
0.788861 1.000000 0.635676
0.922148 0.999969 0.632731
0.999985 0.999954 0.630365
0.000000 0.000000 0.810941
0.045350 0.000000 0.810895
0.114565 0.000000 0.810605
0.320516 0.000000 0.809918
0.494102 0.000000 0.808698
0.658701 0.000000 0.806989
0.810819 0.000000 0.804852
0.940383 0.000000 0.802548
1.000000 0.000000 0.800839
0.000000 0.077012 0.810864
0.039597 0.074357 0.810819
0.113146 0.074357 0.810529
0.320165 0.066148 0.809842
0.493889 0.053773 0.808621
0.658534 0.002167 0.806912
0.810697 0.000000 0.804776
0.940291 0.000000 0.802487
1.000000 0.000000 0.800763
0.000000 0.187228 0.810376
0.039597 0.186297 0.810330
0.104341 0.180331 0.810040
0.318120 0.164889 0.809354
0.492546 0.135744 0.808133
0.657527 0.057420 0.806470
0.809995 0.000000 0.804273
0.939651 0.000000 0.802045
1.000000 0.000000 0.800275
0.000000 0.348760 0.809247
0.017121 0.348318 0.809201
0.081147 0.345678 0.808911
0.312322 0.338811 0.808225
0.489143 0.325780 0.807004
0.655238 0.306386 0.805280
0.808057 0.280491 0.803113
0.938125 0.249454 0.800839
1.000000 0.220386 0.799054
0.000000 0.509834 0.807172
0.000000 0.509575 0.807126
0.006012 0.507881 0.806851
0.301778 0.503456 0.806195
0.483101 0.495750 0.805005
0.651041 0.484276 0.803235
0.804898 0.469581 0.801053
0.935393 0.453468 0.798825
1.000000 0.440467 0.797024
0.000000 0.668223 0.804242
0.000000 0.668025 0.804211
0.000000 0.666911 0.803937
0.286427 0.663722 0.803189
0.474464 0.658091 0.801999
0.644984 0.650004 0.800305
0.800137 0.639811 0.798108
0.931472 0.628885 0.795834
1.000000 0.620188 0.794034
0.000000 0.816739 0.800656
0.000000 0.816587 0.800610
0.000000 0.815610 0.800305
0.264820 0.813169 0.799573
0.463340 0.808804 0.798367
0.637415 0.802441 0.796597
0.794400 0.794476 0.794461
0.926650 0.786145 0.792111
1.000000 0.779522 0.790387
0.000000 0.943938 0.796750
0.000000 0.943801 0.796704
0.000000 0.942992 0.796399
0.240589 0.940948 0.795743
0.451453 0.937285 0.794507
0.629206 0.932021 0.792737
0.788083 0.925429 0.790524
0.921508 0.918364 0.788251
0.999985 0.912902 0.786404
0.000000 1.000000 0.793713
0.000000 1.000000 0.793668
0.000000 1.000000 0.793408
0.219272 1.000000 0.792660
0.441794 1.000000 0.791440
0.622766 1.000000 0.789654
0.783200 0.999985 0.787472
0.917464 0.999969 0.785168
0.999969 0.999954 0.783337
0.000000 0.000000 0.935698
0.000000 0.000000 0.935668
0.000000 0.000000 0.935424
0.302358 0.000000 0.934859
0.483711 0.000000 0.933867
0.651301 0.000000 0.932433
0.805112 0.000000 0.930587
0.935531 0.000000 0.928710
1.000000 0.000000 0.927230
0.000000 0.072679 0.935653
0.000000 0.069535 0.935607
0.000000 0.069535 0.935378
0.301961 0.060899 0.934798
0.483467 0.046586 0.933806
0.651148 0.000000 0.932357
0.804990 0.000000 0.930526
0.935424 0.000000 0.928649
1.000000 0.000000 0.927153
0.000000 0.176333 0.935286
0.000000 0.175280 0.935241
0.000000 0.168902 0.934997
0.299336 0.154681 0.934417
0.481926 0.119066 0.933410
0.650172 0.000000 0.931945
0.804211 0.000000 0.930159
0.934844 0.000000 0.928237
1.000000 0.000000 0.926741
0.000000 0.343832 0.934279
0.000000 0.343374 0.934249
0.000000 0.340597 0.934005
0.293431 0.333196 0.933455
0.478523 0.320333 0.932448
0.647700 0.300481 0.930983
0.802289 0.273533 0.929183
0.933333 0.241001 0.927245
1.000000 0.212085 0.925780
0.000000 0.506615 0.932586
0.000000 0.506340 0.932555
0.000000 0.504616 0.932311
0.282536 0.500252 0.931716
0.472328 0.492393 0.930694
0.643549 0.480827 0.929244
0.799130 0.465934 0.927443
0.930602 0.449851 0.925521
1.000000 0.436683 0.924010
0.000000 0.665949 0.930083
0.000000 0.665751 0.930037
0.000000 0.664515 0.929824
0.265110 0.661326 0.929244
0.463371 0.655787 0.928237
0.637354 0.647639 0.926772
0.794354 0.637400 0.924956
0.926635 0.626398 0.923018
1.000000 0.617685 0.921508
0.000000 0.814923 0.927031
0.000000 0.814771 0.927001
0.000000 0.813794 0.926772
0.241947 0.811292 0.926207
0.452049 0.806973 0.925139
0.629709 0.800580 0.923659
0.788418 0.792752 0.921859
0.921736 0.784253 0.919936
0.999985 0.777615 0.918441
0.000000 0.942473 0.923781
0.000000 0.942336 0.923751
0.000000 0.941497 0.923537
0.214481 0.939422 0.922942
0.439704 0.935744 0.921904
0.621424 0.930388 0.920439
0.782162 0.923796 0.918624
0.916533 0.916838 0.916640
0.999969 0.911330 0.915190
0.000000 1.000000 0.921248
0.000000 1.000000 0.921218
0.000000 1.000000 0.921004
0.188251 1.000000 0.920409
0.429877 1.000000 0.919387
0.615015 1.000000 0.917906
0.777234 0.999985 0.916014
0.912428 0.999954 0.914107
0.999954 0.999939 0.912581
0.000000 0.000000 1.000000
0.000000 0.000000 1.000000
0.000000 0.000000 1.000000
0.287709 0.000000 1.000000
0.475242 0.000000 1.000000
0.645411 0.000000 1.000000
0.800534 0.000000 1.000000
0.931777 0.000000 0.999985
1.000000 0.000000 0.999985
0.000000 0.069108 1.000000
0.000000 0.065705 1.000000
0.000000 0.065705 1.000000
0.287312 0.056626 1.000000
0.475029 0.039185 1.000000
0.645258 0.000000 1.000000
0.800427 0.000000 1.000000
0.931670 0.000000 0.999985
1.000000 0.000000 0.999985
0.000000 0.167300 1.000000
0.000000 0.166293 1.000000
0.000000 0.160082 1.000000
0.284550 0.144533 1.000000
0.473671 0.103441 1.000000
0.644327 0.000000 1.000000
0.799695 0.000000 1.000000
0.931075 0.000000 0.999985
1.000000 0.000000 0.999985
0.000000 0.339849 1.000000
0.000000 0.339376 1.000000
0.000000 0.336553 1.000000
0.277790 0.329198 1.000000
0.470024 0.316274 1.000000
0.642008 0.295369 1.000000
0.797818 0.267842 0.999985
0.929564 0.234379 0.999985
1.000000 0.204822 0.999985
0.000000 0.504189 1.000000
0.000000 0.503914 1.000000
0.000000 0.502220 1.000000
0.265492 0.497765 1.000000
0.463890 0.489799 1.000000
0.637598 0.478218 1.000000
0.794553 0.463111 0.999985
0.926818 0.446937 0.999985
1.000000 0.433722 0.999969
0.000000 0.664149 1.000000
0.000000 0.663951 1.000000
0.000000 0.662654 1.000000
0.248127 0.659480 0.999985
0.454704 0.653895 0.999985
0.631403 0.645762 0.999985
0.789746 0.635508 0.999985
0.922835 0.624414 0.999969
0.999985 0.615778 0.999969
0.000000 0.813458 0.999985
0.000000 0.813306 0.999985
0.000000 0.812436 0.999985
0.221393 0.809918 0.999985
0.442863 0.805585 0.999985
0.623651 0.799115 0.999969
0.783871 0.791180 0.999969
0.917937 0.782773 0.999969
0.999969 0.776120 0.999954
0.000000 0.941207 0.999969
0.000000 0.941085 0.999969
0.000000 0.940307 0.999969
0.189532 0.938216 0.999969
0.430381 0.934569 0.999969
0.615381 0.929183 0.999969
0.777493 0.922621 0.999954
0.912657 0.915587 0.999954
0.999954 0.910094 0.999954
0.000000 1.000000 0.999969
0.000000 1.000000 0.999969
0.000000 1.000000 0.999969
0.160678 1.000000 0.999969
0.420127 1.000000 0.999969
0.608759 1.000000 0.999954
0.772503 0.999985 0.999954
0.908598 0.999954 0.999939
0.999710 0.999939 0.999939
