app/src/main/assets/filters/Hasselblad_portrait.cube
# Created from Hasselblad_portrait.plut
LUT_3D_SIZE 9
DOMAIN_MIN 0.0 0.0 0.0
DOMAIN_MAX 1.0 1.0 1.0
0.024567 0.019806 0.021027
0.135744 0.026963 0.025711
0.288518 0.022599 0.036439
0.423987 0.041062 0.048875
0.548425 0.067491 0.057267
0.701610 0.092042 0.067491
0.840681 0.094255 0.070146
0.955184 0.112047 0.070634
0.996490 0.156725 0.077165
0.069078 0.142290 0.060029
0.121965 0.132723 0.026841
0.252918 0.141360 0.051164
0.435782 0.143313 0.056519
0.575082 0.145861 0.061158
0.700832 0.146914 0.062119
0.827893 0.130312 0.072313
0.948196 0.147189 0.071275
0.997925 0.163165 0.077501
0.139467 0.291508 0.051057
0.141512 0.266178 0.032609
0.229969 0.258671 0.032883
0.375357 0.280476 0.075898
0.564034 0.298116 0.087022
0.711101 0.286763 0.082353
0.830961 0.287037 0.084977
0.953063 0.273152 0.086564
0.999832 0.234470 0.086793
0.212177 0.403113 0.065934
0.211673 0.400198 0.059861
0.249653 0.387610 0.042252
0.358495 0.386999 0.051423
0.485664 0.400992 0.087831
0.675334 0.411765 0.086473
0.825055 0.413916 0.093126
0.936538 0.408591 0.080629
0.998917 0.375341 0.097887
0.285924 0.551598 0.120836
0.295354 0.527306 0.098985
0.311025 0.514580 0.060182
0.369299 0.511070 0.038956
0.463462 0.503746 0.046616
0.610849 0.517189 0.083314
0.802289 0.529366 0.079911
0.939284 0.537469 0.081178
0.994705 0.509514 0.058106
0.244541 0.708156 0.168856
0.246769 0.707164 0.168292
0.258930 0.706065 0.172168
0.412604 0.613962 0.042435
0.491112 0.630732 0.023331
0.606180 0.631388 0.031540
0.716274 0.625376 0.058717
0.876967 0.641703 0.065064
0.968368 0.600687 0.081453
0.253513 0.713710 0.174594
0.254398 0.714061 0.174014
0.255589 0.714336 0.173739
0.265324 0.715129 0.176837
0.581094 0.740734 0.051637
0.611734 0.755917 0.023896
0.739773 0.754101 0.028367
0.907439 0.769894 0.103624
0.970306 0.757046 0.089754
0.260533 0.714702 0.178561
0.260609 0.714748 0.178531
0.260960 0.714855 0.178515
0.272114 0.717098 0.176410
0.649119 0.817716 0.080735
0.708019 0.849943 0.078813
0.748257 0.877501 0.057206
0.844800 0.886534 0.087327
0.920485 0.846921 0.137270
0.262150 0.714855 0.180117
0.262409 0.714839 0.179889
0.272404 0.717205 0.177951
0.410117 0.758877 0.154192
0.733089 0.878599 0.092393
0.772335 0.898619 0.091417
0.819959 0.930907 0.117708
0.850553 0.947234 0.125399
0.892821 0.951766 0.152163
0.023163 0.026001 0.134386
0.149248 0.047547 0.139559
0.287968 0.051164 0.141680
0.401602 0.048112 0.138460
0.555886 0.057328 0.130495
0.681727 0.048890 0.127962
0.757153 0.053727 0.125231
0.884627 0.021210 0.127962
0.986343 0.061875 0.147036
0.061036 0.134539 0.127611
0.122942 0.121965 0.120134
0.243259 0.121721 0.121950
0.390356 0.119982 0.119158
0.515816 0.118563 0.118898
0.626246 0.118257 0.119722
0.750240 0.097612 0.121920
0.877562 0.084810 0.125185
0.987991 0.102525 0.128130
0.128328 0.288701 0.146365
0.166522 0.259510 0.118669
0.238880 0.246494 0.119829
0.343420 0.245182 0.125963
0.538018 0.252903 0.116594
0.662867 0.248173 0.120638
0.786999 0.240955 0.127031
0.910246 0.234989 0.129213
0.998566 0.222797 0.103075
0.190768 0.376776 0.105715
0.191012 0.374594 0.109499
0.236439 0.373236 0.116335
0.349660 0.371069 0.121630
0.456870 0.369589 0.131731
0.625757 0.373205 0.112016
0.795209 0.384237 0.120729
0.917418 0.379522 0.123095
0.999359 0.357244 0.125032
0.275135 0.524285 0.144579
0.272404 0.517830 0.140032
0.281880 0.498405 0.119417
0.359319 0.498344 0.112932
0.483665 0.497673 0.114824
0.598764 0.500069 0.125154
0.773556 0.505119 0.105272
0.912337 0.510857 0.106737
0.995727 0.495827 0.070283
0.247333 0.706401 0.175692
0.248997 0.704021 0.174792
0.273793 0.698344 0.185397
0.400977 0.605158 0.080476
0.483528 0.624018 0.101839
0.609262 0.625376 0.105455
0.745251 0.624002 0.126085
0.885756 0.629465 0.100313
0.979339 0.607126 0.092363
0.250523 0.713634 0.173190
0.249577 0.713710 0.172168
0.250767 0.714473 0.170581
0.268040 0.716152 0.177264
0.550851 0.713848 0.070405
0.600839 0.747341 0.104417
0.733547 0.747814 0.095720
0.908309 0.758114 0.121462
0.966293 0.749020 0.096605
0.259937 0.714794 0.178622
0.259998 0.714839 0.178576
0.260563 0.714961 0.178347
0.264240 0.716274 0.180224
0.519493 0.777737 0.127581
0.684962 0.831815 0.084321
0.733654 0.864866 0.086656
0.847120 0.878889 0.127977
0.943313 0.849729 0.150179
0.262058 0.714885 0.180102
0.262104 0.714900 0.180102
0.262486 0.714931 0.179889
0.337255 0.736782 0.170092
0.646586 0.845441 0.108614
0.765133 0.894316 0.093645
0.810117 0.925170 0.118685
0.856229 0.953582 0.138979
0.900740 0.955154 0.164141
0.073228 0.058473 0.279713
0.126436 0.058518 0.293278
0.258656 0.066361 0.268528
0.399191 0.087709 0.286778
0.535760 0.105959 0.284977
0.675441 0.093233 0.257053
0.822354 0.065904 0.248875
0.926375 0.012100 0.256779
0.969100 0.054139 0.250889
0.056428 0.120455 0.256519
0.118608 0.121294 0.239918
0.256260 0.119173 0.234775
0.391241 0.117556 0.249119
0.510079 0.113481 0.254093
0.661784 0.110292 0.242084
0.794949 0.107240 0.238804
0.894987 0.105089 0.258808
0.973495 0.088441 0.241855
0.086122 0.259754 0.239750
0.112825 0.247333 0.248356
0.239994 0.246784 0.246586
0.365438 0.243183 0.257237
0.490547 0.243366 0.256809
0.626841 0.242390 0.251926
0.759625 0.240513 0.253849
0.889464 0.238193 0.254063
0.984863 0.230716 0.237552
0.083604 0.355123 0.224872
0.123415 0.368231 0.228275
0.240772 0.375479 0.236576
0.381613 0.373907 0.235050
0.493111 0.373434 0.241627
0.653300 0.375555 0.231235
0.773846 0.367926 0.251011
0.897230 0.363821 0.257679
0.986481 0.353048 0.243366
0.284596 0.504189 0.195209
0.286793 0.496941 0.197528
0.301320 0.490959 0.214923
0.364889 0.500038 0.232700
0.484565 0.498421 0.244419
0.602045 0.497459 0.247593
0.751934 0.504524 0.246601
0.917815 0.502724 0.244572
0.999207 0.482567 0.255055
0.297093 0.695140 0.218006
0.310674 0.688029 0.228992
0.326894 0.662058 0.238361
0.391440 0.610880 0.226474
0.484916 0.625055 0.231113
0.614038 0.624826 0.232517
0.714458 0.623941 0.258701
0.879088 0.630365 0.234028
0.975830 0.593301 0.212589
0.250858 0.713756 0.178607
0.250126 0.713985 0.178592
0.253620 0.716060 0.182635
0.321553 0.728130 0.209659
0.460472 0.715480 0.230732
0.605814 0.747417 0.228687
0.732555 0.750469 0.233173
0.896178 0.758328 0.243153
0.948943 0.736080 0.196429
0.258778 0.715084 0.179614
0.258839 0.715175 0.179553
0.259327 0.715435 0.179507
0.266621 0.717937 0.182437
0.274968 0.718853 0.185321
0.675441 0.821912 0.150225
0.737102 0.861341 0.225132
0.852934 0.873411 0.234791
0.993378 0.868528 0.237034
0.261265 0.715099 0.181064
0.261326 0.715129 0.181064
0.262165 0.715084 0.180194
0.267674 0.717571 0.183780
0.372824 0.746014 0.163058
0.746715 0.880613 0.110506
0.797086 0.917632 0.136614
0.857420 0.956329 0.177935
0.926421 0.967254 0.223514
0.127977 0.084459 0.450797
0.134798 0.082902 0.441672
0.257389 0.093477 0.432029
0.423301 0.099474 0.411368
0.502724 0.097887 0.392737
0.686229 0.121508 0.394903
0.798444 0.102419 0.379156
0.940185 0.078737 0.361212
1.000000 0.062364 0.353628
0.085176 0.131411 0.369162
0.114733 0.122621 0.368841
0.251072 0.123644 0.362066
0.417350 0.137057 0.363607
0.521355 0.123629 0.364645
0.646540 0.136873 0.380591
0.790646 0.106172 0.351278
0.925719 0.095521 0.353582
0.999268 0.075349 0.348440
0.106020 0.261830 0.388708
0.124239 0.248219 0.378820
0.249165 0.247211 0.365454
0.369085 0.248920 0.368292
0.530220 0.231891 0.390158
0.656733 0.229114 0.390387
0.779644 0.230655 0.387427
0.902251 0.232273 0.385351
0.995819 0.209628 0.381353
0.048432 0.375021 0.347372
0.130831 0.379782 0.370962
0.240208 0.374075 0.367285
0.362783 0.372244 0.372656
0.513527 0.370520 0.368994
0.623911 0.369436 0.377874
0.750866 0.369207 0.373907
0.891081 0.367910 0.380987
0.991180 0.352880 0.373526
0.103609 0.505013 0.408560
0.122499 0.497490 0.398291
0.246433 0.491341 0.373388
0.365072 0.501808 0.355322
0.487907 0.498009 0.367681
0.618051 0.498939 0.363958
0.751934 0.499458 0.360388
0.907668 0.492790 0.380514
0.986282 0.475502 0.366476
0.261830 0.678538 0.460792
0.314336 0.664088 0.415579
0.396933 0.631846 0.344030
0.423087 0.619699 0.342046
0.477195 0.626123 0.359716
0.606058 0.623133 0.371878
0.742473 0.627420 0.364675
0.867033 0.621759 0.371191
0.997955 0.609552 0.372229
0.317494 0.724361 0.241398
0.333013 0.726818 0.253407
0.367803 0.734417 0.281712
0.414694 0.745586 0.319966
0.477684 0.753689 0.358755
0.608865 0.748882 0.353491
0.736812 0.749676 0.360967
0.860700 0.749020 0.380392
0.962905 0.737179 0.348226
0.263859 0.717342 0.186725
0.264149 0.717449 0.186938
0.265431 0.717815 0.187808
0.284001 0.722972 0.203326
0.352743 0.735256 0.250797
0.614374 0.796612 0.336812
0.743221 0.844678 0.328099
0.855573 0.875990 0.363317
0.991165 0.868147 0.345876
0.266423 0.717937 0.186206
0.266499 0.717967 0.186221
0.266789 0.718059 0.186282
0.267613 0.718257 0.186572
0.270237 0.718517 0.186511
0.645594 0.839643 0.209216
0.781903 0.902159 0.242847
0.859144 0.950072 0.295399
0.957351 0.979583 0.341039
0.174044 0.114702 0.587228
0.176455 0.113161 0.582147
0.237369 0.112444 0.568673
0.383124 0.131945 0.554131
0.543145 0.120745 0.528145
0.662196 0.136660 0.516991
0.787961 0.143053 0.508080
0.918166 0.155062 0.499855
0.994034 0.145113 0.471015
0.135134 0.121645 0.502541
0.144564 0.118746 0.505364
0.233402 0.120790 0.507118
0.355901 0.126452 0.502098
0.504891 0.130938 0.487892
0.674861 0.147860 0.493111
0.787091 0.137499 0.479789
0.895537 0.153582 0.488228
0.997894 0.145235 0.465080
0.058183 0.256626 0.487922
0.102235 0.252049 0.487922
0.217212 0.241825 0.506477
0.388190 0.252018 0.478279
0.520623 0.245518 0.482780
0.656977 0.223957 0.512428
0.745815 0.245075 0.497047
0.852842 0.244007 0.502541
0.993988 0.187945 0.447059
0.121691 0.383673 0.492042
0.127840 0.377630 0.500221
0.231525 0.370779 0.501640
0.365713 0.372747 0.493919
0.491798 0.371557 0.500130
0.650431 0.361227 0.514397
0.780270 0.356573 0.517174
0.896620 0.355322 0.512093
0.996033 0.337453 0.504036
0.082017 0.495171 0.477882
0.138705 0.494408 0.491112
0.235386 0.498573 0.486992
0.358175 0.499611 0.490669
0.488670 0.498375 0.496590
0.633677 0.498604 0.485618
0.760815 0.491295 0.511437
0.865949 0.495308 0.502403
0.979644 0.477516 0.494163
0.077211 0.643351 0.523445
0.110628 0.642161 0.528389
0.198047 0.637568 0.531731
0.386877 0.626490 0.494270
0.496742 0.628016 0.472114
0.614023 0.624857 0.491600
0.751720 0.625193 0.485252
0.877379 0.624384 0.488396
0.995087 0.605615 0.497719
0.165072 0.753552 0.599878
0.185733 0.755932 0.597498
0.267994 0.759213 0.581186
0.458427 0.745388 0.488182
0.520653 0.754528 0.480201
0.610864 0.750256 0.479072
0.729549 0.748363 0.493980
0.878965 0.751659 0.497475
0.994598 0.724147 0.495949
0.324376 0.729107 0.246143
0.339818 0.731930 0.258396
0.366278 0.736385 0.282139
0.408576 0.746960 0.312840
0.448737 0.756298 0.344182
0.572671 0.796567 0.406806
0.746349 0.843091 0.456229
0.861418 0.874281 0.487434
0.987549 0.865904 0.486275
0.268360 0.718517 0.191073
0.271336 0.719615 0.194125
0.273823 0.720455 0.194949
0.283833 0.723491 0.203983
0.328634 0.732540 0.237034
0.460578 0.768933 0.313436
0.763958 0.883757 0.390616
0.893462 0.952712 0.438819
0.964340 0.979767 0.466087
0.257557 0.148699 0.707652
0.272770 0.145647 0.706447
0.311437 0.140032 0.708843
0.376577 0.142672 0.704402
0.477165 0.160128 0.686076
0.614939 0.138613 0.600000
0.784527 0.151415 0.636301
0.890394 0.175174 0.644831
0.961730 0.178622 0.597070
0.168902 0.144427 0.659709
0.177173 0.138659 0.648417
0.238315 0.131945 0.640986
0.361685 0.142321 0.643717
0.500313 0.177935 0.635950
0.606165 0.138445 0.599130
0.755489 0.148608 0.615686
0.895232 0.183368 0.623758
0.967071 0.173068 0.596963
0.087282 0.241596 0.603891
0.136812 0.243442 0.601663
0.265415 0.238697 0.609552
0.404410 0.241306 0.601328
0.525170 0.251652 0.600305
0.671504 0.227344 0.592767
0.750561 0.254551 0.615930
0.872831 0.256641 0.618708
0.972168 0.222416 0.580438
0.061143 0.381537 0.616220
0.090089 0.379614 0.611765
0.226841 0.378042 0.613855
0.407141 0.370001 0.609644
0.508736 0.375875 0.599863
0.617411 0.392081 0.617456
0.738964 0.380301 0.621042
0.853819 0.377035 0.621042
0.963134 0.364248 0.607050
0.097063 0.497047 0.585901
0.117891 0.495033 0.592737
0.269993 0.491722 0.627329
0.353491 0.496620 0.627161
0.487022 0.500145 0.619867
0.616632 0.499168 0.614160
0.738537 0.497765 0.623713
0.862196 0.499290 0.621164
0.965118 0.482322 0.600488
0.073304 0.624247 0.588067
0.153338 0.624765 0.594034
0.247852 0.625422 0.615000
0.340764 0.626917 0.615106
0.467247 0.625956 0.619211
0.613642 0.623453 0.622492
0.769390 0.624903 0.606943
0.865263 0.619165 0.636790
0.972564 0.607050 0.614603
0.084062 0.744167 0.637659
0.094926 0.743313 0.639994
0.197986 0.750729 0.638041
0.360906 0.755886 0.638941
0.498772 0.760067 0.629648
0.626047 0.752255 0.594980
0.729992 0.749798 0.622248
0.894255 0.753536 0.589990
0.978790 0.732631 0.616663
0.200885 0.779950 0.631540
0.211322 0.782223 0.631922
0.239063 0.785916 0.631189
0.286793 0.789487 0.626444
0.484642 0.793271 0.564279
0.626398 0.813947 0.543481
0.738277 0.855055 0.593149
0.858106 0.874937 0.612299
0.943664 0.859144 0.656733
0.326482 0.743099 0.328069
0.344488 0.745708 0.331701
0.368597 0.744778 0.316243
0.408133 0.750347 0.324285
0.439292 0.755123 0.340185
0.532662 0.786648 0.394354
0.729839 0.866590 0.487343
0.891203 0.951186 0.574289
0.964446 0.977707 0.593881
0.388815 0.164477 0.814893
0.389944 0.163836 0.814603
0.395865 0.163149 0.816617
0.416114 0.163668 0.823713
0.474296 0.178836 0.831083
0.608286 0.216159 0.805081
0.793103 0.176532 0.778103
0.899077 0.167071 0.763302
0.923995 0.205295 0.746899
0.318120 0.174304 0.776379
0.328328 0.172442 0.780194
0.343282 0.163104 0.778058
0.375326 0.153353 0.779202
0.473213 0.172107 0.782422
0.624552 0.222690 0.770367
0.785748 0.198291 0.757763
0.890654 0.178820 0.749538
0.928084 0.214710 0.742290
0.144549 0.242908 0.758907
0.145113 0.242893 0.758572
0.233204 0.238041 0.756115
0.362463 0.245090 0.766217
0.485740 0.237797 0.745113
0.640299 0.269886 0.738613
0.826932 0.281788 0.736980
0.889540 0.259510 0.716014
0.942855 0.261418 0.727932
0.042374 0.368307 0.752392
0.142107 0.367864 0.729732
0.292119 0.362142 0.724468
0.379355 0.362585 0.746151
0.521279 0.368795 0.730159
0.639200 0.382071 0.719265
0.748013 0.378317 0.733440
0.869490 0.380270 0.742931
0.957473 0.362524 0.727001
0.153796 0.511086 0.754284
0.163668 0.504997 0.743420
0.228458 0.504768 0.737743
0.374166 0.495216 0.753918
0.491035 0.494347 0.747982
0.633692 0.499229 0.730983
0.744244 0.493462 0.749645
0.863859 0.503166 0.747326
0.959533 0.491966 0.735103
0.236408 0.629633 0.748943
0.242542 0.627024 0.750072
0.254017 0.621683 0.749798
0.392660 0.615244 0.747173
0.477241 0.622812 0.750774
0.610895 0.626337 0.743587
0.741009 0.626627 0.743313
0.865858 0.627726 0.751324
0.970809 0.606348 0.728496
0.162081 0.749874 0.730388
0.181231 0.749828 0.733654
0.252323 0.755673 0.741085
0.349126 0.745434 0.716289
0.469688 0.749660 0.743526
0.596475 0.750729 0.745357
0.739223 0.748959 0.748028
0.902113 0.751186 0.726497
0.968978 0.735149 0.750042
0.214420 0.802548 0.697627
0.223941 0.805066 0.707301
0.270146 0.818647 0.723262
0.340932 0.837690 0.746319
0.468956 0.838239 0.731273
0.592798 0.839963 0.722728
0.748363 0.859113 0.711971
0.862440 0.875944 0.741070
0.978332 0.870451 0.698894
0.236927 0.798581 0.660700
0.238361 0.799008 0.661051
0.251591 0.801144 0.661280
0.275196 0.802823 0.658350
0.322484 0.806821 0.659449
0.563317 0.823545 0.608499
0.709590 0.856611 0.604334
0.864118 0.935760 0.688014
0.968444 0.979919 0.725612
0.463615 0.188342 0.889647
0.467048 0.188205 0.891585
0.475532 0.190341 0.898070
0.492271 0.194400 0.909773
0.508766 0.197665 0.919448
0.546914 0.210864 0.926360
0.661662 0.244312 0.915328
0.877333 0.207980 0.852720
0.931456 0.193454 0.822461
0.429129 0.185809 0.868879
0.433341 0.186297 0.871519
0.447486 0.186252 0.878782
0.470603 0.188281 0.894209
0.502419 0.193744 0.911604
0.562829 0.218997 0.919615
0.689097 0.255192 0.905241
0.880339 0.201144 0.851530
0.936004 0.194644 0.823178
0.328313 0.245274 0.851514
0.332311 0.244923 0.854185
0.349599 0.244816 0.862425
0.379980 0.240482 0.875761
0.486305 0.231754 0.873777
0.600687 0.243900 0.884733
0.739696 0.299565 0.874739
0.871336 0.250736 0.840497
0.946700 0.229450 0.819089
0.106844 0.346166 0.826749
0.118593 0.344930 0.823560
0.213916 0.352743 0.829084
0.376150 0.335424 0.843702
0.504463 0.358389 0.857069
0.630854 0.362432 0.847150
0.769848 0.386557 0.853330
0.854887 0.353445 0.815793
0.954833 0.361837 0.834394
0.184634 0.491127 0.862531
0.198291 0.484962 0.856352
0.276524 0.479423 0.848569
0.372122 0.467292 0.844633
0.538643 0.492012 0.859983
0.617868 0.509468 0.863157
0.763973 0.507240 0.843656
0.858366 0.514641 0.862593
0.958831 0.481987 0.838819
0.192477 0.627649 0.894484
0.207828 0.626001 0.891630
0.257908 0.621408 0.884215
0.380468 0.620096 0.871305
0.483085 0.604974 0.855100
0.606958 0.619303 0.853239
0.767407 0.628977 0.850095
0.873823 0.630381 0.855482
0.960830 0.613748 0.857847
0.235950 0.742840 0.867597
0.234653 0.743648 0.868879
0.246967 0.745510 0.873289
0.300191 0.735393 0.860716
0.559396 0.746151 0.873884
0.590784 0.749187 0.876112
0.737514 0.751904 0.870283
0.873518 0.747677 0.867781
0.965042 0.731670 0.859388
0.300298 0.823148 0.785061
0.304814 0.820493 0.786862
0.343023 0.824308 0.798367
0.402747 0.834272 0.810636
0.531044 0.869154 0.864027
0.627070 0.871183 0.877272
0.710933 0.878447 0.873381
0.867094 0.874876 0.872938
0.991821 0.867094 0.849119
0.316609 0.842008 0.760418
0.317510 0.842344 0.761044
0.340658 0.851560 0.774487
0.382284 0.866651 0.798169
0.452781 0.891218 0.833341
0.546227 0.917739 0.869429
0.667796 0.933883 0.887724
0.874250 0.950942 0.823621
0.967361 0.979446 0.854490
0.500008 0.203220 0.919020
0.502052 0.204288 0.920729
0.507591 0.206058 0.924437
0.516396 0.209232 0.930007
0.522560 0.211704 0.934630
0.536446 0.214649 0.938384
0.571832 0.230396 0.947784
0.675257 0.243336 0.931609
0.866087 0.239734 0.862608
0.493355 0.205707 0.919020
0.493568 0.205676 0.919219
0.499092 0.208072 0.923888
0.513420 0.209064 0.929931
0.522194 0.210895 0.935393
0.540749 0.216876 0.941909
0.581308 0.237095 0.951659
0.693629 0.249546 0.929076
0.877684 0.241917 0.860029
0.445686 0.233494 0.912825
0.451545 0.234058 0.916365
0.473793 0.229175 0.925353
0.500572 0.224857 0.936049
0.521630 0.223301 0.946532
0.563180 0.234897 0.958572
0.608515 0.255772 0.955856
0.747250 0.279835 0.920150
0.889616 0.246281 0.865293
0.356954 0.330465 0.921798
0.363622 0.332464 0.926055
0.384314 0.336263 0.937713
0.429267 0.341756 0.959762
0.487556 0.345037 0.981262
0.550301 0.339940 0.975769
0.738705 0.337087 0.928023
0.822293 0.377783 0.929915
0.901381 0.333394 0.889998
0.183383 0.460044 0.934463
0.190906 0.458320 0.933120
0.245533 0.456428 0.929580
0.390890 0.447745 0.911604
0.533379 0.451148 0.906783
0.608362 0.446784 0.915923
0.775082 0.477058 0.929046
0.861997 0.490227 0.948302
0.902190 0.460487 0.920089
0.246738 0.590112 0.958846
0.250004 0.591287 0.961883
0.281605 0.588663 0.963378
0.314870 0.577783 0.957259
0.449363 0.570306 0.932982
0.598978 0.582574 0.919646
0.720241 0.585412 0.932784
0.862776 0.601572 0.940017
0.928954 0.574334 0.900664
0.111894 0.721508 0.976196
0.114961 0.720912 0.976318
0.191409 0.706889 0.964279
0.381964 0.699794 0.946868
0.521386 0.707424 0.937163
0.615793 0.714473 0.931456
0.700771 0.719142 0.938735
0.842008 0.710292 0.928252
0.941650 0.697459 0.904112
0.320104 0.783413 0.890227
0.321935 0.784360 0.891234
0.332235 0.788891 0.896757
0.370199 0.800656 0.905226
0.524712 0.827176 0.938399
0.653162 0.851621 0.969390
0.684993 0.859922 0.985779
0.858915 0.857115 0.966674
0.942840 0.840223 0.945373
0.409705 0.876570 0.819547
0.413581 0.878187 0.821347
0.440711 0.887495 0.833341
0.487984 0.904128 0.851865
0.565896 0.926345 0.884169
0.640528 0.941772 0.914672
0.733974 0.952743 0.940917
0.855375 0.970214 0.976837
0.973526 0.980423 0.976272
