app/src/main/assets/filters/Hasselblad_portrait.cube
# Created from Hasselblad_portrait.plut
LUT_3D_SIZE 33
DOMAIN_MIN 0.0 0.0 0.0
DOMAIN_MAX 1.0 1.0 1.0
0.024567 0.019806 0.021027
0.042695 0.018860 0.019638
0.069993 0.019989 0.020752
0.101167 0.022171 0.022034
0.135744 0.026963 0.025711
0.167346 0.025803 0.026337
0.208804 0.020462 0.027283
0.249287 0.019089 0.031159
0.288518 0.022599 0.036439
0.324269 0.024506 0.039139
0.354757 0.029267 0.040513
0.386099 0.035294 0.044572
0.423987 0.041062 0.048875
0.457908 0.048310 0.050492
0.478065 0.048295 0.048783
0.505928 0.057862 0.050767
0.548425 0.067491 0.057267
0.590951 0.071077 0.062638
0.629679 0.079774 0.064591
0.665309 0.086702 0.065919
0.701610 0.092042 0.067491
0.736126 0.085679 0.069505
0.778973 0.088243 0.070298
0.811017 0.094972 0.070558
0.840681 0.094255 0.070146
0.874220 0.091157 0.070146
0.898314 0.098650 0.068956
0.930175 0.105562 0.068757
0.955184 0.112047 0.070634
0.976028 0.124117 0.072038
0.990143 0.136980 0.073991
0.994781 0.148653 0.075410
0.996490 0.156725 0.077165
0.026902 0.042206 0.020447
0.039353 0.039353 0.018097
0.067170 0.039322 0.019333
0.107424 0.042222 0.021408
0.145708 0.047532 0.022477
0.176638 0.044541 0.024353
0.208713 0.039292 0.025559
0.246769 0.039033 0.031556
0.284321 0.044648 0.036088
0.319539 0.046662 0.036866
0.352667 0.047242 0.037537
0.384054 0.050309 0.042466
0.424094 0.056580 0.047639
0.457603 0.060105 0.049058
0.483131 0.062547 0.048951
0.511604 0.070024 0.050019
0.549813 0.075227 0.056397
0.593957 0.082094 0.061219
0.633967 0.090059 0.063340
0.668421 0.095964 0.064576
0.704265 0.100603 0.066011
0.738689 0.095018 0.068833
0.778500 0.093446 0.070207
0.810376 0.099931 0.070298
0.836713 0.097749 0.070085
0.871183 0.096605 0.069932
0.896834 0.101717 0.068879
0.926162 0.110460 0.069062
0.952636 0.116121 0.069764
0.975875 0.125048 0.072007
0.990982 0.139086 0.073793
0.995407 0.150210 0.075547
0.996597 0.156893 0.077119
0.043610 0.074754 0.029068
0.042588 0.068528 0.019821
0.063355 0.069001 0.020706
0.093141 0.070085 0.023926
0.133654 0.071962 0.029206
0.169665 0.071077 0.027436
0.232074 0.075914 0.034546
0.258122 0.076753 0.038376
0.285939 0.076844 0.041688
0.325444 0.077241 0.045304
0.355718 0.075349 0.042924
0.385367 0.078065 0.045472
0.425956 0.082078 0.048920
0.461753 0.083162 0.050401
0.492988 0.084398 0.052079
0.522667 0.087053 0.052415
0.558404 0.093553 0.055863
0.599603 0.099687 0.060090
0.638560 0.104234 0.061418
0.671077 0.107927 0.063066
0.705364 0.111070 0.065202
0.735576 0.104448 0.068360
0.776761 0.101427 0.070405
0.807050 0.102327 0.071077
0.833310 0.104250 0.070573
0.867903 0.102983 0.070130
0.894636 0.107179 0.069337
0.924285 0.114733 0.068956
0.951614 0.119661 0.069825
0.974563 0.127565 0.071946
0.991974 0.141482 0.073869
0.996292 0.152667 0.075639
0.996735 0.157168 0.077073
0.058412 0.106798 0.040208
0.058900 0.102480 0.030457
0.066346 0.099672 0.025589
0.091463 0.099886 0.025925
0.120562 0.100542 0.027863
0.158251 0.105074 0.038102
0.200687 0.107424 0.041337
0.252537 0.109316 0.045731
0.299138 0.112551 0.047883
0.340703 0.113863 0.050660
0.367514 0.114870 0.050019
0.389853 0.113466 0.050340
0.427176 0.113695 0.051652
0.464973 0.118975 0.052262
0.501442 0.117342 0.054276
0.536324 0.114107 0.056245
0.569436 0.119875 0.057877
0.606836 0.126390 0.061753
0.644480 0.126116 0.061540
0.675898 0.126925 0.062593
0.705470 0.125734 0.063676
0.736385 0.123064 0.066987
0.770459 0.113085 0.070451
0.803326 0.109621 0.072404
0.830091 0.116365 0.070909
0.861433 0.115068 0.071046
0.891783 0.115999 0.070039
0.923461 0.125902 0.069474
0.950546 0.129351 0.069795
0.973388 0.133227 0.071489
0.993515 0.147173 0.074830
0.997009 0.154437 0.075578
0.997253 0.159380 0.077256
0.069078 0.142290 0.060029
0.074983 0.135897 0.043992
0.078981 0.132784 0.029480
0.090089 0.132479 0.025681
0.121965 0.132723 0.026841
0.148318 0.133074 0.032624
0.181460 0.136416 0.041825
0.213336 0.139239 0.048035
0.252918 0.141360 0.051164
0.314504 0.145830 0.058915
0.371450 0.143343 0.055283
0.406729 0.142016 0.056687
0.435782 0.143313 0.056519
0.468437 0.146899 0.055787
0.495018 0.150469 0.057008
0.534401 0.145052 0.059953
0.575082 0.145861 0.061158
0.606104 0.151034 0.061570
0.641245 0.150393 0.062547
0.671595 0.148028 0.062654
0.700832 0.146914 0.062119
0.728954 0.142885 0.064439
0.764630 0.137133 0.069780
0.801465 0.131991 0.073671
0.827893 0.130312 0.072313
0.857954 0.140780 0.073594
0.888243 0.143252 0.072282
0.919753 0.147570 0.072755
0.948196 0.147189 0.071275
0.973068 0.148226 0.072557
0.994873 0.156130 0.075700
0.997681 0.158694 0.075792
0.997925 0.163165 0.077501
0.100938 0.183276 0.067155
0.105409 0.175586 0.050660
0.108675 0.171984 0.038758
0.107408 0.165057 0.025437
0.123033 0.164096 0.023468
0.151141 0.163607 0.026703
0.173404 0.167041 0.037369
0.203174 0.166522 0.044114
0.242527 0.171038 0.054261
0.282734 0.178302 0.062684
0.324269 0.180285 0.063233
0.381384 0.181064 0.061616
0.437003 0.177325 0.065370
0.471046 0.180056 0.064454
0.500008 0.178195 0.063752
0.532479 0.182773 0.065492
0.578927 0.186954 0.066590
0.609003 0.185336 0.067185
0.638651 0.183948 0.066407
0.675837 0.186114 0.065995
0.703212 0.186709 0.064668
0.729076 0.186847 0.064179
0.762066 0.185901 0.071855
0.796124 0.175906 0.078630
0.828717 0.165072 0.079469
0.857877 0.170382 0.077684
0.889754 0.173587 0.075853
0.919066 0.173404 0.074296
0.945785 0.170626 0.074403
0.972213 0.167636 0.076478
0.994858 0.171176 0.077134
0.998306 0.169467 0.077317
0.998703 0.169924 0.077989
0.147997 0.248966 0.064240
0.136782 0.230594 0.051209
0.131395 0.219516 0.043366
0.130678 0.207843 0.035492
0.132738 0.196338 0.024475
0.153857 0.195300 0.022477
0.177295 0.194629 0.026871
0.202502 0.199695 0.036561
0.231342 0.202457 0.047959
0.270481 0.207691 0.057664
0.310796 0.208316 0.065721
0.352270 0.213825 0.068040
0.402930 0.221927 0.072450
0.452873 0.216587 0.074769
0.501152 0.216480 0.075425
0.535485 0.214755 0.073945
0.580545 0.219867 0.075914
0.611475 0.219684 0.073701
0.644755 0.223301 0.073457
0.679042 0.223377 0.073060
0.708629 0.220752 0.070893
0.739025 0.222004 0.069932
0.764004 0.226841 0.070222
0.797314 0.224887 0.078599
0.831739 0.219852 0.083787
0.862226 0.200839 0.085084
0.891844 0.196277 0.082765
0.919524 0.205219 0.079500
0.944442 0.203403 0.077501
0.971328 0.198260 0.079530
0.994537 0.200763 0.082826
0.998764 0.182162 0.079622
0.999100 0.178775 0.079286
0.139727 0.267384 0.057710
0.135988 0.259770 0.048569
0.134386 0.254719 0.045457
0.134356 0.244465 0.035462
0.136233 0.231739 0.025879
0.154635 0.227710 0.029206
0.182589 0.229633 0.035996
0.205509 0.227466 0.036088
0.229557 0.228473 0.036805
0.253727 0.232120 0.046448
0.296559 0.239689 0.059709
0.346899 0.247211 0.071000
0.397452 0.246921 0.070954
0.441947 0.257176 0.078752
0.481086 0.258305 0.080034
0.535363 0.252369 0.084138
0.573678 0.256046 0.084871
0.609552 0.252338 0.081498
0.641123 0.250340 0.079591
0.672450 0.250996 0.078294
0.711955 0.253285 0.078248
0.739834 0.254246 0.075029
0.767224 0.250935 0.075059
0.797086 0.256214 0.078584
0.827634 0.255909 0.083848
0.859876 0.251316 0.091157
0.896651 0.238071 0.093614
0.924392 0.235111 0.085313
0.947555 0.235370 0.080262
0.974578 0.234592 0.081773
0.994354 0.234806 0.085466
0.998840 0.219089 0.086473
0.999420 0.197330 0.082124
0.139467 0.291508 0.051057
0.138872 0.289067 0.050553
0.138033 0.284627 0.047211
0.137804 0.275395 0.040177
0.141512 0.266178 0.032609
0.156115 0.259281 0.024323
0.187610 0.262837 0.031495
0.215305 0.263905 0.036439
0.229969 0.258671 0.032883
0.256916 0.260609 0.039979
0.284947 0.264927 0.052842
0.325185 0.272831 0.064897
0.375357 0.280476 0.075898
0.434394 0.282261 0.077211
0.485557 0.287892 0.080018
0.524743 0.297230 0.083314
0.564034 0.298116 0.087022
0.598764 0.288838 0.089815
0.631006 0.288273 0.089494
0.670008 0.283940 0.086473
0.711101 0.286763 0.082353
0.743847 0.285832 0.082231
0.766888 0.284260 0.082536
0.802335 0.286152 0.083330
0.830961 0.287037 0.084977
0.856794 0.283986 0.090959
0.895369 0.288060 0.096284
0.931258 0.281483 0.092409
0.953063 0.273152 0.086564
0.978607 0.268681 0.082795
0.993637 0.265461 0.084749
0.998123 0.253773 0.086488
0.999832 0.234470 0.086793
0.151354 0.316976 0.052659
0.149950 0.314076 0.051179
0.148455 0.309758 0.048280
0.148836 0.306645 0.043442
0.149416 0.301488 0.037278
0.161913 0.296422 0.031662
0.190249 0.295125 0.033265
0.218585 0.295720 0.036637
0.246815 0.296834 0.041825
0.265690 0.294087 0.041352
0.286534 0.294713 0.048447
0.313893 0.296361 0.057725
0.341314 0.299809 0.065187
0.410727 0.304936 0.078859
0.463066 0.314839 0.079850
0.520912 0.316518 0.079805
0.558328 0.323354 0.082292
0.587243 0.327443 0.081880
0.614679 0.322362 0.088365
0.651942 0.318349 0.092393
0.701122 0.320455 0.090272
0.740932 0.318196 0.084459
0.766567 0.317159 0.080797
0.800916 0.318395 0.084932
0.833371 0.318456 0.086992
0.863188 0.318196 0.090333
0.900832 0.321569 0.093462
0.927337 0.320073 0.092546
0.952956 0.313344 0.089921
0.978927 0.309133 0.088121
0.994430 0.297963 0.088853
0.998901 0.288746 0.075181
0.998993 0.265705 0.087160
0.166690 0.341863 0.054841
0.166323 0.340810 0.053422
0.165621 0.338781 0.051896
0.165332 0.335821 0.048325
0.165591 0.332174 0.043458
0.171038 0.328191 0.037247
0.188083 0.326467 0.032929
0.218509 0.325887 0.037003
0.251850 0.327535 0.041672
0.270985 0.325566 0.044816
0.291493 0.323583 0.044984
0.317678 0.326757 0.051743
0.344381 0.329168 0.060243
0.375738 0.335241 0.070817
0.440299 0.336263 0.083070
0.488777 0.340215 0.082231
0.539162 0.343023 0.078340
0.583078 0.345586 0.079240
0.610193 0.350713 0.083619
0.637568 0.350072 0.090730
0.684215 0.353323 0.098650
0.727001 0.347250 0.092866
0.765393 0.349874 0.088426
0.799100 0.352026 0.084840
0.828977 0.354284 0.081010
0.855436 0.353552 0.082185
0.897307 0.354009 0.088060
0.923751 0.352087 0.088182
0.950179 0.344747 0.090242
0.978759 0.341405 0.091478
0.994812 0.333806 0.093126
0.997879 0.317388 0.089723
0.999298 0.298528 0.090272
0.190311 0.377066 0.062531
0.189944 0.375601 0.060334
0.189731 0.374548 0.059846
0.188235 0.371725 0.058488
0.188037 0.369345 0.054536
0.189059 0.364660 0.049805
0.197940 0.359533 0.041321
0.222919 0.358206 0.038102
0.254871 0.361975 0.041398
0.283192 0.359548 0.046464
0.305119 0.356390 0.049317
0.330602 0.355062 0.047623
0.341909 0.353948 0.043275
0.367971 0.356085 0.053483
0.402274 0.362600 0.070024
0.458839 0.365896 0.087114
0.519799 0.365652 0.085740
0.579843 0.377035 0.082963
0.622995 0.377050 0.082307
0.642100 0.379263 0.083345
0.676982 0.383169 0.094026
0.712718 0.381338 0.095598
0.754253 0.383459 0.097002
0.795087 0.377768 0.087266
0.824842 0.378256 0.083116
0.849805 0.379553 0.074800
0.880308 0.381552 0.070008
0.918791 0.380102 0.084260
0.948333 0.378790 0.086976
0.977173 0.378485 0.089296
0.995193 0.373373 0.096254
0.998337 0.358251 0.093660
0.999023 0.338827 0.095933
0.212177 0.403113 0.065934
0.211749 0.402396 0.065797
0.210986 0.400793 0.064286
0.211398 0.400473 0.061891
0.211673 0.400198 0.059861
0.211246 0.398108 0.057023
0.213214 0.394553 0.048631
0.223316 0.391165 0.041413
0.249653 0.387610 0.042252
0.283848 0.391104 0.044388
0.313893 0.391485 0.053025
0.344213 0.389410 0.054520
0.358495 0.386999 0.051423
0.370779 0.384100 0.047089
0.399207 0.386740 0.059403
0.440558 0.394186 0.074907
0.485664 0.400992 0.087831
0.563699 0.403174 0.088487
0.618372 0.408377 0.084154
0.654948 0.409476 0.083757
0.675334 0.411765 0.086473
0.716228 0.417350 0.092226
0.750454 0.418494 0.100465
0.787640 0.417319 0.101350
0.825055 0.413916 0.093126
0.850156 0.408362 0.082185
0.876768 0.403189 0.071931
0.910567 0.411460 0.079377
0.936538 0.408591 0.080629
0.972503 0.411353 0.084901
0.992462 0.408270 0.092348
0.997040 0.394903 0.095720
0.998917 0.375341 0.097887
0.234684 0.434043 0.077531
0.234012 0.430014 0.070924
0.232563 0.427359 0.070237
0.233875 0.427451 0.068086
0.234470 0.427146 0.066239
0.235492 0.426291 0.061540
0.233921 0.422416 0.055451
0.236698 0.420111 0.047181
0.249958 0.419852 0.041474
0.283314 0.421607 0.044541
0.313420 0.420584 0.044343
0.346151 0.424552 0.053407
0.371618 0.420066 0.053315
0.381018 0.416052 0.049653
0.399985 0.413474 0.046555
0.430411 0.419379 0.063020
0.469490 0.423484 0.077241
0.516808 0.430640 0.088029
0.601175 0.433585 0.088808
0.655818 0.437781 0.085557
0.687098 0.439094 0.084077
0.713375 0.443671 0.086824
0.745785 0.447257 0.094240
0.776562 0.445869 0.100587
0.816236 0.446235 0.103487
0.848981 0.441794 0.096208
0.878660 0.441016 0.081834
0.909941 0.438041 0.080186
0.933700 0.439277 0.076570
0.957626 0.439902 0.069627
0.986923 0.439353 0.079652
0.994034 0.428458 0.089570
0.997070 0.415671 0.096040
0.261280 0.482200 0.097429
0.259846 0.479500 0.095094
0.259861 0.477028 0.092287
0.260899 0.473884 0.089830
0.261357 0.467201 0.079133
0.263218 0.461219 0.070771
0.263828 0.459876 0.066407
0.264012 0.457145 0.061402
0.268879 0.452918 0.053498
0.284077 0.450523 0.042145
0.312047 0.451743 0.043549
0.343679 0.452949 0.049058
0.376669 0.455680 0.056352
0.417365 0.452934 0.048920
0.416175 0.446479 0.044785
0.426322 0.444541 0.050675
0.452705 0.447364 0.061616
0.500725 0.453574 0.078508
0.551019 0.460945 0.087907
0.641657 0.468788 0.093492
0.696345 0.472206 0.089891
0.723537 0.472175 0.086809
0.743542 0.472694 0.082856
0.771832 0.473411 0.090517
0.804501 0.474662 0.098482
0.840909 0.474464 0.101778
0.879683 0.472557 0.095872
0.910506 0.473442 0.086717
0.933364 0.469902 0.078920
0.964858 0.467979 0.055467
0.983429 0.470161 0.065263
0.991699 0.460395 0.071611
0.994827 0.446098 0.082872
0.278157 0.511406 0.108736
0.278218 0.508705 0.104524
0.278370 0.508110 0.103792
0.280018 0.504768 0.100343
0.280446 0.503593 0.098466
0.281956 0.499107 0.088151
0.285756 0.492164 0.073426
0.288701 0.487312 0.066575
0.288579 0.485893 0.058228
0.290654 0.483238 0.047364
0.311955 0.481270 0.042588
0.340505 0.480964 0.043275
0.374151 0.482979 0.048814
0.385519 0.476890 0.043687
0.441337 0.476768 0.044221
0.441138 0.475532 0.041993
0.452323 0.474174 0.053696
0.482765 0.476173 0.061280
0.526696 0.483101 0.072908
0.586191 0.494667 0.084932
0.671611 0.501396 0.082277
0.716152 0.502922 0.079484
0.749584 0.501884 0.081041
0.777462 0.503441 0.082673
0.798932 0.502464 0.085542
0.831327 0.504143 0.096757
0.879835 0.506661 0.098955
0.923384 0.511788 0.092638
0.938888 0.506523 0.084520
0.966445 0.502342 0.071641
0.981735 0.496651 0.058839
0.991119 0.491966 0.060029
0.994446 0.479835 0.065553
0.285924 0.551598 0.120836
0.287984 0.543572 0.116426
0.288243 0.542565 0.115572
0.290669 0.537758 0.110307
0.295354 0.527306 0.098985
0.297780 0.527413 0.095720
0.301762 0.520058 0.082139
0.305776 0.515953 0.070420
0.311025 0.514580 0.060182
0.310506 0.512337 0.055665
0.314900 0.508217 0.044938
0.343313 0.510109 0.039582
0.369299 0.511070 0.038956
0.403342 0.512917 0.047562
0.434791 0.515007 0.056962
0.467720 0.511971 0.052079
0.463462 0.503746 0.046616
0.484535 0.504936 0.059373
0.515358 0.508003 0.068101
0.545769 0.509895 0.076753
0.610849 0.517189 0.083314
0.689693 0.522255 0.074266
0.734463 0.524117 0.066896
0.774197 0.530571 0.074250
0.802289 0.529366 0.079911
0.824125 0.528420 0.086671
0.849638 0.530312 0.087602
0.907149 0.535073 0.080125
0.939284 0.537469 0.081178
0.960235 0.534890 0.074388
0.982910 0.529549 0.064790
0.992691 0.518242 0.056992
0.994705 0.509514 0.058106
0.261036 0.680339 0.171572
0.261433 0.679408 0.171405
0.264088 0.661128 0.160693
0.275288 0.648234 0.156252
0.289586 0.606302 0.131945
0.302983 0.570825 0.109407
0.311986 0.551873 0.090578
0.321859 0.542733 0.079454
0.329427 0.538308 0.063584
0.332982 0.538705 0.054261
0.330098 0.539254 0.041382
0.340551 0.540948 0.038895
0.372915 0.539696 0.038819
0.400977 0.540368 0.036271
0.434226 0.544167 0.049577
0.464714 0.543206 0.051820
0.493965 0.540719 0.051789
0.502831 0.538491 0.055161
0.522621 0.538170 0.052796
0.543481 0.538003 0.065919
0.578988 0.540871 0.078813
0.636667 0.545769 0.074800
0.719066 0.553704 0.063584
0.773510 0.556573 0.064561
0.803876 0.559335 0.062531
0.819364 0.559472 0.071015
0.838773 0.554208 0.078767
0.877455 0.555962 0.075731
0.917113 0.555871 0.070665
0.959243 0.559426 0.076905
0.977371 0.555459 0.071519
0.987762 0.545907 0.061143
0.990494 0.532738 0.059342
0.253346 0.700359 0.175479
0.253635 0.700084 0.175586
0.253223 0.697078 0.174640
0.255543 0.695827 0.175738
0.257313 0.694926 0.177584
0.262379 0.686763 0.172045
0.282856 0.662181 0.152377
0.321599 0.620554 0.118029
0.342748 0.580468 0.077729
0.361425 0.571832 0.053880
0.362020 0.569787 0.046494
0.358389 0.567666 0.040482
0.374212 0.569787 0.045274
0.405783 0.572076 0.041749
0.431830 0.571221 0.035370
0.466270 0.573663 0.044404
0.495064 0.572305 0.050141
0.527947 0.574456 0.056107
0.529397 0.568048 0.048142
0.548608 0.567376 0.055482
0.575586 0.567666 0.064942
0.605173 0.570016 0.083818
0.667521 0.572564 0.066773
0.755215 0.583459 0.056443
0.807721 0.586725 0.048524
0.825574 0.585000 0.043824
0.833371 0.586419 0.055940
0.868208 0.589761 0.067399
0.902892 0.583169 0.077043
0.937865 0.579217 0.077760
0.968902 0.574716 0.078843
0.983520 0.565621 0.076493
0.987869 0.555200 0.070497
0.249409 0.706233 0.172351
0.249638 0.706065 0.172381
0.250523 0.705760 0.172137
0.251057 0.705440 0.172274
0.251911 0.705043 0.172534
0.253147 0.704601 0.173022
0.255863 0.703243 0.173831
0.260792 0.702495 0.176532
0.294270 0.679911 0.156207
0.338018 0.628367 0.107179
0.378317 0.594095 0.054002
0.389273 0.595621 0.040497
0.389364 0.600519 0.032120
0.403449 0.604089 0.036362
0.436072 0.602335 0.038605
0.461753 0.602274 0.032624
0.494087 0.603281 0.037522
0.528695 0.605341 0.045686
0.559213 0.605814 0.046815
0.553811 0.595560 0.032868
0.596674 0.595682 0.032792
0.601953 0.595026 0.051179
0.634501 0.597421 0.069291
0.699809 0.602289 0.059846
0.783429 0.612192 0.033158
0.831266 0.613382 0.028153
0.847120 0.610986 0.024537
0.854597 0.611994 0.045426
0.885863 0.610712 0.061997
0.917571 0.608072 0.078325
0.946670 0.599298 0.080491
0.971786 0.591226 0.083070
0.982055 0.576806 0.079362
0.244541 0.708156 0.168856
0.244617 0.708034 0.168765
0.245045 0.707790 0.168582
0.245411 0.707561 0.168551
0.246769 0.707164 0.168292
0.248127 0.706783 0.168658
0.250217 0.706371 0.169421
0.253834 0.706111 0.170581
0.258930 0.706065 0.172168
0.276921 0.699947 0.166506
0.326818 0.671244 0.143511
0.399390 0.615579 0.061753
0.412604 0.613962 0.042435
0.406912 0.615763 0.030961
0.434958 0.623789 0.038315
0.466835 0.630503 0.034134
0.491112 0.630732 0.023331
0.522850 0.632761 0.027817
0.555428 0.633906 0.032090
0.588159 0.634638 0.032303
0.606180 0.631388 0.031540
0.618189 0.626337 0.039200
0.639521 0.626993 0.063035
0.658885 0.625391 0.087480
0.716274 0.625376 0.058717
0.818433 0.639475 0.033188
0.856123 0.641855 0.034958
0.860441 0.636728 0.043809
0.876967 0.641703 0.065064
0.910109 0.641520 0.075486
0.933211 0.634913 0.088029
0.961120 0.625025 0.023362
0.968368 0.600687 0.081453
0.242359 0.710445 0.167559
0.242115 0.710369 0.167254
0.241871 0.710277 0.166903
0.241672 0.710155 0.166461
0.241733 0.709987 0.166079
0.243595 0.709621 0.165377
0.246738 0.710140 0.166171
0.250217 0.710170 0.167636
0.254810 0.710216 0.169696
0.259922 0.710796 0.172656
0.269123 0.709804 0.172595
0.304280 0.693248 0.155535
0.409110 0.646311 0.083772
0.443214 0.633631 0.046220
0.457877 0.641962 0.043458
0.485664 0.655360 0.042008
0.496773 0.659953 0.026947
0.517403 0.661555 0.021790
0.549737 0.661860 0.020630
0.581827 0.662837 0.019821
0.615656 0.662318 0.013916
0.647730 0.662959 0.016922
0.675761 0.664759 0.023453
0.680751 0.662776 0.084382
0.698558 0.660090 0.117250
0.820844 0.676555 0.085664
0.859022 0.673503 0.055070
0.881437 0.671931 0.054566
0.895598 0.673564 0.064698
0.907256 0.677028 0.073152
0.923033 0.672053 0.081300
0.932692 0.659083 0.086778
0.947082 0.637858 0.085557
0.246098 0.712291 0.169436
0.245838 0.712245 0.169162
0.245548 0.712200 0.168811
0.245182 0.712139 0.168353
0.244831 0.712078 0.167788
0.244724 0.712001 0.167254
0.246082 0.712184 0.166903
0.248341 0.712215 0.167163
0.251713 0.712093 0.168292
0.256275 0.712490 0.170626
0.262379 0.713451 0.173800
0.268360 0.713527 0.176272
0.296483 0.703502 0.163134
0.439292 0.668162 0.086320
0.478447 0.658244 0.041794
0.499947 0.670802 0.037919
0.519371 0.684352 0.036530
0.530739 0.689921 0.032746
0.546700 0.691997 0.016739
0.578866 0.694026 0.015885
0.613062 0.693645 0.012085
0.647639 0.694301 0.012543
0.682109 0.695781 0.014023
0.706294 0.691936 0.018265
0.715496 0.690761 0.077409
0.788312 0.705531 0.096483
0.857420 0.706462 0.075288
0.886992 0.705180 0.068864
0.906325 0.703090 0.078904
0.923598 0.705211 0.084627
0.927382 0.701686 0.077241
0.934676 0.702907 0.084474
0.942351 0.699321 0.089342
0.250278 0.713191 0.172320
0.250172 0.713191 0.172168
0.250034 0.713176 0.172000
0.249866 0.713176 0.171740
0.249714 0.713176 0.171435
0.250553 0.713436 0.170977
0.250721 0.713481 0.170718
0.251392 0.713558 0.170687
0.253330 0.713649 0.170825
0.255787 0.713909 0.171832
0.260197 0.714214 0.173297
0.264057 0.714611 0.175402
0.269459 0.715084 0.177676
0.316304 0.711925 0.159548
0.491096 0.694591 0.075746
0.539376 0.703105 0.046479
0.550774 0.712520 0.046845
0.557504 0.717876 0.039658
0.563668 0.725536 0.025696
0.574746 0.721950 0.017594
0.608682 0.724346 0.019730
0.643122 0.724178 0.013077
0.681025 0.727550 0.017151
0.712764 0.728054 0.021653
0.737057 0.728618 0.046143
0.743542 0.725109 0.102510
0.802625 0.725246 0.083330
0.872343 0.734371 0.083421
0.915663 0.735912 0.087861
0.937453 0.738384 0.092592
0.953613 0.740307 0.091478
0.955550 0.736721 0.086244
0.954452 0.732616 0.089479
0.253513 0.713710 0.174594
0.253483 0.713725 0.174517
0.253437 0.713741 0.174426
0.254429 0.714031 0.174151
0.254398 0.714061 0.174014
0.254414 0.714092 0.173846
0.254551 0.714137 0.173709
0.254902 0.714229 0.173648
0.255589 0.714336 0.173739
0.257313 0.714427 0.173816
0.259098 0.714641 0.174533
0.262638 0.714855 0.175448
0.265324 0.715129 0.176837
0.286610 0.715099 0.169436
0.397803 0.721935 0.133700
0.570016 0.739315 0.064546
0.581094 0.740734 0.051637
0.586099 0.744594 0.043717
0.593744 0.750591 0.045274
0.600198 0.754604 0.040558
0.611734 0.755917 0.023896
0.638727 0.756054 0.030152
0.671489 0.756542 0.029862
0.711559 0.755077 0.018524
0.739773 0.754101 0.028367
0.759350 0.755673 0.067216
0.770916 0.753399 0.093874
0.827909 0.764935 0.108980
0.907439 0.769894 0.103624
0.939467 0.771969 0.108019
0.964599 0.768200 0.104509
0.972168 0.763134 0.094621
0.970306 0.757046 0.089754
0.256901 0.714336 0.176028
0.256901 0.714336 0.175998
0.256886 0.714351 0.175952
0.256886 0.714366 0.175891
0.256901 0.714382 0.175814
0.256947 0.714427 0.175738
0.257069 0.714473 0.175662
0.257298 0.714534 0.175631
0.257694 0.714626 0.175662
0.258350 0.714748 0.175799
0.259907 0.714794 0.175799
0.261234 0.714977 0.176333
0.264256 0.715099 0.176898
0.272190 0.715572 0.175051
0.352712 0.726085 0.153658
0.552163 0.757488 0.092515
0.606256 0.764309 0.055955
0.612558 0.768902 0.053681
0.619348 0.774273 0.051881
0.624811 0.778180 0.050614
0.632731 0.784115 0.047837
0.638453 0.785931 0.035401
0.673289 0.788586 0.043412
0.702663 0.789609 0.052369
0.741192 0.784817 0.036942
0.767895 0.790661 0.075044
0.798795 0.788800 0.090959
0.827283 0.786572 0.098650
0.831205 0.783749 0.085573
0.917250 0.796429 0.098726
0.957183 0.800336 0.117525
0.971832 0.782696 0.109438
0.974105 0.771221 0.103990
0.258518 0.714519 0.177157
0.258534 0.714534 0.177127
0.258534 0.714534 0.177111
0.258549 0.714549 0.177081
0.258579 0.714580 0.177035
0.258640 0.714611 0.176989
0.258747 0.714641 0.176959
0.258915 0.714687 0.176944
0.259174 0.714763 0.176959
0.259571 0.714839 0.177035
0.260777 0.714839 0.176837
0.261570 0.714961 0.177111
0.262593 0.715099 0.177539
0.271397 0.715465 0.175036
0.359472 0.732158 0.154696
0.510246 0.763607 0.114565
0.634119 0.788739 0.060761
0.637675 0.791516 0.061250
0.641260 0.794583 0.061219
0.648951 0.800900 0.064591
0.657298 0.807965 0.066941
0.662409 0.812909 0.065034
0.678752 0.820600 0.059648
0.706355 0.821363 0.047379
0.736400 0.824537 0.065949
0.771695 0.823911 0.074189
0.800336 0.828717 0.095964
