app/src/main/assets/filters/Hasselblad.cube
# Created from Hasselblad.plut
LUT_3D_SIZE 33
DOMAIN_MIN 0.0 0.0 0.0
DOMAIN_MAX 1.0 1.0 1.0
0.000000 0.000000 0.000000
0.004501 0.000000 0.000000
0.032334 0.000000 0.000000
0.061021 0.000000 0.000000
0.088212 0.000000 0.000000
0.117311 0.000000 0.000000
0.148547 0.000000 0.000000
0.179019 0.000000 0.000000
0.215366 0.000000 0.000000
0.251591 0.000000 0.000000
0.288045 0.000000 0.000000
0.325612 0.000000 0.000000
0.364218 0.000000 0.000000
0.402884 0.000000 0.000000
0.442130 0.000000 0.000000
0.481605 0.000000 0.000000
0.521202 0.000000 0.000000
0.560754 0.000000 0.000000
0.600214 0.000000 0.000000
0.639429 0.000000 0.000000
0.678126 0.000000 0.000000
0.716381 0.000000 0.000000
0.753902 0.000000 0.000000
0.790570 0.000000 0.000000
0.826093 0.000000 0.000000
0.860365 0.000000 0.000000
0.893187 0.000000 0.000000
0.924254 0.000000 0.000000
0.953185 0.000000 0.000000
0.979644 0.000000 0.000000
0.997467 0.000000 0.000000
1.000000 0.000000 0.000000
1.000000 0.000000 0.000000
0.000000 0.004425 0.000000
0.004257 0.004166 0.000000
0.032166 0.004166 0.000000
0.060975 0.004166 0.000000
0.088167 0.004166 0.000000
0.117281 0.004166 0.000000
0.148531 0.004166 0.000000
0.179004 0.004166 0.000000
0.215351 0.004166 0.000000
0.251575 0.003922 0.000000
0.288029 0.003922 0.000000
0.325597 0.003662 0.000000
0.364218 0.003418 0.000000
0.402869 0.003418 0.000000
0.442130 0.003082 0.000000
0.481605 0.002838 0.000000
0.521202 0.002579 0.000000
0.560754 0.002335 0.000000
0.600214 0.001831 0.000000
0.639429 0.001587 0.000000
0.678126 0.001083 0.000000
0.716381 0.000824 0.000000
0.753902 0.000320 0.000000
0.790570 0.000000 0.000000
0.826093 0.000000 0.000000
0.860365 0.000000 0.000000
0.893187 0.000000 0.000000
0.924239 0.000000 0.000000
0.953185 0.000000 0.000000
0.979644 0.000000 0.000000
0.997467 0.000000 0.000000
1.000000 0.000000 0.000000
1.000000 0.000000 0.000000
0.000000 0.031922 0.000000
0.004257 0.031662 0.000000
0.030991 0.029999 0.000000
0.060624 0.029999 0.000000
0.087922 0.029999 0.000000
0.117128 0.029999 0.000000
0.148409 0.029999 0.000000
0.178912 0.029999 0.000000
0.215274 0.029999 0.000000
0.251514 0.028244 0.000000
0.287984 0.028244 0.000000
0.325566 0.026322 0.000000
0.364172 0.024567 0.000000
0.402838 0.024567 0.000000
0.442100 0.022644 0.000000
0.481575 0.020798 0.000000
0.521172 0.018967 0.000000
0.560723 0.017121 0.000000
0.600198 0.013443 0.000000
0.639414 0.011521 0.000000
0.678096 0.007935 0.000000
0.716365 0.006088 0.000000
0.753887 0.002411 0.000000
0.790555 0.000488 0.000000
0.826078 0.000000 0.000000
0.860349 0.000000 0.000000
0.893172 0.000000 0.000000
0.924239 0.000000 0.000000
0.953170 0.000000 0.000000
0.979629 0.000000 0.000000
0.997467 0.000000 0.000000
1.000000 0.000000 0.000000
1.000000 0.000000 0.000000
0.000000 0.060655 0.000000
0.004257 0.060578 0.000000
0.030991 0.060121 0.000000
0.059907 0.059113 0.000000
0.087404 0.059113 0.000000
0.116777 0.059113 0.000000
0.148150 0.059113 0.000000
0.178698 0.059113 0.000000
0.215122 0.059113 0.000000
0.251377 0.057328 0.000000
0.287861 0.057328 0.000000
0.325460 0.055314 0.000000
0.364080 0.053376 0.000000
0.402762 0.053376 0.000000
0.442023 0.051331 0.000000
0.481514 0.049409 0.000000
0.521111 0.047364 0.000000
0.560678 0.045441 0.000000
0.600137 0.039185 0.000000
0.639368 0.033677 0.000000
0.678050 0.023301 0.000000
0.716320 0.017792 0.000000
0.753857 0.007019 0.000000
0.790524 0.001495 0.000000
0.826047 0.000000 0.000000
0.860319 0.000000 0.000000
0.893141 0.000000 0.000000
0.924208 0.000000 0.000000
0.953140 0.000000 0.000000
0.979599 0.000000 0.000000
0.997467 0.000000 0.000000
1.000000 0.000000 0.000000
1.000000 0.000000 0.000000
0.000000 0.087617 0.000000
0.004257 0.087556 0.000000
0.030991 0.087221 0.000000
0.059907 0.086503 0.000000
0.086412 0.085145 0.000000
0.116121 0.085145 0.000000
0.147646 0.085145 0.000000
0.178286 0.085145 0.000000
0.214817 0.085145 0.000000
0.251133 0.082795 0.000000
0.287648 0.082795 0.000000
0.325277 0.080323 0.000000
0.363912 0.078660 0.000000
0.402609 0.077653 0.000000
0.441886 0.074815 0.000000
0.481392 0.072145 0.000000
0.521004 0.069047 0.000000
0.560571 0.065827 0.000000
0.600046 0.059190 0.000000
0.639277 0.054826 0.000000
0.677958 0.046983 0.000000
0.716243 0.039689 0.000000
0.753780 0.015793 0.000000
0.790448 0.003418 0.000000
0.825986 0.000000 0.000000
0.860258 0.000000 0.000000
0.893095 0.000000 0.000000
0.924147 0.000000 0.000000
0.953079 0.000000 0.000000
0.979553 0.000000 0.000000
0.997467 0.000000 0.000000
1.000000 0.000000 0.000000
1.000000 0.000000 0.000000
0.000000 0.116564 0.000000
0.004257 0.116533 0.000000
0.030991 0.116304 0.000000
0.059907 0.115801 0.000000
0.086412 0.114839 0.000000
0.115023 0.113329 0.000000
0.146853 0.113329 0.000000
0.177661 0.113329 0.000000
0.214343 0.113329 0.000000
0.250736 0.110246 0.000000
0.287312 0.110246 0.000000
0.324971 0.106767 0.000000
0.363638 0.105669 0.000000
0.402380 0.103456 0.000000
0.441672 0.099672 0.000000
0.481193 0.096056 0.000000
0.520836 0.091890 0.000000
0.560418 0.087892 0.000000
0.599893 0.078691 0.000000
0.639139 0.073396 0.000000
0.677821 0.065309 0.000000
0.716121 0.054490 0.000000
0.753674 0.029572 0.000000
0.790356 0.006424 0.000000
0.825895 0.000000 0.000000
0.860166 0.000000 0.000000
0.893004 0.000000 0.000000
0.924056 0.000000 0.000000
0.953002 0.000000 0.000000
0.979461 0.000000 0.000000
0.997467 0.000000 0.000000
1.000000 0.000000 0.000000
1.000000 0.000000 0.000000
0.000000 0.147585 0.000000
0.004257 0.147570 0.000000
0.030991 0.147387 0.000000
0.059907 0.147021 0.000000
0.086412 0.146334 0.000000
0.115023 0.145190 0.000000
0.145647 0.143542 0.000000
0.176730 0.143542 0.000000
0.213642 0.143542 0.000000
0.250156 0.140124 0.000000
0.286809 0.139559 0.000000
0.324529 0.135348 0.000000
0.363241 0.134401 0.000000
0.402029 0.130968 0.000000
0.441352 0.126284 0.000000
0.480903 0.121645 0.000000
0.520592 0.116457 0.000000
0.560174 0.111315 0.000000
0.599680 0.102068 0.000000
0.638941 0.093050 0.000000
0.677638 0.084291 0.000000
0.715953 0.069551 0.000000
0.753506 0.049836 0.000000
0.790188 0.010849 0.000000
0.825757 0.000000 0.000000
0.860029 0.000000 0.000000
0.892882 0.000000 0.000000
0.923919 0.000000 0.000000
0.952880 0.000000 0.000000
0.979355 0.000000 0.000000
0.997467 0.000000 0.000000
1.000000 0.000000 0.000000
1.000000 0.000000 0.000000
0.000000 0.177829 0.000000
0.004257 0.177798 0.000000
0.030991 0.177676 0.000000
0.059907 0.177371 0.000000
0.086412 0.176822 0.000000
0.115023 0.175952 0.000000
0.145647 0.174670 0.000000
0.175463 0.172915 0.000000
0.212680 0.172915 0.000000
0.249363 0.170352 0.000000
0.286122 0.168261 0.000000
0.323919 0.165209 0.000000
0.362676 0.162768 0.000000
0.401556 0.158694 0.000000
0.440925 0.153796 0.000000
0.480507 0.148684 0.000000
0.520256 0.142367 0.000000
0.559869 0.136110 0.000000
0.599390 0.126329 0.000000
0.638666 0.114153 0.000000
0.677394 0.104021 0.000000
0.715694 0.085069 0.000000
0.753277 0.065309 0.000000
0.789990 0.016876 0.000000
0.825559 0.000000 0.000000
0.859831 0.000000 0.000000
0.892714 0.000000 0.000000
0.923751 0.000000 0.000000
0.952712 0.000000 0.000000
0.979187 0.000000 0.000000
0.997467 0.000000 0.000000
1.000000 0.000000 0.000000
1.000000 0.000000 0.000000
0.000000 0.214038 0.000000
0.004257 0.214023 0.000000
0.030991 0.213931 0.000000
0.059907 0.213703 0.000000
0.086412 0.213291 0.000000
0.115023 0.212634 0.000000
0.145647 0.211673 0.000000
0.175463 0.210376 0.000000
0.211444 0.208652 0.000000
0.248249 0.206653 0.000000
0.285222 0.203342 0.000000
0.323110 0.199344 0.000000
0.361975 0.194629 0.000000
0.400946 0.189227 0.000000
0.440375 0.183032 0.000000
0.479988 0.176272 0.000000
0.519799 0.168536 0.000000
0.559442 0.160372 0.000000
0.599023 0.151324 0.000000
0.638300 0.138903 0.000000
0.677073 0.124346 0.000000
0.715328 0.105745 0.000000
0.752987 0.080552 0.000000
0.789715 0.025559 0.000000
0.825299 0.000000 0.000000
0.859586 0.000000 0.000000
0.892485 0.000000 0.000000
0.923507 0.000000 0.000000
0.952499 0.000000 0.000000
0.978973 0.000000 0.000000
0.997253 0.000000 0.000000
1.000000 0.000000 0.000000
1.000000 0.000000 0.000000
0.000000 0.250065 0.000000
0.004089 0.250050 0.000000
0.029404 0.249989 0.000000
0.058656 0.249821 0.000000
0.084413 0.249546 0.000000
0.112367 0.249088 0.000000
0.142779 0.248295 0.000000
0.173251 0.246983 0.000000
0.209796 0.245274 0.000000
0.246784 0.242878 0.000000
0.284169 0.240391 0.000000
0.322011 0.237385 0.000000
0.360998 0.233753 0.000000
0.400153 0.229816 0.000000
0.439567 0.225162 0.000000
0.479393 0.219623 0.000000
0.519173 0.213825 0.000000
0.558938 0.207462 0.000000
0.598535 0.198306 0.000000
0.637812 0.188540 0.000000
0.676677 0.177981 0.000000
0.714961 0.166918 0.000000
0.752621 0.155032 0.000000
0.789319 0.140826 0.000000
0.824964 0.131075 0.000000
0.859297 0.123095 0.000000
0.892180 0.116625 0.000000
0.923232 0.109941 0.000000
0.952224 0.099840 0.000000
0.978714 0.091234 0.000000
0.997238 0.081788 0.000000
1.000000 0.074739 0.000000
1.000000 0.066300 0.000000
0.000000 0.286275 0.000000
0.004089 0.286259 0.000000
0.029404 0.286198 0.000000
0.058656 0.286061 0.000000
0.084413 0.285817 0.000000
0.112367 0.285420 0.000000
0.142321 0.284840 0.000000
0.171466 0.284047 0.000000
0.207645 0.282841 0.000000
0.244648 0.280842 0.000000
0.282811 0.278416 0.000000
0.320851 0.275944 0.000000
0.359762 0.273030 0.000000
0.399191 0.269871 0.000000
0.438636 0.266133 0.000000
0.478614 0.261295 0.000000
0.518441 0.256489 0.000000
0.558312 0.251057 0.000000
0.597864 0.244709 0.000000
0.637263 0.237324 0.000000
0.676204 0.229328 0.000000
0.714504 0.221042 0.000000
0.752132 0.212299 0.000000
0.788846 0.202152 0.000000
0.824567 0.190219 0.000000
0.858946 0.179934 0.000000
0.891814 0.169635 0.000000
0.922881 0.158907 0.000000
0.951888 0.147814 0.000000
0.978378 0.135592 0.000000
0.997101 0.121660 0.000000
1.000000 0.109255 0.000000
1.000000 0.097124 0.000000
0.000000 0.323552 0.000000
0.003922 0.323537 0.000000
0.028153 0.323476 0.000000
0.057298 0.323339 0.000000
0.082765 0.323095 0.000000
0.110201 0.322683 0.000000
0.139574 0.322103 0.000000
0.169421 0.321386 0.000000
0.205066 0.320455 0.000000
0.242313 0.319066 0.000000
0.280842 0.317189 0.000000
0.319402 0.315175 0.000000
0.358389 0.312779 0.000000
0.398062 0.309895 0.000000
0.437613 0.306844 0.000000
0.477653 0.302663 0.000000
0.517617 0.298390 0.000000
0.557549 0.293675 0.000000
0.597147 0.288762 0.000000
0.636591 0.283360 0.000000
0.675608 0.276722 0.000000
0.713939 0.269841 0.000000
0.751583 0.262623 0.000000
0.788388 0.255055 0.000000
0.824033 0.247074 0.000000
0.858427 0.237705 0.000000
0.891371 0.228229 0.000000
0.922454 0.218906 0.000000
0.951476 0.209812 0.000000
0.977966 0.199435 0.000000
0.997009 0.189059 0.000000
1.000000 0.179507 0.000000
1.000000 0.171954 0.000000
0.000000 0.361883 0.000000
0.003662 0.361868 0.000000
0.026810 0.361807 0.000000
0.055848 0.361685 0.000000
0.081651 0.361440 0.000000
0.109361 0.361074 0.000000
0.138888 0.360540 0.000000
0.167742 0.359792 0.000000
0.201862 0.358831 0.000000
0.239780 0.357565 0.000000
0.278630 0.356008 0.000000
0.317662 0.354208 0.000000
0.356786 0.352163 0.000000
0.396735 0.349630 0.000000
0.436469 0.347143 0.000000
0.476555 0.343877 0.000000
0.516625 0.340307 0.000000
0.556634 0.336141 0.000000
0.596307 0.331701 0.000000
0.635828 0.326879 0.000000
0.674876 0.321706 0.000000
0.713283 0.316320 0.000000
0.750958 0.310384 0.000000
0.787869 0.303624 0.000000
0.823438 0.297108 0.000000
0.857877 0.290272 0.000000
0.890852 0.283391 0.000000
0.921965 0.275624 0.000000
0.951019 0.268101 0.000000
0.977432 0.261173 0.000000
0.996780 0.254597 0.000000
1.000000 0.248341 0.000000
1.000000 0.242969 0.000000
0.000000 0.400717 0.000000
0.003662 0.400702 0.000000
0.026810 0.400656 0.000000
0.055848 0.400549 0.000000
0.080980 0.400336 0.000000
0.107683 0.400000 0.000000
0.136385 0.399512 0.000000
0.164630 0.398840 0.000000
0.197726 0.397986 0.000000
0.236545 0.396933 0.000000
0.275746 0.395666 0.000000
0.315557 0.394034 0.000000
0.355001 0.392187 0.000000
0.394934 0.390158 0.000000
0.435080 0.387625 0.000000
0.475135 0.384863 0.000000
0.515465 0.381567 0.000000
0.555428 0.378149 0.000000
0.595300 0.374334 0.000000
0.634913 0.370230 0.000000
0.674052 0.365835 0.000000
0.712505 0.360952 0.000000
0.750195 0.355871 0.000000
0.787076 0.350469 0.000000
0.822782 0.344945 0.000000
0.857267 0.339269 0.000000
0.890196 0.333013 0.000000
0.921431 0.326757 0.000000
0.950454 0.321157 0.000000
0.976898 0.315496 0.000000
0.996628 0.309987 0.000000
1.000000 0.304906 0.000000
1.000000 0.300847 0.000000
0.000000 0.439734 0.000000
0.003510 0.439734 0.000000
0.025483 0.439689 0.000000
0.054383 0.439582 0.000000
0.079072 0.439399 0.000000
0.105226 0.439094 0.000000
0.133257 0.438666 0.000000
0.161166 0.438071 0.000000
0.193317 0.437293 0.000000
0.233158 0.436347 0.000000
0.272923 0.435218 0.000000
0.313252 0.433799 0.000000
0.353002 0.432136 0.000000
0.393164 0.430289 0.000000
0.433494 0.428016 0.000000
0.473747 0.425528 0.000000
0.514137 0.422675 0.000000
0.554208 0.419699 0.000000
0.594217 0.416312 0.000000
0.633875 0.412757 0.000000
0.673014 0.408835 0.000000
0.711543 0.404623 0.000000
0.749416 0.399939 0.000000
0.786297 0.395315 0.000000
0.822080 0.390478 0.000000
0.856535 0.385702 0.000000
0.889525 0.380392 0.000000
0.920714 0.375311 0.000000
0.949844 0.370245 0.000000
0.976318 0.365652 0.000000
0.996460 0.361013 0.000000
1.000000 0.357000 0.000000
1.000000 0.353536 0.000000
0.000000 0.478874 0.000000
0.003342 0.478874 0.000000
0.024231 0.478828 0.000000
0.053025 0.478737 0.000000
0.077180 0.478569 0.000000
0.102846 0.478294 0.000000
0.130205 0.477897 0.000000
0.157900 0.477363 0.000000
0.188556 0.476646 0.000000
0.229374 0.475898 0.000000
0.269703 0.474968 0.000000
0.310445 0.473671 0.000000
0.350729 0.472129 0.000000
0.391287 0.470298 0.000000
0.431815 0.468315 0.000000
0.472190 0.466117 0.000000
0.512703 0.463569 0.000000
0.552926 0.460868 0.000000
0.593057 0.457832 0.000000
0.632792 0.454612 0.000000
0.671931 0.451240 0.000000
0.710597 0.447440 0.000000
0.748501 0.443458 0.000000
0.785443 0.439322 0.000000
0.821210 0.435218 0.000000
0.855741 0.430869 0.000000
0.888777 0.426398 0.000000
0.919951 0.421942 0.000000
0.949096 0.417594 0.000000
0.975647 0.413458 0.000000
0.996246 0.409659 0.000000
1.000000 0.406210 0.000000
1.000000 0.403204 0.000000
0.000000 0.518288 0.000000
0.003082 0.518273 0.000000
0.022644 0.518242 0.000000
0.051331 0.518166 0.000000
0.074800 0.518013 0.000000
0.099641 0.517784 0.000000
0.126238 0.517464 0.000000
0.153750 0.516991 0.000000
0.182315 0.516365 0.000000
0.224979 0.515526 0.000000
0.266361 0.514549 0.000000
0.307317 0.513451 0.000000
0.348058 0.512093 0.000000
0.389166 0.510445 0.000000
0.429877 0.508598 0.000000
0.470466 0.506600 0.000000
0.511101 0.504356 0.000000
0.551507 0.501976 0.000000
0.591714 0.499214 0.000000
0.631556 0.496284 0.000000
0.670771 0.493202 0.000000
0.709499 0.489876 0.000000
0.747463 0.486381 0.000000
0.784482 0.482704 0.000000
0.820294 0.478889 0.000000
0.854887 0.475013 0.000000
0.887922 0.471138 0.000000
0.919158 0.467277 0.000000
0.948333 0.463355 0.000000
0.974899 0.459632 0.000000
0.995972 0.456260 0.000000
1.000000 0.453117 0.000000
1.000000 0.450767 0.000000
0.000000 0.557687 0.000000
0.002914 0.557671 0.000000
0.021302 0.557641 0.000000
0.049866 0.557565 0.000000
0.072770 0.557443 0.000000
0.096971 0.557229 0.000000
0.122774 0.556924 0.000000
0.150103 0.556497 0.000000
0.176043 0.555932 0.000000
0.220203 0.555200 0.000000
0.262440 0.554284 0.000000
0.303975 0.553231 0.000000
0.345205 0.552026 0.000000
0.386572 0.550561 0.000000
0.427420 0.548974 0.000000
0.468467 0.547127 0.000000
0.509178 0.545098 0.000000
0.549874 0.542779 0.000000
0.590066 0.540337 0.000000
0.630045 0.537682 0.000000
0.669490 0.534890 0.000000
0.708263 0.531914 0.000000
0.746242 0.528725 0.000000
0.783413 0.525307 0.000000
0.819242 0.521828 0.000000
0.853895 0.518410 0.000000
0.887068 0.514702 0.000000
0.918288 0.511376 0.000000
0.947463 0.507744 0.000000
0.974121 0.504417 0.000000
0.995605 0.501442 0.000000
1.000000 0.498772 0.000000
1.000000 0.496544 0.000000
0.000000 0.597040 0.000000
0.002579 0.597040 0.000000
0.018540 0.596994 0.000000
0.046952 0.596933 0.000000
0.068391 0.596796 0.000000
0.091127 0.596597 0.000000
0.116960 0.596292 0.000000
0.143984 0.595865 0.000000
0.169604 0.595315 0.000000
0.214984 0.594614 0.000000
0.257801 0.593835 0.000000
0.300038 0.592905 0.000000
0.342229 0.591730 0.000000
0.383597 0.590417 0.000000
0.424949 0.588891 0.000000
0.466148 0.587213 0.000000
0.507195 0.585306 0.000000
0.548119 0.583200 0.000000
0.588449 0.580987 0.000000
0.628626 0.578470 0.000000
0.668101 0.575967 0.000000
0.706966 0.573129 0.000000
0.744976 0.570336 0.000000
0.782147 0.567300 0.000000
0.818143 0.564111 0.000000
0.852903 0.560830 0.000000
0.886046 0.557595 0.000000
0.917342 0.554406 0.000000
0.946532 0.551278 0.000000
0.973236 0.548287 0.000000
0.995361 0.545556 0.000000
1.000000 0.543145 0.000000
1.000000 0.541146 0.000000
0.000000 0.635966 0.000000
0.002335 0.635966 0.000000
0.017288 0.635935 0.000000
0.045594 0.635874 0.000000
0.066117 0.635752 0.000000
0.088304 0.635554 0.000000
0.111818 0.635279 0.000000
0.136889 0.634882 0.000000
0.162646 0.634379 0.000000
0.209628 0.633783 0.000000
0.253422 0.633021 0.000000
0.296254 0.632090 0.000000
0.338903 0.631052 0.000000
0.380682 0.629847 0.000000
0.422416 0.628412 0.000000
0.463874 0.626856 0.000000
0.505165 0.625086 0.000000
0.546105 0.623209 0.000000
0.586725 0.621118 0.000000
0.626947 0.618891 0.000000
0.666514 0.616541 0.000000
0.705501 0.613993 0.000000
0.743679 0.611276 0.000000
0.780941 0.608484 0.000000
0.816953 0.605661 0.000000
0.851743 0.602731 0.000000
0.884932 0.599756 0.000000
0.916213 0.596887 0.000000
0.945495 0.594018 0.000000
0.972198 0.591272 0.000000
0.995132 0.588754 0.000000
1.000000 0.586542 0.000000
1.000000 0.584695 0.000000
0.000000 0.674495 0.000000
0.001999 0.674495 0.000000
0.014359 0.674464 0.000000
0.041855 0.674403 0.000000
0.061295 0.674296 0.000000
0.082994 0.674128 0.000000
0.105913 0.673884 0.000000
0.129992 0.673548 0.000000
0.154345 0.673106 0.000000
0.202335 0.672496 0.000000
0.248508 0.671763 0.000000
0.292027 0.670924 0.000000
0.335225 0.669886 0.000000
0.377569 0.668788 0.000000
0.419608 0.667491 0.000000
0.461372 0.666041 0.000000
0.502770 0.664485 0.000000
0.544060 0.662684 0.000000
0.584863 0.660716 0.000000
0.625269 0.658549 0.000000
0.664912 0.656443 0.000000
0.703944 0.654124 0.000000
0.742306 0.651621 0.000000
0.779629 0.649012 0.000000
0.815717 0.646235 0.000000
0.850538 0.643549 0.000000
0.883742 0.640986 0.000000
0.915175 0.638132 0.000000
0.944472 0.635538 0.000000
0.971206 0.632959 0.000000
0.994644 0.630655 0.000000
1.000000 0.628672 0.000000
1.000000 0.626917 0.000000
0.000000 0.712428 0.000000
0.001755 0.712428 0.000000
0.013031 0.712413 0.000000
0.038010 0.712367 0.000000
0.058381 0.712276 0.000000
0.077546 0.712139 0.000000
0.098344 0.711940 0.000000
0.120287 0.711650 0.000000
0.145251 0.711238 0.000000
0.194308 0.710628 0.000000
0.242542 0.709880 0.000000
0.287617 0.709102 0.000000
0.330907 0.708263 0.000000
0.373999 0.707164 0.000000
0.416587 0.705898 0.000000
0.458732 0.704509 0.000000
0.500481 0.703029 0.000000
0.541924 0.701350 0.000000
0.582803 0.699580 0.000000
0.623331 0.697658 0.000000
0.663264 0.695537 0.000000
0.702434 0.693355 0.000000
0.740764 0.691081 0.000000
0.778149 0.688670 0.000000
0.814313 0.686229 0.000000
0.849210 0.683680 0.000000
0.882582 0.681132 0.000000
0.914015 0.678630 0.000000
0.943343 0.676204 0.000000
0.970077 0.673884 0.000000
0.993988 0.671687 0.000000
1.000000 0.669718 0.000000
1.000000 0.668208 0.000000
0.000000 0.749844 0.000000
0.001419 0.749844 0.000000
0.010437 0.749828 0.000000
0.030320 0.749767 0.000000
0.052064 0.749676 0.000000
0.070115 0.749508 0.000000
0.090471 0.749279 0.000000
0.112078 0.748959 0.000000
0.134401 0.748547 0.000000
0.185626 0.748043 0.000000
0.235691 0.747448 0.000000
0.282612 0.746685 0.000000
0.326848 0.745800 0.000000
0.370443 0.744823 0.000000
0.413413 0.743664 0.000000
0.455909 0.742382 0.000000
0.497963 0.740978 0.000000
0.539452 0.739452 0.000000
0.580667 0.737743 0.000000
0.621378 0.735866 0.000000
0.661463 0.733944 0.000000
0.700710 0.731899 0.000000
0.739162 0.729732 0.000000
0.776654 0.727520 0.000000
0.812940 0.725139 0.000000
0.847913 0.722789 0.000000
0.881285 0.720455 0.000000
0.912825 0.718074 0.000000
0.942153 0.715801 0.000000
0.968933 0.713512 0.000000
0.992844 0.711589 0.000000
0.999893 0.709865 0.000000
1.000000 0.708431 0.000000
0.000000 0.786160 0.000000
0.001251 0.786160 0.000000
0.009018 0.786145 0.000000
0.026398 0.786099 0.000000
0.048783 0.786023 0.000000
0.065537 0.785885 0.000000
0.083268 0.785687 0.000000
0.101884 0.785428 0.000000
0.121370 0.785092 0.000000
0.176791 0.784619 0.000000
0.229053 0.784054 0.000000
0.277134 0.783352 0.000000
0.322576 0.782513 0.000000
0.366873 0.781598 0.000000
0.410269 0.780499 0.000000
0.452918 0.779309 0.000000
0.495293 0.777951 0.000000
0.537163 0.776379 0.000000
0.578546 0.774868 0.000000
0.619394 0.773144 0.000000
0.659464 0.771374 0.000000
0.698924 0.769421 0.000000
0.737545 0.767346 0.000000
0.775174 0.765133 0.000000
0.811475 0.762982 0.000000
0.846509 0.760769 0.000000
0.879942 0.758541 0.000000
0.911482 0.756359 0.000000
0.940932 0.754192 0.000000
0.967773 0.752148 0.000000
0.991684 0.750286 0.000000
0.999817 0.748653 0.000000
1.000000 0.747234 0.000000
0.000000 0.821576 0.000000
0.000824 0.821576 0.000000
0.006256 0.821546 0.000000
0.018204 0.821500 0.000000
0.040604 0.821424 0.000000
0.055100 0.821286 0.000000
0.070344 0.821088 0.000000
0.085908 0.820813 0.000000
0.105211 0.820447 0.000000
0.167544 0.819989 0.000000
0.222446 0.819425 0.000000
0.271473 0.818769 0.000000
0.317922 0.818021 0.000000
0.363012 0.817105 0.000000
0.406699 0.816098 0.000000
0.450095 0.814923 0.000000
0.492515 0.813687 0.000000
0.534768 0.812268 0.000000
0.576318 0.810758 0.000000
0.617395 0.809125 0.000000
0.657618 0.807431 0.000000
0.697185 0.805600 0.000000
0.735912 0.803632 0.000000
0.773602 0.801617 0.000000
0.810025 0.799588 0.000000
0.845045 0.797543 0.000000
0.878599 0.795407 0.000000
0.910231 0.793240 0.000000
0.939696 0.791302 0.000000
0.966522 0.789380 0.000000
0.990509 0.787594 0.000000
0.999741 0.786069 0.000000
1.000000 0.784680 0.000000
0.000000 0.855787 0.000000
0.000412 0.855787 0.000000
0.003510 0.855772 0.000000
0.010269 0.855726 0.000000
0.023056 0.855634 0.000000
0.042939 0.855497 0.000000
0.053834 0.855299 0.000000
0.070207 0.855039 0.000000
0.086076 0.854688 0.000000
0.157977 0.854276 0.000000
0.215015 0.853758 0.000000
0.265476 0.853117 0.000000
0.313405 0.852369 0.000000
0.358618 0.851545 0.000000
0.403082 0.850553 0.000000
0.446784 0.849470 0.000000
0.489784 0.848249 0.000000
0.532143 0.846845 0.000000
0.573922 0.845502 0.000000
0.615122 0.843977 0.000000
0.655665 0.842222 0.000000
0.695293 0.840482 0.000000
0.734096 0.838712 0.000000
0.771923 0.836728 0.000000
0.808453 0.834806 0.000000
0.843580 0.832807 0.000000
0.877256 0.830747 0.000000
0.908919 0.828779 0.000000
0.938369 0.826902 0.000000
0.965362 0.825025 0.000000
0.989303 0.823377 0.000000
0.999634 0.821881 0.000000
1.000000 0.820676 0.000000
0.000000 0.888365 0.000000
0.000076 0.888350 0.000000
0.000916 0.888334 0.000000
0.002670 0.888289 0.000000
0.005921 0.888212 0.000000
0.015122 0.888075 0.000000
0.034165 0.887892 0.000000
0.049226 0.887633 0.000000
0.061021 0.887297 0.000000
0.148638 0.886900 0.000000
0.208286 0.886427 0.000000
0.259861 0.885801 0.000000
0.308553 0.885084 0.000000
0.354665 0.884291 0.000000
0.399680 0.883345 0.000000
0.443687 0.882307 0.000000
0.487053 0.881147 0.000000
0.529625 0.879927 0.000000
0.571679 0.878538 0.000000
0.613077 0.877073 0.000000
0.653635 0.875517 0.000000
0.693492 0.873823 0.000000
0.732448 0.872068 0.000000
0.770336 0.870268 0.000000
0.806912 0.868406 0.000000
0.842130 0.866529 0.000000
0.875761 0.864622 0.000000
