app/src/main/assets/filters/leica.cube
# Created from leica.plut
LUT_3D_SIZE 9
DOMAIN_MIN 0.0 0.0 0.0
DOMAIN_MAX 1.0 1.0 1.0
0.000000 0.000000 0.000000
0.011276 0.000000 0.000000
0.078431 0.000000 0.000000
0.254902 0.000000 0.000000
0.505882 0.000000 0.000000
0.730388 0.000000 0.000000
0.902937 0.000000 0.003922
1.000000 0.000000 0.003922
1.000000 0.000000 0.003922
0.000000 0.023041 0.000000
0.004349 0.023041 0.000000
0.082353 0.026474 0.000000
0.267948 0.026474 0.000000
0.515435 0.022553 0.000000
0.738231 0.019120 0.000000
0.909438 0.019120 0.000000
1.000000 0.023041 0.000000
1.000000 0.026963 0.003922
0.000000 0.132357 0.000000
0.000000 0.132357 0.000000
0.080400 0.132357 0.000000
0.291295 0.134798 0.000000
0.538231 0.140200 0.000000
0.755016 0.140200 0.000000
0.920836 0.135286 0.000000
1.000000 0.118990 0.000000
1.000000 0.107836 0.004898
0.000000 0.326955 0.000000
0.000000 0.326955 0.000000
0.000000 0.325490 0.000000
0.300496 0.323033 0.000000
0.556130 0.323033 0.000000
0.765682 0.327504 0.000000
0.923659 0.335164 0.000000
1.000000 0.342641 0.000000
1.000000 0.345098 0.000000
0.000000 0.547051 0.000000
0.000000 0.547051 0.000000
0.000000 0.547051 0.000000
0.282597 0.545098 0.000000
0.556863 0.542153 0.000000
0.761028 0.536522 0.000000
0.917647 0.537255 0.000000
1.000000 0.541421 0.000000
1.000000 0.550973 0.000000
0.000000 0.717159 0.000000
0.000000 0.717159 0.000000
0.000000 0.717159 0.000000
0.309804 0.715679 0.000000
0.558816 0.713237 0.000000
0.753368 0.709316 0.000000
0.904417 0.701472 0.000000
1.000000 0.697551 0.000000
1.000000 0.696071 0.000000
0.000000 0.842161 0.000000
0.000000 0.842161 0.000000
0.020584 0.842161 0.000000
0.394125 0.839216 0.000000
0.587259 0.839216 0.000000
0.752453 0.838239 0.000000
0.894118 0.831373 0.000000
1.000000 0.822187 0.000000
1.000000 0.810788 0.000000
0.000000 0.938231 0.000000
0.135973 0.938231 0.000000
0.326467 0.938231 0.000000
0.492164 0.938231 0.000000
0.634073 0.934798 0.000000
0.763241 0.934798 0.000000
0.886275 0.933455 0.000000
0.993133 0.922545 0.000000
1.000000 0.911269 0.000000
0.380392 1.000000 0.000000
0.414710 1.000000 0.000000
0.484321 1.000000 0.000000
0.579904 1.000000 0.000000
0.680385 1.000000 0.000000
0.780880 1.000000 0.000000
0.881376 1.000000 0.000000
0.965682 1.000000 0.000000
1.000000 0.996078 0.000000
0.000000 0.000000 0.064714
0.011276 0.000000 0.061707
0.078431 0.000000 0.061280
0.256367 0.000000 0.065202
0.505882 0.000000 0.068620
0.730388 0.000000 0.070771
0.902937 0.000000 0.068132
1.000000 0.000000 0.064210
1.000000 0.000000 0.064714
0.000000 0.026474 0.057359
0.006973 0.026474 0.057725
0.084977 0.026474 0.060777
0.270283 0.023041 0.060777
0.519356 0.018875 0.056870
0.743450 0.015198 0.052934
0.914702 0.012192 0.045151
1.000000 0.015198 0.041672
1.000000 0.019120 0.045655
0.000000 0.132357 0.053071
0.000000 0.135286 0.053071
0.080400 0.132357 0.053040
0.291295 0.136278 0.052705
0.538720 0.136278 0.047364
0.756634 0.135286 0.041306
0.922301 0.125826 0.037095
1.000000 0.106371 0.035065
1.000000 0.092531 0.042161
0.000000 0.326955 0.014343
0.000000 0.326955 0.014343
0.000000 0.326955 0.014527
0.300496 0.323033 0.016663
0.556130 0.323033 0.011337
0.765682 0.326955 0.006012
0.922545 0.333196 0.000000
1.000000 0.335103 0.000000
1.000000 0.337255 0.009613
0.000000 0.547051 0.000000
0.000000 0.547051 0.000000
0.000000 0.547051 0.000000
0.282597 0.545098 0.000000
0.556863 0.542153 0.000000
0.761028 0.537255 0.000000
0.916182 0.537255 0.000000
1.000000 0.541421 0.000000
1.000000 0.549020 0.000000
0.000000 0.717159 0.000000
0.000000 0.717159 0.000000
0.000000 0.717159 0.000000
0.309804 0.715679 0.000000
0.559564 0.713237 0.000000
0.753368 0.709316 0.000000
0.904417 0.701472 0.000000
1.000000 0.697551 0.000000
1.000000 0.696071 0.000000
0.000000 0.842161 0.000000
0.000000 0.842161 0.000000
0.014069 0.840223 0.000000
0.392645 0.839216 0.000000
0.587259 0.839216 0.000000
0.751492 0.838239 0.000000
0.894118 0.831373 0.000000
1.000000 0.822187 0.000000
1.000000 0.811765 0.000000
0.000000 0.938231 0.000000
0.105211 0.938231 0.000000
0.317891 0.938231 0.000000
0.491844 0.934798 0.000000
0.634073 0.934798 0.000000
0.763241 0.934798 0.000000
0.886275 0.933455 0.000000
0.993133 0.922545 0.000000
1.000000 0.911269 0.000000
0.373037 1.000000 0.000000
0.407782 1.000000 0.000000
0.483330 1.000000 0.000000
0.579904 1.000000 0.000000
0.680385 1.000000 0.000000
0.780880 1.000000 0.000000
0.881376 1.000000 0.000000
0.965682 1.000000 0.000000
1.000000 0.996078 0.000000
0.000000 0.000000 0.199023
0.011765 0.000000 0.195102
0.082109 0.000000 0.191180
0.254902 0.000000 0.187869
0.505882 0.000000 0.195590
0.730388 0.000000 0.206867
0.902937 0.000000 0.214710
1.000000 0.000000 0.221576
1.000000 0.000000 0.225483
0.000000 0.026474 0.190311
0.007355 0.026474 0.190311
0.085939 0.026474 0.190188
0.270100 0.022965 0.190860
0.519356 0.018875 0.191363
0.743450 0.015198 0.195102
0.914702 0.011765 0.198077
1.000000 0.011765 0.197925
1.000000 0.015686 0.198413
0.000000 0.136278 0.184070
0.000000 0.136278 0.186267
0.080400 0.136278 0.186267
0.289586 0.136278 0.187259
0.537621 0.136278 0.190188
0.755016 0.131838 0.187991
0.922301 0.118624 0.185718
1.000000 0.095583 0.179385
1.000000 0.084321 0.179416
0.000000 0.326955 0.178805
0.000000 0.326955 0.178805
0.000000 0.326955 0.178805
0.298039 0.326955 0.182361
0.553246 0.326955 0.182361
0.765682 0.326955 0.179767
0.922545 0.325856 0.171969
1.000000 0.321889 0.162737
1.000000 0.318257 0.159319
0.000000 0.549020 0.151965
0.000000 0.547250 0.151476
0.000000 0.547051 0.151965
0.281865 0.545098 0.152514
0.556863 0.543145 0.151476
0.758145 0.539025 0.143267
0.914214 0.537255 0.130266
1.000000 0.541176 0.111772
1.000000 0.545098 0.108339
0.000000 0.717159 0.092287
0.000000 0.717159 0.089113
0.000000 0.715679 0.088975
0.304417 0.714153 0.083833
0.558816 0.713237 0.075547
0.751766 0.709316 0.068849
0.901961 0.701472 0.050736
1.000000 0.700008 0.032120
1.000000 0.696071 0.030762
0.000000 0.839216 0.000000
0.000000 0.839216 0.000000
0.000000 0.839216 0.000000
0.387167 0.839216 0.000000
0.587259 0.839216 0.000000
0.749508 0.837125 0.000000
0.893568 0.831373 0.000000
1.000000 0.822187 0.000000
1.000000 0.811765 0.000000
0.000000 0.938231 0.000000
0.012345 0.938231 0.000000
0.298283 0.934798 0.000000
0.485649 0.934798 0.000000
0.632349 0.934798 0.000000
0.763241 0.934798 0.000000
0.886275 0.930877 0.000000
0.993133 0.922545 0.000000
1.000000 0.911269 0.000000
0.353918 1.000000 0.000000
0.392157 1.000000 0.000000
0.472541 1.000000 0.000000
0.579904 1.000000 0.000000
0.680385 1.000000 0.000000
0.782361 1.000000 0.000000
0.881376 1.000000 0.000000
0.965682 1.000000 0.000000
1.000000 0.996078 0.000000
0.000000 0.000000 0.397543
0.015198 0.000000 0.393622
0.094118 0.000000 0.389700
0.256367 0.000000 0.381857
0.503929 0.000000 0.372793
0.730388 0.000000 0.373953
0.902937 0.000000 0.383703
1.000000 0.000000 0.399207
1.000000 0.000000 0.414710
0.000000 0.026474 0.386267
0.007614 0.024598 0.387396
0.093751 0.022553 0.385779
0.271092 0.022553 0.381857
0.517494 0.018631 0.375494
0.743450 0.015198 0.375494
0.914702 0.015198 0.380758
1.000000 0.015198 0.391180
1.000000 0.019120 0.399329
0.000000 0.140200 0.378302
0.000000 0.140200 0.381857
0.087678 0.140200 0.378027
0.291295 0.141344 0.376791
0.536767 0.143145 0.374945
0.755016 0.135286 0.375494
0.922301 0.121813 0.376104
1.000000 0.095583 0.380026
1.000000 0.084321 0.386770
0.000000 0.330327 0.372488
0.000000 0.329412 0.371679
0.000000 0.326955 0.370230
0.301045 0.327535 0.370443
0.551446 0.329961 0.371572
0.761761 0.327535 0.371221
0.922545 0.323033 0.367651
1.000000 0.311086 0.363607
1.000000 0.301961 0.363729
0.000000 0.549020 0.362249
0.000000 0.549020 0.362249
0.000000 0.547051 0.361028
0.279896 0.545098 0.361791
0.555276 0.543145 0.362997
0.755154 0.539223 0.360754
0.912261 0.537255 0.355154
1.000000 0.535134 0.347066
1.000000 0.532845 0.344610
0.000000 0.717159 0.350484
0.000000 0.717159 0.348211
0.000000 0.713848 0.346563
0.289906 0.713237 0.345098
0.558816 0.712047 0.345098
0.749996 0.709316 0.340826
0.898650 0.703304 0.332967
1.000000 0.700008 0.321569
1.000000 0.697551 0.316732
0.000000 0.839216 0.328435
0.000000 0.839216 0.324514
0.000000 0.838239 0.321843
0.367422 0.838239 0.320592
0.585473 0.838239 0.316487
0.749508 0.835294 0.308690
0.890471 0.831220 0.298802
1.000000 0.823407 0.287739
1.000000 0.814710 0.278920
0.000000 0.934798 0.286458
0.000000 0.934798 0.286275
0.235233 0.934798 0.282475
0.468620 0.934798 0.278431
0.630793 0.934798 0.270100
0.766674 0.933516 0.260472
0.886275 0.930877 0.245457
0.993072 0.922972 0.235981
1.000000 0.911269 0.229908
0.300984 1.000000 0.258335
0.348531 1.000000 0.254414
0.447059 1.000000 0.254414
0.568139 1.000000 0.248951
0.682353 1.000000 0.241428
0.784802 1.000000 0.230884
0.885298 1.000000 0.213855
0.965682 1.000000 0.194125
1.000000 0.996078 0.190692
0.000000 0.000000 0.592157
0.015686 0.000000 0.588479
0.113237 0.000000 0.588235
0.270832 0.000000 0.583093
0.496071 0.000000 0.576471
0.727199 0.000000 0.564706
0.901961 0.000000 0.556863
1.000000 0.000000 0.559319
1.000000 0.000000 0.570581
0.000000 0.022553 0.584802
0.011276 0.019089 0.588235
0.105394 0.018631 0.588235
0.281621 0.018631 0.584314
0.513237 0.016052 0.579538
0.739712 0.015198 0.569848
0.914580 0.015198 0.562676
1.000000 0.015198 0.562997
1.000000 0.019120 0.570581
0.000000 0.147555 0.580392
0.000000 0.140566 0.584314
0.096208 0.140200 0.583215
0.299016 0.143145 0.580392
0.534798 0.139956 0.576471
0.753307 0.132601 0.568627
0.921569 0.117769 0.564706
1.000000 0.091661 0.564706
1.000000 0.084810 0.569116
0.000000 0.330877 0.576471
0.000000 0.330877 0.576471
0.000000 0.330877 0.574319
0.306157 0.331334 0.571328
0.550240 0.334798 0.568627
0.761761 0.330877 0.564706
0.921752 0.323033 0.560784
1.000000 0.310780 0.560784
1.000000 0.298039 0.562249
0.000000 0.547051 0.563729
0.000000 0.547051 0.563729
0.000000 0.547051 0.562005
0.287739 0.545098 0.560784
0.552941 0.542153 0.556863
0.752209 0.539223 0.554910
0.910292 0.534066 0.550973
1.000000 0.527199 0.545098
1.000000 0.520592 0.543130
0.000000 0.717159 0.552941
0.000000 0.716518 0.552209
0.000000 0.713237 0.550240
0.281132 0.713237 0.547829
0.554284 0.709316 0.545098
0.746075 0.706920 0.542397
0.896574 0.701472 0.537072
1.000000 0.697551 0.529412
1.000000 0.697551 0.525490
0.000000 0.839216 0.544610
0.000000 0.839216 0.542641
0.000000 0.838239 0.539086
0.336095 0.835294 0.533333
0.577447 0.835294 0.529168
0.748531 0.834318 0.525490
0.889830 0.830396 0.520958
1.000000 0.823407 0.515190
1.000000 0.818631 0.508827
0.000000 0.934798 0.528923
0.000000 0.934798 0.525032
0.081376 0.934310 0.521080
0.432441 0.930877 0.514366
0.620096 0.930877 0.509560
0.763241 0.930877 0.505394
0.886275 0.929961 0.501045
0.993072 0.923033 0.495827
1.000000 0.915190 0.489708
0.154894 1.000000 0.507851
0.250980 1.000000 0.504173
0.393133 1.000000 0.501961
0.544366 1.000000 0.498039
0.674510 1.000000 0.494118
0.788724 1.000000 0.490196
0.887739 1.000000 0.483818
0.965682 1.000000 0.476219
1.000000 1.000000 0.470588
0.000000 0.000000 0.747066
0.019120 0.000000 0.744610
0.132357 0.000000 0.743130
0.298528 0.000000 0.740688
0.505394 0.000000 0.736767
0.715618 0.000000 0.731365
0.897551 0.000000 0.720104
1.000000 0.000000 0.707836
1.000000 0.000000 0.703914
0.000000 0.019120 0.740993
0.011704 0.015351 0.746746
0.116670 0.015198 0.747112
0.300603 0.015198 0.744610
0.518135 0.015198 0.740688
0.730282 0.015198 0.736767
0.910201 0.015198 0.725002
1.000000 0.015198 0.713237
1.000000 0.019120 0.707836
0.000000 0.145953 0.740688
0.000000 0.135653 0.744610
0.106920 0.132448 0.743511
0.311971 0.133822 0.740688
0.538598 0.129900 0.737377
0.746532 0.121828 0.733227
0.917983 0.105211 0.725002
1.000000 0.082002 0.715373
1.000000 0.082353 0.707836
0.000000 0.338720 0.737682
0.000000 0.337194 0.737682
0.000687 0.334798 0.736767
0.313146 0.330877 0.733181
0.551446 0.330877 0.731930
0.757839 0.328496 0.728573
0.918624 0.319112 0.721080
1.000000 0.305577 0.714046
1.000000 0.293202 0.711772
0.000000 0.545098 0.728923
0.000000 0.545098 0.728923
0.000000 0.545098 0.726406
0.288487 0.543145 0.723507
0.552941 0.541176 0.720714
0.749996 0.537255 0.717159
0.908339 0.532296 0.713054
1.000000 0.521477 0.708431
1.000000 0.513725 0.705394
0.000000 0.713237 0.715679
0.000000 0.713237 0.714885
0.000000 0.713237 0.713237
0.276478 0.709895 0.711772
0.550988 0.709041 0.709041
0.744259 0.705394 0.705394
0.893019 0.701106 0.701106
1.000000 0.693629 0.694972
1.000000 0.689708 0.692164
0.000000 0.839216 0.703304
0.000000 0.838895 0.703304
0.000000 0.838239 0.701472
0.315892 0.835294 0.699382
0.564462 0.834318 0.696574
0.743923 0.831373 0.692653
0.886275 0.827451 0.687160
0.999145 0.823529 0.681819
1.000000 0.819608 0.675853
0.000000 0.934798 0.696071
0.000000 0.934798 0.695766
0.000000 0.934310 0.693446
0.392340 0.930877 0.688411
0.597787 0.930877 0.681529
0.756191 0.929915 0.676158
0.884337 0.926955 0.671702
0.992645 0.923033 0.668055
1.000000 0.915190 0.661769
0.000000 1.000000 0.685786
0.097002 1.000000 0.685786
0.316670 1.000000 0.681865
0.497063 1.000000 0.674022
0.654658 1.000000 0.666178
0.782361 1.000000 0.660777
0.889220 1.000000 0.656245
0.969116 1.000000 0.650492
1.000000 1.000000 0.646571
0.000000 0.000000 0.869612
0.023041 0.000000 0.866667
0.147311 0.000000 0.866667
0.331868 0.000000 0.863844
0.532357 0.000000 0.862257
0.717525 0.000000 0.858824
0.883330 0.000000 0.854902
1.000000 0.000000 0.843992
1.000000 0.000000 0.831373
0.000000 0.019120 0.866667
0.012451 0.015198 0.870481
0.124605 0.011765 0.873533
0.322469 0.015198 0.870588
0.538842 0.015198 0.868132
0.730022 0.015198 0.866300
0.897673 0.015198 0.861769
1.000000 0.015198 0.850935
1.000000 0.019120 0.831373
0.000000 0.131121 0.865690
0.000000 0.118990 0.870588
0.116670 0.113725 0.870039
0.327581 0.110780 0.867399
0.554910 0.106859 0.866667
0.745251 0.098039 0.862745
0.906798 0.085542 0.858824
1.000000 0.076097 0.850523
1.000000 0.082353 0.831373
0.000000 0.343267 0.865690
0.000000 0.338720 0.866056
0.002213 0.330602 0.863844
0.318013 0.323735 0.862745
0.558816 0.322362 0.859922
0.756374 0.317723 0.858824
0.910780 0.308736 0.854902
1.000000 0.295003 0.846754
1.000000 0.282353 0.831373
0.000000 0.549020 0.858824
0.000000 0.549020 0.858824
0.000000 0.545953 0.856367
0.283635 0.541909 0.854902
0.551965 0.536767 0.850980
0.749264 0.532113 0.849027
0.904417 0.526589 0.846571
1.000000 0.516976 0.839216
1.000000 0.509316 0.830396
0.000000 0.709316 0.848890
0.000000 0.709316 0.847059
0.000000 0.708949 0.847059
0.263233 0.706081 0.843137
0.544610 0.705211 0.841672
0.740459 0.701472 0.839216
0.890806 0.696757 0.835294
1.000000 0.689586 0.830228
1.000000 0.681865 0.825360
0.000000 0.835294 0.835294
0.000000 0.835294 0.835294
0.000000 0.835050 0.834318
0.299351 0.833585 0.831373
0.556863 0.831373 0.830396
0.736767 0.828824 0.827451
0.882353 0.826291 0.823529
0.996567 0.819608 0.819608
1.000000 0.815686 0.814710
0.000000 0.934798 0.822187
0.000000 0.934310 0.822187
0.000000 0.931533 0.820249
0.368887 0.930877 0.819608
0.582361 0.930388 0.819120
0.744289 0.926955 0.815198
0.878431 0.926741 0.811276
0.989639 0.923018 0.807248
1.000000 0.918624 0.800000
0.000000 1.000000 0.811765
0.000000 1.000000 0.811765
0.268879 1.000000 0.811765
0.467155 1.000000 0.811765
0.625483 1.000000 0.807843
0.766049 1.000000 0.802457
0.886030 1.000000 0.796078
0.969604 1.000000 0.791669
1.000000 1.000000 0.784314
0.000000 0.000000 0.961761
0.023041 0.000000 0.958328
0.158816 0.000000 0.957839
0.358816 0.000000 0.957839
0.565194 0.000000 0.957839
0.729412 0.000000 0.957839
0.878431 0.000000 0.954406
1.000000 0.000000 0.954406
1.000000 0.000000 0.946563
0.000000 0.022614 0.957900
0.011704 0.015198 0.964828
0.129122 0.011765 0.966171
0.341192 0.014771 0.966171
0.562966 0.015198 0.966171
0.741115 0.015198 0.966171
0.891051 0.015198 0.965896
1.000000 0.015198 0.962249
1.000000 0.019120 0.946563
0.000000 0.098528 0.960906
0.000107 0.086656 0.966155
0.130846 0.079774 0.966171
0.345907 0.079896 0.966171
0.574258 0.076478 0.966171
0.753826 0.075135 0.966171
0.901228 0.073533 0.962997
1.000000 0.070222 0.961822
1.000000 0.076463 0.943130
0.000000 0.341176 0.965682
0.000000 0.333501 0.966171
0.005646 0.318578 0.966171
0.323033 0.307973 0.962249
0.568444 0.303090 0.962249
0.764218 0.297551 0.962249
0.909804 0.289174 0.958511
1.000000 0.274281 0.956191
1.000000 0.262257 0.942641
0.000000 0.552941 0.962249
0.000000 0.552941 0.962249
0.000000 0.547051 0.959014
0.275090 0.537835 0.958328
0.550973 0.527321 0.954406
0.750576 0.519509 0.954406
0.901961 0.513481 0.952026
1.000000 0.507134 0.950271
1.000000 0.500008 0.937011
0.000000 0.707836 0.954406
0.000000 0.707836 0.953292
0.000000 0.707836 0.950561
0.241672 0.705394 0.950484
0.534310 0.701472 0.946563
0.734310 0.693629 0.945220
0.886885 0.688365 0.942641
1.000000 0.681865 0.940902
1.000000 0.677455 0.930877
0.000000 0.827451 0.945586
0.000000 0.827451 0.943008
0.000000 0.827451 0.942641
0.277333 0.827375 0.941665
0.543877 0.826474 0.938720
0.728618 0.823529 0.935027
0.877424 0.819608 0.934585
0.995712 0.815686 0.930877
1.000000 0.810422 0.926101
0.000000 0.930877 0.931304
0.000000 0.930877 0.930938
0.000000 0.930068 0.930877
0.348379 0.926955 0.930419
0.570840 0.926955 0.926955
0.736599 0.924910 0.926528
0.870588 0.923033 0.923033
0.988357 0.919112 0.919539
1.000000 0.915190 0.915190
0.000000 1.000000 0.911269
0.000000 1.000000 0.911269
0.217151 1.000000 0.914336
0.447364 1.000000 0.915190
0.613230 1.000000 0.915190
0.750973 1.000000 0.915190
0.874510 1.000000 0.911269
0.965682 1.000000 0.907347
1.000000 1.000000 0.903426
0.000000 0.000000 1.000000
0.023041 0.000000 1.000000
0.158816 0.000000 1.000000
0.376471 0.000000 1.000000
0.584314 0.000000 1.000000
0.743130 0.000000 1.000000
0.878431 0.000000 1.000000
1.000000 0.000000 1.000000
1.000000 0.000000 1.000000
0.000000 0.023041 1.000000
0.011704 0.019120 1.000000
0.132723 0.015198 1.000000
0.352941 0.015198 1.000000
0.578424 0.015198 1.000000
0.748531 0.015198 1.000000
0.886275 0.015686 1.000000
1.000000 0.018692 1.000000
1.000000 0.019120 1.000000
0.000000 0.089220 1.000000
0.000855 0.081376 1.000000
0.134310 0.075242 1.000000
0.356863 0.076341 1.000000
0.585779 0.074510 1.000000
0.760296 0.074876 1.000000
0.894118 0.072541 1.000000
1.000000 0.072923 1.000000
1.000000 0.075486 1.000000
0.000000 0.331868 1.000000
0.000000 0.320592 1.000000
0.024262 0.301472 1.000000
0.331807 0.290196 1.000000
0.578424 0.286275 1.000000
0.768139 0.279957 1.000000
0.905882 0.270588 1.000000
1.000000 0.256870 1.000000
1.000000 0.237751 1.000000
0.000000 0.552941 1.000000
0.000000 0.549264 1.000000
0.000000 0.543145 1.000000
0.278676 0.531380 1.000000
0.553918 0.515679 1.000000
0.753185 0.507851 1.000000
0.900008 0.503426 1.000000
1.000000 0.496071 1.000000
1.000000 0.488228 1.000000
0.000000 0.705394 1.000000
0.000000 0.705394 1.000000
0.000000 0.703914 1.000000
0.243076 0.701472 1.000000
0.528679 0.697551 1.000000
0.732845 0.685786 1.000000
0.885176 0.677943 1.000000
1.000000 0.674022 1.000000
1.000000 0.666178 1.000000
0.000000 0.819608 1.000000
0.000000 0.819608 1.000000
0.000000 0.819608 1.000000
0.278920 0.822553 1.000000
0.535790 0.822553 1.000000
0.718624 0.819608 1.000000
0.870588 0.813977 1.000000
0.989700 0.807843 1.000000
1.000000 0.803922 1.000000
0.000000 0.915190 1.000000
0.000000 0.915190 1.000000
0.000000 0.915190 1.000000
0.349996 0.918624 1.000000
0.564950 0.919112 1.000000
0.727642 0.919112 1.000000
0.862745 0.919112 1.000000
0.981796 0.915190 1.000000
1.000000 0.911269 1.000000
0.000000 1.000000 1.000000
0.000000 1.000000 1.000000
0.201968 1.000000 1.000000
0.435782 1.000000 1.000000
0.601968 1.000000 1.000000
0.747066 1.000000 1.000000
0.869612 1.000000 1.000000
0.961761 1.000000 1.000000
1.000000 1.000000 1.000000
