app/src/main/assets/filters/Leica_M9_STD.cube
# Created from Leica_M9_STD.plut
LUT_3D_SIZE 9
DOMAIN_MIN 0.0 0.0 0.0
DOMAIN_MAX 1.0 1.0 1.0
0.000000 0.000000 0.000000
0.085863 0.000000 0.000000
0.178561 0.000000 0.000000
0.297658 0.000000 0.000000
0.459266 0.000000 0.000000
0.632334 0.000000 0.000000
0.782040 0.000000 0.000000
0.916777 0.000000 0.000000
1.000000 0.000000 0.000000
0.000000 0.085618 0.000000
0.085542 0.085451 0.000000
0.177829 0.083879 0.000000
0.295903 0.076478 0.000000
0.456718 0.057008 0.000000
0.629709 0.011719 0.000000
0.780835 0.000000 0.000000
0.916167 0.000000 0.000000
1.000000 0.000000 0.000000
0.000000 0.177295 0.000000
0.082963 0.177035 0.000000
0.176883 0.176455 0.000000
0.292683 0.172763 0.000000
0.452277 0.165698 0.000000
0.626246 0.152148 0.000000
0.777981 0.134646 0.000000
0.912871 0.106996 0.000000
1.000000 0.059495 0.000000
0.000000 0.291646 0.000000
0.072160 0.291371 0.000000
0.172229 0.290715 0.000000
0.290730 0.288197 0.000000
0.447150 0.283391 0.000000
0.622187 0.275502 0.000000
0.773922 0.262806 0.000000
0.910765 0.245686 0.000000
1.000000 0.224994 0.000000
0.000000 0.444068 0.000000
0.045716 0.443839 0.000000
0.163149 0.442741 0.000000
0.283497 0.440406 0.000000
0.440925 0.435218 0.000000
0.615930 0.428870 0.000000
0.768475 0.418585 0.000000
0.906233 0.404501 0.000000
1.000000 0.385794 0.000000
0.000000 0.612512 0.000000
0.000000 0.612329 0.000000
0.147158 0.611841 0.000000
0.273304 0.609216 0.000000
0.431403 0.606180 0.000000
0.609171 0.602274 0.000000
0.762661 0.595636 0.000000
0.901289 0.585946 0.000000
1.000000 0.573236 0.000000
0.000000 0.758801 0.000000
0.000000 0.758679 0.000000
0.125673 0.758312 0.000000
0.257099 0.757458 0.000000
0.417716 0.754711 0.000000
0.599527 0.751278 0.000000
0.755550 0.747189 0.000000
0.895949 0.741039 0.000000
1.000000 0.732937 0.000000
0.000000 0.891554 0.000000
0.000000 0.891432 0.000000
0.093141 0.891142 0.000000
0.239689 0.889845 0.000000
0.401770 0.887770 0.000000
0.588647 0.886458 0.000000
0.747387 0.882689 0.000000
0.888151 0.878248 0.000000
1.000000 0.873060 0.000000
0.000000 1.000000 0.033249
0.000000 1.000000 0.031571
0.037964 1.000000 0.026291
0.217914 1.000000 0.015656
0.382208 1.000000 0.001358
0.573480 1.000000 0.000000
0.738674 1.000000 0.000000
0.881712 1.000000 0.000000
1.000000 0.997574 0.000000
0.000000 0.000000 0.085603
0.085725 0.000000 0.085573
0.178073 0.000000 0.085115
0.296208 0.000000 0.081254
0.457801 0.000000 0.074083
0.630457 0.000000 0.061952
0.781582 0.000000 0.045075
0.916365 0.000000 0.021286
1.000000 0.000000 0.000000
0.000000 0.085588 0.085527
0.085451 0.085451 0.085451
0.177432 0.084306 0.084916
0.295399 0.077180 0.080781
0.456031 0.058900 0.073564
0.629267 0.015549 0.061555
0.779065 0.000000 0.044999
0.915785 0.000000 0.021790
1.000000 0.000000 0.000000
0.000000 0.177188 0.084901
0.083238 0.176913 0.084688
0.176684 0.176455 0.083818
0.292119 0.173205 0.079438
0.450813 0.166461 0.071992
0.625879 0.152987 0.060182
0.777630 0.135973 0.044327
0.912520 0.108156 0.022538
1.000000 0.062516 0.000000
0.000000 0.291539 0.081071
0.072572 0.291279 0.080461
0.172244 0.290639 0.079072
0.290517 0.288273 0.076616
0.446830 0.283680 0.068742
0.621256 0.276127 0.056931
0.773632 0.263600 0.042069
0.910460 0.246143 0.022461
1.000000 0.225498 0.000000
0.000000 0.444007 0.076677
0.045945 0.443778 0.075975
0.163165 0.442557 0.073686
0.283406 0.440375 0.069276
0.440711 0.435325 0.063416
0.615702 0.429267 0.051209
0.767361 0.419120 0.037385
0.906004 0.405005 0.020401
1.000000 0.386099 0.001785
0.000000 0.612482 0.073747
0.000000 0.612314 0.072435
0.147112 0.611810 0.069215
0.273228 0.609201 0.065049
0.431296 0.606210 0.056321
0.609018 0.602335 0.046113
0.762493 0.595727 0.032547
0.901106 0.586053 0.016785
1.000000 0.573373 0.002960
0.000000 0.758801 0.076143
0.000000 0.758663 0.075090
0.125536 0.758312 0.071534
0.256870 0.757473 0.066377
0.417380 0.754726 0.057130
0.599420 0.751324 0.045838
0.755261 0.747234 0.031632
0.895811 0.741421 0.016114
1.000000 0.733394 0.004974
0.000000 0.891554 0.085191
0.000000 0.891432 0.084092
0.092775 0.891142 0.080812
0.239399 0.889921 0.076280
0.401663 0.887785 0.068025
0.588235 0.886488 0.056489
0.747280 0.882719 0.042588
0.888045 0.878309 0.027634
1.000000 0.873121 0.014054
0.000000 1.000000 0.098680
0.000000 1.000000 0.098009
0.037354 1.000000 0.095918
0.217609 1.000000 0.091173
0.382116 1.000000 0.086076
0.573404 1.000000 0.076905
0.738598 1.000000 0.065400
0.881621 1.000000 0.050355
1.000000 0.997620 0.037430
0.000000 0.000000 0.177096
0.085618 0.000000 0.177096
0.177768 0.000000 0.177005
0.295079 0.000000 0.176379
0.455344 0.000000 0.172412
0.628763 0.000000 0.168185
0.778637 0.000000 0.162020
0.914611 0.000000 0.153384
1.000000 0.000000 0.147036
0.000000 0.085756 0.177066
0.085084 0.085435 0.176959
0.177203 0.084337 0.176776
0.293156 0.078218 0.176104
0.452888 0.062577 0.172198
0.626398 0.024018 0.167834
0.778088 0.000000 0.161929
0.912932 0.000000 0.153429
1.000000 0.000000 0.147189
0.000000 0.177127 0.176837
0.083070 0.176837 0.176669
0.176455 0.176455 0.176455
0.291310 0.174105 0.175265
0.449409 0.168078 0.171649
0.623484 0.155398 0.166812
0.775296 0.137774 0.161440
0.911711 0.111131 0.153414
1.000000 0.068254 0.147524
0.000000 0.291356 0.175982
0.073335 0.291066 0.175616
0.172427 0.290440 0.174899
0.289494 0.288396 0.173404
0.444343 0.284703 0.170657
0.619333 0.277394 0.165133
0.771069 0.264500 0.160006
0.907881 0.247272 0.153002
1.000000 0.226734 0.147906
0.000000 0.443870 0.172732
0.046479 0.443641 0.172412
0.163287 0.442084 0.171725
0.283284 0.440299 0.170596
0.440253 0.435645 0.168078
0.614603 0.430228 0.163455
0.766751 0.420417 0.157763
0.904662 0.405524 0.152056
1.000000 0.388052 0.148135
0.000000 0.612421 0.171450
0.000000 0.612253 0.171084
0.147021 0.611627 0.170153
0.272892 0.609171 0.167895
0.430991 0.606241 0.164385
0.608637 0.602441 0.160967
0.762066 0.595926 0.156039
0.900664 0.586328 0.151049
1.000000 0.574166 0.148104
0.000000 0.758785 0.171923
0.000000 0.758648 0.171511
0.125216 0.758312 0.170474
0.256519 0.757473 0.168109
0.416587 0.754757 0.164096
0.599161 0.751415 0.159701
0.754955 0.747356 0.154604
0.894789 0.742275 0.150469
1.000000 0.734539 0.148180
0.000000 0.891554 0.176715
0.000000 0.891447 0.176318
0.091859 0.891157 0.174319
0.238666 0.890059 0.171649
0.401038 0.887831 0.168673
0.587213 0.886549 0.163485
0.747036 0.882826 0.157610
0.887770 0.878431 0.152132
1.000000 0.873289 0.149599
0.000000 1.000000 0.184115
0.000000 1.000000 0.183764
0.036027 1.000000 0.182559
0.216846 1.000000 0.179370
0.381857 1.000000 0.176852
0.573175 1.000000 0.171588
0.737865 1.000000 0.165698
0.881376 1.000000 0.160861
1.000000 0.997757 0.155856
0.000000 0.000259 0.290837
0.084398 0.000000 0.290944
0.177539 0.000000 0.290974
0.293355 0.000000 0.290761
0.450721 0.000000 0.289113
0.625406 0.000000 0.285710
0.776730 0.000000 0.280034
0.911894 0.000000 0.275074
1.000000 0.000000 0.269337
0.000000 0.086061 0.290974
0.082856 0.085542 0.290974
0.177050 0.083558 0.290883
0.292241 0.078309 0.290608
0.450126 0.065858 0.288731
0.623316 0.033829 0.285374
0.774716 0.000000 0.279805
0.911452 0.000000 0.275013
1.000000 0.000000 0.269383
0.000000 0.177478 0.290898
0.079072 0.177157 0.290791
0.175570 0.176455 0.290501
0.290944 0.174136 0.289845
0.446952 0.169451 0.287755
0.621546 0.157458 0.284474
0.773617 0.140475 0.279347
0.910292 0.116899 0.274769
1.000000 0.077607 0.269474
0.000000 0.291325 0.290532
0.071412 0.291035 0.290364
0.172198 0.290257 0.289464
0.288426 0.288426 0.288426
0.442130 0.286152 0.287022
0.616663 0.278218 0.283207
0.770001 0.265629 0.278828
0.906783 0.250492 0.274235
1.000000 0.230610 0.269535
0.000000 0.443702 0.288792
0.046586 0.443442 0.288365
0.163424 0.441337 0.287404
0.283345 0.439780 0.286854
0.437980 0.436027 0.285374
0.612299 0.431266 0.281819
0.765835 0.421485 0.277928
0.902617 0.407599 0.273701
1.000000 0.391287 0.269490
0.000000 0.612314 0.287068
0.000000 0.612146 0.286854
0.146883 0.611154 0.286229
0.272526 0.609079 0.283803
0.430014 0.606180 0.282246
0.606439 0.602625 0.278813
0.759670 0.596292 0.275700
0.897993 0.587961 0.272236
1.000000 0.576120 0.269215
0.000000 0.758755 0.287007
0.000000 0.758618 0.286763
0.124666 0.758282 0.285771
0.256153 0.757473 0.283238
0.415732 0.754788 0.280415
0.598734 0.751827 0.277852
0.754421 0.747570 0.273930
0.892927 0.742794 0.270268
1.000000 0.735195 0.268544
0.000000 0.891569 0.290105
0.000000 0.891463 0.289464
0.090791 0.891188 0.287800
0.237415 0.890288 0.286488
0.399649 0.887892 0.282979
0.586221 0.886656 0.278965
0.746624 0.882979 0.275334
0.887297 0.878660 0.271458
1.000000 0.873564 0.269261
0.000000 1.000000 0.295094
0.000000 1.000000 0.294499
0.033570 1.000000 0.292927
0.216037 1.000000 0.291600
0.380697 1.000000 0.289464
0.572793 1.000000 0.285481
0.736156 1.000000 0.280369
0.879347 1.000000 0.277058
1.000000 0.998001 0.273289
0.000000 0.002182 0.440284
0.080797 0.000732 0.440436
0.176486 0.000000 0.440696
0.292119 0.000000 0.440757
0.448676 0.000000 0.440406
0.621958 0.000000 0.437354
0.772213 0.000000 0.433051
0.908019 0.000000 0.428092
1.000000 0.000000 0.422538
0.000000 0.086870 0.440543
0.078828 0.086259 0.440650
0.175570 0.084077 0.440787
0.291722 0.078172 0.440742
0.447410 0.067247 0.440360
0.620294 0.041840 0.437156
0.771084 0.000000 0.432868
0.907652 0.000000 0.428061
1.000000 0.000000 0.422568
0.000000 0.177996 0.440848
0.074434 0.177646 0.440864
0.172488 0.176715 0.440818
0.290669 0.173434 0.440604
0.445289 0.169619 0.440070
0.618860 0.159884 0.436561
0.770199 0.144564 0.432364
0.906783 0.123217 0.427985
1.000000 0.088350 0.422629
0.000000 0.291707 0.440803
0.064622 0.291447 0.440742
0.169619 0.290761 0.440543
0.287129 0.288518 0.439963
0.440772 0.286213 0.438376
0.615167 0.278935 0.435264
0.766781 0.268315 0.431617
0.903944 0.252522 0.427787
1.000000 0.235157 0.422553
0.000000 0.443702 0.440375
0.041215 0.443458 0.440284
0.162173 0.441352 0.439658
0.282979 0.439445 0.437888
0.436133 0.436133 0.436133
0.609186 0.432029 0.434501
0.762737 0.423392 0.430884
0.901396 0.409262 0.426474
1.000000 0.394034 0.422065
0.000000 0.612222 0.438621
0.000000 0.612039 0.438209
0.146349 0.610636 0.437140
0.272068 0.608927 0.435248
0.429618 0.605905 0.434379
0.604562 0.602792 0.431662
0.758312 0.598489 0.428199
0.896910 0.589258 0.424781
1.000000 0.578134 0.421546
0.000000 0.758709 0.437385
0.000000 0.758587 0.436881
0.123278 0.758251 0.435584
0.255680 0.757351 0.434531
0.415335 0.754772 0.431693
0.596765 0.752209 0.428855
0.753399 0.748043 0.425696
0.892027 0.743221 0.422751
1.000000 0.735714 0.420935
0.000000 0.891585 0.439414
0.000000 0.891493 0.438880
0.089265 0.891218 0.437507
0.236500 0.890532 0.435065
0.398596 0.887968 0.432914
0.585702 0.886778 0.429541
0.745708 0.883192 0.425483
0.886595 0.879042 0.422019
1.000000 0.873960 0.420310
0.000000 1.000000 0.443610
0.000000 1.000000 0.443427
0.029541 1.000000 0.442100
0.215183 1.000000 0.440558
0.378943 1.000000 0.437720
0.571572 1.000000 0.434318
0.735592 1.000000 0.429847
0.878477 1.000000 0.425238
1.000000 0.998352 0.422019
0.000000 0.007233 0.604303
0.076753 0.005737 0.605158
0.172930 0.001007 0.605844
0.290791 0.000000 0.606668
0.446220 0.000000 0.607004
0.618723 0.000000 0.605844
0.769406 0.000000 0.602945
0.905867 0.000000 0.599573
1.000000 0.000000 0.595956
0.000000 0.088808 0.605600
0.074678 0.088182 0.605753
0.172137 0.086275 0.606134
0.290440 0.080369 0.607233
0.445228 0.069535 0.607263
0.617792 0.048676 0.605875
0.767987 0.001816 0.602945
0.905379 0.000000 0.599573
1.000000 0.000000 0.595956
0.000000 0.178882 0.606424
0.067872 0.178531 0.606836
0.170245 0.177554 0.607614
0.287724 0.174701 0.608164
0.443687 0.170047 0.607645
0.615915 0.162127 0.605890
0.766751 0.148409 0.602945
0.902983 0.129152 0.599557
1.000000 0.099489 0.595972
0.000000 0.292271 0.608301
0.053910 0.292027 0.608377
0.164660 0.291356 0.608499
0.284001 0.289555 0.608377
0.440330 0.285847 0.607385
0.612665 0.279240 0.605798
0.764569 0.270069 0.602869
0.901778 0.256474 0.599496
1.000000 0.240040 0.595972
0.000000 0.444022 0.608423
0.027863 0.443809 0.608392
0.156664 0.442802 0.608225
0.278706 0.440452 0.607385
0.434577 0.436378 0.605921
0.608591 0.432242 0.604822
0.760876 0.424765 0.602579
0.898039 0.412161 0.599268
1.000000 0.397559 0.595880
0.000000 0.612238 0.607050
0.000000 0.612085 0.606851
0.142321 0.610849 0.606287
0.269703 0.608972 0.605829
0.428290 0.605844 0.604349
0.602853 0.602853 0.602853
0.755032 0.599222 0.601465
0.895491 0.590219 0.598749
1.000000 0.579675 0.595590
0.000000 0.758679 0.605875
0.000000 0.758541 0.605814
0.120699 0.758221 0.605615
0.254032 0.757153 0.604089
0.414466 0.754696 0.602747
0.596109 0.751720 0.601312
0.750805 0.749355 0.599176
0.890791 0.743786 0.596063
1.000000 0.737102 0.594446
0.000000 0.891600 0.605936
0.000000 0.891508 0.605844
0.087175 0.891249 0.605615
0.235569 0.890761 0.603769
0.397269 0.888029 0.602579
0.584344 0.886870 0.599695
0.743496 0.883375 0.597574
0.884840 0.881086 0.595377
1.000000 0.876234 0.592660
0.000000 1.000000 0.608728
0.000000 1.000000 0.608621
0.022568 1.000000 0.608103
0.214054 1.000000 0.606149
0.377768 1.000000 0.604517
0.569696 1.000000 0.602411
0.734844 1.000000 0.599191
0.877714 1.000000 0.595895
1.000000 0.998795 0.593164
0.000000 0.018250 0.747463
0.070970 0.016571 0.747662
0.170520 0.011353 0.749401
0.287114 0.000977 0.750561
0.442130 0.000000 0.751003
0.615137 0.000000 0.751080
0.765835 0.000000 0.750607
0.901732 0.000000 0.747707
1.000000 0.000000 0.746349
0.000000 0.092531 0.747967
0.068406 0.091722 0.748775
0.169787 0.090028 0.750271
0.286748 0.086122 0.750759
0.441321 0.076493 0.751141
0.614374 0.058167 0.751171
0.765515 0.021302 0.750668
0.901549 0.000000 0.747753
1.000000 0.000000 0.746380
0.000000 0.181384 0.750393
0.061402 0.180728 0.750530
0.166247 0.179248 0.750820
0.284504 0.177295 0.751186
0.440360 0.171908 0.751720
0.612711 0.164294 0.751431
0.763272 0.151720 0.750805
0.901030 0.136477 0.748043
1.000000 0.110506 0.746441
0.000000 0.294331 0.751202
0.045594 0.293706 0.751293
0.161624 0.292287 0.751827
0.280430 0.291020 0.753063
0.435904 0.287007 0.753689
0.610819 0.280873 0.752697
0.762264 0.273213 0.750973
0.898207 0.260609 0.748577
1.000000 0.244770 0.746532
0.000000 0.445365 0.753506
0.010513 0.444739 0.753719
0.151064 0.443854 0.753811
0.274388 0.441566 0.753918
0.431159 0.438071 0.753902
0.606439 0.432395 0.753307
0.758724 0.425330 0.751064
0.896590 0.415045 0.748882
1.000000 0.401541 0.746593
0.000000 0.612467 0.753841
0.000000 0.612329 0.753857
0.138415 0.611917 0.753887
0.265187 0.609354 0.753872
0.423819 0.607202 0.753719
0.601617 0.602960 0.751507
0.754330 0.599313 0.750790
0.892363 0.592447 0.748043
1.000000 0.582528 0.746487
0.000000 0.758724 0.753491
0.000000 0.758602 0.753399
0.117617 0.758282 0.753140
0.251423 0.757519 0.752438
0.411887 0.754788 0.751308
0.595529 0.751522 0.750729
0.749798 0.749798 0.749798
0.887358 0.746242 0.747265
1.000000 0.738949 0.745876
0.000000 0.891630 0.752758
0.000000 0.891539 0.752514
0.084001 0.891279 0.751873
0.234043 0.890806 0.751232
0.395178 0.888090 0.750805
0.582681 0.886885 0.749950
0.743038 0.883375 0.747311
0.882658 0.881636 0.746349
1.000000 0.877012 0.743450
0.000000 1.000000 0.753933
0.000000 1.000000 0.753872
0.014023 1.000000 0.753719
0.211398 1.000000 0.752117
0.375280 1.000000 0.751019
0.567071 1.000000 0.750240
0.732280 1.000000 0.747265
0.876875 1.000000 0.745556
1.000000 0.999313 0.743069
0.000000 0.034028 0.877134
0.065461 0.033021 0.877333
0.166934 0.029618 0.877821
0.283268 0.019303 0.878523
0.437156 0.000946 0.880461
0.610239 0.000000 0.881697
0.761913 0.000000 0.881788
0.897536 0.000000 0.881315
1.000000 0.000000 0.878447
0.000000 0.099184 0.877501
0.062425 0.098741 0.877699
0.165438 0.097383 0.878141
0.282887 0.092699 0.878782
0.436408 0.085985 0.881376
0.609674 0.070924 0.881849
0.761791 0.043931 0.881895
0.897398 0.000000 0.881407
1.000000 0.000000 0.878508
0.000000 0.184771 0.878294
0.053468 0.184512 0.878462
0.163287 0.183734 0.878828
0.280842 0.180835 0.881163
0.434821 0.177020 0.881849
0.609110 0.169909 0.882216
0.760296 0.158206 0.882185
0.897032 0.142809 0.881605
1.000000 0.122393 0.878660
0.000000 0.296345 0.881147
0.036194 0.296147 0.881407
0.157168 0.295598 0.881682
0.277775 0.292927 0.882094
0.431678 0.290608 0.882521
0.607340 0.284138 0.882750
0.758785 0.277058 0.882612
0.896300 0.265202 0.881941
1.000000 0.250935 0.878904
0.000000 0.447105 0.882322
0.000000 0.446952 0.882414
0.148043 0.446036 0.882612
0.270405 0.443854 0.882902
0.427039 0.440589 0.883207
0.602914 0.434730 0.883330
0.756512 0.427970 0.883085
0.893156 0.417823 0.882322
1.000000 0.405371 0.880095
0.000000 0.612894 0.883101
0.000000 0.612741 0.883146
0.134035 0.612406 0.883284
0.260960 0.611353 0.883482
0.418463 0.608820 0.884367
0.598535 0.604715 0.884642
0.753017 0.599512 0.883436
0.891234 0.593393 0.882628
1.000000 0.585397 0.881361
0.000000 0.758907 0.883452
0.000000 0.758801 0.883482
0.113085 0.758511 0.883680
0.247745 0.757961 0.884199
0.407080 0.755169 0.884642
0.589837 0.753811 0.884215
0.747250 0.750225 0.883253
0.886503 0.746395 0.882536
1.000000 0.739559 0.881331
0.000000 0.891707 0.883513
0.000000 0.891615 0.883513
0.078645 0.891371 0.883513
0.230777 0.890913 0.883482
0.391974 0.888212 0.883391
0.579690 0.887022 0.883116
0.741558 0.883391 0.882536
0.881773 0.881773 0.881773
1.000000 0.877653 0.878843
0.000000 1.000000 0.884535
0.000000 1.000000 0.884382
0.005341 1.000000 0.884016
0.209277 1.000000 0.883467
0.372763 1.000000 0.883207
0.566094 1.000000 0.882734
0.731518 1.000000 0.881971
0.875181 1.000000 0.879072
1.000000 0.999802 0.877928
0.000000 0.050111 0.992767
0.057847 0.049470 0.992996
0.163684 0.047456 0.993515
0.279438 0.041489 0.994324
0.432166 0.028748 0.995315
0.605829 0.001236 0.997772
0.757885 0.000000 0.998383
0.893217 0.000000 0.998520
1.000000 0.000000 0.998093
0.000000 0.107591 0.993164
0.054475 0.107240 0.993378
0.162890 0.106188 0.993866
0.279026 0.103090 0.994629
0.431678 0.096956 0.996277
0.605707 0.085985 0.997986
0.757778 0.065965 0.998550
0.893126 0.025650 0.998642
1.000000 0.000000 0.998199
0.000000 0.190021 0.994049
0.046616 0.189776 0.994232
0.159655 0.188418 0.994659
0.277958 0.185931 0.995438
0.431037 0.183261 0.997726
0.604547 0.176852 0.998474
0.756619 0.166552 0.998947
0.892851 0.151843 0.998962
1.000000 0.134112 0.998444
0.000000 0.300160 0.995453
0.027558 0.299992 0.996002
0.153155 0.299550 0.997436
0.273945 0.297398 0.997986
0.427970 0.294377 0.998642
0.602670 0.290135 0.999252
0.755001 0.282063 0.999603
0.892302 0.271489 0.999496
1.000000 0.257939 0.998871
0.000000 0.450095 0.998367
0.000000 0.449851 0.998489
0.144808 0.448646 0.998764
0.267201 0.447059 0.999191
0.422705 0.443946 0.999710
0.599374 0.439887 1.000000
0.753887 0.431662 1.000000
0.891325 0.423011 1.000000
1.000000 0.410773 0.999451
0.000000 0.615381 0.999695
0.000000 0.615152 0.999771
0.130373 0.613901 0.999985
0.257939 0.612558 1.000000
0.414359 0.610575 1.000000
0.595010 0.607462 1.000000
0.750210 0.602396 1.000000
0.887831 0.595865 1.000000
1.000000 0.587549 1.000000
0.000000 0.759258 1.000000
0.000000 0.759167 1.000000
0.109056 0.758923 1.000000
0.244846 0.758434 1.000000
0.402976 0.757290 1.000000
0.586267 0.754498 1.000000
0.744091 0.750866 1.000000
0.883970 0.746746 1.000000
1.000000 0.740230 1.000000
0.000000 0.891905 1.000000
0.000000 0.891814 1.000000
0.074723 0.891585 1.000000
0.227573 0.891157 1.000000
0.388342 0.889052 1.000000
0.576226 0.887434 1.000000
0.738613 0.885771 1.000000
0.878782 0.881987 1.000000
1.000000 0.877867 1.000000
0.000000 1.000000 1.000000
0.000000 1.000000 1.000000
0.000000 1.000000 1.000000
0.207691 1.000000 1.000000
0.370565 1.000000 1.000000
0.563104 1.000000 1.000000
0.728527 1.000000 1.000000
0.873442 1.000000 1.000000
1.000000 1.000000 1.000000
