app/src/main/assets/filters/Leica_M9_STD.cube
# Created from Leica_M9_STD.plut
LUT_3D_SIZE 5
DOMAIN_MIN 0.0 0.0 0.0
DOMAIN_MAX 1.0 1.0 1.0
0.000000 0.000000 0.000000
0.178561 0.000000 0.000000
0.459266 0.000000 0.000000
0.782040 0.000000 0.000000
1.000000 0.000000 0.000000
0.000000 0.177295 0.000000
0.176883 0.176455 0.000000
0.452277 0.165698 0.000000
0.777981 0.134646 0.000000
1.000000 0.059495 0.000000
0.000000 0.444068 0.000000
0.163149 0.442741 0.000000
0.440925 0.435218 0.000000
0.768475 0.418585 0.000000
1.000000 0.385794 0.000000
0.000000 0.758801 0.000000
0.125673 0.758312 0.000000
0.417716 0.754711 0.000000
0.755550 0.747189 0.000000
1.000000 0.732937 0.000000
0.000000 1.000000 0.033249
0.037964 1.000000 0.026291
0.382208 1.000000 0.001358
0.738674 1.000000 0.000000
1.000000 0.997574 0.000000
0.000000 0.000000 0.177096
0.177768 0.000000 0.177005
0.455344 0.000000 0.172412
0.778637 0.000000 0.162020
1.000000 0.000000 0.147036
0.000000 0.177127 0.176837
0.176455 0.176455 0.176455
0.449409 0.168078 0.171649
0.775296 0.137774 0.161440
1.000000 0.068254 0.147524
0.000000 0.443870 0.172732
0.163287 0.442084 0.171725
0.440253 0.435645 0.168078
0.766751 0.420417 0.157763
1.000000 0.388052 0.148135
0.000000 0.758785 0.171923
0.125216 0.758312 0.170474
0.416587 0.754757 0.164096
0.754955 0.747356 0.154604
1.000000 0.734539 0.148180
0.000000 1.000000 0.184115
0.036027 1.000000 0.182559
0.381857 1.000000 0.176852
0.737865 1.000000 0.165698
1.000000 0.997757 0.155856
0.000000 0.002182 0.440284
0.176486 0.000000 0.440696
0.448676 0.000000 0.440406
0.772213 0.000000 0.433051
1.000000 0.000000 0.422538
0.000000 0.177996 0.440848
0.172488 0.176715 0.440818
0.445289 0.169619 0.440070
0.770199 0.144564 0.432364
1.000000 0.088350 0.422629
0.000000 0.443702 0.440375
0.162173 0.441352 0.439658
0.436133 0.436133 0.436133
0.762737 0.423392 0.430884
1.000000 0.394034 0.422065
0.000000 0.758709 0.437385
0.123278 0.758251 0.435584
0.415335 0.754772 0.431693
0.753399 0.748043 0.425696
1.000000 0.735714 0.420935
0.000000 1.000000 0.443610
0.029541 1.000000 0.442100
0.378943 1.000000 0.437720
0.735592 1.000000 0.429847
1.000000 0.998352 0.422019
0.000000 0.018250 0.747463
0.170520 0.011353 0.749401
0.442130 0.000000 0.751003
0.765835 0.000000 0.750607
1.000000 0.000000 0.746349
0.000000 0.181384 0.750393
0.166247 0.179248 0.750820
0.440360 0.171908 0.751720
0.763272 0.151720 0.750805
1.000000 0.110506 0.746441
0.000000 0.445365 0.753506
0.151064 0.443854 0.753811
0.431159 0.438071 0.753902
0.758724 0.425330 0.751064
1.000000 0.401541 0.746593
0.000000 0.758724 0.753491
0.117617 0.758282 0.753140
0.411887 0.754788 0.751308
0.749798 0.749798 0.749798
1.000000 0.738949 0.745876
0.000000 1.000000 0.753933
0.014023 1.000000 0.753719
0.375280 1.000000 0.751019
0.732280 1.000000 0.747265
1.000000 0.999313 0.743069
0.000000 0.050111 0.992767
0.163684 0.047456 0.993515
0.432166 0.028748 0.995315
0.757885 0.000000 0.998383
1.000000 0.000000 0.998093
0.000000 0.190021 0.994049
0.159655 0.188418 0.994659
0.431037 0.183261 0.997726
0.756619 0.166552 0.998947
1.000000 0.134112 0.998444
0.000000 0.450095 0.998367
0.144808 0.448646 0.998764
0.422705 0.443946 0.999710
0.753887 0.431662 1.000000
1.000000 0.410773 0.999451
0.000000 0.759258 1.000000
0.109056 0.758923 1.000000
0.402976 0.757290 1.000000
0.744091 0.750866 1.000000
1.000000 0.740230 1.000000
0.000000 1.000000 1.000000
0.000000 1.000000 1.000000
0.370565 1.000000 1.000000
0.728527 1.000000 1.000000
1.000000 1.000000 1.000000
