app/src/main/assets/filters/leica.cube
# Created from leica.plut
LUT_3D_SIZE 33
DOMAIN_MIN 0.0 0.0 0.0
DOMAIN_MAX 1.0 1.0 1.0
0.000000 0.000000 0.000000
0.003799 0.000000 0.000000
0.003922 0.000000 0.000000
0.007843 0.000000 0.000000
0.011276 0.000000 0.000000
0.018997 0.000000 0.000000
0.030640 0.000000 0.000000
0.048402 0.000000 0.000000
0.078431 0.000000 0.000000
0.112139 0.000000 0.000000
0.157351 0.000000 0.000000
0.203677 0.000000 0.000000
0.254902 0.000000 0.000000
0.316670 0.000000 0.000000
0.378424 0.000000 0.000000
0.442283 0.000000 0.000000
0.505882 0.000000 0.000000
0.565805 0.000000 0.000000
0.623774 0.000000 0.000000
0.680140 0.000000 0.000000
0.730388 0.000000 0.000000
0.776715 0.000000 0.001343
0.821820 0.000000 0.003922
0.864332 0.000000 0.003922
0.902937 0.000000 0.003922
0.937621 0.000000 0.003922
0.971572 0.000000 0.003922
1.000000 0.000000 0.003922
1.000000 0.000000 0.003922
1.000000 0.000000 0.003922
1.000000 0.000000 0.003922
1.000000 0.000000 0.003922
1.000000 0.000000 0.003922
0.000000 0.003799 0.000000
0.000000 0.003799 0.000000
0.003922 0.003799 0.000000
0.007477 0.003799 0.000000
0.007950 0.003799 0.000000
0.018997 0.003799 0.000000
0.029908 0.003799 0.000000
0.048402 0.003799 0.000000
0.078431 0.000946 0.000000
0.113237 0.000000 0.000000
0.157351 0.000000 0.000000
0.203677 0.000000 0.000000
0.258701 0.000000 0.000000
0.316670 0.000000 0.000000
0.378424 0.000000 0.000000
0.444053 0.000000 0.000000
0.507774 0.000000 0.000000
0.567651 0.003799 0.000000
0.625483 0.003799 0.000000
0.684001 0.003799 0.000000
0.731823 0.003799 0.000000
0.780636 0.003799 0.000000
0.825650 0.003799 0.000000
0.865400 0.003799 0.000000
0.905791 0.003799 0.000000
0.940688 0.003799 0.000000
0.975494 0.003799 0.000000
1.000000 0.003799 0.000107
1.000000 0.003815 0.000122
1.000000 0.003922 0.000122
1.000000 0.003922 0.000122
1.000000 0.003922 0.000244
1.000000 0.003922 0.003922
0.000000 0.007599 0.000000
0.000000 0.007828 0.000000
0.000229 0.007599 0.000000
0.003922 0.007599 0.000000
0.007385 0.007599 0.000000
0.018387 0.007599 0.000000
0.026719 0.007599 0.000000
0.047547 0.007599 0.000000
0.081193 0.007599 0.000000
0.115877 0.007599 0.000000
0.161273 0.007599 0.000000
0.207355 0.007599 0.000000
0.258824 0.007599 0.000000
0.320592 0.007599 0.000000
0.382238 0.007599 0.000000
0.444114 0.007599 0.000000
0.509682 0.007599 0.000000
0.569726 0.007599 0.000000
0.627695 0.007599 0.000000
0.684062 0.007599 0.000000
0.734310 0.007599 0.000000
0.780636 0.007599 0.000000
0.825742 0.007599 0.000000
0.868086 0.007599 0.000000
0.905882 0.007660 0.000000
0.941543 0.007843 0.000000
0.975494 0.007843 0.000000
1.000000 0.007843 0.000000
1.000000 0.007843 0.000000
1.000000 0.007843 0.000000
1.000000 0.008072 0.000000
1.000000 0.011521 0.000000
1.000000 0.011521 0.000000
0.000000 0.015320 0.000000
0.000000 0.015320 0.000000
0.000000 0.015320 0.000000
0.003555 0.015320 0.000000
0.007355 0.015320 0.000000
0.015076 0.015320 0.000000
0.026719 0.015320 0.000000
0.048325 0.015320 0.000000
0.082261 0.015320 0.000000
0.118608 0.015320 0.000000
0.164828 0.015320 0.000000
0.208820 0.015320 0.000000
0.262745 0.015320 0.000000
0.324147 0.015320 0.000000
0.384360 0.013321 0.000000
0.447868 0.011566 0.000000
0.511574 0.011398 0.000000
0.571572 0.011398 0.000000
0.631418 0.011398 0.000000
0.685664 0.011398 0.000000
0.735653 0.011398 0.000000
0.784558 0.011398 0.000000
0.826841 0.011765 0.000000
0.868254 0.011765 0.000000
0.906859 0.011765 0.000000
0.941543 0.011765 0.000000
0.975494 0.015320 0.000000
1.000000 0.015320 0.000000
1.000000 0.015320 0.000000
1.000000 0.015320 0.000000
1.000000 0.015320 0.000000
1.000000 0.015686 0.000107
1.000000 0.015686 0.003922
0.000000 0.023041 0.000000
0.000000 0.023041 0.000000
0.000000 0.023041 0.000000
0.000000 0.023041 0.000000
0.004349 0.023041 0.000000
0.015076 0.023041 0.000000
0.025986 0.023041 0.000000
0.051087 0.026474 0.000000
0.082353 0.026474 0.000000
0.122438 0.026474 0.000000
0.165194 0.026474 0.000000
0.211521 0.026474 0.000000
0.267948 0.026474 0.000000
0.327947 0.026474 0.000000
0.388205 0.023041 0.000000
0.451728 0.022782 0.000000
0.515435 0.022553 0.000000
0.575265 0.022553 0.000000
0.633112 0.022553 0.000000
0.689387 0.021149 0.000000
0.738231 0.019120 0.000000
0.786816 0.019120 0.000000
0.829664 0.019120 0.000000
0.871824 0.019120 0.000000
0.909438 0.019120 0.000000
0.945357 0.019120 0.000000
0.979416 0.019120 0.000000
1.000000 0.019120 0.000000
1.000000 0.023041 0.000000
1.000000 0.023041 0.000000
1.000000 0.023041 0.000000
1.000000 0.023148 0.003922
1.000000 0.026963 0.003922
0.000000 0.041306 0.000000
0.000000 0.041306 0.000000
0.000000 0.041306 0.000000
0.000000 0.041306 0.000000
0.003433 0.041306 0.000000
0.011154 0.041306 0.000000
0.022675 0.041306 0.000000
0.051469 0.041306 0.000000
0.086122 0.041306 0.000000
0.126101 0.041306 0.000000
0.170153 0.041718 0.000000
0.215442 0.041917 0.000000
0.273899 0.041917 0.000000
0.331991 0.041917 0.000000
0.393500 0.041566 0.000000
0.457633 0.041306 0.000000
0.520958 0.041306 0.000000
0.579416 0.041306 0.000000
0.639109 0.037995 0.000000
0.693263 0.037736 0.000000
0.741772 0.034073 0.000000
0.790646 0.034073 0.000000
0.833158 0.030564 0.000000
0.873106 0.030152 0.000000
0.910780 0.029313 0.000000
0.948058 0.026841 0.000000
0.979416 0.026841 0.002686
1.000000 0.030243 0.000000
1.000000 0.030762 0.003311
1.000000 0.030762 0.000000
1.000000 0.030961 0.003342
1.000000 0.034684 0.003922
1.000000 0.037995 0.003922
0.000000 0.067643 0.000000
0.000000 0.067643 0.000000
0.000000 0.067643 0.000000
0.000000 0.067643 0.000000
0.000000 0.067643 0.000000
0.001358 0.067643 0.000000
0.015549 0.067643 0.000000
0.049912 0.067643 0.000000
0.085481 0.067643 0.000000
0.126711 0.067643 0.000000
0.173037 0.067643 0.000000
0.221454 0.070222 0.000000
0.277974 0.071565 0.000000
0.337575 0.071565 0.000000
0.399512 0.071565 0.000000
0.462989 0.071565 0.000000
0.525490 0.071565 0.000000
0.585031 0.071229 0.000000
0.642969 0.070832 0.000000
0.697124 0.069245 0.000000
0.745617 0.066911 0.000000
0.794491 0.062989 0.000000
0.836988 0.061265 0.000000
0.876997 0.055146 0.000000
0.914519 0.054170 0.000183
0.949386 0.051225 0.003922
0.983337 0.048035 0.003922
1.000000 0.048035 0.003922
1.000000 0.047639 0.003922
1.000000 0.045594 0.003922
1.000000 0.048768 0.003922
1.000000 0.052720 0.003922
1.000000 0.056611 0.003922
0.000000 0.098528 0.000000
0.000000 0.098528 0.000000
0.000000 0.098528 0.000000
0.000000 0.098528 0.000000
0.000000 0.098528 0.000000
0.000000 0.098528 0.000000
0.004578 0.098528 0.000000
0.042771 0.098528 0.000000
0.083879 0.098528 0.000000
0.130632 0.098528 0.000000
0.176959 0.098528 0.000000
0.224994 0.099092 0.000000
0.285420 0.102449 0.000000
0.343603 0.102449 0.000000
0.405020 0.102449 0.000000
0.470710 0.104082 0.000000
0.532479 0.105516 0.000000
0.590768 0.105516 0.000000
0.648646 0.105516 0.000000
0.700999 0.105516 0.000000
0.751141 0.104372 0.000000
0.798337 0.101595 0.000000
0.840833 0.100374 0.000000
0.880018 0.096574 0.000000
0.918410 0.092775 0.000000
0.953124 0.089830 0.000000
0.987259 0.085176 0.000168
1.000000 0.081987 0.000000
1.000000 0.078431 0.001236
1.000000 0.070787 0.003922
1.000000 0.069062 0.003922
1.000000 0.072053 0.003922
1.000000 0.075853 0.003922
0.000000 0.132357 0.000000
0.000000 0.132357 0.000000
0.000000 0.132357 0.000000
0.000000 0.132357 0.000000
0.000000 0.132357 0.000000
0.000000 0.132357 0.000000
0.000000 0.132357 0.000000
0.029160 0.132357 0.000000
0.080400 0.132357 0.000000
0.131334 0.132357 0.000000
0.177264 0.132357 0.000000
0.231373 0.132357 0.000000
0.291295 0.134798 0.000000
0.350973 0.136278 0.000000
0.412741 0.136278 0.000000
0.476600 0.136278 0.000000
0.538231 0.140200 0.000000
0.596658 0.140200 0.000000
0.654597 0.140200 0.000000
0.706615 0.140200 0.000000
0.755016 0.140200 0.000000
0.802182 0.140200 0.000000
0.844358 0.139223 0.000000
0.883940 0.139223 0.000000
0.920836 0.135286 0.000000
0.957015 0.131365 0.000000
0.989639 0.129656 0.000000
1.000000 0.123369 0.000000
1.000000 0.118990 0.000000
1.000000 0.110414 0.000092
1.000000 0.102998 0.001160
1.000000 0.104051 0.003922
1.000000 0.107836 0.004898
0.000000 0.174884 0.000000
0.000000 0.174884 0.000000
0.000000 0.174884 0.000000
0.000000 0.174884 0.000000
0.000000 0.174884 0.000000
0.000000 0.174884 0.000000
0.000000 0.174884 0.000000
0.006516 0.174014 0.000000
0.070985 0.173770 0.000000
0.127504 0.173770 0.000000
0.176959 0.174533 0.000000
0.236271 0.174884 0.000000
0.296941 0.174884 0.000000
0.355230 0.174884 0.000000
0.420462 0.176471 0.000000
0.482231 0.178286 0.000000
0.543999 0.178805 0.000000
0.602426 0.180117 0.000000
0.659068 0.182101 0.000000
0.710872 0.182727 0.000000
0.758907 0.184482 0.000000
0.806012 0.185534 0.000000
0.846220 0.185534 0.000000
0.887861 0.185534 0.000000
0.922545 0.185260 0.000000
0.959426 0.181369 0.000000
0.990448 0.180514 0.000000
1.000000 0.176593 0.000000
1.000000 0.172671 0.000000
1.000000 0.168643 0.000000
1.000000 0.163546 0.000000
1.000000 0.159838 0.000031
1.000000 0.160906 0.001099
0.000000 0.218875 0.000000
0.000000 0.218875 0.000000
0.000000 0.218875 0.000000
0.000000 0.218875 0.000000
0.000000 0.218875 0.000000
0.000000 0.218875 0.000000
0.000000 0.218875 0.000000
0.000000 0.216175 0.000000
0.055268 0.216175 0.000000
0.120226 0.216175 0.000000
0.177584 0.216175 0.000000
0.240192 0.216175 0.000000
0.301198 0.216175 0.000000
0.361410 0.216175 0.000000
0.424949 0.220096 0.000000
0.489952 0.220096 0.000000
0.548409 0.220096 0.000000
0.608301 0.224018 0.000000
0.664500 0.224018 0.000000
0.714214 0.227207 0.000000
0.762783 0.227939 0.000000
0.806744 0.228870 0.000000
0.849271 0.231861 0.000000
0.887861 0.231861 0.000000
0.925490 0.231861 0.000000
0.960296 0.232456 0.000000
0.990448 0.230640 0.000000
1.000000 0.230640 0.000000
1.000000 0.229068 0.000000
1.000000 0.225483 0.000000
1.000000 0.221576 0.000000
1.000000 0.221576 0.000000
1.000000 0.217639 0.000000
0.000000 0.272923 0.000000
0.000000 0.272923 0.000000
0.000000 0.272923 0.000000
0.000000 0.272923 0.000000
0.000000 0.272923 0.000000
0.000000 0.272923 0.000000
0.000000 0.272923 0.000000
0.000000 0.269856 0.000000
0.013977 0.269001 0.000000
0.098558 0.269001 0.000000
0.170718 0.269001 0.000000
0.237629 0.269001 0.000000
0.301961 0.269001 0.000000
0.365255 0.269001 0.000000
0.429419 0.269001 0.000000
0.493751 0.270344 0.000000
0.552941 0.270344 0.000000
0.612146 0.272923 0.000000
0.666316 0.274266 0.000000
0.716487 0.275319 0.000000
0.765682 0.277348 0.000000
0.808087 0.279072 0.000000
0.849271 0.281178 0.000000
0.887861 0.282826 0.000000
0.925490 0.284688 0.000000
0.960296 0.284688 0.000000
0.990448 0.286519 0.000000
1.000000 0.287251 0.000000
1.000000 0.287251 0.000000
1.000000 0.287007 0.000000
1.000000 0.283330 0.000000
1.000000 0.285832 0.000000
1.000000 0.283330 0.000000
0.000000 0.326955 0.000000
0.000000 0.326955 0.000000
0.000000 0.326955 0.000000
0.000000 0.326955 0.000000
0.000000 0.326955 0.000000
0.000000 0.326955 0.000000
0.000000 0.326955 0.000000
0.000000 0.325811 0.000000
0.000000 0.325490 0.000000
0.061509 0.323735 0.000000
0.162005 0.323033 0.000000
0.235431 0.323033 0.000000
0.300496 0.323033 0.000000
0.366049 0.323033 0.000000
0.432685 0.323033 0.000000
0.496254 0.323033 0.000000
0.556130 0.323033 0.000000
0.614710 0.323033 0.000000
0.669123 0.323674 0.000000
0.718486 0.325505 0.000000
0.765682 0.327504 0.000000
0.808087 0.329274 0.000000
0.850034 0.331334 0.000000
0.887861 0.334798 0.000000
0.923659 0.335164 0.000000
0.960296 0.338720 0.000000
0.990448 0.338994 0.000000
1.000000 0.342641 0.000000
1.000000 0.342641 0.000000
1.000000 0.342641 0.000000
1.000000 0.345098 0.000000
1.000000 0.345144 0.000000
1.000000 0.345098 0.000000
0.000000 0.383337 0.000000
0.000000 0.383337 0.000000
0.000000 0.383337 0.000000
0.000000 0.383337 0.000000
0.000000 0.383337 0.000000
0.000000 0.383337 0.000000
0.000000 0.383337 0.000000
0.000000 0.383337 0.000000
0.000000 0.383337 0.000000
0.021576 0.381659 0.000000
0.142290 0.381003 0.000000
0.223957 0.381003 0.000000
0.296574 0.381003 0.000000
0.366049 0.379416 0.000000
0.433326 0.379416 0.000000
0.499016 0.378180 0.000000
0.558022 0.377081 0.000000
0.616785 0.377081 0.000000
0.669123 0.377081 0.000000
0.719356 0.378683 0.000000
0.765682 0.381003 0.000000
0.808087 0.381552 0.000000
0.849271 0.384924 0.000000
0.887221 0.385367 0.000000
0.922545 0.388846 0.000000
0.956374 0.390951 0.000000
0.987259 0.392767 0.000000
1.000000 0.394720 0.000000
1.000000 0.396689 0.000000
1.000000 0.397055 0.000000
1.000000 0.400610 0.000000
1.000000 0.400687 0.000000
1.000000 0.404532 0.000000
0.000000 0.441169 0.000000
0.000000 0.441169 0.000000
0.000000 0.441169 0.000000
0.000000 0.441169 0.000000
0.000000 0.441169 0.000000
0.000000 0.441169 0.000000
0.000000 0.441169 0.000000
0.000000 0.438972 0.000000
0.000000 0.438972 0.000000
0.000000 0.438972 0.000000
0.114107 0.438972 0.000000
0.211002 0.438972 0.000000
0.292897 0.438972 0.000000
0.365164 0.437263 0.000000
0.433326 0.436011 0.000000
0.496818 0.435050 0.000000
0.556863 0.435050 0.000000
0.616785 0.432303 0.000000
0.669123 0.431128 0.000000
0.719356 0.431128 0.000000
0.765682 0.433677 0.000000
0.807324 0.435050 0.000000
0.849271 0.435584 0.000000
0.885176 0.437385 0.000000
0.921996 0.439399 0.000000
0.954162 0.441169 0.000000
0.985046 0.444602 0.000000
1.000000 0.446815 0.000000
1.000000 0.448524 0.000000
1.000000 0.450889 0.000000
1.000000 0.452583 0.000000
1.000000 0.454704 0.000000
1.000000 0.458579 0.000000
0.000000 0.494850 0.000000
0.000000 0.494850 0.000000
0.000000 0.494850 0.000000
0.000000 0.494850 0.000000
0.000000 0.493248 0.000000
0.000000 0.493019 0.000000
0.000000 0.493019 0.000000
0.000000 0.493019 0.000000
0.000000 0.493019 0.000000
0.000000 0.493019 0.000000
0.077745 0.493019 0.000000
0.200626 0.493019 0.000000
0.287251 0.493019 0.000000
0.362127 0.493019 0.000000
0.431617 0.489891 0.000000
0.495094 0.489097 0.000000
0.556863 0.489097 0.000000
0.616785 0.487251 0.000000
0.667948 0.485176 0.000000
0.719356 0.485176 0.000000
0.762921 0.485176 0.000000
0.806744 0.485176 0.000000
0.846601 0.485740 0.000000
0.883940 0.487007 0.000000
0.918624 0.487526 0.000000
0.952453 0.490929 0.000000
0.983337 0.491325 0.000000
1.000000 0.494850 0.000000
1.000000 0.495338 0.000000
1.000000 0.498772 0.000000
1.000000 0.499016 0.000000
1.000000 0.502693 0.000000
1.000000 0.506615 0.000000
0.000000 0.547051 0.000000
0.000000 0.547051 0.000000
0.000000 0.547051 0.000000
0.000000 0.547051 0.000000
0.000000 0.547051 0.000000
0.000000 0.547051 0.000000
0.000000 0.547051 0.000000
0.000000 0.547051 0.000000
0.000000 0.547051 0.000000
0.000000 0.547051 0.000000
0.052567 0.547051 0.000000
0.190936 0.547051 0.000000
0.282597 0.545098 0.000000
0.359380 0.545098 0.000000
0.428550 0.543145 0.000000
0.495094 0.543145 0.000000
0.556863 0.542153 0.000000
0.612863 0.539223 0.000000
0.666911 0.539223 0.000000
0.716243 0.537255 0.000000
0.761028 0.536522 0.000000
0.804166 0.535302 0.000000
0.844724 0.535302 0.000000
0.880018 0.537255 0.000000
0.917647 0.537255 0.000000
0.948531 0.537255 0.000000
0.979416 0.537987 0.000000
1.000000 0.541176 0.000000
1.000000 0.541421 0.000000
1.000000 0.545098 0.000000
1.000000 0.547066 0.000000
1.000000 0.549020 0.000000
1.000000 0.550973 0.000000
0.000000 0.595346 0.000000
0.000000 0.595346 0.000000
0.000000 0.595346 0.000000
0.000000 0.595346 0.000000
0.000000 0.595346 0.000000
0.000000 0.595346 0.000000
0.000000 0.595346 0.000000
0.000000 0.595346 0.000000
0.000000 0.595346 0.000000
0.000000 0.593500 0.000000
0.043137 0.593500 0.000000
0.190173 0.591424 0.000000
0.285786 0.591424 0.000000
0.362127 0.591424 0.000000
0.429419 0.591424 0.000000
0.495094 0.591424 0.000000
0.557900 0.588540 0.000000
0.612863 0.587503 0.000000
0.665202 0.587503 0.000000
0.714687 0.583581 0.000000
0.759152 0.583581 0.000000
0.802823 0.582940 0.000000
0.841428 0.579660 0.000000
0.879515 0.579660 0.000000
0.913725 0.579660 0.000000
0.944610 0.580117 0.000000
0.977569 0.581735 0.000000
1.000000 0.582025 0.000000
1.000000 0.583841 0.000000
1.000000 0.585657 0.000000
1.000000 0.585657 0.000000
1.000000 0.589578 0.000000
1.000000 0.589578 0.000000
0.000000 0.637751 0.000000
0.000000 0.637751 0.000000
0.000000 0.637751 0.000000
0.000000 0.637751 0.000000
0.000000 0.637751 0.000000
0.000000 0.637751 0.000000
0.000000 0.637751 0.000000
0.000000 0.637751 0.000000
0.000000 0.637751 0.000000
0.000000 0.637751 0.000000
0.044312 0.637751 0.000000
0.193256 0.637751 0.000000
0.287495 0.637751 0.000000
0.363851 0.637751 0.000000
0.432364 0.636774 0.000000
0.497978 0.636027 0.000000
0.554894 0.633829 0.000000
0.608942 0.633829 0.000000
0.662989 0.633066 0.000000
0.711513 0.629908 0.000000
0.756130 0.629252 0.000000
0.799649 0.625986 0.000000
0.837507 0.625986 0.000000
0.876097 0.624262 0.000000
0.910353 0.624262 0.000000
0.942885 0.624262 0.000000
0.973770 0.624262 0.000000
1.000000 0.624262 0.000000
1.000000 0.624262 0.000000
1.000000 0.624262 0.000000
1.000000 0.624262 0.000000
1.000000 0.626520 0.000000
1.000000 0.628183 0.000000
0.000000 0.678553 0.000000
0.000000 0.678553 0.000000
0.000000 0.678553 0.000000
0.000000 0.678553 0.000000
0.000000 0.678553 0.000000
0.000000 0.678553 0.000000
0.000000 0.678553 0.000000
0.000000 0.678553 0.000000
0.000000 0.678553 0.000000
0.000000 0.678553 0.000000
0.061006 0.678553 0.000000
0.207050 0.678553 0.000000
0.297688 0.678553 0.000000
0.371572 0.678553 0.000000
0.438849 0.676341 0.000000
0.501701 0.674632 0.000000
0.556497 0.674632 0.000000
0.610544 0.674632 0.000000
0.662287 0.673610 0.000000
0.708980 0.670710 0.000000
0.753918 0.670710 0.000000
0.797299 0.666789 0.000000
0.835904 0.666789 0.000000
0.872175 0.664012 0.000000
0.908217 0.662867 0.000000
0.940688 0.662867 0.000000
0.971267 0.662867 0.000000
0.996689 0.661280 0.000000
1.000000 0.662867 0.000000
1.000000 0.661280 0.000000
1.000000 0.661280 0.000000
1.000000 0.661280 0.000000
1.000000 0.661280 0.000000
0.000000 0.717159 0.000000
0.000000 0.717159 0.000000
0.000000 0.717159 0.000000
0.000000 0.717159 0.000000
0.000000 0.717159 0.000000
0.000000 0.717159 0.000000
0.000000 0.717159 0.000000
0.000000 0.717159 0.000000
0.000000 0.717159 0.000000
0.000000 0.717159 0.000000
0.085389 0.717159 0.000000
0.224628 0.716197 0.000000
0.309804 0.715679 0.000000
0.380758 0.715679 0.000000
0.446571 0.714305 0.000000
0.504784 0.713237 0.000000
0.558816 0.713237 0.000000
0.612863 0.713237 0.000000
0.661280 0.712596 0.000000
0.707591 0.709316 0.000000
0.753368 0.709316 0.000000
0.794003 0.707973 0.000000
0.833585 0.705394 0.000000
0.871077 0.703227 0.000000
0.904417 0.701472 0.000000
0.936767 0.701152 0.000000
0.967376 0.699535 0.000000
0.995453 0.697551 0.000000
1.000000 0.697551 0.000000
1.000000 0.696071 0.000000
1.000000 0.695918 0.000000
1.000000 0.696071 0.000000
1.000000 0.696071 0.000000
0.000000 0.750484 0.000000
0.000000 0.750484 0.000000
0.000000 0.750484 0.000000
0.000000 0.750484 0.000000
0.000000 0.750484 0.000000
0.000000 0.750484 0.000000
0.000000 0.750484 0.000000
0.000000 0.750484 0.000000
0.000000 0.750484 0.000000
0.000000 0.750484 0.000000
0.134401 0.750484 0.000000
0.247150 0.750484 0.000000
0.327565 0.750484 0.000000
0.396750 0.750484 0.000000
0.456001 0.750484 0.000000
0.510048 0.749126 0.000000
0.564096 0.747921 0.000000
0.616297 0.747280 0.000000
0.661280 0.746563 0.000000
0.707591 0.746563 0.000000
0.752453 0.743999 0.000000
0.791058 0.742641 0.000000
0.829664 0.740078 0.000000
0.867887 0.738720 0.000000
0.901961 0.736156 0.000000
0.933410 0.734798 0.000000
0.963729 0.734325 0.000000
0.992248 0.732021 0.000000
1.000000 0.730877 0.000000
1.000000 0.726955 0.000000
1.000000 0.726955 0.000000
1.000000 0.726955 0.000000
1.000000 0.726955 0.000000
0.000000 0.785290 0.000000
0.000000 0.785290 0.000000
0.000000 0.785290 0.000000
0.000000 0.785290 0.000000
0.000000 0.785290 0.000000
0.000000 0.783017 0.000000
0.000000 0.782605 0.000000
0.000000 0.782605 0.000000
0.000000 0.782605 0.000000
0.022553 0.781369 0.000000
0.179446 0.781369 0.000000
0.275547 0.781369 0.000000
0.347311 0.781369 0.000000
0.412512 0.781369 0.000000
0.467643 0.781369 0.000000
0.520256 0.781369 0.000000
0.571817 0.781369 0.000000
0.618875 0.781369 0.000000
0.664012 0.781369 0.000000
0.708324 0.780270 0.000000
0.749538 0.777447 0.000000
0.790249 0.777447 0.000000
0.829664 0.774365 0.000000
0.863996 0.773526 0.000000
0.898711 0.770520 0.000000
0.932570 0.769604 0.000000
0.961990 0.766690 0.000000
0.990066 0.765682 0.000000
1.000000 0.761761 0.000000
1.000000 0.761395 0.000000
1.000000 0.757839 0.000000
1.000000 0.756619 0.000000
1.000000 0.753918 0.000000
0.000000 0.812253 0.000000
0.000000 0.812253 0.000000
0.000000 0.812253 0.000000
0.000000 0.812253 0.000000
0.000000 0.812253 0.000000
0.000000 0.812253 0.000000
0.000000 0.812253 0.000000
0.000000 0.812253 0.000000
0.000000 0.812253 0.000000
0.100404 0.812253 0.000000
0.225574 0.812253 0.000000
0.306004 0.812253 0.000000
0.372351 0.812253 0.000000
0.427451 0.812253 0.000000
0.480385 0.812253 0.000000
0.531838 0.812253 0.000000
0.579538 0.811154 0.000000
0.623377 0.811154 0.000000
0.666300 0.809918 0.000000
0.709926 0.808331 0.000000
0.748531 0.808331 0.000000
0.788479 0.808331 0.000000
0.827680 0.804410 0.000000
0.862440 0.804410 0.000000
0.895094 0.802609 0.000000
0.928923 0.800488 0.000000
0.959594 0.796567 0.000000
0.986587 0.796399 0.000000
1.000000 0.792508 0.000000
1.000000 0.788617 0.000000
1.000000 0.784802 0.000000
1.000000 0.784802 0.000000
1.000000 0.783703 0.000000
0.000000 0.842161 0.000000
0.000000 0.842161 0.000000
0.000000 0.842161 0.000000
0.000000 0.842161 0.000000
0.000000 0.842161 0.000000
0.000000 0.842161 0.000000
0.000000 0.842161 0.000000
0.000000 0.842161 0.000000
0.020584 0.842161 0.000000
0.175341 0.842161 0.000000
0.270161 0.839216 0.000000
0.338567 0.839216 0.000000
0.394125 0.839216 0.000000
0.446113 0.839216 0.000000
0.496269 0.839216 0.000000
0.543877 0.839216 0.000000
0.587259 0.839216 0.000000
0.629786 0.839216 0.000000
0.672297 0.838788 0.000000
0.713848 0.838239 0.000000
0.752453 0.838239 0.000000
0.789120 0.837217 0.000000
0.825422 0.835294 0.000000
0.860136 0.834318 0.000000
0.894118 0.831373 0.000000
0.925002 0.831159 0.000000
0.955886 0.827451 0.000000
0.985168 0.826017 0.000000
1.000000 0.822187 0.000000
1.000000 0.818357 0.000000
1.000000 0.814710 0.000000
1.000000 0.811765 0.000000
1.000000 0.810788 0.000000
0.000000 0.866178 0.000000
0.000000 0.866178 0.000000
0.000000 0.866178 0.000000
0.000000 0.866178 0.000000
0.000000 0.866178 0.000000
0.000000 0.866178 0.000000
0.000000 0.866178 0.000000
0.013397 0.866178 0.000000
0.146014 0.866178 0.000000
0.242039 0.866178 0.000000
0.311543 0.865583 0.000000
0.365988 0.865324 0.000000
0.417273 0.865324 0.000000
0.467521 0.865324 0.000000
0.513359 0.865324 0.000000
0.557229 0.865324 0.000000
0.597360 0.865324 0.000000
0.637903 0.865324 0.000000
0.679652 0.865324 0.000000
0.714702 0.865324 0.000000
0.752453 0.864164 0.000000
0.791058 0.862257 0.000000
0.824506 0.861982 0.000000
0.859312 0.861402 0.000000
0.893263 0.858335 0.000000
0.924147 0.857481 0.000000
0.951965 0.854414 0.000000
0.981369 0.853071 0.000000
1.000000 0.849149 0.000000
1.000000 0.842573 0.000000
1.000000 0.841596 0.000000
1.000000 0.837873 0.000000
1.000000 0.837873 0.000000
0.000000 0.892409 0.000000
0.000000 0.892409 0.000000
0.000000 0.892409 0.000000
0.000000 0.892409 0.000000
0.000000 0.892409 0.000000
0.000000 0.892409 0.000000
0.010163 0.892409 0.000000
0.134005 0.892409 0.000000
0.230213 0.892409 0.000000
0.293996 0.892409 0.000000
0.344610 0.892409 0.000000
0.394858 0.892409 0.000000
0.441169 0.892409 0.000000
0.488960 0.892409 0.000000
0.530144 0.892409 0.000000
0.568750 0.892409 0.000000
0.607355 0.889220 0.000000
0.649149 0.888869 0.000000
0.683818 0.888487 0.000000
0.720394 0.888487 0.000000
0.756832 0.888487 0.000000
0.791058 0.888487 0.000000
0.824506 0.888487 0.000000
0.859312 0.888487 0.000000
0.890196 0.885115 0.000000
0.921080 0.884565 0.000000
0.951827 0.881239 0.000000
