app/src/main/assets/filters/leica.cube
# Created from leica.plut
LUT_3D_SIZE 5
DOMAIN_MIN 0.0 0.0 0.0
DOMAIN_MAX 1.0 1.0 1.0
0.000000 0.000000 0.000000
0.078431 0.000000 0.000000
0.505882 0.000000 0.000000
0.902937 0.000000 0.003922
1.000000 0.000000 0.003922
0.000000 0.132357 0.000000
0.080400 0.132357 0.000000
0.538231 0.140200 0.000000
0.920836 0.135286 0.000000
1.000000 0.107836 0.004898
0.000000 0.547051 0.000000
0.000000 0.547051 0.000000
0.556863 0.542153 0.000000
0.917647 0.537255 0.000000
1.000000 0.550973 0.000000
0.000000 0.842161 0.000000
0.020584 0.842161 0.000000
0.587259 0.839216 0.000000
0.894118 0.831373 0.000000
1.000000 0.810788 0.000000
0.380392 1.000000 0.000000
0.484321 1.000000 0.000000
0.680385 1.000000 0.000000
0.881376 1.000000 0.000000
1.000000 0.996078 0.000000
0.000000 0.000000 0.199023
0.082109 0.000000 0.191180
0.505882 0.000000 0.195590
0.902937 0.000000 0.214710
1.000000 0.000000 0.225483
0.000000 0.136278 0.184070
0.080400 0.136278 0.186267
0.537621 0.136278 0.190188
0.922301 0.118624 0.185718
1.000000 0.084321 0.179416
0.000000 0.549020 0.151965
0.000000 0.547051 0.151965
0.556863 0.543145 0.151476
0.914214 0.537255 0.130266
1.000000 0.545098 0.108339
0.000000 0.839216 0.000000
0.000000 0.839216 0.000000
0.587259 0.839216 0.000000
0.893568 0.831373 0.000000
1.000000 0.811765 0.000000
0.353918 1.000000 0.000000
0.472541 1.000000 0.000000
0.680385 1.000000 0.000000
0.881376 1.000000 0.000000
1.000000 0.996078 0.000000
0.000000 0.000000 0.592157
0.113237 0.000000 0.588235
0.496071 0.000000 0.576471
0.901961 0.000000 0.556863
1.000000 0.000000 0.570581
0.000000 0.147555 0.580392
0.096208 0.140200 0.583215
0.534798 0.139956 0.576471
0.921569 0.117769 0.564706
1.000000 0.084810 0.569116
0.000000 0.547051 0.563729
0.000000 0.547051 0.562005
0.552941 0.542153 0.556863
0.910292 0.534066 0.550973
1.000000 0.520592 0.543130
0.000000 0.839216 0.544610
0.000000 0.838239 0.539086
0.577447 0.835294 0.529168
0.889830 0.830396 0.520958
1.000000 0.818631 0.508827
0.154894 1.000000 0.507851
0.393133 1.000000 0.501961
0.674510 1.000000 0.494118
0.887739 1.000000 0.483818
1.000000 1.000000 0.470588
0.000000 0.000000 0.869612
0.147311 0.000000 0.866667
0.532357 0.000000 0.862257
0.883330 0.000000 0.854902
1.000000 0.000000 0.831373
0.000000 0.131121 0.865690
0.116670 0.113725 0.870039
0.554910 0.106859 0.866667
0.906798 0.085542 0.858824
1.000000 0.082353 0.831373
0.000000 0.549020 0.858824
0.000000 0.545953 0.856367
0.551965 0.536767 0.850980
0.904417 0.526589 0.846571
1.000000 0.509316 0.830396
0.000000 0.835294 0.835294
0.000000 0.835050 0.834318
0.556863 0.831373 0.830396
0.882353 0.826291 0.823529
1.000000 0.815686 0.814710
0.000000 1.000000 0.811765
0.268879 1.000000 0.811765
0.625483 1.000000 0.807843
0.886030 1.000000 0.796078
1.000000 1.000000 0.784314
0.000000 0.000000 1.000000
0.158816 0.000000 1.000000
0.584314 0.000000 1.000000
0.878431 0.000000 1.000000
1.000000 0.000000 1.000000
0.000000 0.089220 1.000000
0.134310 0.075242 1.000000
0.585779 0.074510 1.000000
0.894118 0.072541 1.000000
1.000000 0.075486 1.000000
0.000000 0.552941 1.000000
0.000000 0.543145 1.000000
0.553918 0.515679 1.000000
0.900008 0.503426 1.000000
1.000000 0.488228 1.000000
0.000000 0.819608 1.000000
0.000000 0.819608 1.000000
0.535790 0.822553 1.000000
0.870588 0.813977 1.000000
1.000000 0.803922 1.000000
0.000000 1.000000 1.000000
0.201968 1.000000 1.000000
0.601968 1.000000 1.000000
0.869612 1.000000 1.000000
1.000000 1.000000 1.000000
