app/src/main/assets/filters/Leica_M9_STD.cube
# Created from Leica_M9_STD.plut
LUT_3D_SIZE 33
DOMAIN_MIN 0.0 0.0 0.0
DOMAIN_MAX 1.0 1.0 1.0
0.000000 0.000000 0.000000
0.020111 0.000000 0.000000
0.040757 0.000000 0.000000
0.063371 0.000000 0.000000
0.085863 0.000000 0.000000
0.107973 0.000000 0.000000
0.130159 0.000000 0.000000
0.152544 0.000000 0.000000
0.178561 0.000000 0.000000
0.205493 0.000000 0.000000
0.234760 0.000000 0.000000
0.264836 0.000000 0.000000
0.297658 0.000000 0.000000
0.334371 0.000000 0.000000
0.371832 0.000000 0.000000
0.413703 0.000000 0.000000
0.459266 0.000000 0.000000
0.504524 0.000000 0.000000
0.549355 0.000000 0.000000
0.590845 0.000000 0.000000
0.632334 0.000000 0.000000
0.670848 0.000000 0.000000
0.709499 0.000000 0.000000
0.746532 0.000000 0.000000
0.782040 0.000000 0.000000
0.816434 0.000000 0.000000
0.850599 0.000000 0.000000
0.884138 0.000000 0.000000
0.916777 0.000000 0.000000
0.947814 0.000000 0.000000
0.977539 0.000000 0.000000
1.000000 0.000000 0.000000
1.000000 0.000000 0.000000
0.000000 0.020081 0.000000
0.020081 0.020066 0.000000
0.040696 0.020035 0.000000
0.063264 0.019928 0.000000
0.085771 0.019654 0.000000
0.107851 0.019120 0.000000
0.130022 0.018173 0.000000
0.152316 0.016678 0.000000
0.178408 0.014466 0.000000
0.205097 0.011398 0.000000
0.234577 0.007584 0.000000
0.264668 0.003296 0.000000
0.297169 0.000000 0.000000
0.333928 0.000000 0.000000
0.371664 0.000000 0.000000
0.413138 0.000000 0.000000
0.459098 0.000000 0.000000
0.503914 0.000000 0.000000
0.548745 0.000000 0.000000
0.590249 0.000000 0.000000
0.632120 0.000000 0.000000
0.670710 0.000000 0.000000
0.709377 0.000000 0.000000
0.746410 0.000000 0.000000
0.781918 0.000000 0.000000
0.815976 0.000000 0.000000
0.850492 0.000000 0.000000
0.883558 0.000000 0.000000
0.916670 0.000000 0.000000
0.947707 0.000000 0.000000
0.977264 0.000000 0.000000
1.000000 0.000000 0.000000
1.000000 0.000000 0.000000
0.000000 0.040696 0.000000
0.020020 0.040665 0.000000
0.040665 0.040635 0.000000
0.063203 0.040574 0.000000
0.085695 0.040406 0.000000
0.107744 0.040040 0.000000
0.129900 0.039384 0.000000
0.152163 0.038270 0.000000
0.178241 0.036759 0.000000
0.204715 0.034806 0.000000
0.234241 0.032059 0.000000
0.264469 0.027817 0.000000
0.296635 0.021546 0.000000
0.333364 0.013962 0.000000
0.371466 0.005692 0.000000
0.412543 0.000000 0.000000
0.458701 0.000000 0.000000
0.503349 0.000000 0.000000
0.548074 0.000000 0.000000
0.589837 0.000000 0.000000
0.631510 0.000000 0.000000
0.670573 0.000000 0.000000
0.709239 0.000000 0.000000
0.746288 0.000000 0.000000
0.781796 0.000000 0.000000
0.815839 0.000000 0.000000
0.850355 0.000000 0.000000
0.883406 0.000000 0.000000
0.916548 0.000000 0.000000
0.947585 0.000000 0.000000
0.977142 0.000000 0.000000
1.000000 0.000000 0.000000
1.000000 0.000000 0.000000
0.000000 0.063188 0.000000
0.019852 0.063157 0.000000
0.040558 0.063111 0.000000
0.063127 0.063066 0.000000
0.085618 0.062959 0.000000
0.107637 0.062745 0.000000
0.129763 0.062303 0.000000
0.151995 0.061540 0.000000
0.178042 0.060349 0.000000
0.204257 0.058610 0.000000
0.233677 0.056199 0.000000
0.264225 0.052979 0.000000
0.296208 0.049454 0.000000
0.332601 0.045319 0.000000
0.371160 0.038575 0.000000
0.412268 0.031464 0.000000
0.457832 0.020554 0.000000
0.503105 0.007843 0.000000
0.547341 0.000000 0.000000
0.589624 0.000000 0.000000
0.630549 0.000000 0.000000
0.670375 0.000000 0.000000
0.709010 0.000000 0.000000
0.746014 0.000000 0.000000
0.781613 0.000000 0.000000
0.815656 0.000000 0.000000
0.850187 0.000000 0.000000
0.883238 0.000000 0.000000
0.916381 0.000000 0.000000
0.947417 0.000000 0.000000
0.976974 0.000000 0.000000
1.000000 0.000000 0.000000
1.000000 0.000000 0.000000
0.000000 0.085618 0.000000
0.019425 0.085588 0.000000
0.040299 0.085557 0.000000
0.062974 0.085512 0.000000
0.085542 0.085451 0.000000
0.107546 0.085344 0.000000
0.129625 0.085145 0.000000
0.151812 0.084749 0.000000
0.177829 0.083879 0.000000
0.203967 0.082567 0.000000
0.233005 0.080735 0.000000
0.263935 0.078630 0.000000
0.295903 0.076478 0.000000
0.331701 0.073014 0.000000
0.370153 0.068528 0.000000
0.411948 0.064103 0.000000
0.456718 0.057008 0.000000
0.502785 0.049210 0.000000
0.547051 0.039857 0.000000
0.589349 0.028382 0.000000
0.629709 0.011719 0.000000
0.670115 0.000000 0.000000
0.707805 0.000000 0.000000
0.744686 0.000000 0.000000
0.780835 0.000000 0.000000
0.815427 0.000000 0.000000
0.849958 0.000000 0.000000
0.883009 0.000000 0.000000
0.916167 0.000000 0.000000
0.947204 0.000000 0.000000
0.976761 0.000000 0.000000
1.000000 0.000000 0.000000
1.000000 0.000000 0.000000
0.000000 0.107561 0.000000
0.018570 0.107530 0.000000
0.039719 0.107485 0.000000
0.062608 0.107424 0.000000
0.085374 0.107362 0.000000
0.107424 0.107286 0.000000
0.129488 0.107149 0.000000
0.151644 0.106905 0.000000
0.177615 0.106508 0.000000
0.203693 0.105882 0.000000
0.232273 0.104997 0.000000
0.263188 0.103182 0.000000
0.295552 0.100633 0.000000
0.331228 0.098390 0.000000
0.368978 0.095415 0.000000
0.411185 0.091112 0.000000
0.456168 0.087572 0.000000
0.501656 0.082597 0.000000
0.546349 0.076539 0.000000
0.589014 0.068803 0.000000
0.629389 0.060456 0.000000
0.669795 0.049393 0.000000
0.706615 0.036423 0.000000
0.743664 0.019043 0.000000
0.779324 0.000000 0.000000
0.815137 0.000000 0.000000
0.849668 0.000000 0.000000
0.882734 0.000000 0.000000
0.915908 0.000000 0.000000
0.946944 0.000000 0.000000
0.976471 0.000000 0.000000
1.000000 0.000000 0.000000
1.000000 0.000000 0.000000
0.000000 0.129534 0.000000
0.017151 0.129488 0.000000
0.038666 0.129442 0.000000
0.061906 0.129381 0.000000
0.085069 0.129305 0.000000
0.107210 0.129229 0.000000
0.129320 0.129107 0.000000
0.151461 0.128923 0.000000
0.177386 0.128649 0.000000
0.203433 0.128206 0.000000
0.231525 0.127550 0.000000
0.262287 0.126650 0.000000
0.294881 0.125460 0.000000
0.330831 0.123445 0.000000
0.368276 0.120211 0.000000
0.409766 0.117952 0.000000
0.455680 0.115267 0.000000
0.500237 0.110292 0.000000
0.544701 0.106676 0.000000
0.587854 0.101091 0.000000
0.629007 0.095323 0.000000
0.668467 0.088548 0.000000
0.706249 0.080858 0.000000
0.743313 0.071809 0.000000
0.778836 0.061097 0.000000
0.814786 0.047501 0.000000
0.849317 0.030823 0.000000
0.882399 0.006973 0.000000
0.915572 0.000000 0.000000
0.946624 0.000000 0.000000
0.976150 0.000000 0.000000
1.000000 0.000000 0.000000
1.000000 0.000000 0.000000
0.000000 0.151553 0.000000
0.014923 0.151507 0.000000
0.037079 0.151461 0.000000
0.060716 0.151385 0.000000
0.084306 0.151293 0.000000
0.106828 0.151202 0.000000
0.129046 0.151080 0.000000
0.151232 0.150927 0.000000
0.177157 0.150713 0.000000
0.203159 0.150378 0.000000
0.231128 0.149889 0.000000
0.261357 0.149203 0.000000
0.293782 0.148287 0.000000
0.329976 0.147097 0.000000
0.367834 0.145006 0.000000
0.408865 0.141985 0.000000
0.454063 0.139879 0.000000
0.499733 0.137423 0.000000
0.544015 0.133577 0.000000
0.586328 0.129534 0.000000
0.627695 0.125917 0.000000
0.667155 0.119997 0.000000
0.705837 0.115435 0.000000
0.742901 0.108461 0.000000
0.778424 0.101381 0.000000
0.814389 0.092805 0.000000
0.848905 0.084901 0.000000
0.882002 0.073716 0.000000
0.913619 0.060517 0.000000
0.946136 0.044190 0.000000
0.975753 0.021637 0.000000
1.000000 0.000000 0.000000
1.000000 0.000000 0.000000
0.000000 0.177295 0.000000
0.011719 0.177249 0.000000
0.035050 0.177203 0.000000
0.058915 0.177127 0.000000
0.082963 0.177035 0.000000
0.106203 0.176913 0.000000
0.128618 0.176791 0.000000
0.150912 0.176638 0.000000
0.176883 0.176455 0.000000
0.202884 0.176120 0.000000
0.230808 0.175341 0.000000
0.260700 0.174243 0.000000
0.292683 0.172763 0.000000
0.328679 0.171771 0.000000
0.366629 0.170596 0.000000
0.408331 0.169131 0.000000
0.452277 0.165698 0.000000
0.498238 0.163607 0.000000
0.542657 0.160830 0.000000
0.585855 0.156893 0.000000
0.626246 0.152148 0.000000
0.666682 0.148913 0.000000
0.705348 0.144472 0.000000
0.742138 0.139544 0.000000
0.777981 0.134646 0.000000
0.813535 0.128542 0.000000
0.846723 0.122194 0.000000
0.881575 0.115465 0.000000
0.912871 0.106996 0.000000
0.944030 0.097673 0.000000
0.975326 0.087236 0.000000
1.000000 0.075212 0.000000
1.000000 0.059495 0.000000
0.000000 0.203082 0.000000
0.007614 0.203021 0.000000
0.032105 0.202976 0.000000
0.056321 0.202899 0.000000
0.080995 0.202792 0.000000
0.105272 0.202625 0.000000
0.127932 0.202319 0.000000
0.150408 0.201953 0.000000
0.176486 0.201541 0.000000
0.202319 0.201007 0.000000
0.230472 0.200320 0.000000
0.260334 0.199420 0.000000
0.292134 0.198810 0.000000
0.327687 0.198062 0.000000
0.365118 0.197116 0.000000
0.406729 0.195438 0.000000
0.450629 0.192691 0.000000
0.496880 0.191043 0.000000
0.541161 0.188373 0.000000
0.585229 0.185168 0.000000
0.625742 0.182376 0.000000
0.665354 0.178271 0.000000
0.703075 0.174380 0.000000
0.740078 0.170291 0.000000
0.777493 0.164950 0.000000
0.811551 0.160449 0.000000
0.846082 0.154131 0.000000
0.879942 0.148760 0.000000
0.912398 0.141970 0.000000
0.943557 0.136568 0.000000
0.974838 0.128756 0.000000
1.000000 0.120394 0.000000
1.000000 0.111543 0.000000
0.000000 0.230732 0.000000
0.002930 0.230686 0.000000
0.027420 0.230625 0.000000
0.052796 0.230549 0.000000
0.078630 0.230457 0.000000
0.103426 0.230335 0.000000
0.126955 0.230182 0.000000
0.149676 0.229908 0.000000
0.175586 0.229465 0.000000
0.201297 0.228931 0.000000
0.230045 0.228275 0.000000
0.259937 0.227420 0.000000
0.291707 0.226658 0.000000
0.327230 0.226047 0.000000
0.364569 0.225269 0.000000
0.405539 0.224308 0.000000
0.450080 0.221637 0.000000
0.495979 0.219913 0.000000
0.540627 0.216526 0.000000
0.582971 0.214679 0.000000
0.624292 0.211383 0.000000
0.663783 0.208591 0.000000
0.702480 0.204379 0.000000
0.739544 0.200198 0.000000
0.776226 0.196841 0.000000
0.811032 0.191836 0.000000
0.845563 0.186786 0.000000
0.878645 0.182620 0.000000
0.911894 0.177081 0.000000
0.943038 0.170947 0.000000
0.974319 0.164462 0.000000
1.000000 0.157610 0.000000
1.000000 0.150301 0.000000
0.000000 0.260258 0.000000
0.000000 0.260212 0.000000
0.020493 0.260151 0.000000
0.048966 0.260075 0.000000
0.076249 0.259983 0.000000
0.100587 0.259846 0.000000
0.125612 0.259648 0.000000
0.148653 0.259266 0.000000
0.173938 0.258747 0.000000
0.199893 0.258183 0.000000
0.228824 0.257496 0.000000
0.259113 0.256733 0.000000
0.291264 0.256275 0.000000
0.326497 0.255772 0.000000
0.363867 0.254551 0.000000
0.404974 0.252552 0.000000
0.448386 0.251499 0.000000
0.493965 0.250355 0.000000
0.539635 0.247410 0.000000
0.582177 0.245411 0.000000
0.622782 0.242054 0.000000
0.663218 0.240070 0.000000
0.701915 0.236194 0.000000
0.738994 0.233005 0.000000
0.774517 0.228855 0.000000
0.810468 0.225040 0.000000
0.844999 0.220310 0.000000
0.878080 0.215366 0.000000
0.911345 0.210193 0.000000
0.942489 0.205539 0.000000
0.973342 0.199145 0.000000
1.000000 0.193515 0.000000
1.000000 0.187701 0.000000
0.000000 0.291646 0.000000
0.000000 0.291600 0.000000
0.012055 0.291539 0.000000
0.043992 0.291463 0.000000
0.072160 0.291371 0.000000
0.098100 0.291249 0.000000
0.123384 0.291096 0.000000
0.147311 0.290913 0.000000
0.172229 0.290715 0.000000
0.198764 0.290486 0.000000
0.227176 0.290013 0.000000
0.257603 0.289189 0.000000
0.290730 0.288197 0.000000
0.324987 0.287282 0.000000
0.362234 0.286748 0.000000
0.403281 0.285496 0.000000
0.447150 0.283391 0.000000
0.493339 0.282368 0.000000
0.537621 0.279438 0.000000
0.579950 0.278096 0.000000
0.622187 0.275502 0.000000
0.660853 0.272938 0.000000
0.699809 0.269444 0.000000
0.737957 0.265614 0.000000
0.773922 0.262806 0.000000
0.809873 0.258640 0.000000
0.844404 0.254093 0.000000
0.877501 0.250431 0.000000
0.910765 0.245686 0.000000
0.941909 0.240864 0.000000
0.971466 0.235782 0.000000
1.000000 0.230503 0.000000
1.000000 0.224994 0.000000
0.000000 0.326314 0.000000
0.000000 0.326177 0.000000
0.003281 0.326024 0.000000
0.036530 0.325811 0.000000
0.067491 0.325521 0.000000
0.094438 0.325170 0.000000
0.119921 0.324727 0.000000
0.145006 0.324239 0.000000
0.170886 0.323949 0.000000
0.197681 0.323720 0.000000
0.226139 0.323461 0.000000
0.256306 0.323156 0.000000
0.289616 0.322210 0.000000
0.323827 0.321035 0.000000
0.361151 0.320119 0.000000
0.402075 0.319539 0.000000
0.446159 0.317739 0.000000
0.491203 0.316152 0.000000
0.536629 0.314290 0.000000
0.579324 0.312184 0.000000
0.619806 0.310887 0.000000
0.660151 0.307607 0.000000
0.698848 0.304234 0.000000
0.735897 0.301152 0.000000
0.772015 0.297704 0.000000
0.807340 0.293874 0.000000
0.841871 0.290791 0.000000
0.876875 0.286610 0.000000
0.908843 0.282078 0.000000
0.941299 0.277790 0.000000
0.970840 0.273014 0.000000
1.000000 0.267018 0.000000
1.000000 0.262486 0.000000
0.000000 0.362051 0.000000
0.000000 0.361913 0.000000
0.000000 0.361761 0.000000
0.028077 0.361563 0.000000
0.061799 0.361425 0.000000
0.090089 0.361288 0.000000
0.117342 0.361151 0.000000
0.141741 0.360967 0.000000
0.169223 0.360784 0.000000
0.196307 0.360388 0.000000
0.225025 0.359625 0.000000
0.255161 0.358724 0.000000
0.287465 0.357855 0.000000
0.323033 0.357473 0.000000
0.360311 0.356985 0.000000
0.401175 0.355459 0.000000
0.444129 0.354086 0.000000
0.490333 0.353155 0.000000
0.534569 0.350683 0.000000
0.577981 0.349340 0.000000
0.619089 0.346715 0.000000
0.659525 0.343877 0.000000
0.697108 0.342229 0.000000
0.735256 0.338857 0.000000
0.770764 0.335546 0.000000
0.806699 0.332006 0.000000
0.841215 0.328130 0.000000
0.875273 0.324056 0.000000
0.907591 0.320012 0.000000
0.939162 0.315846 0.000000
0.970169 0.311543 0.000000
1.000000 0.307088 0.000000
1.000000 0.301305 0.000000
0.000000 0.402014 0.000000
0.000000 0.401984 0.000000
0.000000 0.401938 0.000000
0.015320 0.401862 0.000000
0.053712 0.401785 0.000000
0.086046 0.401648 0.000000
0.113771 0.401389 0.000000
0.139330 0.400839 0.000000
0.165423 0.400198 0.000000
0.192859 0.399466 0.000000
0.222873 0.398871 0.000000
0.252384 0.398581 0.000000
0.286488 0.398276 0.000000
0.320607 0.397345 0.000000
0.358022 0.396002 0.000000
0.398993 0.395224 0.000000
0.443442 0.394491 0.000000
0.488273 0.392401 0.000000
0.533349 0.391470 0.000000
0.576211 0.388968 0.000000
0.617624 0.385946 0.000000
0.657115 0.383993 0.000000
0.695689 0.381720 0.000000
0.733333 0.378576 0.000000
0.770108 0.375265 0.000000
0.806027 0.371832 0.000000
0.840528 0.368292 0.000000
0.873610 0.364630 0.000000
0.906920 0.360845 0.000000
0.938155 0.356725 0.000000
0.969467 0.351797 0.000000
0.999527 0.346929 0.000000
1.000000 0.342657 0.000000
0.000000 0.444068 0.000000
0.000000 0.444022 0.000000
0.000000 0.443977 0.000000
0.002457 0.443915 0.000000
0.045716 0.443839 0.000000
0.079438 0.443732 0.000000
0.108888 0.443595 0.000000
0.136522 0.443397 0.000000
0.163149 0.442741 0.000000
0.190967 0.441978 0.000000
0.220233 0.441123 0.000000
0.251041 0.440696 0.000000
0.283497 0.440406 0.000000
0.319417 0.439765 0.000000
0.357000 0.438422 0.000000
0.398093 0.436896 0.000000
0.440925 0.435218 0.000000
0.487160 0.434516 0.000000
0.531411 0.432685 0.000000
0.574136 0.431266 0.000000
0.615930 0.428870 0.000000
0.656336 0.427314 0.000000
0.695018 0.424674 0.000000
0.732036 0.421637 0.000000
0.768475 0.418585 0.000000
0.803433 0.415244 0.000000
0.838895 0.411887 0.000000
0.872908 0.408377 0.000000
0.906233 0.404501 0.000000
0.937453 0.400168 0.000000
0.968734 0.395590 0.000000
0.998779 0.391638 0.000000
1.000000 0.385794 0.000000
0.000000 0.487984 0.000000
0.000000 0.487846 0.000000
0.000000 0.487724 0.000000
0.000000 0.487663 0.000000
0.034318 0.487556 0.000000
0.072969 0.487465 0.000000
0.104784 0.487343 0.000000
0.131487 0.487190 0.000000
0.159304 0.486946 0.000000
0.187640 0.486183 0.000000
0.216693 0.485313 0.000000
0.248585 0.484489 0.000000
0.281682 0.484199 0.000000
0.316426 0.483787 0.000000
0.354192 0.482521 0.000000
0.395407 0.481285 0.000000
0.439811 0.480842 0.000000
0.484642 0.479210 0.000000
0.529488 0.477897 0.000000
0.572992 0.476326 0.000000
0.615015 0.474617 0.000000
0.654200 0.472114 0.000000
0.692546 0.470390 0.000000
0.731304 0.466453 0.000000
0.766812 0.464012 0.000000
0.802716 0.461219 0.000000
0.837201 0.458076 0.000000
0.872175 0.454612 0.000000
0.904982 0.450217 0.000000
0.936736 0.446647 0.000000
0.968002 0.442329 0.000000
0.998016 0.437629 0.000000
1.000000 0.432609 0.000000
0.000000 0.531319 0.000000
0.000000 0.531289 0.000000
0.000000 0.531243 0.000000
0.000000 0.531197 0.000000
0.019425 0.531106 0.000000
0.065156 0.530861 0.000000
0.098268 0.530434 0.000000
0.127886 0.529870 0.000000
0.155428 0.529213 0.000000
0.184543 0.528573 0.000000
0.214496 0.528359 0.000000
0.245853 0.528115 0.000000
0.278752 0.527840 0.000000
0.314107 0.527550 0.000000
0.352102 0.526558 0.000000
0.393469 0.525078 0.000000
0.436500 0.524559 0.000000
0.483177 0.523293 0.000000
0.528038 0.521706 0.000000
0.571511 0.520592 0.000000
0.612650 0.518578 0.000000
0.653056 0.516670 0.000000
0.691722 0.515084 0.000000
0.728740 0.512337 0.000000
0.766094 0.509453 0.000000
0.801984 0.506569 0.000000
0.836454 0.503593 0.000000
0.869505 0.500374 0.000000
0.902846 0.497017 0.000000
0.936004 0.493706 0.000000
0.965530 0.490288 0.000000
0.996735 0.486061 0.000000
1.000000 0.481407 0.000000
0.000000 0.572885 0.000000
0.000000 0.572854 0.000000
0.000000 0.572808 0.000000
0.000000 0.572763 0.000000
0.002808 0.572702 0.000000
0.053986 0.572610 0.000000
0.091066 0.572503 0.000000
0.123308 0.572122 0.000000
0.150713 0.571450 0.000000
0.180438 0.570687 0.000000
0.210376 0.570016 0.000000
0.242039 0.569757 0.000000
0.276631 0.569451 0.000000
0.311742 0.568307 0.000000
0.349783 0.567102 0.000000
0.391318 0.566690 0.000000
0.434409 0.566293 0.000000
0.480903 0.565530 0.000000
0.526436 0.563516 0.000000
0.569574 0.562875 0.000000
0.611795 0.560525 0.000000
0.650752 0.559808 0.000000
0.690455 0.557839 0.000000
0.727993 0.556100 0.000000
0.763882 0.553567 0.000000
0.799771 0.550698 0.000000
0.835691 0.548882 0.000000
0.868727 0.545800 0.000000
0.902083 0.542428 0.000000
0.933394 0.540291 0.000000
0.964736 0.536599 0.000000
0.994812 0.532311 0.000000
1.000000 0.528405 0.000000
0.000000 0.612512 0.000000
0.000000 0.612482 0.000000
0.000000 0.612451 0.000000
0.000000 0.612406 0.000000
0.000000 0.612329 0.000000
0.042435 0.612253 0.000000
0.084962 0.612161 0.000000
0.117525 0.612039 0.000000
0.147158 0.611841 0.000000
0.177066 0.611200 0.000000
0.207874 0.610315 0.000000
0.239445 0.609461 0.000000
0.273304 0.609216 0.000000
0.308705 0.608942 0.000000
0.346532 0.608637 0.000000
0.387121 0.607752 0.000000
0.431403 0.606180 0.000000
0.478004 0.605661 0.000000
0.524300 0.603967 0.000000
0.566827 0.602838 0.000000
0.609171 0.602274 0.000000
0.649622 0.600000 0.000000
0.688319 0.599100 0.000000
0.727031 0.597131 0.000000
0.762661 0.595636 0.000000
0.798535 0.592996 0.000000
0.832975 0.590387 0.000000
0.867933 0.588952 0.000000
0.901289 0.585946 0.000000
0.932601 0.582895 0.000000
0.963928 0.579736 0.000000
0.993973 0.576638 0.000000
1.000000 0.573236 0.000000
0.000000 0.650263 0.000000
0.000000 0.650248 0.000000
0.000000 0.650217 0.000000
0.000000 0.650172 0.000000
0.000000 0.650111 0.000000
0.027253 0.650034 0.000000
0.076081 0.649943 0.000000
0.110842 0.649821 0.000000
0.141421 0.649683 0.000000
0.172030 0.649531 0.000000
0.203326 0.649180 0.000000
0.235706 0.648234 0.000000
0.269413 0.647196 0.000000
0.305409 0.646799 0.000000
0.343084 0.646509 0.000000
0.384268 0.646189 0.000000
0.428275 0.645838 0.000000
0.475044 0.644968 0.000000
0.521462 0.643183 0.000000
0.565530 0.642679 0.000000
0.607538 0.641855 0.000000
0.646906 0.639719 0.000000
0.687480 0.639078 0.000000
0.724514 0.636606 0.000000
0.761852 0.635752 0.000000
0.797711 0.633051 0.000000
0.832166 0.631937 0.000000
0.866331 0.629313 0.000000
0.900420 0.626429 0.000000
0.931807 0.624659 0.000000
0.963088 0.622232 0.000000
0.993103 0.619135 0.000000
1.000000 0.615946 0.000000
0.000000 0.688106 0.000000
0.000000 0.688075 0.000000
0.000000 0.688060 0.000000
0.000000 0.688014 0.000000
0.000000 0.687953 0.000000
0.006836 0.687892 0.000000
0.065995 0.687800 0.000000
0.105150 0.687694 0.000000
0.137179 0.687556 0.000000
0.167987 0.687343 0.000000
0.198566 0.686641 0.000000
0.231357 0.685649 0.000000
0.265370 0.684962 0.000000
0.301732 0.684718 0.000000
0.340688 0.684443 0.000000
0.381048 0.684016 0.000000
0.425040 0.682429 0.000000
0.472053 0.681575 0.000000
0.518471 0.681163 0.000000
0.562829 0.680720 0.000000
0.604944 0.679423 0.000000
0.645975 0.677821 0.000000
0.684718 0.677211 0.000000
0.723583 0.674708 0.000000
0.759106 0.673991 0.000000
0.794965 0.672435 0.000000
0.831312 0.670512 0.000000
0.864347 0.669383 0.000000
0.897704 0.666789 0.000000
0.930968 0.663890 0.000000
0.961639 0.661570 0.000000
0.992203 0.659770 0.000000
1.000000 0.656687 0.000000
0.000000 0.724254 0.000000
0.000000 0.724239 0.000000
0.000000 0.724208 0.000000
0.000000 0.724163 0.000000
0.000000 0.724117 0.000000
0.000000 0.724056 0.000000
0.052720 0.723964 0.000000
0.097124 0.723857 0.000000
0.130709 0.723751 0.000000
0.163012 0.723461 0.000000
0.194369 0.722744 0.000000
0.226825 0.721782 0.000000
0.261677 0.721172 0.000000
0.297734 0.720943 0.000000
0.336919 0.720684 0.000000
0.377478 0.720394 0.000000
0.421698 0.720073 0.000000
0.468818 0.718624 0.000000
0.515389 0.717449 0.000000
0.559960 0.717037 0.000000
0.602502 0.716564 0.000000
0.643122 0.714885 0.000000
0.682292 0.713619 0.000000
0.720851 0.713024 0.000000
0.758221 0.710948 0.000000
0.794095 0.709758 0.000000
0.828519 0.708736 0.000000
0.863462 0.706264 0.000000
0.896849 0.705241 0.000000
0.928252 0.702525 0.000000
0.959625 0.700679 0.000000
0.990494 0.698528 0.000000
1.000000 0.695537 0.000000
0.000000 0.758801 0.000000
0.000000 0.758785 0.000000
0.000000 0.758755 0.000000
0.000000 0.758724 0.000000
0.000000 0.758679 0.000000
0.000000 0.758602 0.000000
0.038087 0.758526 0.000000
0.088319 0.758434 0.000000
0.125673 0.758312 0.000000
0.157168 0.758190 0.000000
0.190280 0.758038 0.000000
0.223636 0.757855 0.000000
0.257099 0.757458 0.000000
0.293446 0.756268 0.000000
0.332860 0.755291 0.000000
0.373617 0.755016 0.000000
0.417716 0.754711 0.000000
0.465248 0.754376 0.000000
0.512215 0.754009 0.000000
0.556893 0.753185 0.000000
0.599527 0.751278 0.000000
0.641413 0.750790 0.000000
0.680903 0.750271 0.000000
0.719539 0.747936 0.000000
0.755550 0.747189 0.000000
0.792584 0.746502 0.000000
0.827604 0.744244 0.000000
0.862547 0.743099 0.000000
0.895949 0.741039 0.000000
0.927367 0.739467 0.000000
0.958709 0.738415 0.000000
0.988754 0.735607 0.000000
1.000000 0.732937 0.000000
0.000000 0.793729 0.000000
0.000000 0.793698 0.000000
0.000000 0.793683 0.000000
0.000000 0.793637 0.000000
0.000000 0.793591 0.000000
0.000000 0.793530 0.000000
0.018341 0.793454 0.000000
0.078538 0.793362 0.000000
0.118334 0.793027 0.000000
0.151034 0.792386 0.000000
0.184909 0.791562 0.000000
0.218387 0.790936 0.000000
0.252369 0.790723 0.000000
0.290486 0.790509 0.000000
0.328511 0.790280 0.000000
0.369467 0.790005 0.000000
0.413733 0.789715 0.000000
0.461448 0.789395 0.000000
0.508949 0.787549 0.000000
0.553750 0.786755 0.000000
0.597101 0.786328 0.000000
0.639078 0.785870 0.000000
0.677974 0.785077 0.000000
0.717006 0.782925 0.000000
0.754406 0.782330 0.000000
0.790295 0.781689 0.000000
0.825635 0.779095 0.000000
0.859678 0.778347 0.000000
0.893095 0.777539 0.000000
0.926452 0.774868 0.000000
0.957778 0.773877 0.000000
0.987778 0.771023 0.000000
1.000000 0.770016 0.000000
0.000000 0.827176 0.000000
0.000000 0.827161 0.000000
0.000000 0.827131 0.000000
0.000000 0.827100 0.000000
0.000000 0.827054 0.000000
0.000000 0.826993 0.000000
0.000000 0.826871 0.000000
0.067445 0.826612 0.000000
0.110460 0.826078 0.000000
0.146441 0.825360 0.000000
0.179309 0.824704 0.000000
0.214099 0.824399 0.000000
0.248936 0.824216 0.000000
0.285863 0.824018 0.000000
0.324056 0.823789 0.000000
0.365072 0.823529 0.000000
0.409506 0.823239 0.000000
0.457359 0.822934 0.000000
0.505058 0.822492 0.000000
0.550546 0.820447 0.000000
0.595148 0.819898 0.000000
0.636042 0.819455 0.000000
0.675639 0.818982 0.000000
0.714244 0.818448 0.000000
0.751904 0.816022 0.000000
0.788937 0.815366 0.000000
0.823743 0.814710 0.000000
