app/src/main/assets/filters/lumix_portrait.cube
# Created from lumix_portrait.plut
LUT_3D_SIZE 5
DOMAIN_MIN 0.0 0.0 0.0
DOMAIN_MAX 1.0 1.0 1.0
0.060792 0.051835 0.062181
0.312062 0.049104 0.055253
0.548486 0.123217 0.140673
0.843320 0.192187 0.176944
0.988968 0.133867 0.084520
0.116930 0.274357 0.059632
0.270542 0.282231 0.046098
0.575891 0.255833 0.095903
0.843061 0.261936 0.167330
0.971145 0.194858 0.116732
0.275502 0.536629 0.073228
0.290410 0.551171 0.071489
0.522652 0.545342 0.036973
0.793927 0.506493 0.043961
0.946517 0.520119 0.222248
0.446143 0.731838 0.120424
0.460258 0.741527 0.123323
0.506676 0.773526 0.114168
0.710369 0.779644 0.068406
0.949187 0.751278 0.028092
0.636927 0.884993 0.110658
0.645518 0.890440 0.111925
0.680476 0.911055 0.122850
0.742153 0.946365 0.162737
0.811109 0.974914 0.223728
0.082338 0.100755 0.244572
0.273365 0.126726 0.231907
0.558694 0.150637 0.199786
0.832273 0.208118 0.219165
0.992050 0.147951 0.116960
0.109270 0.289845 0.286229
0.287663 0.289204 0.290547
0.595377 0.251453 0.260151
0.849363 0.252857 0.244099
0.984848 0.200320 0.152010
0.274189 0.528115 0.155474
0.310857 0.543252 0.190799
0.532174 0.540047 0.207385
0.791852 0.500771 0.210773
0.960754 0.498085 0.288533
0.447288 0.730694 0.139147
0.461891 0.740169 0.151171
0.509819 0.767102 0.201526
0.719097 0.767224 0.222217
0.942504 0.746105 0.174487
0.636790 0.883818 0.142123
0.647150 0.890211 0.142916
0.683360 0.911788 0.156191
0.745998 0.947921 0.193713
0.820737 0.974960 0.245487
0.124392 0.186481 0.422049
0.246662 0.221210 0.427726
0.510780 0.257069 0.378637
0.807462 0.273243 0.359136
0.986999 0.216266 0.214893
0.144244 0.289631 0.557641
0.290425 0.312764 0.544778
0.528710 0.347082 0.507713
0.830304 0.311223 0.406455
0.983337 0.270497 0.261814
0.276631 0.540826 0.545525
0.306996 0.550820 0.545480
0.543359 0.545403 0.545129
0.794278 0.507958 0.511635
0.960922 0.489891 0.446174
0.450248 0.729473 0.416693
0.479545 0.734661 0.414435
0.566842 0.748409 0.433005
0.733318 0.754269 0.479652
0.937484 0.733135 0.473121
0.645411 0.875837 0.348867
0.655039 0.881575 0.360708
0.686976 0.900816 0.389563
0.748836 0.935866 0.443809
0.832120 0.962219 0.463279
0.150988 0.301671 0.587106
0.205707 0.322530 0.607248
0.497185 0.415335 0.672862
0.694728 0.444755 0.668879
0.916258 0.347326 0.423911
0.203983 0.370779 0.669551
0.249943 0.387121 0.688762
0.531334 0.444175 0.718791
0.682658 0.492256 0.746487
0.919417 0.390417 0.461662
0.279408 0.532784 0.833570
0.336400 0.537362 0.830167
0.578927 0.554253 0.807034
0.729641 0.576333 0.792828
0.918059 0.556497 0.613550
0.401617 0.752300 0.742611
0.410590 0.757610 0.751369
0.500450 0.763378 0.773434
0.752056 0.753536 0.753948
0.922927 0.740703 0.722820
0.620920 0.865797 0.659800
0.643320 0.872557 0.652140
0.715114 0.895399 0.629160
0.799756 0.927901 0.649714
0.881758 0.945708 0.704128
0.236744 0.419913 0.746304
0.254673 0.446616 0.792370
0.552346 0.475090 0.770535
0.655482 0.534188 0.836851
0.725139 0.587289 0.879149
0.258976 0.508385 0.898848
0.268727 0.530205 0.936660
0.552941 0.506813 0.822721
0.674632 0.554788 0.858732
0.736263 0.606104 0.895720
0.269368 0.570977 0.998444
0.282048 0.578622 0.998688
0.565057 0.603418 0.924636
0.728130 0.624842 0.920470
0.789166 0.661250 0.906432
0.469841 0.716030 0.967834
0.484810 0.724300 0.973785
0.535958 0.747494 0.989181
0.781521 0.766918 0.966583
0.869291 0.786801 0.932753
0.598932 0.863859 0.845167
0.616068 0.869780 0.851301
0.668711 0.885725 0.876646
0.777966 0.914916 0.931289
0.940505 0.939773 0.931334
