app/src/main/assets/filters/lumix_vivid.cube
# Created from lumix_vivid.plut
LUT_3D_SIZE 33
DOMAIN_MIN 0.0 0.0 0.0
DOMAIN_MAX 1.0 1.0 1.0
0.038575 0.030777 0.041260
0.046693 0.029099 0.038514
0.063905 0.026612 0.034363
0.090501 0.024201 0.030396
0.124163 0.022354 0.027710
0.161471 0.020874 0.026612
0.199649 0.019562 0.026703
0.237934 0.018280 0.027268
0.277180 0.016815 0.027344
0.317983 0.014923 0.026627
0.359335 0.012726 0.026017
0.398810 0.011170 0.027054
0.434592 0.011475 0.031052
0.466773 0.014282 0.037583
0.496590 0.019562 0.045808
0.524529 0.026993 0.055222
0.551614 0.036530 0.066072
0.578225 0.048157 0.078752
0.605203 0.062165 0.092409
0.633356 0.077974 0.106615
0.664775 0.094804 0.119875
0.700313 0.110079 0.131350
0.738399 0.121614 0.139635
0.775875 0.128130 0.144778
0.812787 0.129595 0.145098
0.850782 0.124895 0.136721
0.889540 0.112139 0.116213
0.924498 0.094392 0.088243
0.950149 0.078965 0.063035
0.965942 0.073335 0.049363
0.975036 0.076875 0.046998
0.980728 0.084306 0.050690
0.983856 0.089403 0.054231
0.035080 0.042222 0.037934
0.043214 0.040696 0.035630
0.060655 0.038102 0.032090
0.087663 0.034974 0.028611
0.121691 0.031861 0.026184
0.159274 0.029068 0.025223
0.197757 0.026673 0.025422
0.236545 0.024659 0.026093
0.276326 0.022522 0.026291
0.317494 0.019959 0.025788
0.359136 0.017227 0.025467
0.399039 0.015305 0.026734
0.435508 0.015335 0.030747
0.468437 0.017792 0.037064
0.498726 0.022721 0.045060
0.526772 0.029862 0.054505
0.553750 0.039261 0.065690
0.580255 0.050904 0.078660
0.607111 0.064897 0.092454
0.635279 0.080583 0.106661
0.666651 0.097063 0.119844
0.702083 0.111894 0.131197
0.739788 0.122881 0.139330
0.776928 0.128923 0.144366
0.813672 0.130098 0.144640
0.851606 0.125231 0.136156
0.890211 0.112261 0.115572
0.924895 0.094240 0.087572
0.950332 0.078767 0.062440
0.966064 0.073335 0.048936
0.975113 0.077195 0.046723
0.980697 0.084810 0.050507
0.983688 0.089967 0.054063
0.029511 0.062882 0.032792
0.037339 0.061753 0.031235
0.054490 0.059251 0.028733
0.081422 0.055390 0.026017
0.115572 0.050599 0.023880
0.153368 0.045945 0.022934
0.192340 0.041871 0.023148
0.231830 0.038636 0.023957
0.272328 0.035370 0.024399
0.313939 0.031846 0.024353
0.355962 0.028305 0.024613
0.396704 0.025727 0.026368
0.434623 0.025086 0.030304
0.469230 0.026642 0.036103
0.500664 0.030610 0.043534
0.529381 0.036881 0.052842
0.556603 0.045762 0.064347
0.583291 0.057130 0.077729
0.610147 0.070832 0.091829
0.638514 0.086015 0.106203
0.669963 0.101625 0.119493
0.705348 0.115373 0.130785
0.742412 0.125216 0.138659
0.778897 0.130404 0.143450
0.815229 0.131121 0.143603
0.852995 0.125933 0.135012
0.891325 0.112535 0.114366
0.925551 0.094072 0.086366
0.950637 0.078553 0.061494
0.966262 0.073503 0.048310
0.975204 0.077867 0.046387
0.980606 0.085756 0.050370
0.983398 0.090974 0.053986
0.023606 0.088243 0.026856
0.030655 0.087724 0.026123
0.046677 0.085878 0.024781
0.072572 0.082124 0.022980
0.106157 0.076616 0.021164
0.143862 0.070756 0.020127
0.183185 0.065400 0.020218
0.223117 0.060899 0.021073
0.263935 0.056443 0.021851
0.305592 0.051850 0.022400
0.347875 0.047471 0.023468
0.389853 0.044053 0.025788
0.429862 0.042267 0.029694
0.467048 0.042298 0.034913
0.500420 0.044633 0.041672
0.530663 0.049561 0.050523
0.558694 0.057465 0.061784
0.585992 0.068116 0.075044
0.613046 0.080964 0.089326
0.641917 0.095018 0.104112
0.673854 0.109010 0.117952
0.709483 0.120821 0.129458
0.745922 0.128725 0.137209
0.781582 0.132692 0.141787
0.817273 0.132891 0.141939
0.854734 0.127413 0.133440
0.892668 0.113542 0.112932
0.926329 0.094530 0.085100
0.950942 0.078904 0.060594
0.966354 0.074174 0.047761
0.975158 0.079057 0.046174
0.980346 0.087297 0.050416
0.982910 0.092683 0.054246
0.019654 0.114977 0.021592
0.025498 0.115114 0.021424
0.039399 0.114336 0.020951
0.062989 0.111620 0.019974
0.094942 0.106691 0.018509
0.132006 0.100740 0.017212
0.171420 0.094774 0.016754
0.211673 0.089372 0.017197
0.252461 0.084047 0.018067
0.293858 0.078798 0.019165
0.335882 0.073930 0.020981
0.378637 0.069871 0.023880
0.420432 0.066865 0.027970
0.460395 0.065110 0.033158
0.496498 0.065324 0.039704
0.529320 0.068330 0.048020
0.559060 0.074693 0.058366
0.587396 0.084123 0.070726
0.614984 0.095705 0.084733
0.644541 0.108064 0.099947
0.677256 0.119615 0.114534
0.713237 0.128542 0.126528
0.749325 0.133776 0.134463
0.784329 0.136233 0.139178
0.819471 0.135943 0.139666
0.856489 0.130297 0.131655
0.893889 0.116060 0.111696
0.926955 0.096574 0.084306
0.951064 0.080766 0.060288
0.966201 0.076127 0.047684
0.974716 0.081285 0.046387
0.979629 0.089860 0.050904
0.981918 0.095521 0.055055
0.019333 0.141466 0.017365
0.023804 0.142123 0.017365
0.034989 0.142443 0.017258
0.055085 0.141253 0.016770
0.084138 0.137926 0.015686
0.119722 0.132982 0.014298
0.158846 0.127367 0.013291
0.199313 0.121706 0.013077
0.240070 0.116075 0.013687
0.281392 0.110460 0.014923
0.323201 0.105211 0.016907
0.366125 0.100633 0.019913
0.408515 0.096864 0.024384
0.450111 0.093980 0.030457
0.488808 0.092485 0.037903
0.524697 0.093431 0.046204
0.557031 0.097612 0.055360
0.587015 0.105028 0.066102
0.615610 0.114748 0.079072
0.645869 0.125185 0.094087
0.679088 0.134218 0.108888
0.715129 0.140124 0.121096
0.751171 0.142489 0.129412
0.786053 0.143160 0.134813
0.821118 0.142199 0.136416
0.857588 0.136507 0.129747
0.894255 0.122255 0.111299
0.926543 0.102708 0.085100
0.950179 0.086687 0.061692
0.964981 0.081666 0.049027
0.973159 0.086473 0.047608
0.977783 0.095048 0.052155
0.979843 0.100893 0.056458
0.024277 0.168536 0.014374
0.027375 0.169512 0.014267
0.035477 0.170672 0.014069
0.051011 0.170901 0.013642
0.075578 0.169268 0.012772
0.108202 0.165728 0.011429
0.146212 0.160922 0.010101
0.186831 0.155550 0.009277
0.228046 0.150103 0.009277
0.269734 0.144640 0.010086
0.311574 0.139361 0.011658
0.354147 0.134585 0.014298
0.396231 0.130556 0.018723
0.437980 0.127321 0.025391
0.478141 0.124926 0.033890
0.516350 0.124025 0.042985
0.551431 0.125566 0.052247
0.583780 0.130129 0.062516
0.614481 0.137285 0.074784
0.645930 0.145525 0.088884
0.679301 0.152453 0.102541
0.714504 0.156344 0.113756
0.750103 0.157061 0.121889
0.784924 0.156771 0.128008
0.820035 0.155413 0.131182
0.855818 0.149859 0.126970
0.891661 0.136080 0.111727
0.923415 0.116808 0.088411
0.947021 0.100130 0.066255
0.961852 0.093614 0.053315
0.969894 0.096834 0.051026
0.974304 0.104585 0.055070
0.976226 0.110201 0.059236
0.033982 0.197330 0.012116
0.035981 0.198383 0.011887
0.041215 0.199985 0.011505
0.051911 0.201221 0.010925
0.070741 0.201083 0.010117
0.098573 0.198962 0.008972
0.134081 0.195117 0.007675
0.174304 0.190295 0.006546
0.216373 0.185229 0.006012
0.259174 0.180102 0.006119
0.301869 0.174929 0.006851
0.344503 0.170123 0.008499
0.386053 0.166247 0.012070
0.426917 0.163333 0.018158
0.466712 0.161028 0.026673
0.505333 0.159289 0.036179
0.541817 0.158877 0.046326
0.576577 0.160510 0.057664
0.610193 0.164385 0.070649
0.643870 0.169696 0.084276
0.677684 0.174548 0.096254
0.711879 0.177447 0.105608
0.746456 0.177966 0.112825
0.780774 0.177676 0.119173
0.815442 0.176471 0.123842
0.850080 0.171832 0.122805
0.884550 0.160174 0.112596
0.915602 0.142885 0.094392
0.939681 0.125978 0.075090
0.955474 0.116548 0.062104
0.964370 0.115785 0.058259
0.969223 0.120623 0.060960
0.971359 0.124910 0.064454
0.046860 0.227985 0.010422
0.048234 0.229007 0.010117
0.051545 0.230732 0.009583
0.058167 0.232563 0.008865
0.071077 0.233555 0.008011
0.092668 0.232776 0.006989
0.123751 0.229908 0.005829
0.162219 0.225605 0.004685
0.204730 0.220783 0.003799
0.248524 0.216052 0.003342
0.292271 0.211337 0.003449
0.335622 0.206851 0.004211
0.377813 0.203021 0.006287
0.418708 0.200031 0.010208
0.457816 0.197772 0.016571
0.495521 0.195850 0.024964
0.531548 0.194736 0.035584
0.567269 0.194644 0.048463
0.602991 0.195773 0.063050
0.639078 0.197864 0.077302
0.674098 0.200092 0.088930
0.708141 0.201892 0.097398
0.741756 0.202777 0.103960
0.775174 0.203296 0.110018
0.808728 0.202991 0.115465
0.841855 0.200061 0.117388
0.874495 0.191974 0.113039
0.904570 0.178607 0.101854
0.929183 0.163333 0.087694
0.946700 0.151598 0.076219
0.957412 0.146395 0.071290
0.963516 0.147097 0.072404
0.966278 0.149264 0.075013
0.058396 0.261326 0.011124
0.059586 0.262104 0.010742
0.062074 0.263523 0.010025
0.066407 0.265354 0.008988
0.074968 0.266941 0.007706
0.090623 0.267323 0.006363
0.116091 0.265614 0.005020
0.150973 0.262013 0.003799
0.192584 0.257343 0.002777
0.237110 0.252583 0.002060
0.282124 0.248081 0.001740
0.326772 0.243946 0.001816
0.370214 0.240314 0.002655
0.412177 0.237095 0.004501
0.451606 0.234424 0.008026
0.488930 0.232273 0.013565
0.524056 0.231113 0.022095
0.559197 0.230671 0.033997
0.594751 0.230594 0.048539
0.631388 0.230564 0.063600
0.667170 0.230426 0.076707
0.702129 0.230365 0.087022
0.736309 0.230106 0.095048
0.769909 0.229908 0.101900
0.802899 0.229496 0.108034
0.834592 0.228199 0.112200
0.865080 0.224491 0.112947
0.893477 0.217334 0.109117
0.918090 0.207019 0.101946
0.937392 0.196246 0.094560
0.950637 0.188617 0.090623
0.958755 0.185977 0.091203
0.962570 0.186175 0.093339
0.064240 0.296651 0.015015
0.065522 0.297169 0.014496
0.067994 0.298116 0.013458
0.071794 0.299519 0.011917
0.078569 0.301061 0.009888
0.090776 0.302129 0.007706
0.111543 0.301610 0.005631
0.142000 0.299107 0.003922
0.180835 0.294942 0.002609
0.224613 0.290196 0.001678
0.270237 0.285649 0.001144
0.316121 0.281651 0.000977
0.361212 0.278157 0.001114
0.404944 0.274876 0.001617
0.446189 0.271733 0.002930
0.484932 0.268894 0.005692
0.520729 0.267018 0.010864
0.555261 0.266056 0.019150
0.589273 0.265446 0.030549
0.624186 0.264591 0.044236
0.659098 0.263355 0.058595
0.694163 0.262013 0.072053
0.729137 0.260334 0.083497
0.763714 0.258549 0.092866
0.797375 0.256703 0.100832
0.829023 0.255299 0.107469
0.858610 0.253941 0.112474
0.885801 0.252018 0.115251
0.910124 0.248142 0.115602
0.930541 0.242359 0.114427
0.945861 0.237018 0.114214
0.955993 0.234424 0.116304
0.960983 0.234257 0.118959
0.064576 0.332128 0.021881
0.066194 0.332448 0.021180
0.069261 0.332998 0.019776
0.073930 0.333883 0.017624
0.081407 0.335134 0.014633
0.093187 0.336599 0.011154
0.111162 0.337346 0.007767
0.136904 0.336507 0.005081
0.171008 0.333623 0.003250
0.212161 0.329259 0.002045
0.257389 0.324453 0.001282
0.304005 0.320241 0.000870
0.350118 0.316869 0.000763
0.395071 0.313939 0.000900
0.438483 0.310735 0.001297
0.479820 0.307301 0.002258
0.518181 0.304204 0.004471
0.553658 0.301991 0.008682
0.586831 0.300450 0.015396
0.619394 0.299290 0.025223
0.651957 0.298238 0.037919
0.685481 0.296941 0.052232
0.720058 0.294682 0.066224
0.755016 0.291569 0.078813
0.789456 0.288151 0.090181
0.821820 0.285756 0.100649
0.851804 0.284688 0.110307
0.879133 0.285069 0.119234
0.903944 0.285283 0.126711
0.925612 0.284352 0.132509
0.942916 0.283070 0.137804
0.955077 0.282918 0.143282
0.961349 0.283757 0.147555
0.068849 0.365209 0.026658
0.070771 0.365576 0.025803
0.074449 0.366186 0.024140
0.080140 0.367117 0.021592
0.088731 0.368475 0.018082
0.100954 0.370260 0.013825
0.116945 0.372015 0.009552
0.137819 0.372824 0.006149
0.165423 0.371801 0.003952
0.201495 0.368719 0.002640
0.244358 0.364294 0.001785
0.290700 0.359899 0.001236
0.337224 0.356313 0.000992
0.382834 0.353643 0.000931
0.427832 0.350851 0.000977
0.471901 0.347478 0.001205
0.513573 0.343557 0.002014
0.551766 0.339696 0.003723
0.586099 0.336294 0.006775
0.618143 0.333776 0.012131
0.648936 0.332265 0.020615
0.680110 0.331441 0.032029
0.712413 0.330144 0.045136
0.745739 0.327962 0.058869
0.779446 0.325017 0.073045
0.811978 0.322408 0.087556
0.842512 0.320806 0.102480
0.870680 0.320928 0.117754
0.896513 0.322057 0.132494
0.919783 0.323415 0.145556
0.939101 0.324849 0.157153
0.953399 0.326650 0.166964
0.960998 0.328267 0.173342
0.086595 0.396246 0.025681
0.088655 0.396719 0.024811
0.092607 0.397620 0.023148
0.098573 0.398962 0.020706
0.107073 0.400824 0.017426
0.118074 0.403235 0.013443
0.130709 0.405982 0.009461
0.145495 0.408316 0.006271
0.165164 0.409277 0.004303
0.193942 0.407965 0.003174
0.232319 0.404562 0.002426
0.277012 0.400259 0.001846
0.323461 0.396307 0.001526
0.369421 0.393393 0.001282
0.415274 0.390845 0.001053
0.461173 0.387884 0.000885
0.505623 0.384100 0.001114
0.547219 0.379522 0.001846
0.584192 0.374838 0.003159
0.617578 0.370748 0.005600
0.648035 0.368032 0.009918
0.677882 0.366552 0.016587
0.708095 0.365576 0.025711
0.739254 0.364523 0.036957
0.770977 0.363195 0.050721
0.802121 0.361898 0.066850
0.831846 0.360952 0.085817
0.859831 0.360952 0.106996
0.886198 0.361822 0.128985
0.910796 0.363302 0.149813
0.932219 0.365057 0.168597
0.948806 0.366964 0.183948
0.957946 0.368368 0.193179
0.118502 0.428275 0.018326
0.120150 0.428824 0.017655
0.123430 0.429938 0.016342
0.128374 0.431571 0.014435
0.134874 0.433799 0.012085
0.142519 0.436469 0.009445
0.150439 0.439536 0.006943
0.159030 0.442634 0.004959
0.171023 0.445090 0.003769
0.191470 0.445777 0.003113
0.223056 0.444129 0.002777
0.264103 0.440589 0.002502
0.309712 0.436423 0.002258
0.356130 0.432837 0.001846
0.402365 0.430060 0.001343
0.448920 0.427436 0.000931
0.495033 0.424277 0.000870
0.539605 0.420020 0.001190
0.580026 0.415015 0.001755
0.616159 0.409812 0.002853
0.647913 0.405447 0.004929
0.677760 0.402335 0.008484
0.707042 0.400351 0.013840
0.736980 0.399176 0.020890
0.767178 0.398474 0.030686
0.796582 0.398352 0.044083
0.824369 0.398840 0.062699
0.850538 0.400244 0.086046
0.875807 0.402258 0.112596
0.900221 0.404486 0.140215
0.922545 0.406439 0.166857
0.940597 0.407965 0.189410
0.950896 0.408865 0.202792
0.153246 0.461952 0.009812
0.154253 0.462440 0.009476
0.156344 0.463478 0.008789
0.159503 0.465019 0.007828
0.163546 0.467201 0.006744
0.167926 0.469825 0.005631
0.172183 0.472908 0.004608
0.176501 0.476280 0.003769
0.183001 0.479591 0.003220
0.196063 0.481941 0.002930
0.219760 0.482231 0.002914
0.254643 0.480201 0.002930
0.297414 0.476539 0.002823
0.343435 0.472511 0.002441
0.389929 0.469062 0.001953
0.436301 0.466163 0.001633
0.482673 0.463371 0.001465
0.528710 0.459983 0.001404
0.572045 0.455802 0.001358
0.611429 0.450767 0.001724
0.645716 0.445670 0.002960
0.676875 0.440925 0.005371
0.706279 0.437125 0.009110
0.736156 0.434104 0.013397
0.765927 0.432059 0.019165
0.794675 0.431403 0.027588
0.821164 0.432364 0.041276
0.845640 0.435004 0.060777
0.869154 0.438621 0.085847
0.892119 0.442481 0.115846
0.913893 0.445945 0.148455
0.932128 0.448478 0.178317
0.942840 0.449897 0.196567
0.183383 0.496498 0.004791
0.183886 0.496925 0.004685
0.185046 0.497780 0.004486
0.186877 0.499107 0.004211
0.189273 0.501015 0.003952
0.191867 0.503349 0.003754
0.194446 0.506035 0.003586
0.197131 0.509117 0.003418
0.200977 0.512505 0.003250
0.208988 0.515770 0.003174
0.224765 0.517861 0.003250
0.251255 0.517845 0.003388
0.287800 0.515572 0.003372
0.331350 0.511772 0.003128
0.377478 0.507668 0.002762
0.423728 0.504021 0.002640
0.469703 0.500984 0.002472
0.515541 0.498268 0.002228
0.560662 0.495262 0.001617
0.602930 0.491310 0.001358
0.640879 0.486381 0.002014
0.674464 0.480827 0.004211
0.705119 0.475578 0.007935
0.735180 0.470817 0.011948
0.764752 0.467170 0.016068
0.793500 0.465187 0.020569
0.820020 0.465171 0.027558
0.844526 0.467140 0.038788
0.867384 0.470710 0.056535
0.889021 0.475471 0.083055
0.909346 0.480888 0.117021
0.926436 0.485618 0.151141
0.936645 0.488533 0.172992
0.208469 0.529473 0.004379
0.208804 0.529870 0.004395
0.209567 0.530678 0.004440
0.210834 0.531914 0.004532
0.212726 0.533700 0.004669
0.215015 0.535912 0.004791
0.217517 0.538384 0.004837
0.220188 0.541100 0.004807
0.223453 0.544182 0.004761
0.228901 0.547631 0.004730
0.238727 0.550851 0.004685
0.256275 0.552819 0.004562
0.283665 0.552590 0.004349
0.320928 0.550118 0.004135
0.364645 0.546181 0.003906
0.410544 0.541817 0.003876
0.456046 0.537926 0.003693
0.500923 0.534997 0.003464
0.545769 0.532830 0.002823
0.589654 0.530282 0.002426
0.631067 0.526452 0.002548
0.668467 0.520882 0.003998
0.702190 0.514885 0.007172
0.733562 0.509071 0.011429
0.763165 0.504662 0.015824
0.791821 0.501488 0.018753
0.819013 0.499840 0.020981
0.844816 0.499794 0.024399
0.868498 0.501884 0.033402
0.890028 0.506264 0.052262
0.909499 0.512459 0.081529
0.925475 0.518669 0.113817
0.934951 0.522698 0.135500
0.233524 0.561913 0.006592
0.233890 0.562341 0.006592
0.234638 0.563134 0.006638
0.235813 0.564279 0.006729
0.237552 0.565896 0.006882
0.239734 0.567926 0.007019
0.242191 0.570199 0.007095
0.244770 0.572534 0.007141
0.247608 0.575113 0.007233
0.251423 0.578164 0.007324
0.257099 0.581552 0.007248
0.267247 0.584604 0.006882
0.285069 0.586282 0.006394
0.313664 0.585794 0.005951
0.352071 0.583093 0.005524
0.396384 0.578805 0.005203
0.441886 0.574090 0.004791
0.486625 0.570184 0.004517
0.530968 0.567788 0.004028
0.574563 0.566171 0.003952
0.617411 0.563882 0.004105
0.657893 0.559548 0.005051
0.696162 0.554025 0.006806
0.730968 0.548272 0.009827
0.762097 0.543847 0.013519
0.790768 0.540200 0.016098
0.818189 0.537346 0.016632
0.845090 0.535256 0.016205
0.870161 0.535210 0.019226
0.892531 0.537942 0.030411
0.912016 0.543221 0.051637
0.927398 0.549157 0.077180
0.936370 0.553170 0.095140
0.257954 0.592462 0.009812
0.258305 0.592950 0.009812
0.258930 0.593759 0.009857
0.259861 0.594842 0.009949
0.261250 0.596262 0.010117
0.263050 0.598032 0.010254
0.265202 0.600046 0.010376
0.267475 0.602152 0.010498
0.270024 0.604471 0.010788
0.273060 0.607187 0.011170
0.276905 0.610391 0.011414
0.282612 0.613840 0.011215
0.293156 0.616846 0.010773
0.312459 0.618448 0.010101
0.342718 0.617914 0.009293
0.382177 0.615000 0.008316
0.426246 0.610407 0.007218
0.471321 0.605524 0.006439
0.515557 0.601968 0.005798
0.558404 0.600031 0.006180
0.600580 0.598734 0.007034
0.642695 0.596170 0.008255
0.685206 0.592294 0.008743
0.725200 0.587472 0.009308
0.760113 0.583261 0.010529
0.790204 0.579263 0.011917
0.817762 0.575723 0.012497
0.844846 0.572610 0.011780
0.870817 0.571038 0.012390
0.894499 0.571801 0.017441
0.914931 0.574960 0.029541
0.930449 0.579355 0.045640
0.939147 0.582544 0.057664
0.280079 0.620798 0.013947
0.280339 0.621225 0.013977
0.280797 0.621942 0.014038
0.281498 0.622919 0.014160
0.282567 0.624155 0.014359
0.284092 0.625757 0.014633
0.285985 0.627604 0.014984
0.288060 0.629633 0.015488
0.290288 0.631876 0.016220
0.292836 0.634394 0.017212
0.295872 0.637278 0.018128
0.299886 0.640635 0.018631
0.306615 0.644236 0.018616
0.319310 0.647425 0.018036
0.341070 0.649210 0.016770
0.372854 0.648768 0.014679
0.412146 0.645899 0.011887
0.455711 0.641337 0.009308
0.500175 0.636606 0.007370
0.542962 0.633341 0.007416
0.584360 0.631754 0.009033
0.626123 0.630732 0.011398
0.670344 0.629145 0.011994
0.714443 0.626474 0.010803
0.753994 0.623316 0.009308
0.787442 0.619593 0.009400
0.816251 0.615671 0.010758
0.843565 0.611673 0.011688
0.870100 0.608347 0.011749
0.895094 0.606622 0.012406
0.916915 0.607126 0.016556
0.933104 0.609461 0.023850
0.941894 0.611566 0.030076
0.299413 0.645411 0.021073
0.299580 0.645762 0.021134
0.299931 0.646387 0.021256
0.300572 0.647318 0.021408
0.301625 0.648554 0.021653
0.303197 0.650141 0.022004
0.305180 0.651972 0.022553
0.307591 0.654093 0.023484
0.310338 0.656474 0.024811
0.313542 0.659144 0.026566
0.317128 0.662104 0.028244
0.321416 0.665461 0.029526
0.327153 0.669352 0.030030
0.336278 0.673442 0.029755
0.351232 0.677089 0.028305
0.374105 0.679423 0.025467
0.404944 0.679515 0.021103
0.442405 0.677134 0.016327
0.483894 0.672847 0.012345
0.526284 0.668559 0.010956
0.567987 0.665660 0.012238
0.609735 0.664424 0.014923
0.653391 0.664073 0.016190
0.698756 0.663508 0.014771
0.741970 0.662181 0.011963
0.780179 0.659632 0.010941
0.812238 0.656016 0.012863
0.840757 0.651728 0.015686
0.867964 0.647059 0.016251
0.894331 0.642939 0.014054
0.917769 0.640497 0.012345
0.934951 0.640406 0.012833
0.943938 0.641245 0.014572
0.320684 0.668070 0.030930
0.320821 0.668315 0.031083
0.321233 0.668833 0.031373
0.322042 0.669657 0.031662
0.323384 0.670878 0.032029
0.325292 0.672465 0.032517
0.327687 0.674372 0.033295
0.330709 0.676646 0.034623
0.334218 0.679271 0.036439
0.338262 0.682170 0.038788
0.342657 0.685313 0.040925
0.347890 0.688792 0.042817
0.354162 0.692836 0.043778
0.362448 0.697353 0.044099
0.373541 0.702022 0.042924
0.389136 0.706355 0.040101
0.410330 0.709407 0.035050
0.437980 0.710384 0.028473
0.472084 0.708598 0.021927
0.510643 0.705196 0.017426
0.551843 0.701411 0.016312
0.593698 0.698817 0.017578
0.636439 0.697826 0.019303
0.680552 0.698314 0.019303
0.725109 0.698924 0.017655
0.767742 0.698344 0.016709
0.805142 0.695766 0.018082
0.837034 0.691630 0.020966
0.865675 0.686229 0.021408
0.892866 0.680461 0.018173
0.917342 0.675700 0.013916
0.935515 0.673274 0.011276
0.944945 0.672709 0.010895
0.346944 0.690150 0.043702
0.347158 0.690394 0.043992
0.347707 0.690883 0.044511
0.348775 0.691661 0.045090
0.350423 0.692790 0.045731
0.352605 0.694301 0.046387
0.355398 0.696178 0.047242
0.359014 0.698543 0.048646
0.363455 0.701381 0.050568
0.368414 0.704524 0.052995
0.373632 0.707927 0.055009
0.379477 0.711604 0.056840
0.386221 0.715846 0.057755
0.394263 0.720546 0.058412
0.403494 0.725597 0.057771
0.414649 0.730877 0.056123
0.428519 0.735805 0.052277
0.446448 0.739727 0.045975
0.470176 0.741497 0.038041
0.500328 0.741009 0.030365
0.536889 0.738415 0.025452
0.577218 0.735103 0.023239
0.619211 0.732540 0.023606
0.662058 0.731991 0.024598
0.706325 0.732830 0.024979
0.751385 0.733471 0.024826
0.793881 0.732418 0.024689
0.831067 0.729534 0.025071
0.863127 0.724956 0.023636
0.891676 0.719173 0.019852
0.916396 0.713497 0.015640
0.934630 0.709514 0.013001
0.944091 0.707790 0.012467
0.379568 0.713390 0.057969
0.379873 0.713664 0.058320
0.380575 0.714168 0.058946
0.381796 0.714946 0.059709
0.383505 0.715999 0.060594
0.385718 0.717388 0.061509
0.388571 0.719219 0.062486
0.392340 0.721599 0.063752
0.396979 0.724514 0.065339
0.402060 0.727764 0.067414
0.407416 0.731258 0.069108
0.413291 0.735027 0.070787
0.420005 0.739269 0.071534
0.427543 0.743877 0.072206
0.435615 0.748806 0.071717
0.444388 0.754147 0.070924
0.454185 0.759777 0.068559
0.465766 0.765332 0.063798
0.480949 0.769940 0.056107
0.501366 0.772961 0.046708
0.529473 0.773480 0.038575
0.564080 0.771817 0.032792
0.603479 0.768917 0.030579
0.644587 0.766949 0.031052
0.687602 0.766537 0.032898
0.732616 0.766949 0.034073
0.777844 0.766735 0.033356
0.820020 0.765026 0.031006
0.857130 0.761593 0.026520
0.889113 0.756420 0.020508
0.915084 0.750851 0.015213
0.933394 0.746563 0.012512
0.942596 0.744518 0.012238
0.414893 0.737819 0.073213
0.415229 0.738125 0.073594
0.415930 0.738674 0.074205
0.417121 0.739467 0.074998
0.418753 0.740490 0.075944
0.420874 0.741802 0.076936
0.423575 0.743511 0.077836
0.427161 0.745800 0.078737
0.431571 0.748684 0.079820
0.436393 0.751934 0.081361
0.441382 0.755383 0.082582
0.446769 0.759106 0.083589
0.452827 0.763226 0.083589
0.459510 0.767712 0.083421
0.466621 0.772442 0.082338
0.474327 0.777630 0.081621
0.482567 0.783230 0.080339
0.491478 0.789181 0.077989
0.501930 0.794995 0.072862
0.515404 0.800320 0.065171
0.534554 0.804135 0.056474
0.560388 0.805722 0.048447
0.592889 0.804990 0.043046
0.629877 0.803159 0.041016
0.670100 0.801587 0.041794
0.713008 0.800748 0.043412
0.757641 0.800336 0.044007
0.801831 0.799481 0.042405
0.842618 0.797375 0.038102
0.878294 0.793240 0.031601
0.906783 0.787716 0.025635
0.926986 0.782406 0.022202
0.937240 0.779263 0.021378
0.450340 0.763241 0.087022
0.450675 0.763546 0.087236
0.451286 0.764096 0.087617
0.452308 0.764874 0.088197
0.453696 0.765881 0.088960
0.455589 0.767163 0.089754
0.458045 0.768841 0.090349
0.461280 0.771084 0.090578
0.465171 0.773892 0.090837
0.469352 0.776989 0.091554
0.473808 0.780270 0.092348
0.478737 0.783795 0.093050
0.484321 0.787671 0.092851
0.490394 0.791867 0.092348
0.496849 0.796277 0.090837
0.503899 0.801160 0.089708
0.511452 0.806439 0.088533
0.519570 0.812192 0.087739
0.528481 0.818097 0.085115
0.538888 0.824247 0.080446
0.552285 0.829969 0.073304
0.569894 0.834577 0.065370
0.593210 0.837171 0.058381
0.622232 0.837797 0.054170
0.656809 0.836988 0.053056
0.695247 0.835782 0.054063
0.736385 0.834791 0.056748
