app/src/main/assets/filters/lumix_std.cube
# Created from lumix_std.plut
LUT_3D_SIZE 9
DOMAIN_MIN 0.0 0.0 0.0
DOMAIN_MAX 1.0 1.0 1.0
0.038025 0.028840 0.041627
0.118715 0.023621 0.030533
0.275227 0.020035 0.034592
0.433112 0.016495 0.043366
0.561425 0.044968 0.075807
0.688594 0.087770 0.112902
0.821057 0.093217 0.100313
0.922148 0.091463 0.073762
0.966812 0.122698 0.090532
0.020157 0.117144 0.024216
0.095308 0.111727 0.020661
0.256764 0.100328 0.024033
0.421164 0.086137 0.040803
0.565179 0.091081 0.072313
0.695003 0.108019 0.104555
0.825162 0.105394 0.093675
0.925261 0.098604 0.075593
0.966659 0.130297 0.094469
0.058869 0.243137 0.014374
0.084230 0.249592 0.010941
0.219852 0.245945 0.005234
0.386328 0.231571 0.011551
0.529717 0.218784 0.056016
0.663737 0.217243 0.114031
0.789517 0.216129 0.132448
0.901061 0.194461 0.126253
0.951965 0.182467 0.119707
0.091737 0.379629 0.047807
0.109911 0.382803 0.035538
0.183841 0.388952 0.011505
0.348653 0.380438 0.004410
0.504280 0.367086 0.007279
0.624048 0.348913 0.038148
0.746426 0.341985 0.099855
0.858549 0.348211 0.169543
0.933074 0.355932 0.214984
0.203845 0.499062 0.037766
0.209049 0.503044 0.037079
0.219425 0.513130 0.036790
0.295033 0.516716 0.025132
0.458625 0.503487 0.015366
0.605997 0.493416 0.007813
0.718669 0.473106 0.029740
0.818509 0.478737 0.085084
0.893202 0.498833 0.202228
0.285481 0.607172 0.066514
0.287434 0.609934 0.066758
0.293568 0.616510 0.067674
0.306188 0.627573 0.066758
0.397040 0.628931 0.046418
0.554192 0.615991 0.038773
0.703426 0.617365 0.018601
0.810895 0.608270 0.020630
0.885069 0.614023 0.044327
0.368200 0.689876 0.099260
0.371405 0.691951 0.100710
0.382910 0.699763 0.103807
0.402380 0.712963 0.108629
0.431952 0.731319 0.107607
0.503090 0.743359 0.082307
0.647440 0.739178 0.057023
0.800748 0.747890 0.032929
0.884596 0.742763 0.016037
0.486397 0.776471 0.159121
0.489708 0.779110 0.162692
0.500404 0.786694 0.169360
0.514763 0.795819 0.175250
0.538811 0.810971 0.188693
0.576150 0.831434 0.202380
0.650416 0.850965 0.179263
0.760601 0.861738 0.139055
0.828580 0.872984 0.187549
0.579507 0.841932 0.246479
0.582315 0.843656 0.248356
0.591867 0.850019 0.256168
0.610681 0.861036 0.272831
0.635355 0.874983 0.289647
0.664897 0.891646 0.309499
0.713222 0.910780 0.321706
0.785458 0.926146 0.317235
0.817792 0.934676 0.331746
0.045518 0.035492 0.114199
0.120073 0.035080 0.104067
0.270985 0.020356 0.080674
0.430610 0.022217 0.085283
0.564096 0.052918 0.120546
0.692653 0.087984 0.136767
0.819379 0.093309 0.133165
0.923400 0.093263 0.083558
0.968841 0.124575 0.095857
0.022766 0.122469 0.124010
0.110979 0.116976 0.120638
0.265095 0.093660 0.101549
0.422858 0.081727 0.102022
0.572015 0.087068 0.112810
0.700710 0.103624 0.125536
0.826444 0.103609 0.108782
0.927642 0.099290 0.080095
0.969818 0.131258 0.099519
0.033448 0.251591 0.083680
0.074876 0.254093 0.085084
0.231525 0.245930 0.074189
0.395529 0.226169 0.072587
0.543053 0.209628 0.098512
0.674723 0.210483 0.132799
0.796597 0.208652 0.142260
0.905577 0.190021 0.133318
0.955566 0.178698 0.122301
0.060594 0.378866 0.080278
0.075425 0.383246 0.076356
0.190661 0.388113 0.060609
0.358267 0.379904 0.043763
0.510597 0.364172 0.048539
0.635126 0.344015 0.083085
0.754986 0.336599 0.130541
0.866621 0.343191 0.179660
0.936599 0.349691 0.215366
0.201709 0.496910 0.044663
0.207630 0.500877 0.045518
0.223758 0.511345 0.054948
0.306142 0.514519 0.063691
0.467781 0.502525 0.047807
0.609506 0.491981 0.037522
0.724697 0.470283 0.057725
0.826795 0.474739 0.114488
0.901030 0.492485 0.228855
0.285252 0.605020 0.070710
0.287846 0.608240 0.071870
0.294072 0.615213 0.074571
0.311391 0.626001 0.084764
0.408850 0.626123 0.083055
0.562402 0.614069 0.067445
0.706065 0.614099 0.043168
0.815259 0.604807 0.041199
0.890761 0.608942 0.069795
0.368536 0.689631 0.103029
0.371878 0.691798 0.104372
0.383230 0.699550 0.108537
0.402869 0.712978 0.116594
0.432486 0.731518 0.123903
0.508644 0.742153 0.113970
0.656611 0.736599 0.085634
0.804211 0.745571 0.051484
0.886305 0.740566 0.038071
0.486183 0.777081 0.165576
0.490379 0.780041 0.169909
0.500160 0.787045 0.175799
0.514824 0.796780 0.183764
0.538293 0.811963 0.199496
0.574731 0.832975 0.217868
0.647578 0.852903 0.199100
0.764431 0.862074 0.152300
0.832883 0.872511 0.198932
0.579492 0.842878 0.251942
0.583017 0.845182 0.255497
0.592844 0.851606 0.263905
0.610071 0.861952 0.279652
0.635492 0.876234 0.296178
0.664729 0.893172 0.316060
0.711543 0.912978 0.332738
0.785000 0.928771 0.326528
0.818296 0.936202 0.337102
0.079332 0.079911 0.249805
0.130648 0.094697 0.268116
0.248707 0.093400 0.219898
0.411475 0.080827 0.167864
0.573327 0.095018 0.209598
0.683711 0.113649 0.208347
0.816876 0.105455 0.225055
0.908324 0.118761 0.187488
0.970459 0.135668 0.121584
0.066575 0.131411 0.294438
0.145830 0.139086 0.297047
0.267933 0.139757 0.263218
0.411337 0.128603 0.214084
0.578897 0.121324 0.227604
0.691081 0.129046 0.218921
0.819486 0.120607 0.227176
0.916533 0.131640 0.180667
0.973068 0.144228 0.129366
0.042664 0.272267 0.262257
0.090791 0.270359 0.268406
0.250980 0.258656 0.260853
0.407355 0.236088 0.243244
0.553872 0.218540 0.234699
0.684337 0.212253 0.232319
0.802304 0.212009 0.229969
0.909834 0.204166 0.195056
0.965759 0.187289 0.154910
0.067582 0.388067 0.201526
0.089433 0.394232 0.215351
0.199252 0.397223 0.224628
0.370336 0.387488 0.206683
0.519478 0.365591 0.196643
0.647700 0.347051 0.203647
0.765881 0.340581 0.213519
0.879454 0.338521 0.217655
0.944244 0.333745 0.217609
0.208835 0.493812 0.123186
0.219776 0.498466 0.132280
0.248493 0.508736 0.157351
0.325643 0.514870 0.186847
0.477699 0.503105 0.170275
0.612268 0.491295 0.166339
0.729671 0.472450 0.183597
0.841886 0.470192 0.206744
0.914748 0.482597 0.272541
0.289128 0.601801 0.092302
0.292561 0.604166 0.096681
0.304341 0.610742 0.112108
0.335836 0.621225 0.153628
0.423835 0.624689 0.186679
0.570748 0.612253 0.170397
0.706035 0.610727 0.162417
0.822812 0.601663 0.157427
0.901472 0.599390 0.162737
0.371206 0.689891 0.114946
0.374563 0.692088 0.117449
0.386633 0.699901 0.127184
0.407645 0.712764 0.145006
0.439567 0.729961 0.179080
0.519524 0.740124 0.208988
0.663951 0.733684 0.196429
0.808057 0.739773 0.163348
0.889097 0.736858 0.151781
0.486763 0.779156 0.186130
0.490501 0.781720 0.189319
0.499641 0.788251 0.196536
0.514611 0.799435 0.210636
0.537224 0.814740 0.232258
0.572015 0.836515 0.262669
0.640772 0.856748 0.272343
0.771389 0.861891 0.221866
0.844343 0.872770 0.250614
0.580652 0.846723 0.274556
0.584039 0.848798 0.277028
0.594263 0.855039 0.284947
0.610773 0.865263 0.299641
0.635126 0.879561 0.316365
0.665049 0.896986 0.334371
0.708583 0.918502 0.358801
0.782605 0.935256 0.351675
0.819196 0.941695 0.352621
0.110842 0.117494 0.319280
0.150729 0.128634 0.332189
0.230030 0.157733 0.352605
0.369284 0.164248 0.306310
0.578653 0.129671 0.248814
0.666468 0.150027 0.260655
0.819440 0.138842 0.272908
0.880598 0.167498 0.294392
0.965240 0.164569 0.172152
0.100191 0.161074 0.372793
0.167468 0.167346 0.376196
0.258320 0.188724 0.389563
0.375479 0.198474 0.348577
0.575006 0.159350 0.275334
0.674220 0.173709 0.279149
0.816770 0.161547 0.293523
0.886183 0.181598 0.297963
0.968643 0.176699 0.179049
0.101808 0.272679 0.430747
0.143496 0.272557 0.437781
0.280278 0.271901 0.435615
0.405814 0.270680 0.413840
0.546639 0.260868 0.365164
0.678676 0.244388 0.332860
0.800870 0.236179 0.346380
0.892714 0.233066 0.308659
0.969162 0.220493 0.209094
0.131289 0.408423 0.387564
0.144350 0.412222 0.395270
0.224475 0.411566 0.409430
0.391058 0.398535 0.399664
0.531472 0.376608 0.381811
0.657725 0.356023 0.366735
0.771710 0.347921 0.364569
0.880598 0.346548 0.337636
0.950072 0.333394 0.271702
0.227008 0.508003 0.334585
0.237400 0.512261 0.341192
0.267201 0.519646 0.349950
0.348425 0.519966 0.356802
0.491066 0.508751 0.344778
0.621622 0.490684 0.331228
0.737194 0.477653 0.336553
0.849805 0.474144 0.332876
0.926619 0.473838 0.327398
0.318227 0.597879 0.219577
0.325612 0.599542 0.228885
0.346838 0.604669 0.249729
0.381491 0.614435 0.286381
0.450706 0.621576 0.322148
0.582559 0.611734 0.312245
0.709636 0.608545 0.311696
0.827832 0.597574 0.323491
0.906325 0.597498 0.338659
0.384787 0.689418 0.161868
0.390204 0.692012 0.169299
0.404593 0.699046 0.190188
0.428840 0.710018 0.227176
0.466712 0.724987 0.281590
0.538262 0.736446 0.326101
0.675853 0.729625 0.323537
0.811948 0.734798 0.324865
0.895888 0.733471 0.329976
0.491402 0.782605 0.218097
0.494835 0.784955 0.222782
0.503319 0.791318 0.233982
0.520027 0.803388 0.255070
0.543343 0.818982 0.285939
0.577188 0.840009 0.326223
0.640162 0.859953 0.359426
0.773571 0.862425 0.349691
0.861555 0.873198 0.360281
0.583810 0.851987 0.306157
0.587823 0.854414 0.310124
0.598215 0.861051 0.319753
0.612268 0.869978 0.331670
0.635218 0.883986 0.346136
0.667216 0.902800 0.365423
0.708797 0.925490 0.392950
0.771679 0.947326 0.402213
0.824613 0.955154 0.395102
0.109712 0.164874 0.381521
0.161746 0.167803 0.383124
0.246372 0.191363 0.403174
0.327291 0.223346 0.419791
0.531899 0.195895 0.333944
0.662699 0.190051 0.303105
0.814496 0.191180 0.328283
0.864240 0.203525 0.340917
0.941482 0.200717 0.246983
0.103563 0.205951 0.425788
0.162539 0.208011 0.427390
0.265934 0.216815 0.429099
0.351843 0.248325 0.444968
0.515557 0.243153 0.390494
0.665278 0.219196 0.328649
0.809308 0.214405 0.347646
0.863386 0.222049 0.354086
0.948867 0.211322 0.242985
0.145037 0.291844 0.502800
0.168780 0.295857 0.513115
0.281468 0.298985 0.513313
0.397910 0.311711 0.509926
0.510552 0.320943 0.488396
0.660533 0.287892 0.395148
0.799130 0.270268 0.390692
0.857008 0.277623 0.391669
0.953491 0.252430 0.259434
0.181811 0.407263 0.550774
0.194644 0.410468 0.558465
0.265126 0.409552 0.574258
0.415244 0.406790 0.563455
0.530831 0.405051 0.547799
0.647684 0.392981 0.496666
0.778546 0.362493 0.450721
0.860044 0.367697 0.438499
0.935668 0.364874 0.359380
0.240848 0.527138 0.522072
0.246418 0.530388 0.523415
0.269566 0.535653 0.525322
0.363302 0.530587 0.525551
0.509606 0.516747 0.517189
0.632227 0.498482 0.506203
0.743816 0.485359 0.492546
0.856352 0.478950 0.468132
0.924514 0.478508 0.441382
0.291798 0.626886 0.522271
0.295644 0.628565 0.522164
0.312108 0.632258 0.516152
0.378424 0.630259 0.488426
0.475425 0.625254 0.478340
0.597528 0.615824 0.473198
0.720562 0.608331 0.464286
0.834501 0.601541 0.466117
0.913039 0.602075 0.456962
0.392706 0.702419 0.390539
0.399451 0.703700 0.391882
0.421500 0.705821 0.390036
0.462531 0.708904 0.385382
0.514733 0.716716 0.406256
0.576516 0.730053 0.450935
0.693294 0.729442 0.455680
0.819883 0.731914 0.451164
0.905821 0.726192 0.462257
0.507836 0.785031 0.287160
0.511650 0.787076 0.292485
0.522621 0.793332 0.306905
0.541115 0.804028 0.331533
0.567788 0.818601 0.368414
0.604913 0.837812 0.416327
0.663264 0.857511 0.458778
0.786938 0.861799 0.464988
0.878492 0.869215 0.476463
0.594354 0.860395 0.343832
0.596994 0.862211 0.346441
0.605112 0.867292 0.354040
0.618860 0.876158 0.367010
0.640940 0.889677 0.385702
0.674052 0.909621 0.411963
0.716564 0.934142 0.445487
0.768536 0.958358 0.473533
0.821393 0.965759 0.490196
0.109087 0.228229 0.450172
0.149355 0.232212 0.455497
0.251453 0.233570 0.450858
0.345205 0.267735 0.476493
0.452354 0.316609 0.512947
0.623560 0.287465 0.429404
0.800961 0.239155 0.372045
0.848524 0.246143 0.380041
0.898100 0.250126 0.340566
0.131991 0.263035 0.482292
0.159365 0.267979 0.490211
0.251621 0.270329 0.490486
0.366781 0.297169 0.507317
0.462547 0.342824 0.547005
0.611383 0.323720 0.480781
0.796887 0.259800 0.389944
0.845396 0.266804 0.396231
0.902174 0.268009 0.346975
0.175860 0.328084 0.545739
0.189822 0.332982 0.555505
0.267414 0.342245 0.571344
0.405554 0.356313 0.573068
0.491829 0.386648 0.605280
0.594247 0.394888 0.585641
0.781872 0.320180 0.450797
0.839628 0.311269 0.428580
0.904753 0.321645 0.377676
0.228260 0.415442 0.630991
0.240253 0.418112 0.641428
0.295613 0.422065 0.662089
0.432776 0.428168 0.659205
0.535836 0.438773 0.669154
0.618677 0.455665 0.662547
0.737850 0.425345 0.566613
0.843656 0.387304 0.475303
0.906416 0.407431 0.442603
0.268544 0.527916 0.674617
0.274632 0.531548 0.678614
0.301137 0.536507 0.689403
0.391638 0.531624 0.690593
0.535180 0.524269 0.670649
0.647120 0.516548 0.659068
0.729656 0.516106 0.622095
0.845655 0.504906 0.561547
0.909377 0.501366 0.523369
0.300175 0.640940 0.624582
0.303868 0.643198 0.627222
0.318151 0.648646 0.635447
0.370886 0.650568 0.642008
0.485908 0.639811 0.637034
0.618708 0.625544 0.626444
0.736522 0.614008 0.619333
0.846052 0.607111 0.607904
0.908995 0.607141 0.584497
0.334615 0.742947 0.691722
0.336522 0.744839 0.693507
0.343343 0.750347 0.697429
0.365713 0.756710 0.695491
0.473762 0.745739 0.645808
0.603586 0.733593 0.599557
0.715297 0.733257 0.595605
0.836912 0.729900 0.590478
0.912367 0.728542 0.588602
0.462852 0.807477 0.584268
0.470497 0.808804 0.579644
0.489815 0.811429 0.567620
0.527840 0.816739 0.547463
0.587930 0.822660 0.526772
0.651408 0.832563 0.529686
0.710506 0.851484 0.570886
0.812787 0.859892 0.585611
0.902983 0.862242 0.593637
0.611292 0.865141 0.405585
0.614343 0.866896 0.408530
0.622934 0.871839 0.416785
0.638422 0.880766 0.431800
0.665293 0.895766 0.459037
0.700755 0.915755 0.495094
0.741176 0.939071 0.531472
0.793133 0.960845 0.571756
0.845624 0.964187 0.596231
0.151568 0.293050 0.511299
0.166812 0.298009 0.519371
0.228229 0.309941 0.536965
0.366278 0.333165 0.554910
0.475761 0.379828 0.603830
0.553094 0.422919 0.658503
0.724254 0.371389 0.552483
0.833082 0.299580 0.429435
0.860731 0.311559 0.422217
0.168505 0.316381 0.534417
0.180499 0.322072 0.543786
0.242115 0.335653 0.565713
0.379187 0.355032 0.580270
0.489784 0.393957 0.622400
0.559899 0.435386 0.677775
0.708873 0.401175 0.595453
0.828214 0.318639 0.448508
0.861784 0.327337 0.433326
0.211398 0.368978 0.594949
0.223224 0.374563 0.604852
0.274693 0.385595 0.625391
0.412848 0.400198 0.635187
0.519020 0.426780 0.666560
0.582483 0.461921 0.715129
0.680461 0.459358 0.681086
0.813458 0.372091 0.507179
0.870359 0.371405 0.458289
0.264347 0.436835 0.672923
0.277104 0.440681 0.683024
0.322148 0.449714 0.706630
0.434165 0.459571 0.717586
0.559411 0.468009 0.724331
0.619806 0.492729 0.754757
0.679103 0.507942 0.747219
0.793500 0.466377 0.616297
0.886275 0.450355 0.516732
0.316381 0.534905 0.761288
0.324514 0.537346 0.771054
0.349874 0.541421 0.793606
0.419577 0.542321 0.808362
0.570886 0.540780 0.789960
0.663645 0.546181 0.797116
0.718044 0.565255 0.786877
0.810864 0.567529 0.717449
0.888930 0.543908 0.607324
0.358740 0.641306 0.792218
0.362982 0.644434 0.796185
0.374807 0.651743 0.805814
0.411048 0.657725 0.810727
0.513252 0.648692 0.800732
0.651453 0.641138 0.780652
0.753826 0.640558 0.773739
0.835508 0.640497 0.738918
0.889265 0.633295 0.680095
0.346349 0.756497 0.730327
0.348241 0.758282 0.732708
0.355459 0.763378 0.740688
0.376791 0.770718 0.755627
0.458854 0.769512 0.768414
0.595117 0.758251 0.760708
0.739574 0.746731 0.746899
0.856779 0.738781 0.737621
0.915389 0.743496 0.724849
0.410208 0.827070 0.785000
0.413550 0.828809 0.786572
0.427512 0.834592 0.791180
0.452689 0.843366 0.796414
0.503777 0.854826 0.797833
0.601526 0.860151 0.771633
0.740154 0.854612 0.719814
0.843671 0.861601 0.721492
0.926024 0.861524 0.727077
0.582238 0.874037 0.656291
0.587945 0.875349 0.653742
0.607889 0.880323 0.648676
0.641794 0.889448 0.641276
0.690272 0.902098 0.625696
0.741482 0.918410 0.625406
0.789807 0.939040 0.652415
0.836255 0.957580 0.695186
0.881819 0.959304 0.715572
0.194491 0.350958 0.572427
0.204929 0.357458 0.582910
0.249134 0.373159 0.609796
0.372549 0.391196 0.629999
0.514641 0.425269 0.667659
0.578088 0.463355 0.723156
0.640223 0.494957 0.758923
0.747616 0.455161 0.664271
0.829847 0.390661 0.531136
0.211414 0.368185 0.594491
0.222461 0.374380 0.605112
0.262776 0.387564 0.628153
0.387396 0.406668 0.649317
0.525429 0.437095 0.683726
0.585489 0.472114 0.735042
0.643641 0.502449 0.769696
0.736095 0.480232 0.703914
0.825254 0.416724 0.564218
0.246235 0.404852 0.641794
0.257328 0.409888 0.650477
0.299687 0.423514 0.673259
0.419684 0.442329 0.696788
0.550454 0.460533 0.716945
0.605859 0.489708 0.759136
0.658000 0.520119 0.793393
0.722271 0.528664 0.778363
0.816083 0.482139 0.647898
0.303868 0.468513 0.722194
0.316518 0.472755 0.732021
0.353384 0.482414 0.754330
0.432929 0.490639 0.764858
0.584863 0.495506 0.763470
0.641444 0.522179 0.800641
0.687129 0.552941 0.834546
0.732296 0.578393 0.848402
0.816297 0.564446 0.750866
0.362051 0.553857 0.818204
0.369253 0.556069 0.824201
0.390478 0.560769 0.837675
0.437064 0.567636 0.850355
0.600412 0.563302 0.834836
0.688075 0.573541 0.857862
0.729656 0.599222 0.881880
0.772030 0.622889 0.875441
0.831968 0.622812 0.794415
0.394873 0.653544 0.903227
0.397940 0.655970 0.907759
0.407507 0.661646 0.920073
0.432471 0.668971 0.938048
0.538415 0.665858 0.927993
0.695033 0.662593 0.908766
0.776181 0.669505 0.905715
0.820096 0.686915 0.884169
0.860410 0.692714 0.834562
0.414679 0.751736 0.870710
0.420005 0.753414 0.875044
0.435462 0.758160 0.885542
0.465385 0.766217 0.902602
0.519707 0.773541 0.915740
0.628489 0.769345 0.914366
0.777127 0.766888 0.901167
0.864912 0.770047 0.889403
0.905135 0.778988 0.857389
0.429221 0.836683 0.803357
0.434699 0.838697 0.805859
0.448508 0.843809 0.813001
0.477333 0.852384 0.826368
0.526986 0.863966 0.848051
0.601831 0.875319 0.873625
0.721706 0.878737 0.885878
0.868406 0.873686 0.873915
0.941985 0.872908 0.863081
0.550103 0.883742 0.848997
0.555184 0.885328 0.850736
0.571099 0.890227 0.855161
0.597925 0.897566 0.861204
0.634653 0.907591 0.866224
0.696986 0.921782 0.859495
0.791638 0.941390 0.839322
0.880674 0.953674 0.833188
0.937575 0.956680 0.857221
0.235019 0.393149 0.627527
0.242344 0.396826 0.635187
0.273838 0.409827 0.654994
0.387182 0.435767 0.690394
0.544640 0.459876 0.717220
0.603357 0.489815 0.761288
0.651377 0.522850 0.803388
0.697490 0.555917 0.838285
0.738460 0.569543 0.837552
0.244434 0.403021 0.640742
0.253223 0.407584 0.647944
0.291997 0.424125 0.673350
0.401724 0.447471 0.706386
0.553933 0.466835 0.727428
0.611307 0.496315 0.769970
0.657908 0.529259 0.811292
0.702617 0.563104 0.847013
0.737911 0.580056 0.854002
0.278904 0.439109 0.685527
0.291722 0.444358 0.695415
0.333379 0.458457 0.722698
0.422873 0.474128 0.744701
0.574365 0.484627 0.752026
0.631037 0.513405 0.792050
0.675029 0.545617 0.830533
0.715358 0.578805 0.865019
0.744335 0.600305 0.879042
0.339849 0.501076 0.769329
0.349950 0.504753 0.777035
0.374533 0.512856 0.792126
0.438712 0.520485 0.800626
0.607889 0.521614 0.797299
0.663218 0.545449 0.829740
0.703807 0.575479 0.863600
0.735012 0.600626 0.886168
0.765652 0.624475 0.894606
0.391012 0.577295 0.855528
0.396963 0.579248 0.859709
0.410941 0.584848 0.869352
0.445396 0.592844 0.880980
0.618143 0.585702 0.865278
0.705882 0.592996 0.880354
0.736370 0.613886 0.900114
0.767025 0.638422 0.911879
0.800961 0.665187 0.908782
0.417990 0.669581 0.948730
0.421057 0.671977 0.952636
0.430167 0.676005 0.960952
0.451560 0.684428 0.973495
0.536950 0.687480 0.967590
0.716823 0.677577 0.942199
0.781506 0.688640 0.947417
0.816587 0.713725 0.947005
0.844709 0.731792 0.935439
0.464698 0.750256 0.977173
0.468223 0.752483 0.978683
0.477363 0.758419 0.982620
0.495140 0.768719 0.987884
0.530648 0.780621 0.993698
0.640711 0.782483 0.992187
0.810819 0.786954 0.985840
0.869154 0.796643 0.975830
0.894713 0.809461 0.956695
0.495918 0.836606 0.889845
0.500938 0.838270 0.893172
0.521965 0.841810 0.909804
0.555261 0.849088 0.933089
0.595804 0.859754 0.957580
0.647532 0.873426 0.974884
0.748852 0.882261 0.981689
0.887648 0.886992 0.975158
0.940078 0.893584 0.956085
0.569802 0.890837 0.859648
0.576196 0.892714 0.861860
0.591135 0.897246 0.866865
0.616205 0.904158 0.876432
0.656062 0.914351 0.894499
0.714992 0.928206 0.923537
0.787045 0.944137 0.951614
0.892042 0.956588 0.956161
0.958389 0.960891 0.951980
