app/src/main/assets/filters/lumix_portrait.cube
# Created from lumix_portrait.plut
LUT_3D_SIZE 9
DOMAIN_MIN 0.0 0.0 0.0
DOMAIN_MAX 1.0 1.0 1.0
0.060792 0.051835 0.062181
0.148882 0.046571 0.049622
0.312062 0.049104 0.055253
0.450797 0.064958 0.078340
0.548486 0.123217 0.140673
0.677714 0.194888 0.197192
0.843320 0.192187 0.176944
0.966079 0.112322 0.077424
0.988968 0.133867 0.084520
0.056672 0.147189 0.056626
0.134844 0.145281 0.048966
0.300374 0.132967 0.054566
0.455970 0.125444 0.081895
0.568002 0.161196 0.139498
0.692103 0.209751 0.189731
0.848432 0.198245 0.175113
0.966186 0.118685 0.079728
0.987030 0.142123 0.088808
0.116930 0.274357 0.059632
0.139391 0.281834 0.054246
0.270542 0.282231 0.046098
0.435767 0.263020 0.047684
0.575891 0.255833 0.095903
0.709453 0.265919 0.158740
0.843061 0.261936 0.167330
0.948211 0.211093 0.132387
0.971145 0.194858 0.116732
0.165438 0.409781 0.091203
0.181109 0.413825 0.078187
0.246647 0.422827 0.053147
0.404120 0.416388 0.039384
0.565942 0.399985 0.030655
0.692485 0.382391 0.061891
0.819181 0.371328 0.122881
0.922576 0.367864 0.185657
0.972305 0.366613 0.222553
0.275502 0.536629 0.073228
0.280064 0.540780 0.072572
0.290410 0.551171 0.071489
0.363745 0.556909 0.053330
0.522652 0.545342 0.036973
0.678935 0.528099 0.018097
0.793927 0.506493 0.043961
0.886320 0.508385 0.104952
0.946517 0.520119 0.222248
0.360983 0.648005 0.093614
0.363149 0.650843 0.093538
0.369757 0.657694 0.093721
0.383352 0.669291 0.090791
0.472404 0.673838 0.064958
0.623301 0.661921 0.056092
0.781750 0.650965 0.025971
0.886961 0.634134 0.032120
0.949493 0.635798 0.056474
0.446143 0.731838 0.120424
0.449104 0.733776 0.121538
0.460258 0.741527 0.123323
0.479179 0.754696 0.125200
0.506676 0.773526 0.114168
0.569284 0.786587 0.077287
0.710369 0.779644 0.068406
0.869673 0.770932 0.041260
0.949187 0.751278 0.028092
0.554314 0.822019 0.130236
0.557137 0.824262 0.128786
0.562921 0.828901 0.125612
0.575967 0.839673 0.122042
0.593729 0.852750 0.112306
0.621347 0.871046 0.102083
0.669337 0.890257 0.099001
0.772412 0.893645 0.131792
0.852110 0.891249 0.195331
0.636927 0.884993 0.110658
0.638224 0.886061 0.111421
0.645518 0.890440 0.111925
0.659571 0.898405 0.110658
0.680476 0.911055 0.122850
0.707240 0.927352 0.139467
0.742153 0.946365 0.162737
0.781613 0.965698 0.190066
0.811109 0.974914 0.223728
0.066972 0.062760 0.128786
0.150469 0.066926 0.123537
0.306676 0.056947 0.101854
0.450690 0.075380 0.105852
0.553811 0.126177 0.155810
0.680369 0.194949 0.210620
0.840024 0.195315 0.188678
0.966842 0.114092 0.082414
0.990326 0.135790 0.090013
0.062760 0.148653 0.150042
0.149493 0.150866 0.151278
0.305318 0.131243 0.132784
0.461357 0.123079 0.132219
0.577188 0.154681 0.165728
0.697459 0.205859 0.207919
0.846906 0.196216 0.182589
0.967269 0.117525 0.081209
0.989288 0.142870 0.093919
0.101900 0.280766 0.127077
0.136614 0.285573 0.130312
0.278660 0.282002 0.121309
0.443030 0.257862 0.114916
0.589227 0.245274 0.137423
0.717800 0.256306 0.176761
0.849027 0.251667 0.177142
0.951492 0.206622 0.138247
0.973938 0.191073 0.118853
0.142824 0.407675 0.124941
0.154574 0.412680 0.120714
0.250401 0.420783 0.107378
0.410819 0.414786 0.093385
0.569451 0.396658 0.087861
0.701076 0.375525 0.113527
0.826520 0.363821 0.153826
0.929107 0.361746 0.194965
0.973617 0.359304 0.221347
0.273030 0.534325 0.081178
0.278309 0.538338 0.081651
0.293050 0.548821 0.090867
0.371298 0.553323 0.099596
0.529259 0.542611 0.082139
0.678935 0.525933 0.064698
0.796536 0.502922 0.079637
0.892699 0.502968 0.135866
0.951675 0.512032 0.248539
0.360204 0.645670 0.098650
0.362921 0.648966 0.099626
0.369482 0.656092 0.101854
0.386587 0.667094 0.111894
0.480064 0.669306 0.109041
0.629129 0.658152 0.091676
0.781338 0.646647 0.060594
0.888029 0.630640 0.059266
0.951843 0.630991 0.086168
0.446052 0.731472 0.124926
0.449241 0.733471 0.126070
0.460182 0.740948 0.129397
0.479057 0.754147 0.134600
0.506157 0.772076 0.134096
0.575525 0.782544 0.119188
0.718975 0.775067 0.102373
0.871977 0.767926 0.063386
0.949294 0.749172 0.056138
0.553979 0.821469 0.136416
0.556558 0.823514 0.135271
0.562631 0.828351 0.133120
0.575601 0.839002 0.129870
0.593530 0.852140 0.121874
0.621515 0.870558 0.115358
0.673548 0.889265 0.116274
0.780941 0.890593 0.146258
0.858579 0.888289 0.211810
0.636606 0.884733 0.114031
0.638560 0.886168 0.113542
0.645533 0.890364 0.115419
0.659693 0.898390 0.116655
0.681209 0.911498 0.127245
0.707927 0.927749 0.143374
0.743175 0.947051 0.166918
0.782910 0.966369 0.193576
0.813321 0.975082 0.229129
0.082338 0.100755 0.244572
0.150683 0.124254 0.267033
0.273365 0.126726 0.231907
0.427207 0.127504 0.191424
0.558694 0.150637 0.199786
0.685557 0.200443 0.240345
0.832273 0.208118 0.219165
0.968231 0.133364 0.112154
0.992050 0.147951 0.116960
0.090852 0.150240 0.303304
0.169680 0.167788 0.306584
0.293126 0.172839 0.279301
0.441367 0.165148 0.237140
0.576654 0.175280 0.229099
0.702586 0.208362 0.244877
0.838773 0.214038 0.223774
0.969100 0.146365 0.127459
0.992798 0.156741 0.125093
0.109270 0.289845 0.286229
0.147829 0.291585 0.293355
0.287663 0.289204 0.290547
0.444968 0.266712 0.271031
0.595377 0.251453 0.260151
0.725170 0.251606 0.252537
0.849363 0.252857 0.244099
0.956954 0.221592 0.187594
0.984848 0.200320 0.152010
0.143435 0.411551 0.239429
0.159304 0.417990 0.252110
0.251652 0.425071 0.260548
0.414054 0.419379 0.243641
0.569986 0.394903 0.230900
0.708171 0.373709 0.231418
0.832517 0.363928 0.234653
0.937102 0.355001 0.230518
0.976349 0.342092 0.221332
0.274189 0.528115 0.155474
0.283787 0.532753 0.165591
0.310857 0.543252 0.190799
0.382620 0.550698 0.221149
0.532174 0.540047 0.207385
0.670878 0.523323 0.203189
0.791852 0.500771 0.210773
0.902510 0.493263 0.227817
0.960754 0.498085 0.288533
0.361898 0.641718 0.122621
0.365087 0.644053 0.127062
0.375891 0.650431 0.142519
0.404211 0.660319 0.184024
0.486595 0.664302 0.217319
0.630930 0.652277 0.202670
0.769451 0.641154 0.193072
0.882918 0.625620 0.180514
0.954604 0.620401 0.181827
0.447288 0.730694 0.139147
0.450690 0.732906 0.141695
0.461891 0.740169 0.151171
0.481056 0.751797 0.168353
0.509819 0.767102 0.201526
0.583291 0.775219 0.233021
0.719097 0.767224 0.222217
0.866438 0.759258 0.183902
0.942504 0.746105 0.174487
0.553094 0.819135 0.164431
0.555856 0.821485 0.163836
0.562402 0.826642 0.167681
0.575265 0.836378 0.174380
0.594217 0.849241 0.181888
0.624414 0.866163 0.200626
0.682155 0.882292 0.225925
0.796948 0.881819 0.224689
0.872313 0.882628 0.267063
0.636790 0.883818 0.142123
0.639673 0.885634 0.142016
0.647150 0.890211 0.142916
0.661311 0.898085 0.148760
0.683360 0.911788 0.156191
0.710063 0.927962 0.172259
0.745998 0.947921 0.193713
0.788418 0.967987 0.210407
0.820737 0.974960 0.245487
0.113268 0.144076 0.339864
0.162997 0.159625 0.346822
0.244373 0.187030 0.359426
0.383948 0.196857 0.318944
0.549645 0.197818 0.275303
0.685893 0.218601 0.284916
0.814817 0.238376 0.289052
0.957534 0.185153 0.188342
0.992630 0.176333 0.160372
0.115328 0.175814 0.399329
0.174395 0.191119 0.399802
0.269429 0.216648 0.399100
0.398352 0.225895 0.359304
0.563485 0.219150 0.300862
0.700343 0.231342 0.301061
0.822004 0.248554 0.303746
0.954498 0.204776 0.214557
0.993469 0.190204 0.173342
0.132128 0.277684 0.449332
0.171695 0.281849 0.454414
0.298924 0.293446 0.451164
0.428534 0.293919 0.428992
0.581460 0.284215 0.372839
0.720989 0.275151 0.351827
0.835309 0.279271 0.349386
0.941695 0.266072 0.287892
0.992737 0.235691 0.210132
0.180423 0.420371 0.409445
0.192157 0.424704 0.416526
0.263844 0.428885 0.431342
0.422263 0.424491 0.425467
0.572930 0.401648 0.404013
0.709941 0.379461 0.387243
0.828397 0.368658 0.379217
0.929625 0.359930 0.341726
0.980423 0.339712 0.271046
0.279179 0.533989 0.367086
0.288701 0.538598 0.373404
0.318425 0.547509 0.380911
0.393927 0.551553 0.387411
0.535973 0.542779 0.374395
0.672587 0.520073 0.360845
0.794293 0.501671 0.360357
0.903105 0.491310 0.349264
0.967788 0.484398 0.337041
0.381125 0.634958 0.251667
0.388083 0.636591 0.259724
0.407919 0.641855 0.279606
0.440009 0.651316 0.314534
0.504540 0.658640 0.350607
0.634928 0.648692 0.342855
0.762890 0.637247 0.342046
0.876661 0.617319 0.343236
0.949737 0.612863 0.354223
0.456580 0.728710 0.188952
0.461479 0.731029 0.196490
0.474281 0.737224 0.217487
0.495720 0.746883 0.254383
0.529351 0.759609 0.308919
0.594461 0.768490 0.352667
0.723583 0.759030 0.350011
0.857282 0.750835 0.344213
0.937057 0.742947 0.343038
0.556329 0.816541 0.220951
0.558694 0.817899 0.224796
0.565911 0.822721 0.235477
0.581003 0.831846 0.259205
0.601892 0.842939 0.295216
0.631647 0.858564 0.339040
0.685252 0.873503 0.371908
0.802060 0.872877 0.364446
0.887602 0.876814 0.370474
0.640772 0.881086 0.235767
0.642908 0.882506 0.239139
0.650050 0.886992 0.244205
0.664485 0.895369 0.258305
0.684627 0.907713 0.271717
0.712047 0.924010 0.282719
0.747982 0.944015 0.295415
0.795315 0.964965 0.292409
0.832624 0.971908 0.298222
0.124392 0.186481 0.422049
0.158709 0.195483 0.425406
0.246662 0.221210 0.427726
0.338094 0.253864 0.440543
0.510780 0.257069 0.378637
0.686656 0.252827 0.337881
0.807462 0.273243 0.359136
0.915679 0.267643 0.326543
0.986999 0.216266 0.214893
0.128496 0.218250 0.467231
0.161578 0.225269 0.469337
0.263661 0.245640 0.460151
0.359197 0.277592 0.468986
0.517281 0.284337 0.417594
0.695476 0.268711 0.357488
0.815183 0.283391 0.372778
0.912337 0.282795 0.349218
0.986877 0.227741 0.225696
0.144244 0.289631 0.557641
0.166613 0.295354 0.562860
0.290425 0.312764 0.544778
0.402228 0.333577 0.535760
0.528710 0.347082 0.507713
0.706844 0.315175 0.412100
0.830304 0.311223 0.406455
0.906050 0.321492 0.399695
0.983337 0.270497 0.261814
0.198642 0.408499 0.575006
0.210330 0.411597 0.580270
0.285863 0.416098 0.588342
0.431052 0.423987 0.582452
0.556039 0.424903 0.566522
0.695521 0.410407 0.509468
0.829999 0.380896 0.464714
0.912474 0.381353 0.442710
0.970809 0.372290 0.355825
0.276631 0.540826 0.545525
0.283436 0.543984 0.545068
0.306996 0.550820 0.545480
0.399298 0.551003 0.548455
0.543359 0.545403 0.545129
0.674723 0.525246 0.529946
0.794278 0.507958 0.511635
0.902052 0.495735 0.479820
0.960922 0.489891 0.446174
0.330846 0.649058 0.557748
0.334279 0.650752 0.556832
0.351293 0.654994 0.549187
0.423972 0.656397 0.515770
0.520378 0.656504 0.506203
0.640803 0.649546 0.501854
0.765988 0.635874 0.491279
0.877485 0.619211 0.485054
0.949996 0.612589 0.468971
0.450248 0.729473 0.416693
0.457465 0.730938 0.416190
0.479545 0.734661 0.414435
0.519173 0.740230 0.411139
0.566842 0.748409 0.433005
0.623163 0.758938 0.476219
0.733318 0.754269 0.479652
0.854459 0.745647 0.472618
0.937484 0.733135 0.473121
0.569863 0.813367 0.311345
0.573144 0.814939 0.316777
0.582650 0.819898 0.331472
0.598672 0.828290 0.355810
0.621302 0.839368 0.391882
0.652094 0.853529 0.437125
0.700999 0.867018 0.475395
0.809995 0.866438 0.477790
0.898192 0.867720 0.485191
0.645411 0.875837 0.348867
0.648249 0.877501 0.352331
0.655039 0.881575 0.360708
0.668116 0.889265 0.374075
0.686976 0.900816 0.389563
0.714488 0.916640 0.414084
0.748836 0.935866 0.443809
0.792813 0.956069 0.462470
0.832120 0.962219 0.463279
0.130877 0.240085 0.501198
0.149325 0.244678 0.505653
0.232349 0.261860 0.503075
0.343648 0.298878 0.513283
0.457084 0.355734 0.568276
0.624155 0.349752 0.512993
0.807813 0.304768 0.404562
0.885512 0.320745 0.413107
0.958312 0.277577 0.312840
0.137179 0.267659 0.539208
0.153277 0.273960 0.546685
0.238453 0.291005 0.544884
0.360998 0.323339 0.544213
0.472190 0.377798 0.602518
0.617838 0.372595 0.553552
0.811139 0.317388 0.420691
0.886015 0.328511 0.422705
0.955062 0.293202 0.330556
0.167422 0.327413 0.616434
0.178241 0.332326 0.622522
0.253407 0.346792 0.622431
0.407797 0.376181 0.613367
0.502953 0.412665 0.659937
0.609567 0.418631 0.631403
0.810941 0.357748 0.473671
0.890043 0.348562 0.441840
0.950225 0.338415 0.374655
0.220813 0.410330 0.691859
0.231693 0.412421 0.699290
0.295628 0.420447 0.703441
0.446311 0.437995 0.689418
0.544991 0.450874 0.702174
0.640909 0.471733 0.684474
0.780026 0.440299 0.577646
0.895003 0.400900 0.480949
0.948333 0.416297 0.441016
0.279774 0.527306 0.698192
0.288045 0.530480 0.697749
0.321691 0.534874 0.697627
0.415610 0.538918 0.696910
0.553399 0.544274 0.687770
0.675074 0.536156 0.675059
0.768338 0.534813 0.635676
0.884627 0.520302 0.570611
0.943450 0.515236 0.529503
0.334752 0.650645 0.642451
0.338781 0.652689 0.644877
0.354391 0.657588 0.651911
0.411978 0.659739 0.656611
0.521309 0.657816 0.657176
0.649958 0.651575 0.651591
0.770138 0.636057 0.639475
0.877592 0.622965 0.620691
0.938399 0.619806 0.594522
0.388266 0.744823 0.707454
0.391043 0.746685 0.709041
0.398749 0.751797 0.712840
0.421210 0.758587 0.710658
0.520027 0.756680 0.663355
0.640253 0.754330 0.620005
0.743420 0.752041 0.614878
0.859434 0.739544 0.605356
0.934661 0.731411 0.596841
0.517830 0.812467 0.598444
0.524880 0.814237 0.594232
0.542794 0.818082 0.582620
0.577584 0.825299 0.563317
0.631312 0.833967 0.543999
0.686244 0.843427 0.546105
0.735088 0.855894 0.582055
0.826047 0.857649 0.591730
0.911101 0.854261 0.599054
0.658534 0.876875 0.424369
0.661112 0.878172 0.427283
0.668040 0.882048 0.434333
0.680919 0.888869 0.448295
0.703197 0.900450 0.472755
0.732586 0.916045 0.505531
0.765728 0.934585 0.538003
0.808453 0.951095 0.573648
0.853574 0.952636 0.596948
0.150988 0.301671 0.587106
0.161181 0.308278 0.595850
0.205707 0.322530 0.607248
0.352316 0.356252 0.607752
0.497185 0.415335 0.672862
0.555200 0.451499 0.727687
0.694728 0.444755 0.668879
0.861707 0.366018 0.482887
0.916258 0.347326 0.423911
0.164904 0.323095 0.613565
0.173724 0.328374 0.620417
0.215839 0.342748 0.633265
0.372580 0.376989 0.635523
0.509178 0.425299 0.688808
0.563256 0.458854 0.739025
0.689586 0.461067 0.697200
0.857588 0.378408 0.500282
0.916381 0.359533 0.435767
0.203983 0.370779 0.669551
0.212696 0.375418 0.675700
0.249943 0.387121 0.688762
0.419821 0.416663 0.688716
0.531334 0.444175 0.718791
0.587137 0.477287 0.764080
0.682658 0.492256 0.746487
0.844419 0.411673 0.546578
0.919417 0.390417 0.461662
0.247105 0.437781 0.756115
0.255024 0.441154 0.762585
0.295705 0.450874 0.771237
0.452842 0.466316 0.751705
0.566857 0.478355 0.765454
0.630182 0.507454 0.797269
0.690883 0.523354 0.780896
0.823606 0.481086 0.631739
0.925917 0.461189 0.519814
0.279408 0.532784 0.833570
0.288365 0.534813 0.836210
0.336400 0.537362 0.830167
0.438621 0.544015 0.814923
0.578927 0.554253 0.807034
0.672724 0.558007 0.808591
0.729641 0.576333 0.792828
0.832120 0.576501 0.719631
0.918059 0.556497 0.613550
0.370062 0.630198 0.809369
0.375677 0.632700 0.808804
0.392386 0.638727 0.808438
0.434577 0.646113 0.805646
0.533349 0.651392 0.798642
0.663615 0.655787 0.785641
0.767803 0.651575 0.777401
0.854536 0.646754 0.739269
0.912703 0.640650 0.686885
0.401617 0.752300 0.742611
0.403784 0.753933 0.744778
0.410590 0.757610 0.751369
0.429221 0.762676 0.763134
0.500450 0.763378 0.773434
0.622354 0.760479 0.767285
0.752056 0.753536 0.753948
0.864759 0.739544 0.739162
0.922927 0.740703 0.722820
0.464820 0.811322 0.786038
0.467887 0.812696 0.787182
0.480278 0.817548 0.790600
0.502434 0.825177 0.794095
0.546532 0.836301 0.793591
0.630442 0.846143 0.768429
0.750347 0.847532 0.718730
0.842710 0.851301 0.715404
0.924880 0.848646 0.719463
0.620920 0.865797 0.659800
0.625971 0.867292 0.657359
0.643320 0.872557 0.652140
0.672541 0.881971 0.644678
0.715114 0.895399 0.629160
0.759213 0.910979 0.626978
0.799756 0.927901 0.649714
0.839124 0.943160 0.686503
0.881758 0.945708 0.704128
0.194232 0.360052 0.659174
0.201648 0.366415 0.667155
0.227314 0.380453 0.684688
0.362280 0.410590 0.701106
0.532052 0.448600 0.727993
0.585626 0.481025 0.773831
0.640681 0.515908 0.813321
0.722408 0.513390 0.767193
0.845167 0.446296 0.598383
0.210040 0.378347 0.681331
0.217563 0.383764 0.688655
0.239826 0.395865 0.705165
0.380240 0.424384 0.719005
0.540597 0.455085 0.737545
0.593835 0.487541 0.782361
0.645823 0.520638 0.818708
0.717510 0.524712 0.786374
0.838315 0.466194 0.628000
0.238926 0.418524 0.736751
0.244434 0.422934 0.744030
0.266194 0.436347 0.764767
0.409506 0.456306 0.764767
0.560983 0.472587 0.762234
0.615351 0.504234 0.802747
0.660136 0.533501 0.831983
0.715145 0.550393 0.825345
0.824979 0.512612 0.695186
0.261769 0.493858 0.861982
0.266026 0.497475 0.868833
0.283680 0.506081 0.881376
0.401450 0.509804 0.852781
0.593347 0.507012 0.804227
0.647715 0.531823 0.832868
0.685756 0.559869 0.857298
0.730358 0.587915 0.868879
0.820966 0.578698 0.772473
0.271550 0.553216 0.958068
0.277317 0.556344 0.958648
0.297581 0.563531 0.955154
0.389120 0.572061 0.919905
0.612222 0.579034 0.865919
0.686885 0.586511 0.884504
0.726329 0.607233 0.893156
0.770642 0.627268 0.877913
0.839734 0.626642 0.795254
0.365866 0.633921 0.929305
0.371649 0.637339 0.930724
0.387991 0.644572 0.933730
0.434791 0.650416 0.934905
0.554788 0.657801 0.918761
0.689021 0.668330 0.905379
0.768383 0.670451 0.896468
0.815381 0.682643 0.870039
0.865476 0.686137 0.818936
0.441810 0.728435 0.866911
0.446479 0.729732 0.870085
0.460304 0.733425 0.878828
0.486259 0.739651 0.894072
0.533120 0.747784 0.906447
0.632486 0.754849 0.902022
0.764691 0.758618 0.884413
0.853544 0.757748 0.872206
0.900267 0.765301 0.841413
0.481910 0.817670 0.800916
0.486580 0.819303 0.802930
0.498466 0.823255 0.808682
0.522637 0.829892 0.819562
0.562921 0.839170 0.837797
0.622782 0.849714 0.860136
0.722805 0.856184 0.869749
0.853788 0.854505 0.855665
0.935149 0.855543 0.845899
0.583032 0.857969 0.836225
0.587198 0.859373 0.837583
0.600168 0.863890 0.841108
0.622034 0.870924 0.846036
0.652491 0.880858 0.850004
0.706126 0.896391 0.842985
0.789700 0.919020 0.822461
0.870771 0.933989 0.813947
0.923796 0.935775 0.834485
0.236744 0.419913 0.746304
0.240482 0.424170 0.753063
0.254673 0.446616 0.792370
0.337896 0.476677 0.827985
0.552346 0.475090 0.770535
0.612299 0.504036 0.803693
0.655482 0.534188 0.836851
0.693385 0.564401 0.863890
0.725139 0.587289 0.879149
0.244480 0.441032 0.782162
0.248264 0.449790 0.798276
0.262028 0.473610 0.839704
0.333593 0.497551 0.865843
0.553552 0.483955 0.785779
0.619226 0.509407 0.809949
0.660731 0.539651 0.842695
0.697826 0.569604 0.869261
0.727794 0.592966 0.885222
0.258976 0.508385 0.898848
0.261769 0.516228 0.912764
0.268727 0.530205 0.936660
0.307301 0.539864 0.944579
0.552941 0.506813 0.822721
0.637919 0.525002 0.827176
0.674632 0.554788 0.858732
0.710521 0.583368 0.882048
0.736263 0.606104 0.895720
0.266194 0.558602 0.986053
0.266972 0.559304 0.987076
0.269551 0.561822 0.990570
0.279545 0.563806 0.990616
0.536400 0.543755 0.879774
0.667597 0.558206 0.862547
0.697307 0.583429 0.887037
0.730770 0.607507 0.900877
0.755062 0.628244 0.905913
0.269368 0.570977 0.998444
0.272938 0.572808 0.998505
0.282048 0.578622 0.998688
0.296956 0.590448 0.997742
0.565057 0.603418 0.924636
0.697856 0.608972 0.911192
0.728130 0.624842 0.920470
0.758007 0.642954 0.919905
0.789166 0.661250 0.906432
0.328786 0.628550 0.989654
0.335241 0.632410 0.989151
0.353994 0.641032 0.988663
0.400824 0.653162 0.984390
0.580499 0.669352 0.955901
0.715373 0.678981 0.950942
0.765881 0.688701 0.951644
0.794690 0.705287 0.937713
0.828656 0.717372 0.911482
0.469841 0.716030 0.967834
0.474403 0.718379 0.969345
0.484810 0.724300 0.973785
0.503334 0.734432 0.980896
0.535958 0.747494 0.989181
0.638148 0.758068 0.983612
0.781521 0.766918 0.966583
0.836790 0.773922 0.951339
0.869291 0.786801 0.932753
0.525856 0.807248 0.883085
0.529900 0.808499 0.886213
0.545708 0.810422 0.902358
0.570993 0.815763 0.925429
0.602518 0.824857 0.950744
0.646204 0.838865 0.968780
0.734936 0.853025 0.970687
0.855390 0.859510 0.955901
0.918608 0.871214 0.937362
0.598932 0.863859 0.845167
0.604074 0.865583 0.847013
0.616068 0.869780 0.851301
0.636240 0.876249 0.859846
0.668711 0.885725 0.876646
0.717159 0.898680 0.903792
0.777966 0.914916 0.931289
0.873320 0.932174 0.936614
0.940505 0.939773 0.931334
