app/src/main/assets/filters/lumix_std.cube
# Created from lumix_std.plut
LUT_3D_SIZE 5
DOMAIN_MIN 0.0 0.0 0.0
DOMAIN_MAX 1.0 1.0 1.0
0.038025 0.028840 0.041627
0.275227 0.020035 0.034592
0.561425 0.044968 0.075807
0.821057 0.093217 0.100313
0.966812 0.122698 0.090532
0.058869 0.243137 0.014374
0.219852 0.245945 0.005234
0.529717 0.218784 0.056016
0.789517 0.216129 0.132448
0.951965 0.182467 0.119707
0.203845 0.499062 0.037766
0.219425 0.513130 0.036790
0.458625 0.503487 0.015366
0.718669 0.473106 0.029740
0.893202 0.498833 0.202228
0.368200 0.689876 0.099260
0.382910 0.699763 0.103807
0.431952 0.731319 0.107607
0.647440 0.739178 0.057023
0.884596 0.742763 0.016037
0.579507 0.841932 0.246479
0.591867 0.850019 0.256168
0.635355 0.874983 0.289647
0.713222 0.910780 0.321706
0.817792 0.934676 0.331746
0.079332 0.079911 0.249805
0.248707 0.093400 0.219898
0.573327 0.095018 0.209598
0.816876 0.105455 0.225055
0.970459 0.135668 0.121584
0.042664 0.272267 0.262257
0.250980 0.258656 0.260853
0.553872 0.218540 0.234699
0.802304 0.212009 0.229969
0.965759 0.187289 0.154910
0.208835 0.493812 0.123186
0.248493 0.508736 0.157351
0.477699 0.503105 0.170275
0.729671 0.472450 0.183597
0.914748 0.482597 0.272541
0.371206 0.689891 0.114946
0.386633 0.699901 0.127184
0.439567 0.729961 0.179080
0.663951 0.733684 0.196429
0.889097 0.736858 0.151781
0.580652 0.846723 0.274556
0.594263 0.855039 0.284947
0.635126 0.879561 0.316365
0.708583 0.918502 0.358801
0.819196 0.941695 0.352621
0.109712 0.164874 0.381521
0.246372 0.191363 0.403174
0.531899 0.195895 0.333944
0.814496 0.191180 0.328283
0.941482 0.200717 0.246983
0.145037 0.291844 0.502800
0.281468 0.298985 0.513313
0.510552 0.320943 0.488396
0.799130 0.270268 0.390692
0.953491 0.252430 0.259434
0.240848 0.527138 0.522072
0.269566 0.535653 0.525322
0.509606 0.516747 0.517189
0.743816 0.485359 0.492546
0.924514 0.478508 0.441382
0.392706 0.702419 0.390539
0.421500 0.705821 0.390036
0.514733 0.716716 0.406256
0.693294 0.729442 0.455680
0.905821 0.726192 0.462257
0.594354 0.860395 0.343832
0.605112 0.867292 0.354040
0.640940 0.889677 0.385702
0.716564 0.934142 0.445487
0.821393 0.965759 0.490196
0.151568 0.293050 0.511299
0.228229 0.309941 0.536965
0.475761 0.379828 0.603830
0.724254 0.371389 0.552483
0.860731 0.311559 0.422217
0.211398 0.368978 0.594949
0.274693 0.385595 0.625391
0.519020 0.426780 0.666560
0.680461 0.459358 0.681086
0.870359 0.371405 0.458289
0.316381 0.534905 0.761288
0.349874 0.541421 0.793606
0.570886 0.540780 0.789960
0.718044 0.565255 0.786877
0.888930 0.543908 0.607324
0.346349 0.756497 0.730327
0.355459 0.763378 0.740688
0.458854 0.769512 0.768414
0.739574 0.746731 0.746899
0.915389 0.743496 0.724849
0.582238 0.874037 0.656291
0.607889 0.880323 0.648676
0.690272 0.902098 0.625696
0.789807 0.939040 0.652415
0.881819 0.959304 0.715572
0.235019 0.393149 0.627527
0.273838 0.409827 0.654994
0.544640 0.459876 0.717220
0.651377 0.522850 0.803388
0.738460 0.569543 0.837552
0.278904 0.439109 0.685527
0.333379 0.458457 0.722698
0.574365 0.484627 0.752026
0.675029 0.545617 0.830533
0.744335 0.600305 0.879042
0.391012 0.577295 0.855528
0.410941 0.584848 0.869352
0.618143 0.585702 0.865278
0.736370 0.613886 0.900114
0.800961 0.665187 0.908782
0.464698 0.750256 0.977173
0.477363 0.758419 0.982620
0.530648 0.780621 0.993698
0.810819 0.786954 0.985840
0.894713 0.809461 0.956695
0.569802 0.890837 0.859648
0.591135 0.897246 0.866865
0.656062 0.914351 0.894499
0.787045 0.944137 0.951614
0.958389 0.960891 0.951980
