app/src/main/assets/filters/lumix_nat.cube
# Created from lumix_nat.plut
LUT_3D_SIZE 5
DOMAIN_MIN 0.0 0.0 0.0
DOMAIN_MAX 1.0 1.0 1.0
0.059571 0.051301 0.060563
0.294133 0.052628 0.058183
0.559350 0.101289 0.118379
0.826139 0.159075 0.154086
0.974075 0.141268 0.093721
0.121324 0.259861 0.074205
0.265293 0.272755 0.058152
0.563165 0.248890 0.100069
0.818448 0.248020 0.159686
0.958480 0.202075 0.126680
0.276127 0.508507 0.104479
0.291554 0.523125 0.101991
0.513771 0.523232 0.059205
0.766873 0.491341 0.060121
0.924636 0.514519 0.236896
0.444221 0.700237 0.153948
0.457877 0.710201 0.156527
0.502632 0.741741 0.145235
0.704204 0.746715 0.093263
0.918090 0.725170 0.052384
0.633265 0.850416 0.139879
0.641871 0.855802 0.141726
0.676768 0.876310 0.155215
0.738872 0.912612 0.198611
0.809339 0.946090 0.259922
0.075639 0.098100 0.222980
0.266102 0.126635 0.213474
0.566033 0.129900 0.172442
0.831586 0.171023 0.242969
0.976989 0.156817 0.125856
0.114336 0.283131 0.280919
0.286702 0.287755 0.288991
0.577432 0.255772 0.261738
0.826810 0.245609 0.247135
0.971725 0.209369 0.161334
0.278859 0.504631 0.182361
0.314931 0.521920 0.213260
0.525811 0.526436 0.225666
0.770840 0.493446 0.227451
0.940810 0.497765 0.300801
0.445975 0.699947 0.172473
0.460380 0.710063 0.184100
0.508080 0.739315 0.232822
0.712963 0.743374 0.247745
0.917205 0.726619 0.200504
0.633127 0.850431 0.171267
0.643519 0.856779 0.172641
0.679698 0.878416 0.188083
0.742901 0.915602 0.228550
0.818799 0.947463 0.280125
0.120165 0.190478 0.411246
0.210300 0.225849 0.426078
0.511284 0.257053 0.361639
0.826642 0.234791 0.346929
0.950805 0.232517 0.258137
0.141833 0.284871 0.544488
0.262013 0.315694 0.531106
0.531304 0.336904 0.454459
0.819821 0.297551 0.403204
0.960845 0.279835 0.272221
0.277653 0.530007 0.532616
0.314046 0.540536 0.536950
0.542367 0.544335 0.544701
0.775097 0.514183 0.515618
0.939773 0.499001 0.455833
0.458213 0.708370 0.432578
0.485023 0.714092 0.433143
0.569451 0.730999 0.453529
0.729641 0.742947 0.495354
0.922774 0.726192 0.487709
0.644083 0.850858 0.379034
0.653849 0.856962 0.390845
0.685542 0.876860 0.419425
0.747417 0.913954 0.472755
0.829618 0.943053 0.489265
0.152499 0.303731 0.582818
0.186313 0.323308 0.605554
0.398016 0.400107 0.615061
0.766201 0.392966 0.545739
0.879927 0.337057 0.430976
0.198489 0.362219 0.655222
0.236164 0.381735 0.676936
0.460700 0.458427 0.679301
0.703471 0.488243 0.685100
0.888838 0.394522 0.466850
0.278828 0.529290 0.805371
0.338705 0.535073 0.800656
0.572259 0.557717 0.774166
0.722499 0.583490 0.776043
0.898024 0.564523 0.616632
0.419226 0.739376 0.728130
0.428077 0.745037 0.736767
0.513329 0.753841 0.762631
0.751156 0.752773 0.753582
0.910307 0.744518 0.726253
0.630091 0.850690 0.665858
0.651270 0.857496 0.660243
0.719127 0.880354 0.643336
0.800381 0.915358 0.667262
0.880095 0.937392 0.718853
0.231785 0.412222 0.725795
0.248325 0.434028 0.760739
0.389609 0.501991 0.818769
0.665019 0.552071 0.798627
0.735027 0.597787 0.841398
0.255924 0.492317 0.857115
0.264698 0.512902 0.894163
0.403922 0.542718 0.895430
0.681041 0.567819 0.818601
0.740154 0.618555 0.867704
0.272969 0.570001 0.994385
0.283726 0.577432 0.995590
0.462608 0.607050 0.936675
0.735073 0.634897 0.887800
0.784665 0.667353 0.887526
0.473487 0.711330 0.947494
0.487922 0.719890 0.954177
0.539223 0.744549 0.975586
0.782513 0.769848 0.952605
0.866224 0.790845 0.923049
0.614282 0.854307 0.835142
0.630854 0.860426 0.841871
0.680873 0.877531 0.868864
0.784665 0.910384 0.925597
0.940200 0.939330 0.931609
