app/src/main/assets/filters/lumix_std.cube
# Created from lumix_std.plut
LUT_3D_SIZE 33
DOMAIN_MIN 0.0 0.0 0.0
DOMAIN_MAX 1.0 1.0 1.0
0.038025 0.028840 0.041627
0.045441 0.027604 0.039429
0.061326 0.025956 0.036042
0.086305 0.024613 0.032746
0.118715 0.023621 0.030533
0.155886 0.022675 0.030030
0.195148 0.021653 0.031067
0.235019 0.020813 0.032959
0.275227 0.020035 0.034592
0.315816 0.018936 0.035538
0.356542 0.017365 0.036439
0.396078 0.016068 0.038575
0.433112 0.016495 0.043366
0.467445 0.019516 0.050446
0.499931 0.025528 0.058473
0.531044 0.034089 0.066728
0.561425 0.044968 0.075807
0.591592 0.057267 0.086458
0.622934 0.069764 0.097276
0.655421 0.080262 0.106310
0.688594 0.087770 0.112902
0.721248 0.092470 0.117784
0.754131 0.095064 0.118685
0.787472 0.095384 0.113191
0.821057 0.093217 0.100313
0.852491 0.089769 0.086259
0.879911 0.087388 0.076585
0.903059 0.087694 0.073228
0.922148 0.091463 0.073762
0.938201 0.098238 0.075837
0.951232 0.107469 0.080095
0.961212 0.116670 0.085832
0.966812 0.122698 0.090532
0.034257 0.039826 0.038087
0.041733 0.038697 0.036225
0.057923 0.036942 0.033371
0.083482 0.035126 0.030579
0.116518 0.033341 0.028809
0.154208 0.031678 0.028626
0.193912 0.030137 0.029847
0.234257 0.028885 0.031800
0.274891 0.027573 0.033463
0.315801 0.025818 0.034531
0.356786 0.023667 0.035660
0.396628 0.021988 0.037980
0.434058 0.022095 0.042679
0.468833 0.024704 0.049409
0.501625 0.030121 0.057099
0.533043 0.037919 0.065370
0.563546 0.048112 0.074846
0.593713 0.059831 0.085924
0.624842 0.071809 0.096803
0.657008 0.081865 0.105531
0.689860 0.089036 0.111635
0.722316 0.093568 0.115953
0.755108 0.096071 0.116472
0.788342 0.096269 0.110857
0.821790 0.093904 0.098451
0.853086 0.090272 0.085161
0.880476 0.087800 0.076081
0.903609 0.088106 0.073045
0.922698 0.091966 0.073640
0.938659 0.098894 0.075853
0.951583 0.108278 0.080186
0.961410 0.117525 0.086030
0.966888 0.123522 0.090730
0.028641 0.060472 0.033249
0.035920 0.059602 0.031952
0.052049 0.057862 0.029862
0.077852 0.055467 0.027741
0.111330 0.052613 0.026322
0.149508 0.049989 0.026307
0.189776 0.047684 0.027588
0.230808 0.045853 0.029633
0.272099 0.043763 0.031434
0.313420 0.041154 0.032898
0.354772 0.038224 0.034638
0.395209 0.035889 0.037491
0.433402 0.035370 0.042176
0.469078 0.037064 0.048508
0.502632 0.041169 0.055756
0.534920 0.047379 0.063966
0.566094 0.055863 0.073640
0.596735 0.066056 0.084932
0.627817 0.076585 0.095674
0.659678 0.085466 0.103975
0.692088 0.091798 0.109468
0.724285 0.095964 0.113039
0.756893 0.098283 0.112993
0.789944 0.098222 0.107271
0.823072 0.095521 0.095735
0.854093 0.091585 0.083650
0.881392 0.088914 0.075547
0.904509 0.089113 0.072908
0.923583 0.093004 0.073533
0.939406 0.100114 0.075959
0.952163 0.109697 0.080461
0.961715 0.119005 0.086519
0.966995 0.124926 0.091264
0.023178 0.087327 0.028351
0.029938 0.086870 0.027604
0.045335 0.085481 0.026322
0.070558 0.083009 0.024781
0.103807 0.079713 0.023499
0.142046 0.076616 0.023316
0.182681 0.073945 0.024445
0.224140 0.071672 0.026474
0.265751 0.068879 0.028611
0.307164 0.065522 0.030762
0.348714 0.061875 0.033448
0.389853 0.058808 0.037049
0.429160 0.057252 0.042023
0.466148 0.057557 0.048325
0.500923 0.059831 0.055482
0.534615 0.063920 0.063462
0.566995 0.070054 0.072587
0.598657 0.077852 0.083146
0.630182 0.085893 0.093324
0.662181 0.092607 0.101442
0.694469 0.097307 0.106798
0.726604 0.100557 0.109957
0.759045 0.102342 0.109468
0.791867 0.101854 0.103777
0.824521 0.098756 0.093385
0.855192 0.094408 0.082750
0.882368 0.091386 0.075700
0.905486 0.091234 0.073350
0.924529 0.094881 0.073899
0.940185 0.102022 0.076387
0.952712 0.111727 0.081056
0.961990 0.121126 0.087449
0.967025 0.127016 0.092393
0.020157 0.117144 0.024216
0.026001 0.117205 0.023819
0.039857 0.116548 0.023056
0.063325 0.114702 0.021958
0.095308 0.111727 0.020661
0.132921 0.108690 0.019913
0.173465 0.105928 0.020279
0.215122 0.103426 0.021790
0.256764 0.100328 0.024033
0.298024 0.096681 0.026932
0.339376 0.092622 0.030594
0.380911 0.088884 0.035111
0.421164 0.086137 0.040803
0.459586 0.084947 0.047868
0.495827 0.085405 0.055863
0.531258 0.087419 0.064012
0.565179 0.091081 0.072313
0.598154 0.096208 0.081315
0.630243 0.101503 0.090394
0.662593 0.105592 0.098512
0.695003 0.108019 0.104555
0.727596 0.109529 0.108248
0.760250 0.110170 0.107958
0.792996 0.108949 0.102724
0.825162 0.105394 0.093675
0.855543 0.100587 0.084581
0.882856 0.096818 0.078340
0.906188 0.095781 0.075731
0.925261 0.098604 0.075593
0.940719 0.105333 0.077684
0.952941 0.114855 0.082414
0.961883 0.124331 0.089174
0.966659 0.130297 0.094469
0.021485 0.147585 0.020523
0.026184 0.148119 0.020218
0.037736 0.148409 0.019623
0.058274 0.147707 0.018738
0.087755 0.145830 0.017502
0.123964 0.143450 0.016297
0.164034 0.141009 0.015778
0.205646 0.138537 0.016403
0.247166 0.135515 0.018311
0.288380 0.131777 0.021332
0.329503 0.127382 0.025254
0.370947 0.122927 0.030060
0.411414 0.119188 0.036561
0.450660 0.116793 0.045182
0.488243 0.115816 0.055222
0.525231 0.116091 0.064561
0.560601 0.117617 0.072663
0.594766 0.120287 0.080171
0.627237 0.123308 0.088090
0.659525 0.125475 0.096483
0.691737 0.126299 0.104143
0.724773 0.126329 0.109545
0.757977 0.125628 0.110338
0.790921 0.123476 0.106203
0.822827 0.119295 0.098909
0.853269 0.113832 0.091752
0.881270 0.108797 0.086244
0.905348 0.106111 0.082704
0.924804 0.107134 0.080766
0.940200 0.112459 0.081407
0.952132 0.121019 0.085496
0.960754 0.130114 0.092226
0.965255 0.136049 0.097642
0.029084 0.178424 0.017502
0.032486 0.179355 0.017105
0.041138 0.180514 0.016434
0.057359 0.181064 0.015534
0.082582 0.180484 0.014328
0.115908 0.178958 0.012909
0.154711 0.176928 0.011719
0.196185 0.174701 0.011353
0.237964 0.172107 0.012253
0.279515 0.168750 0.014511
0.320577 0.164324 0.017853
0.361608 0.159350 0.022431
0.401633 0.154833 0.029191
0.440772 0.151659 0.038865
0.478798 0.149783 0.050843
0.516533 0.148653 0.062577
0.552911 0.148150 0.072511
0.588113 0.148425 0.080461
0.621027 0.149660 0.088258
0.652873 0.151171 0.097322
0.684367 0.152193 0.107057
0.717281 0.152255 0.114702
0.750790 0.151034 0.117067
0.783673 0.148470 0.114366
0.815122 0.144289 0.109392
0.845655 0.138872 0.104997
0.874800 0.132570 0.100740
0.900679 0.127153 0.096101
0.921584 0.124361 0.091295
0.937667 0.126146 0.089128
0.949584 0.132097 0.091371
0.957931 0.139971 0.097246
0.962203 0.145510 0.102327
0.042374 0.210315 0.015381
0.044617 0.211383 0.014954
0.050309 0.213031 0.014191
0.061570 0.214542 0.013214
0.081041 0.215198 0.012024
0.109529 0.214694 0.010605
0.145754 0.213245 0.009110
0.186648 0.211353 0.008011
0.229114 0.209201 0.007813
0.271611 0.206394 0.008728
0.313298 0.202304 0.010727
0.354055 0.197360 0.014054
0.393271 0.192538 0.019852
0.431464 0.188800 0.028992
0.468650 0.186221 0.041413
0.505592 0.184207 0.055024
0.541772 0.182452 0.067903
0.577554 0.180987 0.078859
0.611383 0.180621 0.089082
0.643381 0.181750 0.100298
0.674418 0.183642 0.112306
0.706737 0.184833 0.121798
0.740017 0.184054 0.125521
0.772290 0.181857 0.124422
0.802823 0.178759 0.122240
0.832746 0.174838 0.121309
0.862394 0.168933 0.119493
0.890150 0.161486 0.114763
0.913375 0.154147 0.107454
0.931533 0.150149 0.101808
0.944594 0.150927 0.101045
0.953307 0.155566 0.104906
0.957580 0.159731 0.108965
0.058869 0.243137 0.014374
0.060410 0.244160 0.013947
0.063996 0.245960 0.013184
0.070939 0.247990 0.012161
0.084230 0.249592 0.010941
0.106294 0.250141 0.009506
0.137957 0.249393 0.007889
0.177020 0.247852 0.006332
0.219852 0.245945 0.005234
0.263340 0.243748 0.004944
0.305867 0.240558 0.005692
0.347005 0.236332 0.007660
0.386328 0.231571 0.011551
0.424002 0.227283 0.018143
0.459846 0.223911 0.028275
0.494972 0.221195 0.041505
0.529717 0.218784 0.056016
0.565042 0.216388 0.070146
0.599390 0.214847 0.083909
0.632181 0.215305 0.098787
0.663737 0.217243 0.114031
0.696010 0.218860 0.125887
0.728817 0.218494 0.131319
0.760266 0.217166 0.131991
0.789517 0.216129 0.132448
0.818067 0.215091 0.134798
0.846937 0.211688 0.136233
0.875532 0.204501 0.133471
0.901061 0.194461 0.126253
0.922057 0.185260 0.118853
0.937331 0.180346 0.115496
0.947234 0.180529 0.116991
0.951965 0.182467 0.119707
0.073304 0.277607 0.017273
0.074586 0.278386 0.016770
0.077195 0.279820 0.015778
0.081666 0.281743 0.014374
0.090364 0.283726 0.012573
0.106264 0.285100 0.010529
0.132113 0.285222 0.008362
0.167468 0.284169 0.006363
0.209400 0.282338 0.004715
0.253681 0.280262 0.003601
0.297444 0.277760 0.003281
0.339651 0.274571 0.003922
0.379751 0.270558 0.005905
0.417762 0.265980 0.009827
0.453208 0.261677 0.016464
0.486931 0.258106 0.026490
0.519921 0.255375 0.039033
0.553597 0.253025 0.053422
0.587182 0.251240 0.069200
0.619989 0.250950 0.087312
0.652049 0.251789 0.106020
0.684764 0.252308 0.121447
0.717906 0.251194 0.130388
0.749615 0.249668 0.134264
0.778790 0.249378 0.137346
0.806271 0.250477 0.141985
0.833585 0.250523 0.146258
0.861173 0.247105 0.147265
0.887495 0.239200 0.143801
0.910765 0.229114 0.138445
0.928740 0.220905 0.135027
0.940642 0.217411 0.135363
0.946349 0.217197 0.137224
0.081743 0.313008 0.025238
0.083040 0.313542 0.024537
0.085512 0.314504 0.023117
0.089265 0.315908 0.020981
0.095964 0.317662 0.018036
0.108110 0.319371 0.014649
0.128923 0.320256 0.011185
0.159564 0.319921 0.008194
0.198596 0.318410 0.005753
0.242176 0.316320 0.003967
0.286732 0.314031 0.002899
0.330251 0.311482 0.002686
0.371832 0.308461 0.003372
0.411078 0.304585 0.005280
0.447532 0.300191 0.008759
0.481590 0.295613 0.014694
0.514199 0.291432 0.022797
0.546380 0.288060 0.033524
0.578164 0.285634 0.047150
0.609415 0.284825 0.065248
0.640558 0.284916 0.086183
0.672755 0.284749 0.105943
0.705928 0.283116 0.120104
0.738567 0.280873 0.128679
0.769207 0.279591 0.134707
0.797498 0.280232 0.141268
0.824369 0.281697 0.148028
0.850828 0.282338 0.154116
0.876753 0.279881 0.157321
0.900847 0.274235 0.157992
0.920623 0.267994 0.158038
0.934417 0.264240 0.159640
0.941329 0.263340 0.161822
0.084810 0.347799 0.037827
0.086336 0.348119 0.036881
0.089220 0.348653 0.034958
0.093614 0.349523 0.031922
0.100725 0.350835 0.027497
0.112078 0.352560 0.022080
0.129656 0.354147 0.016449
0.155138 0.354864 0.011704
0.189044 0.354177 0.008179
0.229847 0.352255 0.005676
0.274128 0.349798 0.003861
0.318654 0.347295 0.002976
0.361456 0.344961 0.003067
0.401923 0.342260 0.004120
0.440208 0.338659 0.005814
0.476051 0.333989 0.008438
0.509834 0.328618 0.012390
0.541650 0.323690 0.018601
0.572030 0.319829 0.027893
0.601312 0.317906 0.042100
0.630533 0.317311 0.060853
0.660945 0.317052 0.081483
0.693156 0.315541 0.099153
0.726101 0.312825 0.112428
0.758358 0.309972 0.122347
0.788205 0.308919 0.132265
0.815915 0.310002 0.142885
0.842252 0.312932 0.155245
0.868132 0.315023 0.166323
0.892744 0.314855 0.174884
0.913817 0.313100 0.180865
0.929320 0.312047 0.186053
0.937438 0.312215 0.189883
0.091737 0.379629 0.047807
0.093462 0.379980 0.046677
0.096788 0.380575 0.044404
0.101961 0.381476 0.040787
0.109911 0.382803 0.035538
0.121416 0.384665 0.028870
0.136675 0.386786 0.021805
0.156909 0.388464 0.015793
0.183841 0.388952 0.011505
0.219089 0.387869 0.008499
0.260746 0.385519 0.006195
0.305089 0.382773 0.004730
0.348653 0.380438 0.004410
0.390173 0.378592 0.004852
0.430121 0.376287 0.005432
0.468269 0.372564 0.005921
0.504280 0.367086 0.007279
0.537407 0.360876 0.010193
0.567803 0.355047 0.015457
0.596307 0.350988 0.024521
0.624048 0.348913 0.038148
0.652415 0.348333 0.055299
0.682567 0.347311 0.072114
0.714229 0.345113 0.086946
0.746426 0.341985 0.099855
0.776745 0.340246 0.114122
0.805097 0.340841 0.130541
0.831998 0.344244 0.150240
0.858549 0.348211 0.169543
0.884154 0.351293 0.186191
0.906538 0.353109 0.198993
0.923735 0.354665 0.208865
0.933074 0.355932 0.214984
0.110872 0.408927 0.049439
0.112688 0.409369 0.048310
0.116197 0.410224 0.046082
0.121553 0.411460 0.042603
0.129320 0.413245 0.037736
0.139528 0.415564 0.031556
0.151369 0.418280 0.024994
0.165393 0.420859 0.019348
0.184115 0.422553 0.015366
0.211551 0.422599 0.012390
0.248142 0.420874 0.009949
0.290639 0.418082 0.007996
0.334340 0.415274 0.007218
0.376654 0.413199 0.006989
0.417685 0.411414 0.006760
0.457649 0.408957 0.005921
0.495811 0.404944 0.005783
0.531273 0.399374 0.006775
0.563073 0.393011 0.009552
0.592325 0.387060 0.014588
0.619791 0.382727 0.022827
0.647242 0.380255 0.034104
0.675868 0.378378 0.046448
0.705760 0.376257 0.058946
0.736248 0.373907 0.072282
0.764981 0.373419 0.089464
0.792370 0.375113 0.111391
0.818967 0.379019 0.137682
0.845945 0.383154 0.164248
0.872526 0.386877 0.188312
0.896529 0.389792 0.208286
0.915694 0.392264 0.223896
0.926436 0.393866 0.233036
0.142382 0.438422 0.043244
0.143832 0.438941 0.042374
0.146761 0.439948 0.040558
0.151217 0.441489 0.037797
0.157153 0.443580 0.034318
0.164218 0.446113 0.030304
0.171618 0.448997 0.026322
0.179675 0.451942 0.022873
0.190768 0.454490 0.020371
0.209583 0.455787 0.018082
0.238727 0.455192 0.015763
0.276951 0.452873 0.013245
0.319539 0.449699 0.011612
0.362478 0.446815 0.010376
0.404227 0.444602 0.009293
0.445121 0.442634 0.007645
0.484901 0.440101 0.006394
0.522927 0.436240 0.005905
0.557321 0.430961 0.006790
0.588327 0.424689 0.009369
0.616373 0.418875 0.014359
0.643671 0.414328 0.021546
0.671565 0.410636 0.029664
0.700389 0.407538 0.038132
0.729259 0.405249 0.048737
0.756237 0.405783 0.064866
0.781872 0.408804 0.087846
0.806958 0.413687 0.116350
0.832837 0.418448 0.146517
0.858915 0.422614 0.176135
0.883467 0.425940 0.203357
0.903899 0.428473 0.226001
0.915740 0.429923 0.239368
0.175692 0.468727 0.036896
0.176593 0.469169 0.036484
0.178470 0.470085 0.035630
0.181308 0.471504 0.034348
0.184970 0.473487 0.032898
0.188983 0.475883 0.031418
0.192920 0.478645 0.029999
0.196902 0.481651 0.028580
0.202731 0.484627 0.027390
0.214252 0.486946 0.025772
0.235264 0.487724 0.023621
0.266789 0.486580 0.020417
0.305943 0.483772 0.017380
0.348302 0.480339 0.014893
0.390463 0.477134 0.013275
0.431693 0.474647 0.011688
0.472099 0.472602 0.009827
0.511742 0.470329 0.007874
0.548699 0.467063 0.006531
0.582223 0.462211 0.006790
0.611948 0.456626 0.009583
0.639902 0.450996 0.014664
0.667430 0.445869 0.021073
0.695720 0.441306 0.027314
0.723751 0.438117 0.035142
0.750317 0.437919 0.047364
0.775189 0.440497 0.066041
0.799115 0.445167 0.090196
0.823194 0.450294 0.117815
0.847456 0.455344 0.148623
0.871107 0.459892 0.181201
0.891463 0.463432 0.210986
0.903624 0.465461 0.229252
0.203845 0.499062 0.037766
0.204288 0.499428 0.037705
0.205310 0.500191 0.037507
0.206928 0.501366 0.037232
0.209049 0.503044 0.037079
0.211368 0.505119 0.037110
0.213687 0.507515 0.037171
0.216114 0.510201 0.037079
0.219425 0.513130 0.036790
0.226154 0.516014 0.035798
0.239506 0.518044 0.033631
0.262516 0.518410 0.029709
0.295033 0.516716 0.025132
0.334447 0.513466 0.021134
0.376287 0.509575 0.018692
0.417914 0.506096 0.017273
0.458625 0.503487 0.015366
0.498634 0.501808 0.012787
0.537423 0.500160 0.009583
0.573449 0.497459 0.007553
0.605997 0.493416 0.007813
0.635523 0.488243 0.011139
0.663325 0.482704 0.016785
0.691157 0.477302 0.022980
0.718669 0.473106 0.029740
0.745663 0.471260 0.038315
0.771099 0.471885 0.050004
0.795331 0.474601 0.065309
0.818509 0.478737 0.085084
0.841047 0.484047 0.112215
0.862837 0.490105 0.146227
0.881712 0.495506 0.180362
0.893202 0.498833 0.202228
0.226429 0.527611 0.044877
0.226703 0.527962 0.044968
0.227344 0.528664 0.045212
0.228412 0.529717 0.045579
0.229984 0.531273 0.046128
0.231952 0.533181 0.046677
0.234089 0.535348 0.046998
0.236378 0.537682 0.047059
0.239078 0.540307 0.046876
0.243458 0.543267 0.046174
0.251423 0.546120 0.044251
0.266041 0.548013 0.040177
0.289586 0.548028 0.034623
0.322545 0.545968 0.029160
0.361791 0.542275 0.025544
0.403296 0.538064 0.023835
0.444236 0.534386 0.022370
0.484062 0.532052 0.020157
0.523110 0.530968 0.016480
0.560922 0.529931 0.012924
0.596597 0.527932 0.010483
0.629236 0.524025 0.010880
0.659083 0.519142 0.014389
0.687312 0.513787 0.020203
0.714443 0.509438 0.026917
0.741329 0.506325 0.033234
0.767514 0.504829 0.039155
0.792905 0.504936 0.045884
0.816663 0.507179 0.056992
0.838804 0.511772 0.077287
0.859525 0.518242 0.107576
0.877058 0.524743 0.140536
0.887663 0.528954 0.162463
0.247883 0.555550 0.054139
0.248188 0.555932 0.054231
0.248798 0.556619 0.054398
0.249760 0.557595 0.054658
0.251194 0.558999 0.055024
0.253010 0.560754 0.055390
0.255039 0.562707 0.055573
0.257176 0.564752 0.055665
0.259464 0.566979 0.055650
0.262470 0.569604 0.055329
0.266850 0.572549 0.053925
0.274861 0.575280 0.050492
0.289525 0.576898 0.045212
0.314000 0.576593 0.039017
0.347784 0.574151 0.033814
0.387640 0.570077 0.030701
0.428962 0.565515 0.029129
0.469474 0.561852 0.027955
0.508904 0.560021 0.025162
0.547097 0.559548 0.021820
0.584375 0.559182 0.017914
0.619699 0.557259 0.015763
0.653162 0.553979 0.015290
0.683772 0.549706 0.017853
0.711681 0.546014 0.022354
0.738140 0.542687 0.027039
0.764263 0.540108 0.030045
0.790402 0.538262 0.032029
0.815290 0.538476 0.037171
0.838117 0.541390 0.050660
0.858793 0.546822 0.074052
0.875715 0.552834 0.101183
0.885801 0.556863 0.119860
0.267918 0.582223 0.061295
0.268208 0.582635 0.061372
0.268742 0.583337 0.061494
0.269505 0.584268 0.061662
0.270634 0.585473 0.061860
0.272084 0.586999 0.062028
0.273793 0.588724 0.062013
0.275593 0.590524 0.061952
0.277592 0.592508 0.062013
0.279973 0.594858 0.062119
0.282887 0.597650 0.061631
0.287175 0.600702 0.059617
0.295445 0.603449 0.055879
0.311421 0.605005 0.050431
0.337377 0.604578 0.044556
0.372320 0.601831 0.039811
0.412177 0.597406 0.037064
0.453407 0.592645 0.035950
0.493568 0.589273 0.034180
0.531991 0.587915 0.032334
0.569360 0.588113 0.029343
0.606439 0.587991 0.026474
0.643595 0.586969 0.022202
0.678386 0.584558 0.019211
0.709010 0.582010 0.018448
0.736004 0.579019 0.020035
0.761685 0.576226 0.021805
0.787579 0.573663 0.022721
0.813153 0.572656 0.025116
0.837110 0.573877 0.032395
0.858610 0.577386 0.046906
0.875578 0.581903 0.065110
0.885389 0.585107 0.078309
0.285481 0.607172 0.066514
0.285679 0.607523 0.066560
0.286030 0.608103 0.066590
0.286595 0.608896 0.066651
0.287434 0.609934 0.066758
0.288670 0.611292 0.066926
0.290166 0.612879 0.067002
0.291798 0.614603 0.067231
0.293568 0.616510 0.067674
0.295613 0.618708 0.068467
0.297978 0.621271 0.068940
0.301030 0.624277 0.068513
0.306188 0.627573 0.066758
0.316426 0.630533 0.063157
0.334600 0.632258 0.057832
0.362097 0.631785 0.051789
0.397040 0.628931 0.046418
0.436622 0.624384 0.042939
0.477379 0.619730 0.040162
0.516625 0.616709 0.039368
0.554192 0.615991 0.038773
0.591577 0.616800 0.037980
0.630533 0.617868 0.032807
0.668971 0.618021 0.025345
0.703426 0.617365 0.018601
0.732906 0.615549 0.016449
0.759182 0.613153 0.017670
0.784970 0.610376 0.019516
0.810895 0.608270 0.020630
0.835798 0.607645 0.022416
0.858152 0.609003 0.027985
0.875380 0.611765 0.036912
0.885069 0.614023 0.044327
0.300603 0.629038 0.072389
0.300725 0.629328 0.072358
0.300954 0.629786 0.072313
0.301442 0.630503 0.072374
0.302312 0.631495 0.072526
0.303639 0.632883 0.072801
0.305287 0.634485 0.073060
0.307240 0.636286 0.073655
0.309514 0.638315 0.074586
0.312169 0.640635 0.076036
0.315145 0.643275 0.077287
0.318624 0.646311 0.077989
0.323247 0.649851 0.077638
0.330663 0.653620 0.075868
0.342992 0.656992 0.071977
0.362264 0.659083 0.066041
0.388907 0.659037 0.058854
0.422202 0.656565 0.052293
0.460029 0.652293 0.047395
0.499306 0.648127 0.045914
0.538003 0.645716 0.046754
0.576196 0.645594 0.047761
0.615305 0.647135 0.044038
0.655253 0.649042 0.035584
0.693080 0.650431 0.025437
0.726619 0.650492 0.019760
0.755489 0.649332 0.019745
0.782208 0.647242 0.022461
0.808621 0.644755 0.023178
0.834562 0.642679 0.020844
0.857908 0.641855 0.019089
0.875471 0.642710 0.020005
0.884947 0.643915 0.022309
0.318074 0.649149 0.079866
0.318196 0.649348 0.079805
0.318456 0.649668 0.079789
0.319036 0.650263 0.079927
0.320104 0.651209 0.080217
0.321767 0.652659 0.080659
0.323857 0.654383 0.081132
0.326436 0.656397 0.082033
0.329397 0.658656 0.083284
0.332799 0.661219 0.085084
0.336538 0.664073 0.086610
0.340948 0.667292 0.087816
0.346227 0.671015 0.088151
0.353094 0.675166 0.087556
0.362142 0.679423 0.085054
0.374884 0.683314 0.080247
0.392599 0.685954 0.073106
0.416648 0.686595 0.064942
0.447486 0.684718 0.057588
0.483360 0.681361 0.053223
0.521843 0.677867 0.052171
0.560678 0.675868 0.052674
0.599557 0.675990 0.050919
0.639017 0.678157 0.045151
0.678431 0.681056 0.036316
0.716045 0.683177 0.029435
0.749645 0.683742 0.026993
0.779400 0.682918 0.028016
0.807156 0.680949 0.027375
0.833829 0.678340 0.023072
0.857877 0.676066 0.018006
0.875944 0.675166 0.014954
0.885542 0.675227 0.014603
0.340276 0.668925 0.088991
0.340490 0.669123 0.089006
0.340932 0.669459 0.089113
0.341711 0.670024 0.089433
0.343038 0.670924 0.089876
0.344945 0.672313 0.090379
0.347417 0.674083 0.090913
0.350546 0.676219 0.091829
0.354253 0.678721 0.093111
0.358404 0.681514 0.094850
0.362829 0.684627 0.096254
0.367803 0.687999 0.097490
0.373510 0.691859 0.097948
0.380224 0.696147 0.097978
0.387869 0.700725 0.096803
0.397024 0.705501 0.094331
0.408560 0.709865 0.089845
0.424186 0.713252 0.083314
0.445701 0.714672 0.075837
0.473915 0.713985 0.068879
0.508080 0.711543 0.063813
0.545663 0.708553 0.060151
0.584085 0.706767 0.057069
0.622812 0.707256 0.053117
0.662226 0.709804 0.047410
0.702205 0.712749 0.041489
0.740337 0.714931 0.036561
0.774670 0.715953 0.033463
0.805432 0.715740 0.029496
0.833494 0.714153 0.023896
0.858015 0.711757 0.018662
0.876265 0.709743 0.015610
0.885878 0.708782 0.015061
0.368200 0.689876 0.099260
0.368566 0.690135 0.099443
0.369207 0.690562 0.099763
0.370108 0.691127 0.100191
0.371405 0.691951 0.100710
0.373236 0.693217 0.101289
0.375738 0.694942 0.101915
0.379004 0.697139 0.102785
0.382910 0.699763 0.103807
0.387167 0.702632 0.105165
0.391684 0.705745 0.106355
0.396658 0.709117 0.107744
0.402380 0.712963 0.108629
0.408820 0.717159 0.109407
0.415763 0.721645 0.109499
0.423316 0.726406 0.109117
0.431952 0.731319 0.107607
0.442741 0.736187 0.104112
0.457145 0.740276 0.098360
0.476783 0.742870 0.090715
0.503090 0.743359 0.082307
0.535515 0.741802 0.073960
0.571725 0.739498 0.066865
0.609155 0.738293 0.061372
0.647440 0.739178 0.057023
0.687129 0.741558 0.052567
0.727428 0.744274 0.047074
0.765835 0.746517 0.040574
0.800748 0.747890 0.032929
0.831388 0.747707 0.024933
0.856764 0.746136 0.018967
0.875090 0.744060 0.016190
0.884596 0.742763 0.016037
0.397925 0.711513 0.111147
0.398352 0.711833 0.111467
0.399130 0.712367 0.111925
0.400183 0.713085 0.112428
0.401587 0.714031 0.113008
0.403464 0.715373 0.113756
0.405936 0.717098 0.114641
0.409110 0.719265 0.115694
0.412848 0.721782 0.116732
0.416861 0.724483 0.117967
0.421073 0.727321 0.119097
0.425650 0.730373 0.120470
0.430961 0.733944 0.121736
0.436988 0.737987 0.123171
0.443702 0.742458 0.124605
0.450950 0.747234 0.125872
0.458900 0.752255 0.126604
0.467826 0.757488 0.125841
0.478325 0.762707 0.123293
0.491752 0.767391 0.117891
0.510124 0.770871 0.109667
0.535119 0.772290 0.098650
0.565972 0.771893 0.086885
0.600656 0.770535 0.076295
0.636835 0.770077 0.068376
0.674357 0.771054 0.062913
0.712993 0.773526 0.058305
0.752087 0.776318 0.052873
0.789288 0.778820 0.045762
0.822324 0.779767 0.037873
0.848875 0.778927 0.032288
0.867811 0.776761 0.030213
0.877607 0.775036 0.030640
0.427985 0.733333 0.125719
0.428428 0.733669 0.126070
0.429191 0.734249 0.126558
0.430289 0.735058 0.127153
0.431739 0.736187 0.127916
0.433738 0.737758 0.129091
0.436301 0.739681 0.130343
0.439399 0.741894 0.131548
0.442802 0.744274 0.132372
0.446433 0.746761 0.133364
0.450263 0.749294 0.134401
0.454505 0.752026 0.135790
0.459541 0.755276 0.137514
0.465248 0.759060 0.139696
0.471656 0.763302 0.142153
0.478462 0.767758 0.144045
0.485985 0.772488 0.145388
0.494347 0.777584 0.145983
0.503578 0.782971 0.146044
0.514199 0.788495 0.144121
0.527626 0.793668 0.138903
0.545983 0.797803 0.129671
0.570321 0.800275 0.117418
0.600153 0.800824 0.103883
0.633433 0.800610 0.090654
0.668177 0.800824 0.080095
0.703273 0.802701 0.073808
