app/src/main/assets/filters/lumix_nat.cube
# Created from lumix_nat.plut
LUT_3D_SIZE 33
DOMAIN_MIN 0.0 0.0 0.0
DOMAIN_MAX 1.0 1.0 1.0
0.059571 0.051301 0.060563
0.067292 0.050370 0.058656
0.083513 0.049058 0.055558
0.108614 0.047944 0.052338
0.140734 0.047257 0.050126
0.177340 0.047303 0.049989
0.215854 0.048371 0.052003
0.254902 0.050431 0.055283
0.294133 0.052628 0.058183
0.333303 0.053986 0.059861
0.371771 0.054551 0.061143
0.407965 0.055955 0.064042
0.441474 0.060197 0.070344
0.472633 0.067720 0.079683
0.502419 0.077516 0.090974
0.530709 0.088701 0.103807
0.559350 0.101289 0.118379
0.589410 0.114824 0.133684
0.620996 0.128161 0.147631
0.652003 0.140246 0.158709
0.683482 0.151400 0.167041
0.717693 0.160418 0.171466
0.754711 0.165820 0.171328
0.791485 0.165179 0.165545
0.826139 0.159075 0.154086
0.859464 0.148135 0.136767
0.890410 0.135256 0.115557
0.916640 0.123919 0.096468
0.935866 0.118257 0.084337
0.950042 0.119570 0.080598
0.960906 0.126528 0.083238
0.969360 0.135210 0.088914
0.974075 0.141268 0.093721
0.057252 0.062119 0.058854
0.065080 0.061433 0.057130
0.081682 0.060349 0.054322
0.107454 0.059174 0.051438
0.140307 0.058061 0.049607
0.177478 0.057542 0.049897
0.216388 0.057923 0.052155
0.255818 0.059236 0.055512
0.295354 0.060548 0.058335
0.334707 0.061067 0.060044
0.373205 0.061067 0.061601
0.409506 0.062104 0.064836
0.443305 0.065919 0.071183
0.474769 0.072724 0.080232
0.504692 0.081727 0.091157
0.532982 0.092256 0.103944
0.561654 0.104402 0.118730
0.591714 0.117403 0.134157
0.623163 0.130159 0.147967
0.653986 0.141802 0.158907
0.685435 0.152743 0.167163
0.719722 0.161608 0.171542
0.756573 0.166674 0.171069
0.792935 0.165713 0.164721
0.827100 0.159335 0.152743
0.860075 0.148257 0.135271
0.890822 0.135286 0.114336
0.916945 0.123980 0.095689
0.936156 0.118502 0.083955
0.950332 0.120119 0.080537
0.961181 0.127337 0.083360
0.969497 0.136110 0.089174
0.974075 0.142168 0.093980
0.055192 0.082811 0.057939
0.062791 0.082551 0.056489
0.079316 0.081865 0.054032
0.105287 0.080705 0.051392
0.138598 0.079042 0.049653
0.176226 0.077714 0.050080
0.215610 0.076997 0.052522
0.255543 0.077134 0.056077
0.295537 0.077073 0.059052
0.335164 0.076417 0.061128
0.373861 0.075517 0.063264
0.410605 0.075837 0.067002
0.445121 0.078660 0.073213
0.477317 0.083986 0.081529
0.507637 0.091447 0.091676
0.536217 0.100710 0.104158
0.565133 0.111727 0.118883
0.595346 0.123461 0.134173
0.626627 0.134813 0.147677
0.657359 0.145449 0.158556
0.688884 0.155688 0.166857
0.723293 0.163973 0.171298
0.759762 0.168231 0.170291
0.795407 0.166644 0.163180
0.828824 0.159854 0.150469
0.861265 0.148608 0.132937
0.891691 0.135515 0.112505
0.917556 0.124300 0.094621
0.936721 0.119112 0.083482
0.950835 0.121202 0.080552
0.961608 0.128786 0.083680
0.969696 0.137713 0.089769
0.974044 0.143725 0.094636
0.055711 0.109911 0.058808
0.062638 0.110094 0.057679
0.078126 0.109972 0.055528
0.103059 0.109178 0.052888
0.135775 0.107530 0.050767
0.173251 0.105867 0.050706
0.212848 0.104417 0.052918
0.253010 0.103395 0.056565
0.293126 0.101915 0.060029
0.332799 0.100053 0.062928
0.371786 0.098207 0.066011
0.409461 0.097475 0.070161
0.445243 0.098634 0.075944
0.478767 0.101823 0.083314
0.510002 0.107225 0.092622
0.539528 0.114839 0.104326
0.568933 0.124407 0.118242
0.599329 0.134478 0.132586
0.630259 0.143999 0.145464
0.661051 0.153033 0.156481
0.692836 0.161700 0.165209
0.727459 0.168383 0.170108
0.763394 0.170947 0.168704
0.798276 0.168307 0.161044
0.830976 0.160998 0.147829
0.862882 0.149676 0.130541
0.892973 0.136431 0.110826
0.918441 0.125322 0.093858
0.937423 0.120409 0.083406
0.951369 0.123003 0.080980
0.962005 0.130922 0.084428
0.969802 0.140032 0.090867
0.973907 0.146075 0.095933
0.060410 0.139635 0.061448
0.066224 0.140215 0.060594
0.079637 0.140780 0.058762
0.102007 0.140780 0.056138
0.132631 0.139849 0.053346
0.168933 0.138491 0.051942
0.208133 0.136797 0.052750
0.248249 0.134936 0.055634
0.288197 0.132448 0.059342
0.327733 0.129702 0.063279
0.366857 0.127001 0.067445
0.405463 0.125032 0.072175
0.442618 0.124285 0.077882
0.477897 0.125246 0.084947
0.510842 0.128542 0.093996
0.542138 0.134295 0.104891
0.572519 0.142077 0.117220
0.603082 0.150423 0.129580
0.633524 0.158297 0.141100
0.664225 0.165637 0.152087
0.696056 0.172061 0.161593
0.730724 0.176059 0.167468
0.766278 0.175982 0.166278
0.800626 0.171862 0.158709
0.832837 0.163958 0.145724
0.864271 0.152743 0.129397
0.894057 0.139422 0.110780
0.919203 0.128359 0.094713
0.938048 0.123507 0.084672
0.951751 0.126284 0.082429
0.962097 0.134340 0.086122
0.969528 0.143587 0.092927
0.973358 0.149737 0.098314
0.069963 0.169360 0.064988
0.074449 0.170245 0.064317
0.085069 0.171466 0.062791
0.103624 0.172457 0.060334
0.130724 0.172808 0.057145
0.164752 0.172519 0.054337
0.202976 0.171420 0.053147
0.242786 0.169451 0.054185
0.282444 0.166552 0.057099
0.321843 0.163058 0.061189
0.360983 0.159335 0.065751
0.400015 0.155962 0.070695
0.437888 0.153536 0.076829
0.474495 0.152728 0.084916
0.509514 0.154116 0.095094
0.543130 0.157809 0.105959
0.575235 0.163516 0.116701
0.606378 0.170077 0.126513
0.636484 0.176699 0.136004
0.666514 0.182788 0.146517
0.697673 0.187381 0.156863
0.731807 0.188922 0.164096
0.767041 0.186267 0.163760
0.801129 0.180575 0.157061
0.833097 0.172061 0.145480
0.864134 0.161120 0.131426
0.893751 0.147906 0.114824
0.918807 0.136721 0.099718
0.937652 0.131334 0.089509
0.951186 0.133455 0.086595
0.961181 0.140902 0.089860
0.968200 0.149859 0.096574
0.971740 0.155993 0.102068
0.084688 0.198993 0.068650
0.087770 0.200061 0.068070
0.095216 0.201770 0.066743
0.109056 0.203586 0.064530
0.131197 0.205112 0.061387
0.161486 0.206012 0.057877
0.197772 0.205982 0.055039
0.237079 0.204715 0.053895
0.276753 0.202197 0.054810
0.316243 0.198566 0.057557
0.355261 0.194110 0.061357
0.394079 0.189548 0.066178
0.431937 0.185840 0.072740
0.469001 0.183856 0.081880
0.505303 0.183734 0.093400
0.540719 0.185260 0.105394
0.574884 0.188128 0.115999
0.607568 0.192020 0.124437
0.638499 0.196796 0.132280
0.668025 0.202075 0.142153
0.698070 0.206195 0.153201
0.730846 0.207141 0.161593
0.765423 0.203647 0.162371
0.798901 0.197604 0.157092
0.830243 0.189624 0.148211
0.860502 0.179950 0.138125
0.889891 0.167498 0.125170
0.915419 0.155596 0.111543
0.934951 0.147967 0.100328
0.948836 0.147295 0.095308
0.958602 0.152453 0.096788
0.965209 0.160204 0.102480
0.968475 0.165911 0.107546
0.102602 0.229221 0.071992
0.104509 0.230289 0.071458
0.109133 0.232151 0.070268
0.118288 0.234379 0.068360
0.134707 0.236683 0.065660
0.159869 0.238621 0.062394
0.193027 0.239734 0.059022
0.231250 0.239628 0.056382
0.271260 0.238087 0.055146
0.311376 0.234989 0.055482
0.350729 0.230396 0.057145
0.389273 0.225223 0.060273
0.426581 0.220676 0.065827
0.463142 0.217746 0.074540
0.499214 0.216419 0.086351
0.534905 0.216297 0.099504
0.570123 0.216876 0.111559
0.604578 0.218143 0.121294
0.637339 0.220508 0.129915
0.667689 0.224460 0.140398
0.697398 0.228458 0.152056
0.728923 0.230076 0.160922
0.762310 0.227390 0.162493
0.794598 0.222416 0.158862
0.824689 0.216434 0.153552
0.853559 0.209613 0.148638
0.882002 0.199771 0.140978
0.907851 0.188022 0.130022
0.928511 0.177310 0.117998
0.943603 0.171435 0.109804
0.953887 0.171542 0.107927
0.960540 0.175998 0.111208
0.963729 0.180224 0.115038
0.121324 0.259861 0.074205
0.122545 0.260853 0.073655
0.125338 0.262638 0.072526
0.130846 0.264958 0.070924
0.141848 0.267613 0.068864
0.161028 0.270207 0.066484
0.189502 0.272206 0.063676
0.225422 0.273182 0.060746
0.265293 0.272755 0.058152
0.305989 0.270848 0.056397
0.345907 0.267170 0.055894
0.384680 0.262409 0.056840
0.422141 0.257511 0.059831
0.458534 0.253666 0.065583
0.493782 0.251194 0.074891
0.528481 0.249821 0.087221
0.563165 0.248890 0.100069
0.598306 0.248234 0.111849
0.632609 0.248402 0.122942
0.664652 0.250553 0.135973
0.695262 0.253651 0.149813
0.726513 0.255512 0.160220
0.758877 0.254032 0.163363
0.789914 0.250980 0.161669
0.818448 0.248020 0.159686
0.845457 0.245197 0.159380
0.872129 0.239536 0.157259
0.897658 0.229725 0.150439
0.919417 0.217304 0.139635
0.936263 0.206409 0.129534
0.947814 0.200565 0.124315
0.955077 0.200290 0.124575
0.958480 0.202075 0.126680
0.137545 0.291661 0.079408
0.138537 0.292424 0.078782
0.140551 0.293843 0.077516
0.144060 0.295857 0.075746
0.151278 0.298421 0.073503
0.165026 0.301259 0.071061
0.188006 0.303777 0.068360
0.219989 0.305486 0.065461
0.258396 0.305959 0.062409
0.299351 0.305089 0.059541
0.340139 0.302678 0.057389
0.379767 0.299001 0.056199
0.417884 0.294591 0.056336
0.454749 0.290181 0.058579
0.489845 0.286610 0.063920
0.523781 0.284123 0.072801
0.557290 0.282521 0.083558
0.591501 0.281346 0.095430
0.625528 0.280598 0.108492
0.658244 0.281193 0.124514
0.689708 0.282567 0.141497
0.721553 0.283268 0.155123
0.753979 0.281666 0.161715
0.785092 0.279210 0.163226
0.813382 0.277760 0.164065
0.839292 0.277775 0.166659
0.864164 0.276555 0.168658
0.888319 0.271489 0.167041
0.910231 0.261707 0.160708
0.928481 0.249805 0.152422
0.941802 0.240116 0.146304
0.950347 0.235615 0.144640
0.954406 0.234882 0.145464
0.149447 0.324269 0.089845
0.150439 0.324819 0.089067
0.152331 0.325826 0.087434
0.155261 0.327337 0.085039
0.160739 0.329473 0.081804
0.171115 0.332174 0.078111
0.189349 0.334936 0.074250
0.216571 0.337148 0.070405
0.251713 0.338308 0.066667
0.291447 0.338247 0.063172
0.332540 0.336919 0.060243
0.373114 0.334417 0.058045
0.412406 0.331060 0.056458
0.450309 0.327153 0.056062
0.486397 0.323262 0.057359
0.520821 0.319615 0.061173
0.554162 0.316518 0.067002
0.587182 0.314153 0.075441
0.619715 0.312535 0.087144
0.651225 0.312245 0.103761
0.682063 0.312627 0.123339
0.713619 0.312627 0.141558
0.746151 0.310872 0.153674
0.778149 0.308232 0.159915
0.807858 0.306294 0.163500
0.834577 0.306203 0.167803
0.859129 0.306752 0.172503
0.882231 0.306172 0.176608
0.903761 0.302022 0.177478
0.922652 0.294392 0.175341
0.937377 0.286122 0.172320
0.947326 0.280827 0.171481
0.952255 0.279057 0.172305
0.157488 0.356512 0.105608
0.158618 0.356893 0.104631
0.160769 0.357565 0.102571
0.164080 0.358618 0.099275
0.169726 0.360342 0.094423
0.179141 0.362860 0.088212
0.194247 0.365835 0.081575
0.216587 0.368582 0.075471
0.246754 0.370428 0.070375
0.283467 0.370977 0.066011
0.323812 0.370291 0.062242
0.364874 0.368582 0.059388
0.405005 0.366308 0.057435
0.443748 0.363546 0.056352
0.481270 0.360204 0.055451
0.517159 0.356191 0.054856
0.551522 0.351812 0.055665
0.584176 0.347906 0.059510
0.615366 0.344930 0.067842
0.645090 0.343542 0.081575
0.674281 0.343236 0.099840
0.704356 0.343130 0.119463
0.736172 0.341634 0.135531
0.768612 0.338750 0.146578
0.800031 0.335561 0.153780
0.828397 0.333989 0.161181
0.853895 0.334356 0.169696
0.877043 0.336248 0.180331
0.898711 0.336812 0.189380
0.918303 0.334737 0.195392
0.934432 0.330800 0.198352
0.945953 0.327916 0.201007
0.951949 0.327001 0.203357
0.168063 0.386709 0.117876
0.169360 0.387137 0.116747
0.171862 0.387915 0.114382
0.175860 0.389075 0.110567
0.182162 0.390875 0.104875
0.191592 0.393469 0.097292
0.204578 0.396658 0.088945
0.222217 0.399863 0.081209
0.246067 0.402396 0.074998
0.277546 0.403677 0.069581
0.315114 0.403586 0.064714
0.355566 0.402411 0.060899
0.396002 0.400809 0.058961
0.435325 0.399084 0.057939
0.473945 0.396780 0.056138
0.511498 0.393240 0.052323
0.547478 0.388373 0.049210
0.581109 0.383078 0.048814
0.612207 0.378286 0.053422
0.641291 0.375006 0.062821
0.669245 0.373434 0.077226
0.697536 0.373053 0.094560
0.727565 0.372137 0.110643
0.758968 0.369909 0.123613
0.790555 0.366659 0.133852
0.819562 0.364569 0.145693
0.845777 0.364553 0.160143
0.869566 0.367010 0.178317
0.892119 0.369619 0.195712
0.912978 0.371008 0.209949
0.930678 0.370947 0.219898
0.943923 0.370871 0.227329
0.951034 0.371160 0.231983
0.187625 0.415717 0.120180
0.189014 0.416251 0.119051
0.191760 0.417273 0.116747
0.196048 0.418799 0.113069
0.202396 0.421027 0.107759
0.210941 0.423957 0.100771
0.221164 0.427436 0.093080
0.233570 0.430991 0.085924
0.250278 0.434073 0.080034
0.274769 0.436042 0.074281
0.307561 0.436591 0.068544
0.345953 0.435935 0.063539
0.386084 0.434638 0.061082
0.425772 0.433249 0.059785
0.465003 0.431525 0.057755
0.503761 0.428824 0.052461
0.541207 0.424811 0.046937
0.576547 0.419638 0.042878
0.608682 0.414115 0.043961
0.638437 0.409018 0.049195
0.666087 0.405432 0.059571
0.693507 0.403418 0.072557
0.722072 0.401846 0.085542
0.751919 0.399908 0.096803
0.782086 0.397574 0.107927
0.809781 0.396902 0.123430
0.835279 0.398093 0.144213
0.859037 0.401160 0.169482
0.882368 0.404105 0.194278
0.904555 0.406378 0.215915
0.924041 0.407706 0.233082
0.939269 0.408774 0.246159
0.947692 0.409537 0.253803
0.217044 0.446036 0.113207
0.218235 0.446616 0.112337
0.220676 0.447776 0.110460
0.224475 0.449546 0.107546
0.229603 0.451957 0.103761
0.235782 0.454887 0.099321
0.242390 0.458213 0.094789
0.249744 0.461692 0.090532
0.259846 0.465003 0.086671
0.276799 0.467567 0.081743
0.302907 0.468894 0.075807
0.337285 0.468864 0.069657
0.376074 0.467826 0.065782
0.415946 0.466331 0.063203
0.455451 0.464607 0.060334
0.494713 0.462379 0.054383
0.533165 0.459342 0.047395
0.570413 0.455192 0.040696
0.604562 0.450141 0.038270
0.635752 0.444480 0.039719
0.663874 0.439445 0.046860
0.691035 0.435554 0.056703
0.718730 0.432395 0.066835
0.747463 0.429709 0.075105
0.776120 0.427665 0.084413
0.802274 0.428199 0.100038
0.826368 0.430884 0.123003
0.849119 0.435080 0.151446
0.871946 0.438788 0.180316
0.894163 0.441657 0.207828
0.914473 0.443626 0.232486
0.931014 0.444968 0.252720
0.940520 0.445716 0.264607
0.248524 0.477424 0.105486
0.249287 0.477913 0.105058
0.250950 0.478920 0.104097
0.253498 0.480476 0.102647
0.256840 0.482643 0.100923
0.260563 0.485222 0.099153
0.264302 0.488167 0.097459
0.268193 0.491371 0.095735
0.273747 0.494697 0.093751
0.284337 0.497734 0.090166
0.303319 0.499901 0.084779
0.331762 0.500786 0.077913
0.367361 0.500313 0.071901
0.406409 0.498894 0.067414
0.445884 0.496880 0.063737
0.485069 0.494575 0.058625
0.523781 0.491981 0.051667
0.562142 0.488899 0.043458
0.598276 0.485084 0.037156
0.631510 0.480201 0.033997
0.660975 0.475013 0.037049
0.688548 0.469963 0.044312
0.715587 0.465415 0.053544
0.743511 0.461418 0.061006
0.771176 0.458717 0.069032
0.796948 0.458793 0.082155
0.820554 0.461295 0.102037
0.842618 0.465492 0.127138
0.864256 0.469780 0.154192
0.885298 0.473747 0.183566
0.905211 0.477165 0.214328
0.922011 0.479683 0.242359
0.932006 0.481117 0.259586
0.276127 0.508507 0.104479
0.276555 0.508888 0.104387
0.277531 0.509682 0.104097
0.279072 0.510918 0.103655
0.281117 0.512688 0.103258
0.283391 0.514839 0.103075
0.285740 0.517296 0.102968
0.288243 0.520058 0.102739
0.291554 0.523125 0.101991
0.297978 0.526360 0.099733
0.310292 0.529213 0.095140
0.331350 0.531106 0.087907
0.361044 0.531518 0.080003
0.397253 0.530526 0.073564
0.436027 0.528435 0.069017
0.475105 0.525902 0.065034
0.513771 0.523232 0.059205
0.552209 0.520806 0.051545
0.589792 0.518181 0.042802
0.625071 0.514763 0.035615
0.656931 0.510384 0.033097
0.685740 0.505196 0.036408
0.712810 0.499916 0.043809
0.739986 0.494957 0.051850
0.766873 0.491341 0.060121
0.792905 0.490013 0.071107
0.817090 0.490806 0.085176
0.839643 0.493294 0.102266
0.860761 0.496864 0.122179
0.880568 0.501503 0.148760
0.899168 0.506874 0.182040
0.915023 0.511620 0.215457
0.924636 0.514519 0.236896
0.299229 0.537453 0.109514
0.299519 0.537804 0.109590
0.300160 0.538506 0.109712
0.301213 0.539590 0.109926
0.302770 0.541176 0.110231
0.304738 0.543145 0.110567
0.306920 0.545373 0.110658
0.309270 0.547799 0.110491
0.312032 0.550515 0.109926
0.316381 0.553689 0.108431
0.323995 0.556970 0.104860
0.337697 0.559792 0.098207
0.359518 0.561334 0.089448
0.389899 0.561334 0.081224
0.426062 0.559731 0.075456
0.464561 0.557168 0.072175
0.502937 0.554223 0.068544
0.540902 0.551736 0.063005
0.578561 0.549798 0.054444
0.615290 0.547616 0.045228
0.649790 0.544411 0.037812
0.681224 0.539559 0.035355
0.709941 0.534173 0.038041
0.737316 0.528923 0.044739
0.763638 0.525063 0.053437
0.789487 0.522530 0.062959
0.814328 0.521294 0.072053
0.838025 0.521340 0.081147
0.859754 0.523308 0.093324
0.879393 0.527626 0.114137
0.897276 0.533867 0.144854
0.912184 0.540078 0.178042
0.921172 0.544060 0.200061
0.321508 0.565713 0.116655
0.321813 0.566094 0.116716
0.322438 0.566781 0.116823
0.323415 0.567803 0.116945
0.324849 0.569238 0.117113
0.326696 0.571054 0.117311
0.328786 0.573083 0.117266
0.330983 0.575204 0.117098
0.333318 0.577493 0.116732
0.336385 0.580224 0.115908
0.340764 0.583337 0.113481
0.348577 0.586481 0.108309
0.362463 0.588952 0.100465
0.385306 0.590204 0.091508
0.416526 0.589776 0.083925
0.453254 0.587778 0.079393
0.491539 0.584726 0.076860
0.529625 0.581781 0.074296
0.567376 0.579706 0.068269
0.604257 0.578241 0.060334
0.640116 0.576211 0.050813
0.673808 0.572457 0.043900
0.705760 0.567666 0.039567
0.735256 0.562768 0.040543
0.762264 0.559121 0.045563
0.787686 0.556176 0.052888
0.812345 0.553750 0.059236
0.836652 0.551827 0.064164
0.859373 0.551827 0.071412
0.879744 0.554620 0.086381
0.897688 0.559991 0.110979
0.912078 0.565927 0.138964
0.920592 0.569848 0.158068
0.342565 0.592599 0.121889
0.342870 0.593011 0.121950
0.343420 0.593713 0.122026
0.344213 0.594644 0.122103
0.345373 0.595895 0.122164
0.346899 0.597467 0.122194
0.348684 0.599252 0.121965
0.350546 0.601114 0.121660
0.352605 0.603159 0.121401
0.355062 0.605554 0.121141
0.358053 0.608392 0.120043
0.362432 0.611551 0.117037
0.370535 0.614649 0.111513
0.385779 0.617136 0.103563
0.410040 0.618296 0.094972
0.442359 0.617563 0.088258
0.479072 0.615091 0.084840
0.517266 0.611765 0.083452
0.555138 0.609018 0.080354
0.591867 0.607309 0.075746
0.627680 0.606012 0.068208
0.662882 0.603647 0.060288
0.698177 0.600198 0.050233
0.731472 0.596139 0.042847
0.760983 0.592767 0.039658
0.786938 0.589654 0.041703
0.811154 0.586770 0.046189
0.835172 0.584039 0.050782
0.858412 0.582620 0.056321
0.879820 0.583459 0.065354
0.898604 0.586694 0.080629
0.913115 0.591028 0.099565
0.921386 0.594125 0.113359
0.361257 0.617517 0.125368
0.361486 0.617868 0.125383
0.361868 0.618448 0.125353
0.362463 0.619242 0.125338
0.363363 0.620279 0.125368
0.364645 0.621668 0.125444
0.366201 0.623285 0.125353
0.367895 0.625055 0.125399
0.369711 0.626963 0.125628
0.371786 0.629145 0.126223
0.374212 0.631693 0.126390
0.377371 0.634684 0.125444
0.382589 0.638102 0.122713
0.392615 0.641550 0.117342
0.409964 0.644312 0.109468
0.435737 0.645441 0.100816
0.468101 0.644465 0.093843
0.504646 0.641718 0.089876
0.542641 0.638376 0.086580
0.579583 0.635874 0.084749
0.615290 0.634501 0.081483
0.650690 0.633417 0.077089
0.687663 0.631739 0.066072
0.724193 0.629236 0.052232
0.757122 0.626535 0.039643
0.785245 0.623651 0.035065
0.809873 0.620630 0.038041
0.833539 0.617365 0.044312
0.856901 0.614481 0.049287
0.879240 0.613001 0.052094
0.899062 0.613626 0.056672
0.914076 0.615946 0.064851
0.922347 0.618021 0.072313
0.377295 0.639155 0.129915
0.377432 0.639414 0.129824
0.377691 0.639857 0.129717
0.378210 0.640558 0.129717
0.379110 0.641550 0.129808
0.380484 0.642954 0.130053
0.382162 0.644572 0.130205
0.384131 0.646418 0.130739
0.386389 0.648463 0.131579
0.389014 0.650797 0.133013
0.391989 0.653452 0.134142
0.395514 0.656504 0.134615
0.400198 0.660121 0.133776
0.407599 0.664118 0.130907
0.419638 0.668070 0.125032
0.438056 0.671153 0.116396
0.463081 0.672450 0.106615
0.493950 0.671504 0.098344
0.528908 0.668757 0.092744
0.565377 0.665705 0.091188
0.601648 0.663569 0.091249
0.637751 0.662455 0.090257
0.674891 0.661738 0.081758
0.712840 0.660685 0.066484
0.748730 0.659083 0.048569
0.780407 0.656870 0.037964
0.807218 0.654078 0.037995
0.831373 0.650797 0.044953
0.854902 0.647028 0.049744
0.878111 0.643626 0.047807
0.899107 0.641703 0.043458
0.914778 0.641886 0.041871
0.923110 0.642832 0.043244
0.395193 0.659113 0.136858
0.395331 0.659297 0.136767
0.395590 0.659617 0.136706
0.396185 0.660197 0.136812
0.397253 0.661158 0.137057
0.398917 0.662608 0.137484
0.401007 0.664378 0.137896
0.403540 0.666453 0.138781
0.406439 0.668772 0.139971
0.409751 0.671397 0.141772
0.413397 0.674266 0.143191
0.417746 0.677485 0.144228
0.422965 0.681254 0.144198
0.429740 0.685542 0.142855
0.438636 0.690089 0.138827
0.450965 0.694484 0.131472
0.467826 0.697856 0.121065
0.490196 0.699367 0.109911
0.518563 0.698558 0.100771
0.551507 0.696284 0.096193
0.587411 0.693614 0.095384
0.624094 0.691630 0.095521
0.661189 0.690562 0.091173
0.698772 0.690349 0.080201
0.736141 0.690105 0.064118
0.771511 0.689036 0.050935
0.802426 0.686702 0.046189
0.828931 0.683391 0.049271
0.853208 0.679225 0.051926
0.876814 0.674769 0.047974
0.898512 0.671153 0.040589
0.914870 0.669459 0.034745
0.923491 0.669200 0.033234
0.417227 0.678935 0.145708
0.417472 0.679164 0.145678
0.417899 0.679515 0.145739
0.418601 0.680049 0.146014
0.419791 0.680934 0.146395
0.421576 0.682307 0.146853
0.423957 0.684092 0.147250
0.427008 0.686336 0.148074
0.430625 0.688975 0.149203
0.434638 0.691920 0.150759
0.438895 0.695064 0.151797
0.443717 0.698436 0.152499
0.449287 0.702312 0.152193
0.455802 0.706661 0.151141
0.463096 0.711360 0.148287
0.471717 0.716228 0.143297
0.482475 0.720760 0.135454
0.496712 0.724331 0.125139
0.516182 0.726101 0.114626
0.541665 0.725994 0.106172
0.573327 0.724269 0.101274
0.608789 0.721798 0.098482
0.645777 0.719646 0.095827
0.683101 0.718730 0.090486
0.720943 0.718669 0.080766
0.758755 0.718318 0.069139
0.794018 0.716762 0.059617
0.824704 0.714092 0.054902
0.851423 0.710475 0.051728
0.875731 0.706126 0.046647
0.897246 0.701793 0.041657
0.913451 0.698634 0.039033
0.921965 0.697185 0.039506
0.444221 0.700237 0.153948
0.444602 0.700511 0.154040
0.445212 0.700908 0.154284
0.445991 0.701472 0.154650
0.447120 0.702281 0.154971
0.448798 0.703548 0.155184
0.451118 0.705241 0.155322
0.454200 0.707485 0.155779
0.457877 0.710201 0.156527
0.461875 0.713222 0.157534
0.466072 0.716381 0.158083
0.470771 0.719753 0.158343
0.476204 0.723537 0.157748
0.482277 0.727733 0.156588
0.488563 0.732219 0.154101
0.495186 0.736904 0.150622
0.502632 0.741741 0.145235
0.511711 0.746380 0.137316
0.524010 0.750240 0.126925
0.540917 0.752789 0.116030
0.564721 0.753399 0.106950
0.594797 0.752102 0.100893
0.629664 0.749676 0.097917
0.666331 0.747677 0.096300
0.704204 0.746715 0.093263
0.742947 0.746136 0.086458
0.780926 0.745083 0.076677
0.815747 0.742992 0.066514
0.846067 0.739940 0.057618
0.872313 0.735683 0.050141
0.893980 0.731060 0.046998
0.909850 0.727184 0.048600
0.918090 0.725170 0.052384
0.472267 0.722438 0.160479
0.472709 0.722728 0.160571
0.473411 0.723186 0.160769
0.474235 0.723812 0.161059
0.475334 0.724651 0.161196
0.476890 0.725872 0.161120
0.479026 0.727428 0.160952
0.481880 0.729488 0.161074
0.485298 0.732052 0.161563
0.489082 0.735042 0.162127
0.492988 0.738170 0.162341
0.497215 0.741482 0.161883
0.502022 0.745098 0.160555
0.507317 0.749035 0.158526
0.512810 0.753201 0.155825
0.518532 0.757534 0.153109
0.524727 0.762173 0.149477
0.531579 0.766979 0.144030
0.539696 0.771740 0.135668
0.550149 0.776013 0.125643
0.565560 0.779110 0.115480
0.587533 0.780270 0.107530
0.616297 0.779400 0.102693
0.649851 0.777432 0.101305
0.686275 0.775509 0.101015
0.724514 0.773999 0.099260
0.763165 0.772854 0.094285
0.800275 0.771389 0.086671
0.833356 0.769192 0.078187
0.861326 0.765545 0.071458
0.883101 0.761181 0.070787
0.898619 0.757137 0.076356
0.906630 0.754879 0.082918
0.499886 0.745388 0.164263
0.500313 0.745663 0.164187
0.501030 0.746136 0.164096
0.501930 0.746807 0.164004
0.503029 0.747707 0.163699
0.504494 0.748898 0.163058
0.506325 0.750317 0.162310
0.508705 0.752148 0.161852
0.511559 0.754421 0.161990
0.514855 0.757183 0.162264
0.518410 0.760189 0.162356
0.522255 0.763363 0.161578
0.526497 0.766674 0.159976
0.531014 0.770138 0.157443
0.535744 0.773816 0.154345
0.540719 0.777691 0.151247
0.546197 0.781979 0.147799
0.552178 0.786572 0.143740
0.558846 0.791424 0.137621
0.566430 0.796323 0.130373
0.576547 0.800885 0.121935
0.591012 0.804349 0.114794
0.611429 0.806104 0.109377
0.638102 0.806073 0.107408
0.670237 0.804807 0.107301
0.705806 0.803098 0.108217
0.742870 0.801633 0.109545
