app/src/main/assets/filters/lumix_nat.cube
# Created from lumix_nat.plut
LUT_3D_SIZE 9
DOMAIN_MIN 0.0 0.0 0.0
DOMAIN_MAX 1.0 1.0 1.0
0.059571 0.051301 0.060563
0.140734 0.047257 0.050126
0.294133 0.052628 0.058183
0.441474 0.060197 0.070344
0.559350 0.101289 0.118379
0.683482 0.151400 0.167041
0.826139 0.159075 0.154086
0.935866 0.118257 0.084337
0.974075 0.141268 0.093721
0.060410 0.139635 0.061448
0.132631 0.139849 0.053346
0.288197 0.132448 0.059342
0.442618 0.124285 0.077882
0.572519 0.142077 0.117220
0.696056 0.172061 0.161593
0.832837 0.163958 0.145724
0.938048 0.123507 0.084672
0.973358 0.149737 0.098314
0.121324 0.259861 0.074205
0.141848 0.267613 0.068864
0.265293 0.272755 0.058152
0.422141 0.257511 0.059831
0.563165 0.248890 0.100069
0.695262 0.253651 0.149813
0.818448 0.248020 0.159686
0.919417 0.217304 0.139635
0.958480 0.202075 0.126680
0.168063 0.386709 0.117876
0.182162 0.390875 0.104875
0.246067 0.402396 0.074998
0.396002 0.400809 0.058961
0.547478 0.388373 0.049210
0.669245 0.373434 0.077226
0.790555 0.366659 0.133852
0.892119 0.369619 0.195712
0.951034 0.371160 0.231983
0.276127 0.508507 0.104479
0.281117 0.512688 0.103258
0.291554 0.523125 0.101991
0.361044 0.531518 0.080003
0.513771 0.523232 0.059205
0.656931 0.510384 0.033097
0.766873 0.491341 0.060121
0.860761 0.496864 0.122179
0.924636 0.514519 0.236896
0.361257 0.617517 0.125368
0.363363 0.620279 0.125368
0.369711 0.626963 0.125628
0.382589 0.638102 0.122713
0.468101 0.644465 0.093843
0.615290 0.634501 0.081483
0.757122 0.626535 0.039643
0.856901 0.614481 0.049287
0.922347 0.618021 0.072313
0.444221 0.700237 0.153948
0.447120 0.702281 0.154971
0.457877 0.710201 0.156527
0.476204 0.723537 0.157748
0.502632 0.741741 0.145235
0.564721 0.753399 0.106950
0.704204 0.746715 0.093263
0.846067 0.739940 0.057618
0.918090 0.725170 0.052384
0.550240 0.789303 0.159426
0.553048 0.791424 0.157763
0.558770 0.795819 0.154314
0.571832 0.806165 0.150195
0.589731 0.818692 0.140047
0.617578 0.836393 0.130159
0.665934 0.854917 0.128511
0.769238 0.859449 0.162402
0.843320 0.862394 0.230564
0.633265 0.850416 0.139879
0.634562 0.851484 0.140795
0.641871 0.855802 0.141726
0.655924 0.863584 0.141482
0.676768 0.876310 0.155215
0.703578 0.892836 0.173693
0.738872 0.912612 0.198611
0.779171 0.933822 0.226551
0.809339 0.946090 0.259922
0.065873 0.063005 0.121767
0.144533 0.068742 0.119402
0.289815 0.062501 0.104326
0.437720 0.075242 0.104433
0.564874 0.105257 0.133852
0.685542 0.152453 0.174441
0.827817 0.160266 0.176074
0.936461 0.120394 0.092561
0.975830 0.143389 0.099077
0.066194 0.144320 0.146044
0.148501 0.149416 0.149584
0.293309 0.134356 0.135103
0.442924 0.127504 0.133425
0.580896 0.136858 0.143938
0.701305 0.165805 0.174594
0.833906 0.162280 0.156435
0.939879 0.123659 0.088182
0.976165 0.150622 0.103227
0.110140 0.268208 0.135592
0.142412 0.273899 0.140017
0.275029 0.275563 0.130083
0.429358 0.255512 0.123964
0.575021 0.242008 0.139071
0.704433 0.246952 0.167056
0.824537 0.239551 0.166812
0.922744 0.213306 0.145800
0.961669 0.198642 0.128756
0.150378 0.384833 0.149493
0.160937 0.389868 0.145785
0.251316 0.402762 0.127474
0.403510 0.401755 0.111177
0.552407 0.387381 0.105699
0.678721 0.369360 0.127214
0.797482 0.361715 0.164309
0.898466 0.364584 0.204639
0.953124 0.364187 0.230625
0.274083 0.506294 0.111849
0.279591 0.510521 0.112184
0.294820 0.521691 0.120287
0.369467 0.530251 0.124941
0.520653 0.522988 0.105013
0.658305 0.510536 0.086091
0.771023 0.489708 0.098314
0.867536 0.493278 0.152789
0.930449 0.508370 0.262394
0.360678 0.615503 0.130266
0.363348 0.618738 0.131243
0.369772 0.625788 0.133562
0.386419 0.637064 0.143450
0.476448 0.642267 0.137148
0.620996 0.633005 0.117311
0.757534 0.624292 0.079377
0.859220 0.612421 0.079576
0.926131 0.614557 0.105226
0.444327 0.700069 0.158419
0.447425 0.702174 0.159487
0.458015 0.709880 0.162585
0.476387 0.723415 0.167147
0.502632 0.741283 0.165469
0.571115 0.751659 0.149004
0.712276 0.744335 0.128130
0.848432 0.738338 0.081895
0.919097 0.724453 0.082521
0.549996 0.789044 0.165774
0.552544 0.790982 0.164385
0.558572 0.795621 0.161959
0.571527 0.805844 0.158206
0.589517 0.818509 0.149859
0.617731 0.836484 0.143923
0.670192 0.854887 0.146777
0.777554 0.857374 0.177325
0.849439 0.860319 0.246815
0.632929 0.850309 0.143359
0.634897 0.851667 0.143038
0.641886 0.855879 0.145296
0.656046 0.863813 0.147494
0.677516 0.876936 0.159731
0.704280 0.893416 0.177661
0.739956 0.913512 0.202762
0.780438 0.934661 0.229984
0.811383 0.946578 0.264546
0.075639 0.098100 0.222980
0.140444 0.119478 0.238895
0.266102 0.126635 0.213474
0.412024 0.130358 0.187640
0.566033 0.129900 0.172442
0.689433 0.162860 0.205341
0.831586 0.171023 0.242969
0.924208 0.156558 0.180117
0.976989 0.156817 0.125856
0.086748 0.148394 0.283864
0.162005 0.166094 0.287205
0.286015 0.175051 0.265705
0.423102 0.171435 0.235981
0.574823 0.164996 0.213809
0.700938 0.177386 0.224704
0.834852 0.175265 0.243412
0.930266 0.165835 0.181704
0.979049 0.165805 0.133959
0.114336 0.283131 0.280919
0.153216 0.286015 0.288411
0.286702 0.287755 0.288991
0.432227 0.270390 0.273899
0.577432 0.255772 0.261738
0.708980 0.248829 0.254459
0.826810 0.245609 0.247135
0.925277 0.231113 0.206806
0.971725 0.209369 0.161334
0.155108 0.395407 0.253696
0.170733 0.402472 0.264256
0.259205 0.412268 0.270192
0.410147 0.412192 0.253727
0.556344 0.391440 0.241627
0.686732 0.374090 0.240620
0.803189 0.366781 0.243046
0.906447 0.360159 0.239048
0.957671 0.347616 0.229969
0.278859 0.504631 0.182361
0.288792 0.509895 0.190448
0.314931 0.521920 0.213260
0.383139 0.532891 0.240864
0.525811 0.526436 0.225666
0.655406 0.513436 0.222461
0.770840 0.493446 0.227451
0.878492 0.488716 0.242466
0.940810 0.497765 0.300801
0.363195 0.612802 0.153536
0.366415 0.615320 0.157931
0.377249 0.622324 0.173098
0.405539 0.634241 0.213382
0.485344 0.642481 0.242725
0.624277 0.633326 0.225620
0.750591 0.625483 0.215457
0.859937 0.611978 0.201907
0.932219 0.608087 0.202762
0.445975 0.699947 0.172473
0.449348 0.702296 0.174960
0.460380 0.710063 0.184100
0.479362 0.722621 0.200671
0.508080 0.739315 0.232822
0.580209 0.749996 0.261921
0.712963 0.743374 0.247745
0.845609 0.735912 0.205493
0.917205 0.726619 0.200504
0.549386 0.787961 0.194247
0.552117 0.790188 0.193439
0.558663 0.795331 0.197055
0.571527 0.805051 0.203540
0.590555 0.818021 0.210834
0.620981 0.835737 0.230381
0.678782 0.853223 0.256809
0.793042 0.853178 0.255177
0.863737 0.856611 0.298756
0.633127 0.850431 0.171267
0.635996 0.852216 0.171298
0.643519 0.856779 0.172641
0.657710 0.864759 0.179065
0.679698 0.878416 0.188083
0.706523 0.894911 0.205524
0.742901 0.915602 0.228550
0.786023 0.937285 0.246723
0.818799 0.947463 0.280125
0.097658 0.141924 0.318914
0.137102 0.156390 0.330129
0.236484 0.185733 0.329320
0.378515 0.196384 0.294194
0.547372 0.194568 0.263859
0.690654 0.203708 0.278645
0.832181 0.196612 0.296361
0.896559 0.213916 0.303075
0.972427 0.189410 0.177951
0.110002 0.176272 0.381430
0.153323 0.191394 0.389166
0.254810 0.217899 0.373480
0.391302 0.228733 0.339117
0.555154 0.221927 0.297032
0.696727 0.220996 0.299794
0.831876 0.208865 0.311421
0.901534 0.223438 0.307408
0.975189 0.201892 0.186297
0.134249 0.274662 0.429145
0.171817 0.280308 0.434928
0.288808 0.294850 0.431128
0.420142 0.296864 0.413672
0.564248 0.292042 0.374960
0.703044 0.276020 0.352667
0.822065 0.266590 0.359319
0.907759 0.264881 0.320668
0.975433 0.245686 0.218219
0.183078 0.412375 0.402884
0.197024 0.416983 0.409232
0.271153 0.422171 0.425116
0.420462 0.422538 0.423590
0.560510 0.404837 0.407218
0.688914 0.385611 0.389654
0.799329 0.376562 0.383276
0.899840 0.369894 0.349859
0.960784 0.347662 0.278325
0.282490 0.519417 0.374014
0.292439 0.523812 0.378225
0.324834 0.532631 0.385122
0.398978 0.539208 0.395499
0.532418 0.536172 0.384100
0.661051 0.516625 0.371466
0.775296 0.501579 0.369482
0.880491 0.493263 0.358602
0.948180 0.489006 0.348135
0.385611 0.611215 0.271870
0.392218 0.613367 0.280476
0.411490 0.619776 0.300511
0.442725 0.631250 0.335607
0.505638 0.642374 0.369696
0.630243 0.636011 0.360098
0.749035 0.627695 0.360159
0.858473 0.610437 0.359197
0.931548 0.608301 0.369467
0.456489 0.700130 0.220859
0.461463 0.702800 0.228214
0.474479 0.709926 0.248631
0.496330 0.721035 0.284550
0.530343 0.736080 0.337224
0.593973 0.748440 0.377462
0.718975 0.741878 0.371603
0.841688 0.735424 0.362844
0.918807 0.729259 0.361334
0.553643 0.787701 0.251804
0.556069 0.789181 0.255604
0.563363 0.794278 0.266194
0.578698 0.804196 0.289845
0.600092 0.816648 0.325765
0.630365 0.833967 0.369009
0.683391 0.850645 0.400336
0.798566 0.850843 0.389929
0.879744 0.854704 0.393011
0.637705 0.851408 0.265049
0.639857 0.852934 0.268482
0.647059 0.857588 0.273716
0.661479 0.866346 0.287938
0.681575 0.878935 0.301946
0.708919 0.895430 0.313787
0.745159 0.916136 0.327367
0.793469 0.938369 0.324407
0.830900 0.946746 0.330953
0.120165 0.190478 0.411246
0.143084 0.201083 0.422660
0.210300 0.225849 0.426078
0.338216 0.256367 0.410101
0.511284 0.257053 0.361639
0.691920 0.242084 0.329015
0.826642 0.234791 0.346929
0.880461 0.247837 0.355825
0.950805 0.232517 0.258137
0.131670 0.218250 0.449897
0.152911 0.225757 0.456291
0.225223 0.248859 0.454246
0.356878 0.277073 0.434897
0.517861 0.277836 0.387427
0.693202 0.260090 0.348531
0.825498 0.250538 0.363165
0.879698 0.261234 0.367956
0.956802 0.241459 0.255390
0.141833 0.284871 0.544488
0.161501 0.292119 0.547723
0.262013 0.315694 0.531106
0.385595 0.331701 0.497246
0.531304 0.336904 0.454459
0.690318 0.313542 0.403555
0.819821 0.297551 0.403204
0.876738 0.305455 0.401007
0.960845 0.279835 0.272221
0.201068 0.403586 0.553597
0.214023 0.407553 0.558602
0.286198 0.414282 0.567941
0.419776 0.424781 0.561456
0.547906 0.428779 0.543603
0.675425 0.418402 0.509926
0.803677 0.388846 0.465522
0.881651 0.392508 0.449012
0.947478 0.383047 0.365194
0.277653 0.530007 0.532616
0.285893 0.533776 0.533867
0.314046 0.540536 0.536950
0.405798 0.543969 0.543801
0.542367 0.544335 0.544701
0.663981 0.528389 0.533074
0.775097 0.514183 0.515618
0.878889 0.503227 0.485679
0.939773 0.499001 0.455833
0.353674 0.631525 0.546151
0.357046 0.633249 0.546365
0.372839 0.637919 0.541207
0.434668 0.641108 0.518013
0.523995 0.645640 0.514611
0.637720 0.643854 0.510124
0.755673 0.632593 0.500664
0.861524 0.619120 0.493980
0.933379 0.613718 0.478706
0.458213 0.708370 0.432578
0.464576 0.710124 0.433890
0.485023 0.714092 0.433143
0.522881 0.720577 0.431708
0.569451 0.730999 0.453529
0.623957 0.744839 0.493980
0.729641 0.742947 0.495354
0.842939 0.736965 0.488823
0.922774 0.726192 0.487709
0.569619 0.788098 0.341131
0.572961 0.789853 0.346502
0.582635 0.795346 0.360937
0.598947 0.804700 0.384634
0.621958 0.817212 0.419455
0.652888 0.833066 0.462959
0.700832 0.848402 0.499107
0.806958 0.849943 0.498970
0.890272 0.852399 0.503578
0.644083 0.850858 0.379034
0.646952 0.852598 0.382498
0.653849 0.856962 0.390845
0.666896 0.864973 0.404044
0.685542 0.876860 0.419425
0.712871 0.893507 0.443519
0.747417 0.913954 0.472755
0.791852 0.936080 0.491035
0.829618 0.943053 0.489265
0.134661 0.240055 0.485542
0.145968 0.244862 0.492287
0.195453 0.265248 0.506157
0.305638 0.300084 0.502678
0.449943 0.316747 0.466804
0.673411 0.293095 0.392447
0.819165 0.270420 0.383841
0.866056 0.283467 0.395590
0.912444 0.280110 0.350805
0.138994 0.267994 0.527993
0.147662 0.274601 0.537774
0.199985 0.292882 0.548333
0.314977 0.324117 0.534173
0.457053 0.343542 0.500298
0.668589 0.317098 0.421637
0.818738 0.286534 0.398611
0.864881 0.297627 0.407858
0.916197 0.295460 0.357000
0.163409 0.323293 0.607065
0.172976 0.328389 0.613321
0.227390 0.345251 0.618509
0.339345 0.376745 0.600656
0.474388 0.406607 0.579919
0.646967 0.397803 0.529274
0.806683 0.342977 0.456153
0.861967 0.336553 0.438010
0.919707 0.345861 0.386007
0.219409 0.405905 0.673167
0.231632 0.408453 0.679255
0.289021 0.418189 0.681285
0.405478 0.444511 0.665019
0.521859 0.470390 0.656260
0.648188 0.482521 0.650980
0.760159 0.450309 0.576226
0.865858 0.411627 0.485786
0.922316 0.427298 0.448585
0.284337 0.520195 0.675135
0.292943 0.523674 0.674784
0.326711 0.529763 0.675608
0.417975 0.536599 0.678538
0.551873 0.546380 0.675334
0.665843 0.542397 0.669413
0.752132 0.541924 0.636805
0.863005 0.528786 0.574655
0.921904 0.524208 0.535622
0.355627 0.637339 0.633219
0.359686 0.639429 0.635447
0.373602 0.644709 0.642054
0.422477 0.648997 0.649104
0.526757 0.651392 0.653193
0.648814 0.650584 0.651331
0.760143 0.639384 0.641367
0.860624 0.628351 0.623789
0.920409 0.625284 0.599481
0.407614 0.730678 0.696010
0.409735 0.732464 0.697673
0.416968 0.737575 0.701320
0.437858 0.744778 0.700542
0.531060 0.744686 0.662119
0.643656 0.745449 0.627375
0.740536 0.746960 0.622873
0.849897 0.736965 0.613916
0.922210 0.730236 0.605539
0.529122 0.795270 0.603052
0.535744 0.797009 0.599557
0.552544 0.800870 0.590051
0.585168 0.808301 0.574685
0.635782 0.817639 0.560052
0.687984 0.828611 0.564752
0.735470 0.843153 0.599344
0.822995 0.847105 0.607233
0.903197 0.845731 0.614069
0.659281 0.854612 0.451972
0.661860 0.855985 0.454826
0.668818 0.860029 0.461723
0.681590 0.867277 0.475349
0.703609 0.879561 0.499001
0.732738 0.896162 0.530602
0.765866 0.916228 0.562188
0.807462 0.935271 0.596277
0.850126 0.938720 0.618250
0.152499 0.303731 0.582818
0.156847 0.308507 0.590204
0.186313 0.323308 0.605554
0.269261 0.355138 0.618997
0.398016 0.400107 0.615061
0.599786 0.443946 0.627756
0.766201 0.392966 0.545739
0.851972 0.329656 0.444373
0.879927 0.337057 0.430976
0.161120 0.320729 0.606455
0.166964 0.326146 0.613870
0.199802 0.341558 0.629328
0.278584 0.370809 0.640040
0.414221 0.419287 0.636774
0.601114 0.471275 0.669902
0.747311 0.425803 0.592370
0.847028 0.347433 0.463447
0.881193 0.352361 0.442191
0.198489 0.362219 0.655222
0.208377 0.367697 0.662089
0.236164 0.381735 0.676936
0.314931 0.409552 0.681605
0.460700 0.458427 0.679301
0.618372 0.507942 0.727901
0.703471 0.488243 0.685100
0.830716 0.398291 0.519402
0.888838 0.394522 0.466850
0.246143 0.437293 0.742794
0.252003 0.440482 0.748394
0.283024 0.449699 0.753201
0.383444 0.470634 0.735927
0.532921 0.501350 0.728313
0.641230 0.526879 0.758679
0.687907 0.530419 0.745434
0.806500 0.488930 0.621988
0.900893 0.471565 0.524758
0.278828 0.529290 0.805371
0.289113 0.531258 0.806851
0.338705 0.535073 0.800656
0.427726 0.543618 0.787915
0.572259 0.557717 0.774166
0.668559 0.564553 0.783871
0.722499 0.583490 0.776043
0.817151 0.584360 0.715007
0.898024 0.564523 0.616632
0.375601 0.623056 0.786191
0.380926 0.625605 0.785916
0.397024 0.632258 0.786358
0.438743 0.641047 0.786023
0.536660 0.649393 0.782849
0.663691 0.657023 0.775250
0.759426 0.657130 0.771008
0.840116 0.653025 0.739178
0.895872 0.647166 0.690318
0.419226 0.739376 0.728130
0.421302 0.740963 0.730297
0.428077 0.745037 0.736767
0.446220 0.750988 0.749203
0.513329 0.753841 0.762631
0.629099 0.754849 0.762264
0.751156 0.752773 0.753582
0.855222 0.742718 0.740963
0.910307 0.744518 0.726253
0.484077 0.799191 0.772946
0.487022 0.800641 0.774197
0.499016 0.805737 0.778088
0.520302 0.813733 0.782574
0.562448 0.825452 0.784665
0.641459 0.836255 0.766217
0.753552 0.839704 0.726146
0.840024 0.846403 0.723690
0.917906 0.845747 0.727886
0.630091 0.850690 0.665858
0.634852 0.852171 0.663981
0.651270 0.857496 0.660243
0.679011 0.866896 0.655024
0.719127 0.880354 0.643336
0.761120 0.896666 0.644053
0.800381 0.915358 0.667262
0.838880 0.932860 0.702480
0.880095 0.937392 0.718853
0.185260 0.349920 0.643702
0.193774 0.356176 0.651804
0.219135 0.373327 0.672221
0.264820 0.397101 0.691524
0.398993 0.447364 0.702602
0.610880 0.518044 0.751675
0.663310 0.528176 0.759899
0.751812 0.482963 0.673442
0.843137 0.419226 0.545663
0.202136 0.367483 0.664179
0.210986 0.373754 0.672435
0.231632 0.389059 0.691203
0.275563 0.412970 0.711254
0.422293 0.462272 0.716289
0.619638 0.523247 0.758892
0.661997 0.533562 0.768460
0.739101 0.506081 0.708354
0.835065 0.445792 0.579751
0.237446 0.416007 0.725597
0.242771 0.420676 0.732906
0.254215 0.432883 0.749828
0.302708 0.454597 0.763485
0.475166 0.492271 0.746975
0.635706 0.532479 0.771969
0.667567 0.544823 0.785290
0.723186 0.552148 0.777035
0.820401 0.510918 0.663401
0.258915 0.485863 0.833402
0.261814 0.489250 0.839780
0.274372 0.498985 0.855024
0.329030 0.511360 0.850111
0.546990 0.527367 0.786862
0.653117 0.546166 0.791043
0.687892 0.570031 0.817655
0.731044 0.597971 0.838209
0.812848 0.586236 0.756893
0.274372 0.548943 0.936126
0.279835 0.552071 0.937667
0.299947 0.560418 0.935683
0.363119 0.570565 0.905699
0.583352 0.581857 0.831174
0.686473 0.590707 0.838682
0.726848 0.616068 0.862623
0.766369 0.635508 0.858839
0.828412 0.633631 0.787137
0.369619 0.629541 0.904906
0.375433 0.632990 0.906065
0.391852 0.640543 0.908522
0.437949 0.648005 0.908278
0.552071 0.658518 0.892638
0.689036 0.671077 0.882979
0.765850 0.676249 0.879332
0.809033 0.689220 0.858015
0.854978 0.692561 0.814130
0.450965 0.720333 0.847257
0.455344 0.721798 0.850568
0.468315 0.725994 0.859770
0.492729 0.733150 0.875990
0.537819 0.742748 0.890166
0.636286 0.752605 0.888029
0.765408 0.760006 0.874128
0.847959 0.762051 0.865949
0.891157 0.769802 0.839521
0.500206 0.806332 0.787732
0.504738 0.808057 0.789868
0.516152 0.812314 0.795911
0.539315 0.819593 0.807462
0.577783 0.829862 0.826749
0.634882 0.841810 0.850538
0.729793 0.851179 0.863783
0.853269 0.853742 0.855039
0.929747 0.857038 0.847456
0.598917 0.848066 0.826017
0.602960 0.849531 0.827497
0.615442 0.854185 0.831525
0.636576 0.861433 0.837324
0.665675 0.871702 0.842771
0.716243 0.887846 0.839460
0.794919 0.911635 0.825101
0.871748 0.928847 0.820462
0.922148 0.933165 0.839719
0.231785 0.412222 0.725795
0.237766 0.418936 0.736461
0.248325 0.434028 0.760739
0.268421 0.463676 0.805371
0.389609 0.501991 0.818769
0.630838 0.534569 0.778210
0.665019 0.552071 0.798627
0.701427 0.578836 0.829435
0.735027 0.597787 0.841398
0.242145 0.436210 0.762036
0.245579 0.442420 0.772534
0.254154 0.458778 0.800473
0.273045 0.487816 0.845670
0.398993 0.515343 0.841459
0.636118 0.537133 0.781308
0.668635 0.555550 0.803296
0.705455 0.584222 0.835752
0.735500 0.604944 0.851087
0.255924 0.492317 0.857115
0.258335 0.499245 0.869581
0.264698 0.512902 0.894163
0.277928 0.534295 0.930282
0.403922 0.542718 0.895430
0.646708 0.544579 0.791012
0.681041 0.567819 0.818601
0.716228 0.596704 0.848905
0.740154 0.618555 0.867704
0.268238 0.551904 0.967788
0.269169 0.553429 0.970413
0.272145 0.557610 0.977356
0.276799 0.561501 0.982513
0.407370 0.562219 0.926436
0.670420 0.566705 0.817182
0.704845 0.593103 0.846281
0.735103 0.620050 0.871687
0.756069 0.639475 0.882765
0.272969 0.570001 0.994385
0.276448 0.571695 0.994675
0.283726 0.577432 0.995590
0.295521 0.588952 0.995926
0.462608 0.607050 0.936675
0.703670 0.616449 0.868696
0.735073 0.634897 0.887800
0.757305 0.650996 0.895644
0.784665 0.667353 0.887526
0.333883 0.626123 0.982406
0.340200 0.629862 0.981216
0.358724 0.638361 0.978531
0.403433 0.650706 0.968261
0.561288 0.671641 0.933928
0.713039 0.684031 0.924849
0.764843 0.693385 0.929335
0.792325 0.710903 0.920165
0.824414 0.723507 0.898131
0.473487 0.711330 0.947494
0.477729 0.713725 0.949172
0.487922 0.719890 0.954177
0.506279 0.730556 0.963226
0.539223 0.744549 0.975586
0.640253 0.757473 0.971038
0.782513 0.769848 0.952605
0.836088 0.778286 0.938125
0.866224 0.790845 0.923049
0.537087 0.799268 0.870741
0.541238 0.800717 0.874205
0.555795 0.803418 0.890791
0.578973 0.809415 0.914336
0.608423 0.819394 0.940810
0.650828 0.834760 0.960220
0.738842 0.850889 0.962631
0.856397 0.859586 0.949538
0.916106 0.872389 0.934447
0.614282 0.854307 0.835142
0.619242 0.856092 0.837156
0.630854 0.860426 0.841871
0.650156 0.867231 0.851072
0.680873 0.877531 0.868864
0.726802 0.892058 0.896910
0.784665 0.910384 0.925597
0.876081 0.930037 0.934417
0.940200 0.939330 0.931609
