app/src/main/assets/filters/lumix_portrait.cube
# Created from lumix_portrait.plut
LUT_3D_SIZE 33
DOMAIN_MIN 0.0 0.0 0.0
DOMAIN_MAX 1.0 1.0 1.0
0.060792 0.051835 0.062181
0.069139 0.050752 0.060029
0.086717 0.049180 0.056458
0.113985 0.047730 0.052598
0.148882 0.046571 0.049622
0.188495 0.045975 0.048676
0.229831 0.046250 0.049928
0.271275 0.047517 0.052613
0.312062 0.049104 0.055253
0.350866 0.050858 0.057832
0.387304 0.053330 0.061784
0.420432 0.057725 0.068406
0.450797 0.064958 0.078340
0.477409 0.075090 0.090654
0.501488 0.088441 0.105669
0.524315 0.104494 0.122591
0.548486 0.123217 0.140673
0.574517 0.142824 0.157717
0.604517 0.162615 0.172976
0.639124 0.180270 0.186191
0.677714 0.194888 0.197192
0.716899 0.204654 0.204746
0.755535 0.208942 0.206165
0.797589 0.205463 0.197681
0.843320 0.192187 0.176944
0.889494 0.169512 0.146410
0.926543 0.143709 0.114931
0.951659 0.122698 0.090684
0.966079 0.112322 0.077424
0.975128 0.112200 0.072953
0.981643 0.119127 0.074876
0.986389 0.127871 0.080003
0.988968 0.133867 0.084520
0.057771 0.063569 0.059724
0.066194 0.062715 0.057786
0.084138 0.061326 0.054597
0.112047 0.059724 0.051209
0.147646 0.058030 0.048768
0.187793 0.056779 0.048371
0.229572 0.056291 0.049989
0.271534 0.056733 0.052796
0.312779 0.057343 0.055390
0.352117 0.058137 0.058076
0.388952 0.059785 0.062318
0.422583 0.063478 0.069322
0.453193 0.070085 0.079500
0.480095 0.079744 0.092027
0.504280 0.092714 0.107103
0.527230 0.108629 0.124010
0.551278 0.127047 0.141863
0.577295 0.146365 0.158511
0.607111 0.165499 0.173236
0.641535 0.182528 0.186007
0.679622 0.196384 0.196689
0.718425 0.205600 0.204273
0.756832 0.209537 0.205737
0.798810 0.205859 0.197238
0.844297 0.192554 0.176471
0.890059 0.169787 0.145968
0.926711 0.143938 0.114687
0.951690 0.122850 0.090425
0.966125 0.112566 0.077180
0.975250 0.112703 0.072801
0.981735 0.119905 0.074907
0.986358 0.128756 0.080201
0.988815 0.134737 0.084733
0.054444 0.085954 0.057420
0.062608 0.085527 0.055818
0.080415 0.084489 0.053117
0.108461 0.082765 0.050202
0.144427 0.080339 0.048112
0.184970 0.078111 0.048066
0.227207 0.076402 0.050004
0.269795 0.075517 0.053117
0.311788 0.074601 0.055924
0.352056 0.073899 0.058885
0.389837 0.074098 0.063478
0.424582 0.076463 0.070893
0.456046 0.081743 0.081193
0.483787 0.090288 0.093751
0.508492 0.102281 0.108675
0.531930 0.117433 0.125414
0.556008 0.134783 0.142870
0.582132 0.153079 0.158984
0.611734 0.170855 0.172961
0.645869 0.186709 0.185199
0.683101 0.199237 0.195590
0.721157 0.207462 0.203357
0.759075 0.210681 0.204913
0.800763 0.206653 0.196475
0.845747 0.193286 0.175769
0.890822 0.170474 0.145556
0.926940 0.144640 0.114611
0.951751 0.123476 0.090410
0.966247 0.113283 0.077058
0.975463 0.113741 0.072770
0.981857 0.121309 0.075105
0.986267 0.130327 0.080705
0.988510 0.136263 0.085313
0.053422 0.115221 0.056321
0.060914 0.115267 0.055100
0.077653 0.114763 0.052873
0.104570 0.113298 0.050233
0.139803 0.110735 0.048051
0.179995 0.108003 0.047807
0.222324 0.105425 0.049699
0.265141 0.103227 0.053010
0.307485 0.100664 0.056352
0.348562 0.098283 0.059937
0.387579 0.096788 0.065019
0.424140 0.097322 0.072572
0.457298 0.100542 0.082582
0.486778 0.107103 0.094789
0.512810 0.117296 0.109178
0.537270 0.130831 0.125444
0.561776 0.146319 0.142214
0.588128 0.162676 0.157671
0.617609 0.178439 0.170993
0.651270 0.192645 0.183032
0.687373 0.203540 0.193454
0.724483 0.210498 0.201648
0.761822 0.212787 0.203449
0.803021 0.208286 0.195499
0.847257 0.194858 0.175326
0.891356 0.172152 0.145922
0.926955 0.146426 0.115465
0.951690 0.125216 0.091341
0.966308 0.115007 0.077653
0.975586 0.115648 0.073213
0.981842 0.123415 0.075685
0.986007 0.132601 0.081682
0.988006 0.138552 0.086534
0.056672 0.147189 0.056626
0.063035 0.147677 0.055711
0.077623 0.147906 0.053910
0.101854 0.147219 0.051499
0.134844 0.145281 0.048966
0.173693 0.142763 0.047654
0.215457 0.139834 0.048341
0.258091 0.136706 0.050980
0.300374 0.132967 0.054566
0.341894 0.129259 0.058869
0.381979 0.126207 0.064454
0.420508 0.124727 0.072114
0.455970 0.125444 0.081895
0.487907 0.129412 0.093980
0.516258 0.137118 0.108034
0.542428 0.148226 0.123751
0.568002 0.161196 0.139498
0.594766 0.175082 0.154101
0.624262 0.188510 0.166888
0.657267 0.200656 0.179049
0.692103 0.209751 0.189731
0.728008 0.215244 0.198306
0.764645 0.216495 0.200565
0.805158 0.211521 0.193698
0.848432 0.198245 0.175113
0.891371 0.176043 0.147616
0.926558 0.150546 0.118151
0.951308 0.129274 0.094148
0.966186 0.118685 0.079728
0.975418 0.119127 0.074800
0.981445 0.126772 0.077195
0.985290 0.136049 0.083574
0.987030 0.142123 0.088808
0.065217 0.178958 0.057557
0.070176 0.179782 0.056825
0.081834 0.180758 0.055360
0.102083 0.181155 0.053208
0.131365 0.180545 0.050523
0.167788 0.179065 0.048142
0.208453 0.176715 0.047089
0.250645 0.173434 0.047990
0.292592 0.169207 0.050782
0.334188 0.164477 0.054994
0.374929 0.159945 0.060472
0.414725 0.156420 0.067796
0.451957 0.154757 0.077546
0.486305 0.156100 0.090288
0.517586 0.160967 0.104921
0.546365 0.168978 0.120378
0.573678 0.178988 0.134859
0.601221 0.190066 0.148440
0.630838 0.201099 0.160876
0.663142 0.211032 0.173251
0.696788 0.218540 0.183993
0.731548 0.222827 0.192294
0.767605 0.223346 0.194827
0.807141 0.218250 0.189639
0.848981 0.205661 0.174395
0.890166 0.184665 0.150805
0.924834 0.159792 0.123857
0.949691 0.138430 0.100465
0.965011 0.126986 0.085023
0.974228 0.126497 0.078996
0.979995 0.133288 0.080751
0.983490 0.142245 0.087037
0.984970 0.148287 0.092393
0.079622 0.210315 0.058671
0.083040 0.211383 0.058000
0.091279 0.212970 0.056657
0.106477 0.214359 0.054704
0.130510 0.215076 0.052125
0.163043 0.214847 0.049287
0.201663 0.213535 0.046891
0.243275 0.210956 0.045838
0.285176 0.207141 0.046632
0.326894 0.202243 0.049256
0.367895 0.196735 0.053468
0.408103 0.191562 0.059846
0.446342 0.187869 0.069108
0.482383 0.186969 0.081971
0.516274 0.189029 0.097169
0.547814 0.193591 0.112993
0.577279 0.199985 0.127581
0.606180 0.207721 0.141329
0.636500 0.216175 0.154284
0.668772 0.224155 0.166903
0.701839 0.230518 0.177234
0.735653 0.234058 0.184146
0.770809 0.234379 0.186160
0.808576 0.229969 0.182605
0.848081 0.219348 0.172351
0.886793 0.201144 0.155261
0.920638 0.178088 0.133425
0.945800 0.156725 0.111925
0.962005 0.143267 0.095415
0.971420 0.140215 0.087373
0.976959 0.144778 0.087419
0.980041 0.152544 0.092775
0.981292 0.158190 0.097704
0.097765 0.242084 0.059586
0.099870 0.243198 0.058961
0.104997 0.245045 0.057694
0.115068 0.247059 0.055879
0.132967 0.248783 0.053635
0.160067 0.249714 0.051118
0.195407 0.249561 0.048493
0.235874 0.248127 0.046281
0.278096 0.245289 0.045045
0.320455 0.240955 0.045136
0.361990 0.235233 0.046738
0.402228 0.229206 0.050538
0.440589 0.224292 0.057786
0.477348 0.221622 0.069093
0.512703 0.221241 0.083543
0.546227 0.222675 0.099336
0.577523 0.225818 0.115084
0.608301 0.230274 0.130770
0.639963 0.235828 0.145830
0.673106 0.241367 0.159442
0.706355 0.246250 0.169543
0.739864 0.249073 0.174990
0.774182 0.249439 0.176242
0.809567 0.246372 0.174212
0.845777 0.239002 0.169558
0.881086 0.225666 0.160449
0.913298 0.207065 0.146120
0.938613 0.187366 0.128527
0.955962 0.171847 0.111986
0.966262 0.164157 0.101411
0.972030 0.163928 0.098421
0.975036 0.168460 0.101396
0.976226 0.172656 0.105074
0.116930 0.274357 0.059632
0.118288 0.275395 0.058991
0.121355 0.277226 0.057725
0.127398 0.279515 0.056062
0.139391 0.281834 0.054246
0.160052 0.283619 0.052491
0.190448 0.284398 0.050568
0.228473 0.283986 0.048417
0.270542 0.282231 0.046098
0.313512 0.279118 0.044144
0.355764 0.274327 0.043244
0.396597 0.268589 0.044068
0.435767 0.263020 0.047684
0.473396 0.258839 0.054795
0.509300 0.256397 0.065736
0.543542 0.255375 0.079835
0.575891 0.255833 0.095903
0.608347 0.257481 0.113252
0.641413 0.260182 0.130571
0.675608 0.263188 0.146548
0.709453 0.265919 0.158740
0.743236 0.267353 0.165484
0.776867 0.267338 0.167681
0.810163 0.265614 0.167529
0.843061 0.261936 0.167330
0.874983 0.254505 0.165087
0.904860 0.242405 0.158434
0.929854 0.226780 0.146563
0.948211 0.211093 0.132387
0.959869 0.199130 0.120684
0.966384 0.193240 0.114748
0.969772 0.193072 0.114763
0.971145 0.194858 0.116732
0.133165 0.308156 0.062730
0.134264 0.308949 0.062028
0.136492 0.310414 0.060624
0.140337 0.312459 0.058732
0.148196 0.314855 0.056550
0.163043 0.317113 0.054536
0.187625 0.318547 0.052644
0.221561 0.318853 0.050690
0.262089 0.317906 0.048310
0.305303 0.315755 0.045533
0.348486 0.312215 0.042969
0.390463 0.307500 0.041245
0.430793 0.302235 0.041245
0.469581 0.297185 0.043961
0.506203 0.293156 0.050156
0.540917 0.290425 0.060212
0.573953 0.289265 0.073213
0.607218 0.289158 0.088975
0.640665 0.289601 0.106432
0.674586 0.290166 0.124834
0.708232 0.290440 0.141283
0.742367 0.289921 0.153079
0.776364 0.288548 0.159564
0.809277 0.286809 0.162783
0.840665 0.284993 0.165560
0.870283 0.282048 0.167330
0.897841 0.276555 0.166339
0.921782 0.267582 0.161166
0.940642 0.255680 0.152621
0.953872 0.243076 0.143389
0.961913 0.233387 0.136858
0.966369 0.228916 0.134997
0.968292 0.228183 0.135698
0.144701 0.342977 0.070680
0.145861 0.343542 0.069810
0.148028 0.344564 0.068025
0.151263 0.346090 0.065522
0.157305 0.348119 0.062303
0.168521 0.350454 0.058930
0.188067 0.352331 0.055787
0.216968 0.353231 0.053025
0.254063 0.352926 0.050294
0.295872 0.351537 0.047318
0.339269 0.349050 0.044236
0.382345 0.345418 0.041474
0.424231 0.341024 0.039261
0.464546 0.336187 0.038682
0.502647 0.331594 0.040284
0.538582 0.327474 0.045029
0.572824 0.324254 0.052461
0.606332 0.322042 0.063264
0.639155 0.320531 0.077485
0.671412 0.319692 0.095903
0.703609 0.318685 0.115969
0.736919 0.317174 0.134203
0.771054 0.314763 0.147097
0.804730 0.312139 0.155093
0.836835 0.309819 0.160281
0.866423 0.307820 0.164355
0.893095 0.305638 0.167300
0.916228 0.302449 0.169268
0.935363 0.296849 0.168887
0.950011 0.288609 0.166247
0.959884 0.280156 0.163027
0.965835 0.274784 0.162051
0.968597 0.272969 0.162814
0.152865 0.377447 0.083177
0.154253 0.377859 0.082063
0.156832 0.378546 0.079805
0.160632 0.379583 0.076432
0.166949 0.381201 0.071534
0.177081 0.383459 0.065675
0.193133 0.385840 0.059846
0.216495 0.387533 0.055100
0.248112 0.388037 0.051377
0.286534 0.387167 0.048035
0.328969 0.385229 0.044572
0.372396 0.382376 0.041505
0.415137 0.379004 0.038941
0.456504 0.375158 0.037369
0.496483 0.370871 0.036423
0.534463 0.366201 0.036515
0.570565 0.361410 0.038499
0.604517 0.357229 0.043793
0.636561 0.353811 0.053361
0.666926 0.351644 0.068269
0.697047 0.350042 0.087419
0.728435 0.348501 0.108064
0.761791 0.345922 0.125368
0.795926 0.342443 0.137972
0.829374 0.338552 0.146487
0.859876 0.335546 0.154101
0.886870 0.333944 0.161959
0.910185 0.333898 0.171664
0.930343 0.333089 0.180255
0.946929 0.330159 0.186130
0.959197 0.325750 0.189075
0.967239 0.322621 0.191714
0.971176 0.321569 0.194064
0.165438 0.409781 0.091203
0.167132 0.410300 0.089876
0.170153 0.411124 0.087327
0.174456 0.412238 0.083619
0.181109 0.413825 0.078187
0.190768 0.416159 0.071305
0.204074 0.418921 0.063981
0.221973 0.421393 0.057862
0.246647 0.422827 0.053147
0.279454 0.422782 0.049104
0.318898 0.421393 0.045029
0.361379 0.419059 0.041566
0.404120 0.416388 0.039384
0.445930 0.413550 0.037873
0.487297 0.410117 0.035798
0.527550 0.405600 0.032547
0.565942 0.399985 0.030655
0.601404 0.394186 0.031754
0.633768 0.388861 0.037201
0.663706 0.384955 0.047181
0.692485 0.382391 0.061891
0.721721 0.380880 0.079942
0.753002 0.378820 0.097032
0.785885 0.375631 0.111376
0.819181 0.371328 0.122881
0.849729 0.367834 0.135409
0.876967 0.366079 0.150057
0.900893 0.366751 0.168139
0.922576 0.367864 0.185657
0.941497 0.368109 0.200076
0.956466 0.367224 0.210239
0.966949 0.366598 0.217807
0.972305 0.366613 0.222553
0.187610 0.440604 0.090028
0.189471 0.441306 0.088716
0.192660 0.442435 0.086290
0.197024 0.443931 0.082887
0.203235 0.445884 0.078065
0.211460 0.448493 0.071962
0.221363 0.451698 0.065324
0.233295 0.454826 0.059678
0.250233 0.457160 0.055177
0.275685 0.457969 0.050874
0.310140 0.457206 0.046357
0.350271 0.455344 0.042344
0.392233 0.453010 0.040314
0.433982 0.450614 0.038926
0.475837 0.447745 0.036744
0.517632 0.443900 0.031998
0.558160 0.438819 0.027710
0.596094 0.432837 0.025422
0.630076 0.426627 0.027436
0.661036 0.420966 0.033066
0.689525 0.416678 0.043061
0.717678 0.413886 0.056077
0.747143 0.411460 0.069490
0.778134 0.408591 0.081788
0.809552 0.405173 0.094133
0.838270 0.403067 0.110445
0.864378 0.402609 0.131716
0.888197 0.403891 0.157305
0.910994 0.405127 0.182605
0.931914 0.405875 0.204776
0.949493 0.405982 0.222477
0.962631 0.406119 0.235950
0.969680 0.406348 0.243793
0.218692 0.472480 0.081102
0.220294 0.473243 0.080064
0.222980 0.474540 0.078202
0.226383 0.476204 0.075807
0.230716 0.478279 0.072862
0.236072 0.480858 0.069413
0.242100 0.483955 0.065705
0.248966 0.487236 0.062287
0.259159 0.490166 0.059205
0.276860 0.491951 0.055375
0.304417 0.492134 0.050813
0.340368 0.490837 0.046113
0.380636 0.488685 0.043290
0.422065 0.486290 0.041169
0.463676 0.483635 0.038514
0.505821 0.480354 0.033280
0.547738 0.476143 0.027604
0.588327 0.470878 0.022934
0.625193 0.464820 0.021805
0.658320 0.458396 0.024063
0.687633 0.452674 0.030732
0.715541 0.448219 0.040101
0.743893 0.444495 0.049928
0.773342 0.441184 0.058686
0.802808 0.438285 0.068833
0.829541 0.437613 0.084932
0.853910 0.438819 0.108293
0.876493 0.441321 0.137057
0.898802 0.443305 0.166659
0.920043 0.444480 0.194980
0.938964 0.444831 0.220447
0.953902 0.444785 0.241306
0.962310 0.444694 0.253529
0.249180 0.504768 0.073747
0.250187 0.505379 0.073228
0.251926 0.506477 0.072313
0.254154 0.507988 0.071229
0.256901 0.509941 0.070085
0.260044 0.512322 0.068894
0.263401 0.515160 0.067552
0.267048 0.518349 0.066026
0.272679 0.521584 0.064271
0.283848 0.524208 0.061326
0.303990 0.525475 0.057191
0.333883 0.525170 0.051911
0.370855 0.523522 0.047395
0.411124 0.521157 0.043870
0.452125 0.518364 0.040879
0.493584 0.515251 0.036652
0.535470 0.511650 0.030961
0.577432 0.507439 0.024765
0.616953 0.502434 0.020264
0.652949 0.496498 0.018799
0.684352 0.490364 0.022171
0.713176 0.484611 0.028992
0.741039 0.479561 0.037354
0.769604 0.475105 0.044434
0.797803 0.471794 0.052522
0.823880 0.470924 0.065522
0.847440 0.472282 0.085466
0.869078 0.475135 0.110750
0.890059 0.477989 0.138552
0.910216 0.480323 0.168856
0.929000 0.481941 0.200565
0.944518 0.482765 0.229328
0.953597 0.483101 0.246937
0.275502 0.536629 0.073228
0.276020 0.537072 0.073091
0.276997 0.537896 0.072847
0.278340 0.539117 0.072633
0.280064 0.540780 0.072572
0.282094 0.542840 0.072663
0.284352 0.545281 0.072633
0.286915 0.548089 0.072313
0.290410 0.551171 0.071489
0.297246 0.554284 0.069474
0.310414 0.556649 0.065705
0.332723 0.557626 0.059770
0.363745 0.556909 0.053330
0.401129 0.554894 0.048112
0.441032 0.551995 0.044556
0.481651 0.548775 0.041596
0.522652 0.545342 0.036973
0.564248 0.542000 0.030991
0.605432 0.538262 0.024170
0.644144 0.533669 0.019196
0.678935 0.528099 0.018097
0.709880 0.521965 0.021881
0.738384 0.516045 0.028870
0.766491 0.510628 0.036255
0.793927 0.506493 0.043961
0.820157 0.504387 0.054124
0.844083 0.504326 0.067643
0.865995 0.505852 0.084520
0.886320 0.508385 0.104952
0.905287 0.511666 0.132265
0.922927 0.515343 0.166354
0.937697 0.518349 0.200443
0.946517 0.520119 0.222248
0.297795 0.566094 0.078630
0.298085 0.566445 0.078691
0.298741 0.567178 0.078828
0.299825 0.568276 0.079057
0.301442 0.569894 0.079377
0.303471 0.571878 0.079713
0.305745 0.574121 0.079805
0.308202 0.576562 0.079591
0.311101 0.579324 0.078996
0.315755 0.582452 0.077623
0.323919 0.585519 0.074479
0.338567 0.587808 0.068635
0.361547 0.588556 0.061036
0.393103 0.587594 0.054063
0.430289 0.585138 0.049454
0.469825 0.581811 0.047196
0.509621 0.578210 0.044556
0.549722 0.575036 0.040284
0.590417 0.572290 0.033341
0.630732 0.569100 0.026261
0.668956 0.564721 0.020966
0.703655 0.558770 0.020188
0.734951 0.552544 0.023713
0.764050 0.546593 0.030243
0.791318 0.542092 0.038163
0.817472 0.538796 0.046403
0.842023 0.536843 0.054459
0.865080 0.536156 0.062837
0.886000 0.537362 0.074952
0.904784 0.540658 0.095979
0.921721 0.545556 0.127123
0.935607 0.550332 0.160754
0.943877 0.553353 0.183078
0.320424 0.594903 0.085466
0.320745 0.595300 0.085542
0.321386 0.596002 0.085634
0.322393 0.597024 0.085771
0.323888 0.598459 0.085954
0.325795 0.600275 0.086168
0.327977 0.602304 0.086137
0.330266 0.604425 0.086000
0.332723 0.606729 0.085664
0.335958 0.609476 0.084901
0.340658 0.612573 0.082628
0.349050 0.615579 0.077790
0.363836 0.617685 0.070649
0.387793 0.618296 0.062699
0.420096 0.617044 0.056260
0.457710 0.614145 0.052811
0.496803 0.610330 0.051148
0.536080 0.606760 0.049393
0.575937 0.604150 0.044388
0.615839 0.601984 0.037995
0.655543 0.599084 0.030808
0.693263 0.594293 0.026520
0.729015 0.588556 0.024521
0.761440 0.582712 0.026505
0.790234 0.578195 0.031327
0.816419 0.574350 0.037507
0.841047 0.571145 0.042466
0.864897 0.568505 0.046159
0.886900 0.567834 0.052644
0.906416 0.569848 0.067308
0.923369 0.574273 0.091905
0.936675 0.579187 0.119982
0.944442 0.582437 0.139162
0.341878 0.622293 0.090517
0.342184 0.622721 0.090578
0.342763 0.623453 0.090639
0.343572 0.624399 0.090700
0.344778 0.625650 0.090776
0.346349 0.627237 0.090791
0.348196 0.629023 0.090562
0.350164 0.630915 0.090272
0.352331 0.632990 0.090059
0.354910 0.635431 0.089830
0.358083 0.638346 0.088777
0.362783 0.641566 0.085863
0.371466 0.644663 0.080659
0.387579 0.646860 0.073381
0.412940 0.647440 0.065766
0.446204 0.645838 0.060166
0.483574 0.642466 0.057557
0.522377 0.638453 0.056794
0.561379 0.635264 0.054322
0.600061 0.633112 0.050797
0.638987 0.631266 0.045411
0.678264 0.628107 0.040360
0.718151 0.623804 0.033524
0.755627 0.618723 0.028305
0.788174 0.614313 0.026154
0.815869 0.610101 0.027893
0.840726 0.606180 0.031113
0.864714 0.602502 0.033936
0.887465 0.600351 0.038148
0.908110 0.600565 0.046708
0.925887 0.603174 0.062104
0.939315 0.606882 0.081025
0.946822 0.609552 0.094667
0.360983 0.648005 0.093614
0.361227 0.648386 0.093614
0.361624 0.648981 0.093568
0.362219 0.649790 0.093538
0.363149 0.650843 0.093538
0.364477 0.652262 0.093584
0.366094 0.653910 0.093477
0.367864 0.655726 0.093492
0.369757 0.657694 0.093721
0.371908 0.659953 0.094301
0.374426 0.662593 0.094453
0.377768 0.665736 0.093492
0.383352 0.669291 0.090791
0.394049 0.672709 0.085771
0.412375 0.675135 0.078645
0.439200 0.675593 0.071061
0.472404 0.673838 0.064958
0.509438 0.670390 0.061524
0.547921 0.666621 0.058640
0.585718 0.663722 0.057557
0.623301 0.661921 0.056092
0.661875 0.660212 0.054231
0.703273 0.657877 0.046586
0.744656 0.654551 0.035859
0.781750 0.650965 0.025971
0.812848 0.646906 0.022507
0.839139 0.642573 0.024689
0.863554 0.638025 0.028824
0.886961 0.634134 0.032120
0.908873 0.631968 0.034791
0.927901 0.632105 0.040269
0.941924 0.634012 0.048981
0.949493 0.635798 0.056474
0.377371 0.670573 0.097505
0.377508 0.670863 0.097414
0.377783 0.671351 0.097307
0.378317 0.672084 0.097276
0.379263 0.673106 0.097337
0.380682 0.674525 0.097520
0.382422 0.676188 0.097627
0.384466 0.678050 0.098116
0.386801 0.680110 0.098924
0.389502 0.682475 0.100313
0.392569 0.685161 0.101442
0.396246 0.688273 0.101884
0.401190 0.691981 0.101015
0.409079 0.695995 0.098314
0.421912 0.699794 0.092973
0.441321 0.702510 0.085191
0.467262 0.703334 0.076280
0.498711 0.701946 0.068605
0.533898 0.698833 0.063355
0.570504 0.695430 0.062287
0.607492 0.692882 0.063645
0.645472 0.691264 0.064622
0.686000 0.690074 0.059129
0.728466 0.688502 0.047318
0.769100 0.686336 0.033188
0.804913 0.683192 0.025071
0.834653 0.679103 0.025330
0.860624 0.674311 0.030457
0.884993 0.669154 0.033631
0.908400 0.664744 0.031891
0.929015 0.662119 0.029191
0.943999 0.661830 0.028946
0.951766 0.662486 0.030793
0.395712 0.691188 0.103731
0.395850 0.691371 0.103639
0.396139 0.691707 0.103578
0.396750 0.692302 0.103670
0.397864 0.693263 0.103899
0.399588 0.694713 0.104280
0.401770 0.696483 0.104631
0.404395 0.698528 0.105470
0.407370 0.700816 0.106661
0.410758 0.703380 0.108446
0.414511 0.706218 0.109865
0.419028 0.709407 0.110933
0.424521 0.713161 0.110933
0.431678 0.717403 0.109773
0.441169 0.721920 0.106157
0.454292 0.726223 0.099458
0.471992 0.729503 0.089815
0.494957 0.730953 0.079149
0.523537 0.730022 0.070314
0.556405 0.727550 0.065980
0.592309 0.724559 0.066026
0.629694 0.722164 0.067582
0.668681 0.720729 0.065522
0.709560 0.720195 0.057603
0.751247 0.719661 0.045350
0.791333 0.718120 0.035523
0.826413 0.714855 0.032319
0.856092 0.710216 0.034882
0.882368 0.704448 0.036530
0.906996 0.698543 0.032929
0.928893 0.693721 0.027039
0.944915 0.691279 0.022583
0.953124 0.690623 0.021515
0.418341 0.711009 0.112139
0.418585 0.711223 0.112093
0.419028 0.711559 0.112169
0.419760 0.712093 0.112459
0.420996 0.712947 0.112856
0.422858 0.714305 0.113298
0.425345 0.716060 0.113680
0.428519 0.718227 0.114519
0.432242 0.720775 0.115679
0.436362 0.723613 0.117296
0.440757 0.726680 0.118410
0.445762 0.729976 0.119203
0.451575 0.733806 0.119051
0.458412 0.738109 0.118212
0.466102 0.742840 0.115694
0.475212 0.747784 0.111192
0.486519 0.752483 0.103929
0.501244 0.756283 0.094102
0.520958 0.758282 0.083894
0.546456 0.758297 0.075700
0.577935 0.756481 0.071351
0.613367 0.753811 0.069581
0.650935 0.751415 0.068437
0.689998 0.750317 0.065202
0.731014 0.750103 0.058350
0.773266 0.749584 0.049989
0.813397 0.747570 0.043046
0.848539 0.744045 0.039536
0.878630 0.739025 0.036606
0.905104 0.733013 0.031800
0.927626 0.727092 0.026917
0.943954 0.722835 0.023774
0.952270 0.720836 0.023392
0.446143 0.731838 0.120424
0.446525 0.732082 0.120531
0.447135 0.732464 0.120790
0.447944 0.732982 0.121187
0.449104 0.733776 0.121538
0.450858 0.735042 0.121767
0.453269 0.736706 0.121935
0.456474 0.738888 0.122469
0.460258 0.741527 0.123323
0.464378 0.744472 0.124453
0.468681 0.747585 0.125154
0.473533 0.750896 0.125597
0.479179 0.754696 0.125200
0.485466 0.758907 0.124285
0.492012 0.763516 0.122148
0.498924 0.768399 0.119081
0.506676 0.773526 0.114168
0.516075 0.778561 0.106661
0.528618 0.782864 0.096574
0.545602 0.785794 0.085939
0.569284 0.786587 0.077287
0.599084 0.785336 0.071977
0.633768 0.782818 0.069932
0.670863 0.780728 0.069612
0.710369 0.779644 0.068406
0.752316 0.778988 0.064210
0.794781 0.777691 0.057084
0.834638 0.775097 0.049104
0.869673 0.770932 0.041260
0.899794 0.765179 0.033768
0.923949 0.758953 0.028763
0.940841 0.753902 0.027131
0.949187 0.751278 0.028092
0.474952 0.753613 0.127581
0.475395 0.753902 0.127687
0.476097 0.754330 0.127932
0.476951 0.754940 0.128267
0.478065 0.755779 0.128466
0.479683 0.757031 0.128450
0.481895 0.758587 0.128344
0.484840 0.760647 0.128557
0.488365 0.763180 0.129198
0.492226 0.766155 0.129946
0.496223 0.769314 0.130358
0.500587 0.772686 0.130114
0.505547 0.776410 0.129000
0.510994 0.780484 0.127214
0.516625 0.784863 0.124819
0.522499 0.789425 0.122454
0.528847 0.794354 0.119219
0.535851 0.799542 0.114183
0.544152 0.804761 0.106157
0.554681 0.809491 0.096483
0.570016 0.812924 0.086717
0.591699 0.814267 0.079286
0.620066 0.813489 0.074968
0.653361 0.811536 0.074311
0.690135 0.809613 0.075120
0.729915 0.808042 0.075105
0.771527 0.806683 0.072114
0.813001 0.804730 0.066377
0.851164 0.801617 0.058854
0.884199 0.796704 0.051331
0.909895 0.790829 0.047166
0.927657 0.785443 0.047471
0.936461 0.782330 0.049912
0.503212 0.776623 0.132418
0.503655 0.776913 0.132357
0.504372 0.777386 0.132311
0.505287 0.778073 0.132280
0.506416 0.779019 0.132052
0.507912 0.780270 0.131487
0.509819 0.781765 0.130816
0.512261 0.783642 0.130465
0.515175 0.785946 0.130739
0.518532 0.788769 0.131197
0.522148 0.791867 0.131502
0.526070 0.795148 0.130983
0.530419 0.798611 0.129641
0.535012 0.802289 0.127352
0.539818 0.806210 0.124544
0.544854 0.810330 0.121767
0.550408 0.814878 0.118669
0.556466 0.819745 0.114931
0.563165 0.824949 0.109056
0.570764 0.830198 0.102052
0.580804 0.835080 0.093874
0.595056 0.838773 0.087053
0.615167 0.840696 0.081895
0.641413 0.840787 0.080308
0.673259 0.839658 0.080873
0.709056 0.837964 0.082887
0.747250 0.836255 0.085298
