app/src/main/assets/filters/lumix_vivid.cube
# Created from lumix_vivid.plut
LUT_3D_SIZE 9
DOMAIN_MIN 0.0 0.0 0.0
DOMAIN_MAX 1.0 1.0 1.0
0.038575 0.030777 0.041260
0.124163 0.022354 0.027710
0.277180 0.016815 0.027344
0.434592 0.011475 0.031052
0.551614 0.036530 0.066072
0.664775 0.094804 0.119875
0.812787 0.129595 0.145098
0.950149 0.078965 0.063035
0.983856 0.089403 0.054231
0.019654 0.114977 0.021592
0.094942 0.106691 0.018509
0.252461 0.084047 0.018067
0.420432 0.066865 0.027970
0.559060 0.074693 0.058366
0.677256 0.119615 0.114534
0.819471 0.135943 0.139666
0.951064 0.080766 0.060288
0.981918 0.095521 0.055055
0.046860 0.227985 0.010422
0.071077 0.233555 0.008011
0.204730 0.220783 0.003799
0.377813 0.203021 0.006287
0.531548 0.194736 0.035584
0.674098 0.200092 0.088930
0.808728 0.202991 0.115465
0.929183 0.163333 0.087694
0.966278 0.149264 0.075013
0.068849 0.365209 0.026658
0.088731 0.368475 0.018082
0.165423 0.371801 0.003952
0.337224 0.356313 0.000992
0.513573 0.343557 0.002014
0.648936 0.332265 0.020615
0.779446 0.325017 0.073045
0.896513 0.322057 0.132494
0.960998 0.328267 0.173342
0.183383 0.496498 0.004791
0.189273 0.501015 0.003952
0.200977 0.512505 0.003250
0.287800 0.515572 0.003372
0.469703 0.500984 0.002472
0.640879 0.486381 0.002014
0.764752 0.467170 0.016068
0.867384 0.470710 0.056535
0.936645 0.488533 0.172992
0.280079 0.620798 0.013947
0.282567 0.624155 0.014359
0.290288 0.631876 0.016220
0.306615 0.644236 0.018616
0.412146 0.645899 0.011887
0.584360 0.631754 0.009033
0.753994 0.623316 0.009308
0.870100 0.608347 0.011749
0.941894 0.611566 0.030076
0.379568 0.713390 0.057969
0.383505 0.715999 0.060594
0.396979 0.724514 0.065339
0.420005 0.739269 0.071534
0.454185 0.759777 0.068559
0.529473 0.773480 0.038575
0.687602 0.766537 0.032898
0.857130 0.761593 0.026520
0.942596 0.744518 0.012238
0.516289 0.813840 0.103914
0.519203 0.816144 0.104479
0.528969 0.822919 0.104295
0.545617 0.834577 0.102495
0.571466 0.851209 0.098970
0.606104 0.872465 0.094881
0.660700 0.894209 0.088060
0.772610 0.900191 0.108919
0.866011 0.894377 0.153140
0.625086 0.887968 0.112963
0.627131 0.889006 0.113405
0.634745 0.893614 0.111009
0.650187 0.902785 0.118105
0.671504 0.915023 0.129381
0.702281 0.931548 0.148165
0.743771 0.950362 0.162661
0.784329 0.965942 0.183719
0.814023 0.970687 0.215900
0.036072 0.030167 0.107698
0.112337 0.024765 0.092485
0.265476 0.017639 0.066926
0.426169 0.016663 0.062013
0.556497 0.037339 0.083375
0.668254 0.093263 0.130816
0.813596 0.128283 0.153948
0.949401 0.082094 0.069184
0.985321 0.091524 0.059510
0.019028 0.111055 0.111055
0.100237 0.102678 0.106950
0.251820 0.076783 0.083452
0.418250 0.060075 0.077104
0.569268 0.065370 0.085374
0.684657 0.110719 0.130938
0.821820 0.133150 0.148272
0.951690 0.081102 0.063233
0.984482 0.097002 0.060990
0.021668 0.232486 0.067201
0.057816 0.233295 0.068833
0.209873 0.217105 0.055772
0.383734 0.196262 0.049485
0.544137 0.182696 0.067185
0.684932 0.189303 0.104051
0.817914 0.190433 0.125978
0.933120 0.158160 0.094285
0.969467 0.144991 0.077501
0.031144 0.363134 0.054124
0.045548 0.367544 0.050385
0.166384 0.368566 0.034485
0.343771 0.353017 0.017945
0.516533 0.339117 0.022705
0.658259 0.323995 0.050050
0.788739 0.315129 0.096376
0.903166 0.315145 0.140063
0.963485 0.322393 0.173907
0.179950 0.493812 0.007996
0.186435 0.498238 0.007538
0.203601 0.509712 0.011078
0.296132 0.511315 0.021241
0.476646 0.497246 0.013123
0.641291 0.483467 0.016114
0.768185 0.463096 0.034287
0.874006 0.465354 0.083513
0.942382 0.480659 0.199207
0.278935 0.618479 0.016922
0.282078 0.622095 0.018173
0.289738 0.630137 0.021439
0.309804 0.642206 0.033845
0.421866 0.642023 0.039994
0.591608 0.628626 0.030655
0.754711 0.619104 0.028687
0.872465 0.604822 0.027253
0.945006 0.606897 0.052308
0.379400 0.713146 0.062989
0.383520 0.715724 0.065003
0.396674 0.724086 0.071229
0.419699 0.739025 0.081559
0.453223 0.759152 0.089006
0.536263 0.770703 0.076387
0.697383 0.762692 0.062379
0.859754 0.758740 0.044099
0.943297 0.742351 0.030335
0.514809 0.813306 0.113176
0.518425 0.816007 0.113161
0.527855 0.822660 0.116976
0.544366 0.834333 0.116793
0.570230 0.851057 0.115267
0.605371 0.872587 0.109453
0.663691 0.893400 0.104799
0.781582 0.897658 0.120562
0.871885 0.892805 0.165591
0.624735 0.887968 0.119295
0.627070 0.889281 0.119646
0.634333 0.893736 0.121019
0.650172 0.903151 0.127031
0.671641 0.915450 0.138613
0.702876 0.932219 0.156619
0.745006 0.951431 0.171832
0.785657 0.966674 0.187716
0.817243 0.971237 0.223789
0.067933 0.057389 0.268299
0.100389 0.063600 0.274296
0.219440 0.066667 0.205936
0.383017 0.058427 0.138415
0.559182 0.070405 0.150790
0.667231 0.110460 0.179904
0.812284 0.132219 0.182605
0.944442 0.102052 0.104372
0.986893 0.101411 0.083177
0.042679 0.098207 0.276204
0.108827 0.101137 0.274846
0.233463 0.101305 0.235843
0.386374 0.092805 0.177386
0.567178 0.096788 0.184894
0.684672 0.122560 0.188052
0.821332 0.134386 0.182818
0.946746 0.110109 0.111635
0.987961 0.109194 0.089570
0.017273 0.243519 0.230259
0.055360 0.238773 0.233936
0.212161 0.219059 0.222431
0.381750 0.194873 0.199985
0.546166 0.181903 0.192874
0.692470 0.183444 0.193561
0.825376 0.180850 0.187701
0.937591 0.170947 0.147158
0.980575 0.152102 0.110399
0.016587 0.370108 0.167590
0.031159 0.375463 0.179431
0.150332 0.372396 0.186175
0.345693 0.356466 0.161288
0.517952 0.336049 0.154208
0.666896 0.319615 0.160052
0.796612 0.312352 0.169970
0.913100 0.307958 0.174868
0.968750 0.308370 0.178622
0.178424 0.487709 0.078019
0.190311 0.492668 0.087373
0.222446 0.503410 0.115328
0.308858 0.508217 0.145220
0.482216 0.495369 0.121630
0.637278 0.482597 0.131426
0.766186 0.463432 0.153613
0.884398 0.458183 0.175311
0.952728 0.468132 0.242420
0.279881 0.614450 0.037827
0.283543 0.617075 0.043061
0.296208 0.624201 0.061524
0.330144 0.635416 0.111192
0.430701 0.639368 0.149813
0.597925 0.625422 0.135134
0.746960 0.615732 0.143648
0.870085 0.602258 0.139208
0.949218 0.598337 0.139864
0.381094 0.713283 0.077394
0.384924 0.715724 0.080751
0.398520 0.724178 0.093462
0.422019 0.738033 0.115740
0.456886 0.756847 0.155138
0.545937 0.767742 0.189792
0.701961 0.758907 0.178561
0.857343 0.751675 0.155032
0.938613 0.739986 0.138598
0.512291 0.812757 0.147921
0.516625 0.815732 0.150347
0.526024 0.822980 0.155795
0.542504 0.834714 0.166369
0.567208 0.851331 0.178134
0.602502 0.872877 0.194232
0.668803 0.892073 0.208560
0.798901 0.892348 0.193210
0.883482 0.890639 0.221775
0.622080 0.887633 0.152193
0.625864 0.889830 0.153262
0.634028 0.894865 0.157778
0.649836 0.904585 0.163989
0.672694 0.917693 0.176318
0.704356 0.935134 0.194217
0.746059 0.954574 0.206668
0.789303 0.968811 0.209384
0.826612 0.972274 0.245441
0.097383 0.077028 0.381521
0.113008 0.081498 0.391943
0.173510 0.103182 0.392264
0.313100 0.123507 0.298558
0.552361 0.125521 0.236393
0.657069 0.149752 0.253132
0.805310 0.159426 0.250614
0.916991 0.157671 0.212146
0.986252 0.127199 0.121416
0.094316 0.096956 0.412024
0.131609 0.103304 0.419928
0.195605 0.124163 0.404761
0.330404 0.149310 0.324773
0.559930 0.140642 0.254841
0.672786 0.164172 0.265278
0.811048 0.168566 0.265599
0.918135 0.169024 0.225589
0.987442 0.140612 0.132586
0.052369 0.230945 0.402594
0.091035 0.225116 0.407141
0.220111 0.213428 0.405951
0.362264 0.220157 0.375753
0.540078 0.211170 0.322103
0.691920 0.211719 0.304280
0.817273 0.207446 0.310384
0.916686 0.210590 0.260914
0.987213 0.187427 0.167117
0.064118 0.388144 0.358465
0.074281 0.389853 0.364309
0.160647 0.381445 0.375280
0.355871 0.363928 0.365789
0.523812 0.342657 0.344961
0.671427 0.326162 0.332006
0.795499 0.321782 0.332296
0.909773 0.318715 0.303532
0.974075 0.311833 0.241947
0.189899 0.496071 0.297932
0.203647 0.501839 0.307683
0.237369 0.512703 0.324254
0.322621 0.516030 0.334020
0.491020 0.503777 0.313466
0.644114 0.482109 0.305013
0.771008 0.467643 0.312856
0.887800 0.461707 0.308644
0.961242 0.458503 0.300359
0.309850 0.607843 0.176104
0.317769 0.610132 0.188937
0.339300 0.616907 0.220096
0.375662 0.628916 0.265141
0.452857 0.637644 0.301518
0.608103 0.626795 0.290837
0.747738 0.617105 0.300893
0.868681 0.600412 0.309789
0.947875 0.598322 0.321355
0.391836 0.712322 0.131960
0.397681 0.715175 0.140368
0.413062 0.722988 0.164309
0.438880 0.735241 0.206348
0.480323 0.752392 0.268147
0.561212 0.765408 0.317632
0.712871 0.756039 0.313451
0.853193 0.747570 0.320562
0.935012 0.738613 0.322530
0.515511 0.814847 0.198276
0.519097 0.817288 0.203433
0.528252 0.824231 0.215167
0.546090 0.836988 0.238209
0.570321 0.852979 0.271244
0.606302 0.874235 0.316182
0.671702 0.892622 0.351324
0.806424 0.888930 0.339864
0.894713 0.888624 0.349874
0.619532 0.890654 0.247822
0.622858 0.892775 0.251118
0.629496 0.896971 0.257389
0.647684 0.907759 0.266911
0.671489 0.921508 0.281102
0.703029 0.939345 0.293843
0.742687 0.958419 0.304082
0.793164 0.972488 0.303777
0.838575 0.974701 0.319249
0.110735 0.089815 0.426490
0.128695 0.097902 0.441093
0.172229 0.120806 0.456672
0.265324 0.179171 0.493141
0.476432 0.203159 0.429679
0.656306 0.181353 0.302831
0.798337 0.198154 0.314427
0.880354 0.210773 0.314137
0.972320 0.170932 0.188540
0.129839 0.110460 0.452033
0.150927 0.119707 0.463554
0.195636 0.148913 0.484245
0.294575 0.208682 0.531991
0.471595 0.222004 0.466941
0.664912 0.198520 0.321843
0.804181 0.207156 0.325109
0.881025 0.220218 0.325017
0.974441 0.180819 0.193515
0.100725 0.236332 0.509178
0.145296 0.230991 0.529244
0.246006 0.227893 0.557443
0.342351 0.251530 0.569482
0.475654 0.272831 0.524163
0.668406 0.250996 0.375326
0.813947 0.241077 0.357488
0.880705 0.257130 0.359167
0.973785 0.225238 0.225101
0.107622 0.376059 0.546975
0.116411 0.375891 0.549233
0.189975 0.363394 0.552605
0.365621 0.355398 0.551736
0.509163 0.363424 0.539681
0.657984 0.365103 0.477913
0.802518 0.334981 0.424643
0.890837 0.340566 0.409094
0.960632 0.343618 0.333104
0.198749 0.514717 0.508446
0.207370 0.518227 0.508080
0.234638 0.525612 0.508782
0.329519 0.524071 0.515206
0.506203 0.513085 0.513542
0.651438 0.494774 0.500252
0.773983 0.481758 0.483970
0.890517 0.473121 0.456916
0.952834 0.471290 0.424186
0.300145 0.634775 0.495399
0.306264 0.637812 0.497704
0.319799 0.643381 0.498070
0.373236 0.646571 0.483177
0.478233 0.644480 0.480507
0.620813 0.634943 0.474495
0.757336 0.621637 0.467536
0.876265 0.609110 0.464790
0.950744 0.604578 0.449760
0.400397 0.726268 0.368887
0.407279 0.727901 0.371923
0.430137 0.730495 0.375189
0.472175 0.734890 0.378729
0.529427 0.745006 0.406897
0.599237 0.760327 0.455985
0.729870 0.756603 0.461051
0.862074 0.749432 0.456718
0.942779 0.734859 0.459846
0.529046 0.817243 0.277836
0.533242 0.819440 0.284154
0.545083 0.826230 0.300404
0.565377 0.837781 0.328420
0.593912 0.852979 0.369986
0.632792 0.872160 0.422065
0.692912 0.889052 0.464744
0.819287 0.886580 0.464759
0.908415 0.883482 0.475196
0.623011 0.894789 0.332540
0.626825 0.897139 0.336584
0.634974 0.902174 0.345159
0.650278 0.911147 0.359487
0.672953 0.924437 0.376638
0.705180 0.941894 0.401678
0.744732 0.961501 0.432136
0.793256 0.977707 0.457847
0.837629 0.978164 0.473121
0.137881 0.114763 0.463508
0.157000 0.128298 0.480446
0.219013 0.178286 0.545571
0.315984 0.245701 0.648020
0.407004 0.284337 0.708293
0.516548 0.297795 0.650507
0.776043 0.238056 0.387610
0.863996 0.244404 0.361334
0.930175 0.230549 0.295918
0.163363 0.158419 0.506676
0.190249 0.172763 0.531823
0.256596 0.217212 0.599542
0.332387 0.257099 0.668391
0.418189 0.291646 0.718761
0.520592 0.309178 0.665064
0.779110 0.251606 0.401663
0.863554 0.256657 0.373449
0.931365 0.245762 0.306584
0.177981 0.267002 0.601999
0.230396 0.258976 0.628946
0.295964 0.261540 0.669184
0.368338 0.279225 0.705333
0.446021 0.311711 0.730297
0.537591 0.344442 0.690455
0.780270 0.299733 0.453056
0.865690 0.287388 0.398764
0.931853 0.295964 0.345235
0.137758 0.373053 0.681483
0.157885 0.370123 0.690852
0.250843 0.357321 0.702266
0.387991 0.355428 0.703853
0.501915 0.369955 0.709483
0.598764 0.413138 0.689220
0.751034 0.399832 0.562509
0.873838 0.361746 0.449256
0.934295 0.385733 0.416846
0.195651 0.507530 0.686107
0.204349 0.510155 0.684260
0.237995 0.510170 0.680430
0.346868 0.505348 0.677852
0.517311 0.506813 0.674617
0.651881 0.504311 0.667689
0.752148 0.512596 0.627314
0.876112 0.503548 0.558892
0.937972 0.501717 0.519371
0.290150 0.646677 0.634058
0.294820 0.650401 0.634562
0.306096 0.657069 0.638483
0.354665 0.660807 0.644282
0.482216 0.653223 0.646494
0.636759 0.643153 0.644297
0.767269 0.630640 0.634821
0.882307 0.620661 0.618753
0.944823 0.616648 0.590249
0.329671 0.773983 0.706126
0.331441 0.775921 0.707683
0.337591 0.780468 0.710323
0.359869 0.786313 0.707088
0.478187 0.776074 0.659709
0.624384 0.764614 0.617029
0.746975 0.760739 0.612253
0.874266 0.748470 0.603326
0.947677 0.739925 0.593332
0.469291 0.838895 0.591699
0.477806 0.840421 0.587121
0.499184 0.843656 0.576165
0.541878 0.849561 0.556542
0.608118 0.856092 0.537224
0.676493 0.864820 0.541299
0.737072 0.880308 0.582055
0.841978 0.881453 0.591348
0.931075 0.875731 0.597528
0.640070 0.899947 0.410742
0.643091 0.901564 0.413596
0.651606 0.906050 0.421744
0.667292 0.913893 0.437415
0.693843 0.926665 0.464042
0.728420 0.943175 0.499504
0.766415 0.961746 0.533593
0.813611 0.975753 0.569940
0.866407 0.973800 0.596033
0.215991 0.214099 0.594644
0.250446 0.233799 0.632319
0.306294 0.264927 0.691142
0.366232 0.291676 0.745983
0.426291 0.313191 0.777981
0.478096 0.344182 0.799557
0.599374 0.383825 0.754742
0.828305 0.308263 0.460883
0.889433 0.294713 0.393194
0.251255 0.254582 0.653300
0.277424 0.263050 0.677653
0.320806 0.278660 0.715541
0.376425 0.299474 0.760250
0.434241 0.318807 0.784802
0.488502 0.354345 0.807584
0.607141 0.397177 0.766461
0.826200 0.321141 0.476783
0.891157 0.307927 0.403815
0.278447 0.304219 0.727337
0.306783 0.303227 0.742565
0.341772 0.308858 0.765743
0.395972 0.317113 0.786633
0.459586 0.338399 0.802762
0.523430 0.386206 0.824552
0.624582 0.431022 0.792950
0.817487 0.362615 0.528084
0.899016 0.347066 0.430655
0.189105 0.386801 0.790509
0.214954 0.382238 0.798886
0.312810 0.375921 0.810941
0.422736 0.385428 0.825803
0.519265 0.398611 0.831312
0.586862 0.440803 0.836728
0.660121 0.478157 0.804471
0.803159 0.448432 0.626749
0.912749 0.434211 0.500649
0.177768 0.506493 0.833265
0.192401 0.507912 0.834012
0.255573 0.505776 0.826337
0.386069 0.507271 0.823316
0.541436 0.515572 0.822095
0.650584 0.520485 0.822782
0.715175 0.548501 0.806729
0.825925 0.561410 0.727062
0.915343 0.546029 0.610956
0.299763 0.623011 0.808164
0.306065 0.625956 0.807568
0.324300 0.633265 0.805829
0.371603 0.639765 0.803479
0.490394 0.640116 0.801328
0.651652 0.642496 0.797391
0.767651 0.643137 0.793057
0.860472 0.645075 0.751675
0.921386 0.641917 0.689204
0.335149 0.780880 0.741573
0.337209 0.782650 0.743954
0.343481 0.787091 0.751141
0.363592 0.792889 0.765393
0.447974 0.789517 0.780377
0.599878 0.779141 0.778546
0.760479 0.767071 0.768276
0.884276 0.753689 0.753079
0.943481 0.756512 0.736187
0.400946 0.855344 0.797238
0.404456 0.857038 0.798825
0.418494 0.862623 0.803540
0.444785 0.871122 0.809033
0.498680 0.882109 0.810834
0.605509 0.886824 0.785779
0.757687 0.878080 0.733928
0.864836 0.877790 0.729335
0.946593 0.870848 0.730282
0.592126 0.902647 0.666590
0.598291 0.903807 0.663966
0.619745 0.908263 0.658671
0.655970 0.916213 0.651041
0.707774 0.927062 0.634470
0.760174 0.940444 0.631647
0.806332 0.955596 0.655848
0.849332 0.968200 0.695048
0.894713 0.967239 0.710201
0.302953 0.298238 0.736919
0.320745 0.302907 0.750927
0.350744 0.314122 0.775479
0.390005 0.320485 0.793240
0.440787 0.335714 0.809277
0.495094 0.370825 0.833585
0.562982 0.426108 0.858915
0.665126 0.460060 0.813184
0.819257 0.402747 0.590967
0.315541 0.311406 0.758801
0.332708 0.314336 0.769757
0.356893 0.321279 0.786175
0.394278 0.325505 0.799084
0.449714 0.343297 0.816449
0.506279 0.381323 0.840421
0.573312 0.435187 0.862776
0.669535 0.473274 0.826627
0.812619 0.424079 0.623331
0.313848 0.343679 0.798199
0.335332 0.338949 0.799786
0.365805 0.338720 0.806104
0.411933 0.347173 0.819089
0.476875 0.368154 0.836164
0.538705 0.411582 0.856733
0.602152 0.461662 0.873579
0.679606 0.505440 0.860136
0.804181 0.478584 0.699535
0.222950 0.419532 0.863310
0.257923 0.416403 0.867353
0.352422 0.411154 0.867079
0.440635 0.415396 0.862043
0.531182 0.428229 0.868864
0.594049 0.466453 0.883055
0.651026 0.510582 0.894972
0.709758 0.552056 0.895323
0.808927 0.556390 0.787076
0.149310 0.513085 0.955795
0.159487 0.516503 0.955871
0.208225 0.525353 0.948135
0.415854 0.528695 0.912734
0.572808 0.537499 0.910796
0.659815 0.547616 0.920104
0.709346 0.575479 0.920150
0.762219 0.605066 0.901808
0.834791 0.614771 0.816175
0.280659 0.620768 0.928527
0.287999 0.624552 0.930282
0.307836 0.632074 0.933928
0.364019 0.635996 0.938262
0.508125 0.639155 0.930190
0.672190 0.648768 0.926833
0.765270 0.653559 0.922759
0.817990 0.674388 0.898222
0.871199 0.687510 0.845151
0.375357 0.740597 0.870130
0.380819 0.741756 0.873548
0.396841 0.744930 0.882658
0.426673 0.749889 0.898466
0.482246 0.755795 0.911803
0.604074 0.759197 0.915587
0.771481 0.763775 0.911482
0.869291 0.765835 0.899214
0.917250 0.779263 0.865721
0.418784 0.863020 0.815259
0.424262 0.864866 0.817807
0.437812 0.869245 0.824872
0.466331 0.876020 0.837980
0.515450 0.883711 0.858701
0.591089 0.889403 0.882780
0.718593 0.888136 0.894316
0.874723 0.878965 0.880323
0.952483 0.875334 0.865446
0.542565 0.905669 0.859052
0.547768 0.906966 0.860655
0.564019 0.911025 0.864652
0.591043 0.916686 0.869932
0.629053 0.924315 0.873655
0.695369 0.935409 0.864836
0.794965 0.950240 0.842924
0.885328 0.958145 0.833143
0.940536 0.955856 0.853605
0.329808 0.340597 0.803006
0.345403 0.335637 0.800153
0.366995 0.335073 0.804105
0.399542 0.339101 0.812879
0.456428 0.356161 0.829236
0.511696 0.391974 0.851011
0.573968 0.442054 0.872877
0.642008 0.500053 0.894347
0.695674 0.544091 0.906752
0.327016 0.347875 0.810849
0.343938 0.342641 0.808133
0.370733 0.340398 0.809567
0.405722 0.346487 0.819455
0.466285 0.365179 0.836088
0.522652 0.402686 0.856901
0.583581 0.452079 0.878157
0.650858 0.509453 0.898909
0.699306 0.550820 0.912322
0.303151 0.382147 0.845441
0.329107 0.377310 0.843946
0.374090 0.371633 0.838773
0.423880 0.378134 0.843641
0.491524 0.392462 0.853635
0.553323 0.432547 0.872236
0.612360 0.482307 0.892988
0.672419 0.531640 0.909514
0.716121 0.570733 0.921523
0.180621 0.491737 0.959655
0.198459 0.488045 0.956207
0.258961 0.474174 0.939269
0.406867 0.447776 0.894820
0.540810 0.451942 0.882795
0.606149 0.489860 0.901213
0.656123 0.532204 0.919142
0.706996 0.569818 0.926940
0.742260 0.600671 0.929702
0.126925 0.538766 0.997162
0.132509 0.541390 0.997360
0.148028 0.549126 0.997635
0.241276 0.559747 0.983474
0.579522 0.553384 0.931624
0.662699 0.568109 0.941665
0.706020 0.592599 0.947234
0.746853 0.618494 0.943877
0.782437 0.643534 0.932937
0.219394 0.611460 0.990188
0.228687 0.616464 0.989715
0.254002 0.626596 0.990051
0.311543 0.639445 0.988876
0.531182 0.647959 0.970245
0.697581 0.657572 0.971237
0.758801 0.670466 0.972869
0.795422 0.693217 0.962478
0.832914 0.714260 0.943893
0.400519 0.713176 0.969421
0.405753 0.715816 0.970871
0.417563 0.722179 0.975051
0.438605 0.733196 0.981674
0.475944 0.746761 0.990082
0.602518 0.756222 0.990555
0.783642 0.765850 0.984634
0.850477 0.776944 0.975738
0.884657 0.794446 0.958267
0.468482 0.837995 0.894865
0.473457 0.839048 0.898177
0.492042 0.838300 0.913695
0.522347 0.839826 0.935592
0.560037 0.844816 0.958907
0.611948 0.855985 0.975784
0.721767 0.868406 0.982162
0.871824 0.875425 0.975769
0.936675 0.886412 0.957916
0.561791 0.910857 0.868940
0.568139 0.912261 0.870939
0.582818 0.915496 0.875410
0.608377 0.920455 0.884260
0.647089 0.926513 0.900999
0.706737 0.934585 0.928786
0.776913 0.945098 0.954284
0.885191 0.954452 0.955795
0.956039 0.956878 0.948623
