app/src/main/assets/filters/lumix_vivid.cube
# Created from lumix_vivid.plut
LUT_3D_SIZE 5
DOMAIN_MIN 0.0 0.0 0.0
DOMAIN_MAX 1.0 1.0 1.0
0.038575 0.030777 0.041260
0.277180 0.016815 0.027344
0.551614 0.036530 0.066072
0.812787 0.129595 0.145098
0.983856 0.089403 0.054231
0.046860 0.227985 0.010422
0.204730 0.220783 0.003799
0.531548 0.194736 0.035584
0.808728 0.202991 0.115465
0.966278 0.149264 0.075013
0.183383 0.496498 0.004791
0.200977 0.512505 0.003250
0.469703 0.500984 0.002472
0.764752 0.467170 0.016068
0.936645 0.488533 0.172992
0.379568 0.713390 0.057969
0.396979 0.724514 0.065339
0.454185 0.759777 0.068559
0.687602 0.766537 0.032898
0.942596 0.744518 0.012238
0.625086 0.887968 0.112963
0.634745 0.893614 0.111009
0.671504 0.915023 0.129381
0.743771 0.950362 0.162661
0.814023 0.970687 0.215900
0.067933 0.057389 0.268299
0.219440 0.066667 0.205936
0.559182 0.070405 0.150790
0.812284 0.132219 0.182605
0.986893 0.101411 0.083177
0.017273 0.243519 0.230259
0.212161 0.219059 0.222431
0.546166 0.181903 0.192874
0.825376 0.180850 0.187701
0.980575 0.152102 0.110399
0.178424 0.487709 0.078019
0.222446 0.503410 0.115328
0.482216 0.495369 0.121630
0.766186 0.463432 0.153613
0.952728 0.468132 0.242420
0.381094 0.713283 0.077394
0.398520 0.724178 0.093462
0.456886 0.756847 0.155138
0.701961 0.758907 0.178561
0.938613 0.739986 0.138598
0.622080 0.887633 0.152193
0.634028 0.894865 0.157778
0.672694 0.917693 0.176318
0.746059 0.954574 0.206668
0.826612 0.972274 0.245441
0.110735 0.089815 0.426490
0.172229 0.120806 0.456672
0.476432 0.203159 0.429679
0.798337 0.198154 0.314427
0.972320 0.170932 0.188540
0.100725 0.236332 0.509178
0.246006 0.227893 0.557443
0.475654 0.272831 0.524163
0.813947 0.241077 0.357488
0.973785 0.225238 0.225101
0.198749 0.514717 0.508446
0.234638 0.525612 0.508782
0.506203 0.513085 0.513542
0.773983 0.481758 0.483970
0.952834 0.471290 0.424186
0.400397 0.726268 0.368887
0.430137 0.730495 0.375189
0.529427 0.745006 0.406897
0.729870 0.756603 0.461051
0.942779 0.734859 0.459846
0.623011 0.894789 0.332540
0.634974 0.902174 0.345159
0.672953 0.924437 0.376638
0.744732 0.961501 0.432136
0.837629 0.978164 0.473121
0.215991 0.214099 0.594644
0.306294 0.264927 0.691142
0.426291 0.313191 0.777981
0.599374 0.383825 0.754742
0.889433 0.294713 0.393194
0.278447 0.304219 0.727337
0.341772 0.308858 0.765743
0.459586 0.338399 0.802762
0.624582 0.431022 0.792950
0.899016 0.347066 0.430655
0.177768 0.506493 0.833265
0.255573 0.505776 0.826337
0.541436 0.515572 0.822095
0.715175 0.548501 0.806729
0.915343 0.546029 0.610956
0.335149 0.780880 0.741573
0.343481 0.787091 0.751141
0.447974 0.789517 0.780377
0.760479 0.767071 0.768276
0.943481 0.756512 0.736187
0.592126 0.902647 0.666590
0.619745 0.908263 0.658671
0.707774 0.927062 0.634470
0.806332 0.955596 0.655848
0.894713 0.967239 0.710201
0.329808 0.340597 0.803006
0.366995 0.335073 0.804105
0.456428 0.356161 0.829236
0.573968 0.442054 0.872877
0.695674 0.544091 0.906752
0.303151 0.382147 0.845441
0.374090 0.371633 0.838773
0.491524 0.392462 0.853635
0.612360 0.482307 0.892988
0.716121 0.570733 0.921523
0.126925 0.538766 0.997162
0.148028 0.549126 0.997635
0.579522 0.553384 0.931624
0.706020 0.592599 0.947234
0.782437 0.643534 0.932937
0.400519 0.713176 0.969421
0.417563 0.722179 0.975051
0.475944 0.746761 0.990082
0.783642 0.765850 0.984634
0.884657 0.794446 0.958267
0.561791 0.910857 0.868940
0.582818 0.915496 0.875410
0.647089 0.926513 0.900999
0.776913 0.945098 0.954284
0.956039 0.956878 0.948623
