app/src/main/assets/filters/monochrome.cube
# Created from monochrome.plut
LUT_3D_SIZE 33
DOMAIN_MIN 0.0 0.0 0.0
DOMAIN_MAX 1.0 1.0 1.0
0.023835 0.023835 0.023835
0.022187 0.022187 0.022187
0.026352 0.026352 0.026352
0.038071 0.038071 0.038071
0.047150 0.047150 0.047150
0.064027 0.064027 0.064027
0.073396 0.073396 0.073396
0.085801 0.085801 0.085801
0.093889 0.093889 0.093889
0.100633 0.100633 0.100633
0.116106 0.116106 0.116106
0.124926 0.124926 0.124926
0.135256 0.135256 0.135256
0.148425 0.148425 0.148425
0.161730 0.161730 0.161730
0.170092 0.170092 0.170092
0.181186 0.181186 0.181186
0.193606 0.193606 0.193606
0.211521 0.211521 0.211521
0.228748 0.228748 0.228748
0.253422 0.253422 0.253422
0.274846 0.274846 0.274846
0.298955 0.298955 0.298955
0.316716 0.316716 0.316716
0.329381 0.329381 0.329381
0.344701 0.344701 0.344701
0.360388 0.360388 0.360388
0.376852 0.376852 0.376852
0.394751 0.394751 0.394751
0.413062 0.413062 0.413062
0.430014 0.430014 0.430014
0.447257 0.447257 0.447257
0.449332 0.449332 0.449332
0.037873 0.037873 0.037873
0.037186 0.037186 0.037186
0.040909 0.040909 0.040909
0.048112 0.048112 0.048112
0.057115 0.057115 0.057115
0.067094 0.067094 0.067094
0.077455 0.077455 0.077455
0.086366 0.086366 0.086366
0.096361 0.096361 0.096361
0.104982 0.104982 0.104982
0.117159 0.117159 0.117159
0.126101 0.126101 0.126101
0.136797 0.136797 0.136797
0.149340 0.149340 0.149340
0.161700 0.161700 0.161700
0.172229 0.172229 0.172229
0.185122 0.185122 0.185122
0.198901 0.198901 0.198901
0.220188 0.220188 0.220188
0.235813 0.235813 0.235813
0.261402 0.261402 0.261402
0.281147 0.281147 0.281147
0.299687 0.299687 0.299687
0.316976 0.316976 0.316976
0.329473 0.329473 0.329473
0.344778 0.344778 0.344778
0.359854 0.359854 0.359854
0.383093 0.383093 0.383093
0.399802 0.399802 0.399802
0.413092 0.413092 0.413092
0.433433 0.433433 0.433433
0.447974 0.447974 0.447974
0.455146 0.455146 0.455146
0.047059 0.047059 0.047059
0.051225 0.051225 0.051225
0.055650 0.055650 0.055650
0.056855 0.056855 0.056855
0.068925 0.068925 0.068925
0.076890 0.076890 0.076890
0.087999 0.087999 0.087999
0.097169 0.097169 0.097169
0.105791 0.105791 0.105791
0.113878 0.113878 0.113878
0.122713 0.122713 0.122713
0.132570 0.132570 0.132570
0.141726 0.141726 0.141726
0.153323 0.153323 0.153323
0.165148 0.165148 0.165148
0.178210 0.178210 0.178210
0.193057 0.193057 0.193057
0.205844 0.205844 0.205844
0.224140 0.224140 0.224140
0.243839 0.243839 0.243839
0.269230 0.269230 0.269230
0.289662 0.289662 0.289662
0.303197 0.303197 0.303197
0.323888 0.323888 0.323888
0.330236 0.330236 0.330236
0.347967 0.347967 0.347967
0.367178 0.367178 0.367178
0.383154 0.383154 0.383154
0.402396 0.402396 0.402396
0.417990 0.417990 0.417990
0.441306 0.441306 0.441306
0.448020 0.448020 0.448020
0.459007 0.459007 0.459007
0.060563 0.060563 0.060563
0.062913 0.062913 0.062913
0.070161 0.070161 0.070161
0.075090 0.075090 0.075090
0.080232 0.080232 0.080232
0.088045 0.088045 0.088045
0.099077 0.099077 0.099077
0.110460 0.110460 0.110460
0.114748 0.114748 0.114748
0.120058 0.120058 0.120058
0.135531 0.135531 0.135531
0.147555 0.147555 0.147555
0.156497 0.156497 0.156497
0.165148 0.165148 0.165148
0.176776 0.176776 0.176776
0.190661 0.190661 0.190661
0.205661 0.205661 0.205661
0.220356 0.220356 0.220356
0.237491 0.237491 0.237491
0.262242 0.262242 0.262242
0.278508 0.278508 0.278508
0.293294 0.293294 0.293294
0.308766 0.308766 0.308766
0.329366 0.329366 0.329366
0.336431 0.336431 0.336431
0.353033 0.353033 0.353033
0.370214 0.370214 0.370214
0.385122 0.385122 0.385122
0.405997 0.405997 0.405997
0.425895 0.425895 0.425895
0.442496 0.442496 0.442496
0.445136 0.445136 0.445136
0.460655 0.460655 0.460655
0.073274 0.073274 0.073274
0.072251 0.072251 0.072251
0.081178 0.081178 0.081178
0.089982 0.089982 0.089982
0.093584 0.093584 0.093584
0.100649 0.100649 0.100649
0.107713 0.107713 0.107713
0.120607 0.120607 0.120607
0.129641 0.129641 0.129641
0.134340 0.134340 0.134340
0.141604 0.141604 0.141604
0.158999 0.158999 0.158999
0.168917 0.168917 0.168917
0.185000 0.185000 0.185000
0.199817 0.199817 0.199817
0.213291 0.213291 0.213291
0.223545 0.223545 0.223545
0.234623 0.234623 0.234623
0.260624 0.260624 0.260624
0.270649 0.270649 0.270649
0.290867 0.290867 0.290867
0.304631 0.304631 0.304631
0.320714 0.320714 0.320714
0.328252 0.328252 0.328252
0.344549 0.344549 0.344549
0.359899 0.359899 0.359899
0.375891 0.375891 0.375891
0.392828 0.392828 0.392828
0.410590 0.410590 0.410590
0.430228 0.430228 0.430228
0.444434 0.444434 0.444434
0.451484 0.451484 0.451484
0.466590 0.466590 0.466590
0.091615 0.091615 0.091615
0.091066 0.091066 0.091066
0.092088 0.092088 0.092088
0.101595 0.101595 0.101595
0.107698 0.107698 0.107698
0.113710 0.113710 0.113710
0.125109 0.125109 0.125109
0.133684 0.133684 0.133684
0.138430 0.138430 0.138430
0.148760 0.148760 0.148760
0.154467 0.154467 0.154467
0.164523 0.164523 0.164523
0.175097 0.175097 0.175097
0.190127 0.190127 0.190127
0.210590 0.210590 0.210590
0.225330 0.225330 0.225330
0.240467 0.240467 0.240467
0.254002 0.254002 0.254002
0.269566 0.269566 0.269566
0.287968 0.287968 0.287968
0.302464 0.302464 0.302464
0.311925 0.311925 0.311925
0.325322 0.325322 0.325322
0.341482 0.341482 0.341482
0.355383 0.355383 0.355383
0.365896 0.365896 0.365896
0.379110 0.379110 0.379110
0.394446 0.394446 0.394446
0.417975 0.417975 0.417975
0.430579 0.430579 0.430579
0.444785 0.444785 0.444785
0.456107 0.456107 0.456107
0.470115 0.470115 0.470115
0.112779 0.112779 0.112779
0.111162 0.111162 0.111162
0.108705 0.108705 0.108705
0.110658 0.110658 0.110658
0.120607 0.120607 0.120607
0.127565 0.127565 0.127565
0.133791 0.133791 0.133791
0.144976 0.144976 0.144976
0.152834 0.152834 0.152834
0.158892 0.158892 0.158892
0.168276 0.168276 0.168276
0.180667 0.180667 0.180667
0.188510 0.188510 0.188510
0.207385 0.207385 0.207385
0.219669 0.219669 0.219669
0.229648 0.229648 0.229648
0.243595 0.243595 0.243595
0.260243 0.260243 0.260243
0.276204 0.276204 0.276204
0.295476 0.295476 0.295476
0.309941 0.309941 0.309941
0.322377 0.322377 0.322377
0.337575 0.337575 0.337575
0.353994 0.353994 0.353994
0.361151 0.361151 0.361151
0.373999 0.373999 0.373999
0.392340 0.392340 0.392340
0.406897 0.406897 0.406897
0.422309 0.422309 0.422309
0.441321 0.441321 0.441321
0.451530 0.451530 0.451530
0.465476 0.465476 0.465476
0.475059 0.475059 0.475059
0.137484 0.137484 0.137484
0.135637 0.135637 0.135637
0.133349 0.133349 0.133349
0.131136 0.131136 0.131136
0.132372 0.132372 0.132372
0.140795 0.140795 0.140795
0.147082 0.147082 0.147082
0.155566 0.155566 0.155566
0.171572 0.171572 0.171572
0.180529 0.180529 0.180529
0.185245 0.185245 0.185245
0.191119 0.191119 0.191119
0.203922 0.203922 0.203922
0.223804 0.223804 0.223804
0.235920 0.235920 0.235920
0.252277 0.252277 0.252277
0.264775 0.264775 0.264775
0.281971 0.281971 0.281971
0.299062 0.299062 0.299062
0.309728 0.309743 0.309728
0.327687 0.327687 0.327687
0.339086 0.339086 0.339086
0.350622 0.350622 0.350622
0.359075 0.359075 0.359075
0.370687 0.370687 0.370687
0.384237 0.384237 0.384237
0.400992 0.400992 0.400992
0.418540 0.418540 0.418540
0.432914 0.432914 0.432914
0.449012 0.449012 0.449012
0.458152 0.458152 0.458152
0.465599 0.465599 0.465599
0.478614 0.478614 0.478614
0.162448 0.162448 0.162448
0.160555 0.160555 0.160555
0.159060 0.159060 0.159060
0.156802 0.156802 0.156802
0.153109 0.153109 0.153109
0.154360 0.154360 0.154360
0.163302 0.163302 0.163302
0.168093 0.168093 0.168093
0.178119 0.178119 0.178119
0.198352 0.198352 0.198352
0.201221 0.201221 0.201221
0.213809 0.213809 0.213809
0.221668 0.221668 0.221668
0.231510 0.231510 0.231510
0.247700 0.247700 0.247700
0.257099 0.257099 0.257099
0.275303 0.275303 0.275303
0.299641 0.299641 0.299641
0.321538 0.321538 0.321538
0.338720 0.338720 0.338720
0.346792 0.346792 0.346792
0.357244 0.357244 0.357244
0.362524 0.362524 0.362524
0.368765 0.368765 0.368765
0.382528 0.382528 0.382528
0.395666 0.395666 0.395666
0.407462 0.407462 0.407462
0.427619 0.427619 0.427619
0.444907 0.444907 0.444907
0.451194 0.451194 0.451194
0.462226 0.462226 0.462226
0.470619 0.470619 0.470619
0.482948 0.482948 0.482948
0.190494 0.190494 0.190494
0.185382 0.185382 0.185382
0.181704 0.181704 0.181704
0.179080 0.179080 0.179080
0.176333 0.176333 0.176333
0.174975 0.174975 0.174975
0.178454 0.178454 0.178454
0.186313 0.186313 0.186313
0.193805 0.193805 0.193805
0.206088 0.206088 0.206088
0.218036 0.218036 0.218036
0.228840 0.228840 0.228840
0.239857 0.239857 0.239857
0.250752 0.250752 0.250752
0.258335 0.258335 0.258335
0.264546 0.264546 0.264546
0.285451 0.285451 0.285451
0.308675 0.308675 0.308675
0.327977 0.327977 0.327977
0.347616 0.347616 0.347616
0.353323 0.353323 0.353323
0.362692 0.362692 0.362692
0.367498 0.367498 0.367498
0.377783 0.377783 0.377783
0.394598 0.394598 0.394598
0.402594 0.402594 0.402594
0.420661 0.420661 0.420661
0.448249 0.448249 0.448249
0.452705 0.452705 0.452705
0.455222 0.455222 0.455222
0.468742 0.468742 0.468742
0.484260 0.484260 0.484260
0.498360 0.498360 0.498360
0.209781 0.209781 0.209781
0.209064 0.209064 0.209064
0.204974 0.204974 0.204974
0.200458 0.200458 0.200458
0.198428 0.198428 0.198428
0.194415 0.194415 0.194415
0.193286 0.193286 0.193286
0.202045 0.202045 0.202045
0.210422 0.210422 0.210422
0.218250 0.218250 0.218250
0.232181 0.232181 0.232181
0.242390 0.242390 0.242390
0.257618 0.257618 0.257618
0.265782 0.265782 0.265782
0.278035 0.278035 0.278035
0.290730 0.290730 0.290730
0.295796 0.295796 0.295796
0.312093 0.312093 0.312093
0.328389 0.328389 0.328389
0.351934 0.351934 0.351934
0.368200 0.368200 0.368200
0.378546 0.378546 0.378546
0.390112 0.390112 0.390112
0.394354 0.394354 0.394354
0.406439 0.406439 0.406439
0.421134 0.421134 0.421134
0.442741 0.442741 0.442741
0.450370 0.450370 0.450370
0.460044 0.460044 0.460044
0.467720 0.467720 0.467720
0.487343 0.487343 0.487343
0.496437 0.496437 0.496437
0.511589 0.511589 0.511589
0.219959 0.219959 0.219959
0.219989 0.219989 0.219989
0.220020 0.220020 0.220020
0.220539 0.220539 0.220539
0.220737 0.220737 0.220737
0.220356 0.220356 0.220356
0.218006 0.217990 0.217990
0.219898 0.219898 0.219898
0.225940 0.225940 0.225940
0.235599 0.235599 0.235599
0.247456 0.247456 0.247456
0.259083 0.259083 0.259083
0.268345 0.268345 0.268345
0.285313 0.285313 0.285313
0.293202 0.293202 0.293202
0.310155 0.310155 0.310155
0.328740 0.328740 0.328740
0.326452 0.326452 0.326452
0.336919 0.336919 0.336904
0.348196 0.348196 0.348196
0.370962 0.370962 0.370962
0.380896 0.380896 0.380896
0.407919 0.407919 0.407919
0.416190 0.416190 0.416190
0.430076 0.430076 0.430076
0.443763 0.443763 0.443763
0.461463 0.461463 0.461463
0.465904 0.465904 0.465904
0.480903 0.480903 0.480903
0.487572 0.487572 0.487572
0.500450 0.500450 0.500450
0.521141 0.521141 0.521141
0.524224 0.524224 0.524224
0.232593 0.232593 0.232593
0.234348 0.234348 0.234348
0.236561 0.236561 0.236561
0.234607 0.234607 0.234607
0.241032 0.241032 0.241032
0.242527 0.242527 0.242527
0.243961 0.243961 0.243961
0.242924 0.242924 0.242924
0.244907 0.244907 0.244907
0.254078 0.254078 0.254078
0.264469 0.264469 0.264469
0.278630 0.278630 0.278630
0.290730 0.290730 0.290730
0.302510 0.302510 0.302510
0.319600 0.319600 0.319600
0.324193 0.324193 0.324193
0.334417 0.334417 0.334417
0.349355 0.349355 0.349355
0.358419 0.358419 0.358419
0.367559 0.367559 0.367559
0.380941 0.380941 0.380941
0.392279 0.392279 0.392279
0.408667 0.408667 0.408667
0.423072 0.423072 0.423072
0.451057 0.451057 0.451057
0.471031 0.471031 0.471031
0.482628 0.482628 0.482628
0.492409 0.492409 0.492409
0.495308 0.495308 0.495308
0.513161 0.513161 0.513161
0.525185 0.525185 0.525185
0.539574 0.539574 0.539574
0.554086 0.554086 0.554086
0.251743 0.251743 0.251743
0.251926 0.251926 0.251926
0.254185 0.254185 0.254185
0.255650 0.255650 0.255650
0.262898 0.262898 0.262898
0.267445 0.267445 0.267445
0.269764 0.269764 0.269764
0.267979 0.267979 0.267979
0.269474 0.269474 0.269474
0.276005 0.276005 0.276005
0.283375 0.283375 0.283375
0.295323 0.295323 0.295323
0.311803 0.311803 0.311803
0.326284 0.326284 0.326284
0.338796 0.338796 0.338796
0.343694 0.343694 0.343694
0.353658 0.353658 0.353658
0.359945 0.359945 0.359945
0.366339 0.366339 0.366339
0.381033 0.381033 0.381033
0.400397 0.400397 0.400397
0.411017 0.411017 0.411017
0.419348 0.419348 0.419348
0.437034 0.437034 0.437034
0.451942 0.451942 0.451942
0.472801 0.472801 0.472801
0.492638 0.492638 0.492638
0.515785 0.515785 0.515785
0.528862 0.528862 0.528862
0.539803 0.539803 0.539803
0.553429 0.553429 0.553429
0.569085 0.569085 0.569085
0.569085 0.569085 0.569085
0.272297 0.272297 0.272297
0.274281 0.274281 0.274281
0.279606 0.279606 0.279606
0.283238 0.283238 0.283238
0.284581 0.284581 0.284581
0.292729 0.292729 0.292729
0.299596 0.299596 0.299596
0.299062 0.299062 0.299062
0.299535 0.299535 0.299535
0.303273 0.303273 0.303273
0.308644 0.308644 0.308644
0.316899 0.316899 0.316899
0.329427 0.329427 0.329427
0.341329 0.341329 0.341329
0.348379 0.348379 0.348379
0.358892 0.358892 0.358892
0.381567 0.381567 0.381567
0.389746 0.389746 0.389746
0.389181 0.389181 0.389181
0.394919 0.394919 0.394919
0.423804 0.423804 0.423804
0.440131 0.440131 0.440131
0.450553 0.450553 0.450553
0.451957 0.451957 0.451957
0.466285 0.466285 0.466285
0.475929 0.475929 0.475929
0.504570 0.504570 0.504570
0.527306 0.527306 0.527306
0.534371 0.534371 0.534371
0.549508 0.549508 0.549508
0.576104 0.576104 0.576104
0.591440 0.591440 0.591440
0.593820 0.593820 0.593820
0.306981 0.306981 0.306981
0.310582 0.310582 0.310582
0.311803 0.311803 0.311803
0.318227 0.318227 0.318227
0.322240 0.322240 0.322240
0.328740 0.328740 0.328740
0.331197 0.331197 0.331197
0.332555 0.332555 0.332555
0.329122 0.329122 0.329122
0.334646 0.334646 0.334646
0.338933 0.338933 0.338933
0.346014 0.346014 0.346014
0.353994 0.353994 0.353994
0.369375 0.369375 0.369375
0.373526 0.373526 0.373526
0.376822 0.376822 0.376822
0.394858 0.394858 0.394858
0.410559 0.410559 0.410559
0.417853 0.417853 0.417853
0.423270 0.423270 0.423270
0.435660 0.435660 0.435660
0.455802 0.455802 0.455802
0.479011 0.479011 0.479011
0.479011 0.479011 0.479011
0.485603 0.485603 0.485603
0.493385 0.493385 0.493385
0.515602 0.515602 0.515602
0.534463 0.534463 0.534463
0.550744 0.550744 0.550744
0.568170 0.568170 0.568170
0.590600 0.590600 0.590600
0.603326 0.603326 0.603326
0.611170 0.611170 0.611170
0.347158 0.347158 0.347158
0.349477 0.349477 0.349477
0.352743 0.352743 0.352743
0.352255 0.352255 0.352255
0.358846 0.358846 0.358846
0.357763 0.357763 0.357763
0.358038 0.358038 0.358038
0.362051 0.362051 0.362051
0.366766 0.366766 0.366766
0.366888 0.366888 0.366888
0.371328 0.371328 0.371328
0.376379 0.376379 0.376379
0.383886 0.383886 0.383886
0.391333 0.391333 0.391333
0.404089 0.404089 0.404089
0.407721 0.407721 0.407721
0.415290 0.415290 0.415290
0.427680 0.427680 0.427680
0.441840 0.441840 0.441840
0.444892 0.444892 0.444892
0.454215 0.454215 0.454215
0.472969 0.472969 0.472969
0.492302 0.492302 0.492302
0.504341 0.504341 0.504341
0.510460 0.510460 0.510460
0.513313 0.513313 0.513313
0.522621 0.522621 0.522621
0.549248 0.549248 0.549248
0.567895 0.567895 0.567895
0.584237 0.584237 0.584237
0.597757 0.597757 0.597757
0.609720 0.609720 0.609720
0.613886 0.613886 0.613886
0.384955 0.384955 0.384955
0.388830 0.388830 0.388830
0.388846 0.388846 0.388846
0.389273 0.389273 0.389273
0.392050 0.392050 0.392050
0.391379 0.391379 0.391379
0.392874 0.392874 0.392874
0.391470 0.391470 0.391470
0.392645 0.392645 0.392645
0.394995 0.394995 0.394995
0.402029 0.402029 0.402029
0.406912 0.406912 0.406912
0.413993 0.413993 0.413993
0.420951 0.420951 0.420951
0.433066 0.433066 0.433066
0.440589 0.440589 0.440589
0.452628 0.452628 0.452628
0.461234 0.461234 0.461234
0.472328 0.472328 0.472328
0.471962 0.471962 0.471962
0.475074 0.475074 0.475074
0.482765 0.482765 0.482765
0.501869 0.501869 0.501869
0.517983 0.517983 0.517983
0.526696 0.526696 0.526696
0.534157 0.534157 0.534157
0.548608 0.548608 0.548608
0.559045 0.559045 0.559045
0.581476 0.581476 0.581476
0.598047 0.598047 0.598047
0.606561 0.606561 0.606561
0.633494 0.633494 0.633494
0.642664 0.642664 0.642664
0.410834 0.410834 0.410834
0.410849 0.410849 0.410849
0.410864 0.410864 0.410864
0.410895 0.410895 0.410895
0.411093 0.411093 0.411093
0.411170 0.411170 0.411170
0.409201 0.409201 0.409201
0.416281 0.416281 0.416281
0.416266 0.416266 0.416266
0.424292 0.424292 0.424292
0.426734 0.426734 0.426734
0.434119 0.434119 0.434119
0.442481 0.442481 0.442481
0.450614 0.450614 0.450614
0.457527 0.457527 0.457527
0.466835 0.466835 0.466835
0.475410 0.475410 0.475410
0.487846 0.487846 0.487846
0.503166 0.503166 0.503166
0.519570 0.519570 0.519570
0.524712 0.524712 0.524712
0.523461 0.523461 0.523461
0.519020 0.519020 0.519020
0.532982 0.532982 0.532982
0.549874 0.549874 0.549874
0.555917 0.555917 0.555917
0.573632 0.573632 0.573632
0.584176 0.584176 0.584176
0.610071 0.610071 0.610071
0.622293 0.622293 0.622293
0.638880 0.638880 0.638880
0.647044 0.647044 0.647044
0.656596 0.656596 0.656596
0.424613 0.424613 0.424613
0.424643 0.424643 0.424643
0.427741 0.427741 0.427741
0.427787 0.427787 0.427787
0.427848 0.427848 0.427848
0.430426 0.430426 0.430426
0.435569 0.435569 0.435569
0.438132 0.438132 0.438132
0.442954 0.442954 0.442954
0.445792 0.445792 0.445792
0.448295 0.448295 0.448295
0.459998 0.459998 0.459998
0.468757 0.468757 0.468757
0.473884 0.473884 0.473884
0.482704 0.482704 0.482704
0.488319 0.488319 0.488319
0.499519 0.499519 0.499519
0.510460 0.510460 0.510460
0.521889 0.521889 0.521889
0.538811 0.538811 0.538811
0.549416 0.549416 0.549416
0.555016 0.555016 0.555016
0.551675 0.551675 0.551675
0.567712 0.567712 0.567712
0.575204 0.575204 0.575204
0.583062 0.583062 0.583062
0.597604 0.597604 0.597604
0.611887 0.611887 0.611887
0.629313 0.629313 0.629313
0.632486 0.632486 0.632486
0.651911 0.651911 0.651911
0.664515 0.664515 0.664515
0.668101 0.668101 0.668101
0.449851 0.449851 0.449851
0.449866 0.449866 0.449866
0.453162 0.453162 0.453162
0.453208 0.453208 0.453208
0.455238 0.455238 0.455238
0.455314 0.455314 0.455314
0.461631 0.461631 0.461631
0.465324 0.465324 0.465324
0.472435 0.472435 0.472435
0.477897 0.477897 0.477897
0.486381 0.486381 0.486381
0.488838 0.488838 0.488838
0.498131 0.498131 0.498131
0.504082 0.504082 0.504082
0.514168 0.514168 0.514168
0.518959 0.518959 0.518959
0.529656 0.529656 0.529656
0.531716 0.531716 0.531716
0.545617 0.545617 0.545617
0.553048 0.553048 0.553048
0.561242 0.561242 0.561242
0.572671 0.572671 0.572671
0.574319 0.574319 0.574319
0.591028 0.591028 0.591028
0.604547 0.604547 0.604547
0.620401 0.620401 0.620401
0.639979 0.639979 0.639979
0.650813 0.650813 0.650813
0.648981 0.648981 0.648981
0.657542 0.657542 0.657542
0.670024 0.670024 0.670024
0.679301 0.679301 0.679301
0.681712 0.681712 0.681712
0.482521 0.482521 0.482521
0.482536 0.482536 0.482536
0.482567 0.482567 0.482567
0.486412 0.486412 0.486412
0.486458 0.486458 0.486458
0.491173 0.491173 0.491173
0.494942 0.494942 0.494942
0.495048 0.495048 0.495048
0.502953 0.502953 0.502953
0.508476 0.508476 0.508476
0.510323 0.510323 0.510323
0.519493 0.519493 0.519493
0.517784 0.517784 0.517784
0.530938 0.530938 0.530938
0.538094 0.538094 0.538094
0.544747 0.544747 0.544747
0.553063 0.553063 0.553063
0.560693 0.560693 0.560693
0.567819 0.567819 0.567819
0.577691 0.577691 0.577691
0.587366 0.587366 0.587366
0.593896 0.593896 0.593896
0.601587 0.601587 0.601587
0.610071 0.610071 0.610071
0.613291 0.613291 0.613291
0.629618 0.629618 0.629618
0.647929 0.647929 0.647929
0.672831 0.672831 0.672831
0.681407 0.681407 0.681407
0.685832 0.685832 0.685832
0.695918 0.695918 0.695918
0.693874 0.693874 0.693874
0.699825 0.699825 0.699825
0.504128 0.504128 0.504128
0.504158 0.504158 0.504158
0.504189 0.504189 0.504189
0.504219 0.504219 0.504219
0.509895 0.509895 0.509895
0.517113 0.517113 0.517113
0.519982 0.519982 0.519982
0.520104 0.520104 0.520104
0.527153 0.527153 0.527153
0.530770 0.530770 0.530770
0.534112 0.534112 0.534112
0.542809 0.542809 0.542809
0.548089 0.548089 0.548089
0.556710 0.556710 0.556710
0.568994 0.568994 0.568994
0.575784 0.575784 0.575784
0.580606 0.580606 0.580606
0.584924 0.584924 0.584924
0.601785 0.601785 0.601785
0.611093 0.611093 0.611093
0.615946 0.615946 0.615946
0.617212 0.617212 0.617212
0.620417 0.620417 0.620417
0.625834 0.625834 0.625834
0.633921 0.633921 0.633921
0.646250 0.646250 0.646250
0.651087 0.651087 0.651087
0.684703 0.684703 0.684703
0.697124 0.697124 0.697124
0.706264 0.706264 0.706264
0.712139 0.712139 0.712139
0.716533 0.716533 0.716533
0.710353 0.710353 0.710353
0.530480 0.530480 0.530480
0.530510 0.530510 0.530510
0.530526 0.530526 0.530526
0.530571 0.530571 0.530571
0.534951 0.534951 0.534951
0.537835 0.537835 0.537835
0.543328 0.543328 0.543328
0.546685 0.546685 0.546685
0.551751 0.551751 0.551751
0.551904 0.551904 0.551904
0.556268 0.556268 0.556268
0.562203 0.562203 0.562203
0.570001 0.570001 0.570001
0.585306 0.585306 0.585306
0.590692 0.590692 0.590692
0.601587 0.601587 0.601587
0.605798 0.605798 0.605798
0.621622 0.621622 0.621622
0.628824 0.628824 0.628824
0.638102 0.638102 0.638102
0.642374 0.642374 0.642374
0.647745 0.647745 0.647745
0.657923 0.657923 0.657923
0.658076 0.658076 0.658076
0.658518 0.658518 0.658518
0.662638 0.662638 0.662638
0.679133 0.679133 0.679133
0.694011 0.694011 0.694011
0.711437 0.711437 0.711437
0.716533 0.716533 0.716533
0.727474 0.727474 0.727474
0.731243 0.731243 0.731243
0.728130 0.728130 0.728130
0.559945 0.559945 0.559945
0.559960 0.559960 0.559960
0.559991 0.559991 0.559991
0.560021 0.560021 0.560021
0.563058 0.563058 0.563058
0.563119 0.563119 0.563119
0.569085 0.569085 0.569085
0.571695 0.571695 0.571695
0.573251 0.573251 0.573251
0.582666 0.582666 0.582666
0.587213 0.587213 0.587213
0.593439 0.593439 0.593439
0.603983 0.603983 0.603983
0.607370 0.607370 0.607370
0.619516 0.619516 0.619516
0.625711 0.625711 0.625711
0.637751 0.637751 0.637751
0.650645 0.650645 0.650645
0.654963 0.654963 0.654963
0.658244 0.658244 0.658244
0.666560 0.666560 0.666560
0.674937 0.674937 0.674937
0.683177 0.683177 0.683177
0.687755 0.687755 0.687755
0.694636 0.694636 0.694636
0.697337 0.697337 0.697337
0.702800 0.702800 0.702800
0.705058 0.705058 0.705058
0.723445 0.723445 0.723445
0.728847 0.728847 0.728847
0.735775 0.735775 0.735775
0.736355 0.736355 0.736355
0.740093 0.740093 0.740093
0.584878 0.584878 0.584878
0.584909 0.584909 0.584909
0.584924 0.584924 0.584924
0.584955 0.584955 0.584955
0.584985 0.584985 0.584985
0.589929 0.589929 0.589929
0.592828 0.592828 0.592828
0.595026 0.595026 0.595026
0.599237 0.599237 0.599237
0.604715 0.604715 0.604715
0.609705 0.609705 0.609705
0.618372 0.618372 0.618372
0.627100 0.627100 0.627100
0.635615 0.635615 0.635615
0.643931 0.643931 0.643931
0.652567 0.652567 0.652567
0.664164 0.664164 0.664164
0.665446 0.665446 0.665446
0.680888 0.680888 0.680888
0.686122 0.686122 0.686122
0.694453 0.694453 0.694453
0.696513 0.696513 0.696513
0.708339 0.708339 0.708339
0.718669 0.718669 0.718669
0.724941 0.724941 0.724941
0.727733 0.727733 0.727733
0.737926 0.737926 0.737926
0.744686 0.744686 0.744686
0.750027 0.750027 0.750027
0.750866 0.750866 0.750866
0.749447 0.749447 0.749447
0.746944 0.746944 0.746944
0.746960 0.746960 0.746960
0.606226 0.606226 0.606226
0.608469 0.608469 0.608469
0.611582 0.611582 0.611582
0.611765 0.611765 0.611765
0.612772 0.612772 0.612772
0.612802 0.612802 0.612802
0.622080 0.622080 0.622080
0.625376 0.625376 0.625376
0.625437 0.625437 0.625437
0.631571 0.631571 0.631571
0.642267 0.642267 0.642267
0.647578 0.647578 0.647578
0.651408 0.651408 0.651408
0.657633 0.657633 0.657633
0.664820 0.664820 0.664820
0.673152 0.673152 0.673152
0.686625 0.686625 0.686625
0.700725 0.700725 0.700725
0.712978 0.712978 0.712978
0.716228 0.716228 0.716228
0.724300 0.724300 0.724300
0.729686 0.729686 0.729686
0.732891 0.732891 0.732891
0.743740 0.743740 0.743740
0.750011 0.750011 0.750011
0.751965 0.751965 0.751965
0.760250 0.760250 0.760250
