app/src/main/assets/filters/monochrome.cube
# Created from monochrome.plut
LUT_3D_SIZE 5
DOMAIN_MIN 0.0 0.0 0.0
DOMAIN_MAX 1.0 1.0 1.0
0.023835 0.023835 0.023835
0.093889 0.093889 0.093889
0.181186 0.181186 0.181186
0.329381 0.329381 0.329381
0.449332 0.449332 0.449332
0.162448 0.162448 0.162448
0.178119 0.178119 0.178119
0.275303 0.275303 0.275303
0.382528 0.382528 0.382528
0.482948 0.482948 0.482948
0.347158 0.347158 0.347158
0.366766 0.366766 0.366766
0.415290 0.415290 0.415290
0.510460 0.510460 0.510460
0.613886 0.613886 0.613886
0.559945 0.559945 0.559945
0.573251 0.573251 0.573251
0.637751 0.637751 0.637751
0.694636 0.694636 0.694636
0.740093 0.740093 0.740093
0.743389 0.743389 0.743389
0.757366 0.757366 0.757366
0.800687 0.800687 0.800687
0.850828 0.850828 0.850828
0.864088 0.864088 0.864088
0.153262 0.153262 0.153262
0.176867 0.176867 0.176867
0.239155 0.239155 0.239155
0.330800 0.330800 0.330800
0.427253 0.427253 0.427253
0.175845 0.175845 0.175845
0.215778 0.215778 0.215778
0.280934 0.280934 0.280934
0.360830 0.360830 0.360830
0.481514 0.481514 0.481514
0.249027 0.249027 0.249027
0.335088 0.335088 0.335088
0.439948 0.439948 0.439948
0.517082 0.517082 0.517082
0.605829 0.605829 0.605829
0.548348 0.548348 0.548348
0.570748 0.570748 0.570748
0.621820 0.621820 0.621820
0.695232 0.695232 0.695232
0.744976 0.744976 0.744976
0.736675 0.736675 0.736675
0.751339 0.751339 0.751339
0.797177 0.797177 0.797177
0.846265 0.846265 0.846265
0.868437 0.868437 0.868437
0.236484 0.236484 0.236484
0.256931 0.256931 0.256931
0.352712 0.352712 0.352712
0.371817 0.371817 0.371817
0.499214 0.499214 0.499214
0.245106 0.245106 0.245106
0.298329 0.298329 0.298329
0.401846 0.401846 0.401846
0.480964 0.480964 0.480964
0.501762 0.501762 0.501762
0.419074 0.419074 0.419074
0.430014 0.430014 0.430014
0.518715 0.518715 0.518715
0.582071 0.582071 0.582071
0.605310 0.605310 0.605310
0.510384 0.510384 0.510384
0.529335 0.529335 0.529335
0.623850 0.623850 0.623850
0.730434 0.730434 0.730434
0.765209 0.765209 0.765209
0.728649 0.728649 0.728649
0.738399 0.738399 0.738399
0.791028 0.791028 0.791028
0.841871 0.841871 0.841871
0.886229 0.886229 0.886229
0.285084 0.285084 0.285084
0.303441 0.303441 0.303441
0.393713 0.393713 0.393713
0.486824 0.486824 0.486824
0.514351 0.514351 0.514351
0.344961 0.344961 0.344961
0.360037 0.360037 0.360037
0.451301 0.451301 0.451301
0.543923 0.543923 0.543923
0.529320 0.529320 0.529320
0.488350 0.488350 0.488350
0.512245 0.512245 0.512245
0.611032 0.611032 0.611032
0.653712 0.653712 0.653712
0.588251 0.588251 0.588251
0.668437 0.668437 0.668437
0.672206 0.672206 0.672206
0.713207 0.713207 0.713207
0.794598 0.794598 0.794598
0.807233 0.807233 0.807233
0.701122 0.701122 0.701122
0.725383 0.725383 0.725383
0.815457 0.815457 0.815457
0.888228 0.888228 0.888228
0.943175 0.943175 0.943175
0.348363 0.348363 0.348363
0.368597 0.368597 0.368597
0.442496 0.442496 0.442496
0.517494 0.517494 0.517494
0.601129 0.601129 0.601129
0.397406 0.397406 0.397406
0.428992 0.428992 0.428992
0.487327 0.487327 0.487327
0.544106 0.544106 0.544106
0.626886 0.626886 0.626886
0.566903 0.566903 0.566903
0.600458 0.600458 0.600458
0.668849 0.668849 0.668849
0.687419 0.687419 0.687419
0.701106 0.701106 0.701106
0.678859 0.678859 0.678859
0.696056 0.696056 0.696056
0.750942 0.750942 0.750942
0.856016 0.856016 0.856016
0.828397 0.828397 0.828397
0.730449 0.730449 0.730449
0.736873 0.736873 0.736873
0.781888 0.781888 0.781888
0.872663 0.872663 0.872663
0.986969 0.986969 0.986969
