app/src/main/assets/filters/monochrome.cube
# Created from monochrome.plut
LUT_3D_SIZE 9
DOMAIN_MIN 0.0 0.0 0.0
DOMAIN_MAX 1.0 1.0 1.0
0.023835 0.023835 0.023835
0.047150 0.047150 0.047150
0.093889 0.093889 0.093889
0.135256 0.135256 0.135256
0.181186 0.181186 0.181186
0.253422 0.253422 0.253422
0.329381 0.329381 0.329381
0.394751 0.394751 0.394751
0.449332 0.449332 0.449332
0.073274 0.073274 0.073274
0.093584 0.093584 0.093584
0.129641 0.129641 0.129641
0.168917 0.168917 0.168917
0.223545 0.223545 0.223545
0.290867 0.290867 0.290867
0.344549 0.344549 0.344549
0.410590 0.410590 0.410590
0.466590 0.466590 0.466590
0.162448 0.162448 0.162448
0.153109 0.153109 0.153109
0.178119 0.178119 0.178119
0.221668 0.221668 0.221668
0.275303 0.275303 0.275303
0.346792 0.346792 0.346792
0.382528 0.382528 0.382528
0.444907 0.444907 0.444907
0.482948 0.482948 0.482948
0.232593 0.232593 0.232593
0.241032 0.241032 0.241032
0.244907 0.244907 0.244907
0.290730 0.290730 0.290730
0.334417 0.334417 0.334417
0.380941 0.380941 0.380941
0.451057 0.451057 0.451057
0.495308 0.495308 0.495308
0.554086 0.554086 0.554086
0.347158 0.347158 0.347158
0.358846 0.358846 0.358846
0.366766 0.366766 0.366766
0.383886 0.383886 0.383886
0.415290 0.415290 0.415290
0.454215 0.454215 0.454215
0.510460 0.510460 0.510460
0.567895 0.567895 0.567895
0.613886 0.613886 0.613886
0.449851 0.449851 0.449851
0.455238 0.455238 0.455238
0.472435 0.472435 0.472435
0.498131 0.498131 0.498131
0.529656 0.529656 0.529656
0.561242 0.561242 0.561242
0.604547 0.604547 0.604547
0.648981 0.648981 0.648981
0.681712 0.681712 0.681712
0.559945 0.559945 0.559945
0.563058 0.563058 0.563058
0.573251 0.573251 0.573251
0.603983 0.603983 0.603983
0.637751 0.637751 0.637751
0.666560 0.666560 0.666560
0.694636 0.694636 0.694636
0.723445 0.723445 0.723445
0.740093 0.740093 0.740093
0.661219 0.661219 0.661219
0.662577 0.662577 0.662577
0.678126 0.678126 0.678126
0.689631 0.689631 0.689631
0.729595 0.729595 0.729595
0.760678 0.760678 0.760678
0.806729 0.806729 0.806729
0.810712 0.810712 0.810712
0.810742 0.810742 0.810742
0.743389 0.743389 0.743389
0.747341 0.747341 0.747341
0.757366 0.757366 0.757366
0.776547 0.776547 0.776547
0.800687 0.800687 0.800687
0.822904 0.822904 0.822904
0.850828 0.850828 0.850828
0.867353 0.867353 0.867353
0.864088 0.864088 0.864088
0.069612 0.069612 0.069612
0.103212 0.103212 0.103212
0.127352 0.127352 0.127352
0.179049 0.179049 0.179049
0.192447 0.192447 0.192447
0.246342 0.246342 0.246342
0.299367 0.299367 0.299367
0.378164 0.378164 0.378164
0.446738 0.446738 0.446738
0.087968 0.087968 0.087968
0.111131 0.111131 0.111131
0.129564 0.129564 0.129564
0.162158 0.162158 0.162158
0.207248 0.207248 0.207248
0.260487 0.260487 0.260487
0.338186 0.338186 0.338186
0.408530 0.408530 0.408530
0.462242 0.462242 0.462242
0.144350 0.144350 0.144350
0.146471 0.146471 0.146471
0.186084 0.186084 0.186084
0.213977 0.213977 0.213977
0.270527 0.270527 0.270527
0.322942 0.322942 0.322942
0.375952 0.375952 0.375952
0.443381 0.443381 0.443381
0.489799 0.489799 0.489799
0.220035 0.220035 0.220035
0.214084 0.214084 0.214084
0.248112 0.248112 0.248112
0.289982 0.289982 0.289982
0.342199 0.342199 0.342199
0.372625 0.372625 0.372625
0.442069 0.442069 0.442069
0.488380 0.488380 0.488380
0.532647 0.532647 0.532647
0.311040 0.311040 0.311040
0.335561 0.335561 0.335561
0.365347 0.365347 0.365332
0.383444 0.383444 0.383444
0.419409 0.419409 0.419409
0.463600 0.463600 0.463600
0.509743 0.509743 0.509743
0.571359 0.571359 0.571359
0.614786 0.614786 0.614786
0.447166 0.447166 0.447166
0.450568 0.450568 0.450568
0.464240 0.464240 0.464240
0.492287 0.492287 0.492287
0.525017 0.525017 0.525017
0.560525 0.560525 0.560525
0.604608 0.604608 0.604608
0.649668 0.649668 0.649668
0.683680 0.683680 0.683680
0.552712 0.552712 0.552712
0.558068 0.558068 0.558068
0.575296 0.575296 0.575296
0.598840 0.598840 0.598840
0.637201 0.637201 0.637201
0.668086 0.668086 0.668086
0.697536 0.697536 0.697536
0.724880 0.724880 0.724880
0.742107 0.742107 0.742107
0.656306 0.656306 0.656306
0.659297 0.659297 0.659297
0.667964 0.667964 0.667964
0.688457 0.688457 0.688457
0.726726 0.726726 0.726726
0.762173 0.762173 0.762173
0.805219 0.805219 0.805219
0.810788 0.810788 0.810788
0.811719 0.811719 0.811719
0.741390 0.741390 0.741390
0.741466 0.741466 0.741466
0.758389 0.758389 0.758389
0.779614 0.779614 0.779614
0.798749 0.798749 0.798749
0.822416 0.822416 0.822416
0.848142 0.848142 0.848142
0.866926 0.866926 0.866926
0.864179 0.864179 0.864179
0.153262 0.153262 0.153262
0.161639 0.161639 0.161639
0.176867 0.176867 0.176867
0.192294 0.192294 0.192294
0.239155 0.239155 0.239155
0.252140 0.252140 0.252140
0.330800 0.330800 0.330800
0.376898 0.376898 0.376898
0.427253 0.427253 0.427253
0.112444 0.112444 0.112444
0.141222 0.141222 0.141222
0.168612 0.168612 0.168612
0.186740 0.186740 0.186740
0.259922 0.259922 0.259922
0.279973 0.279973 0.279973
0.339528 0.339528 0.339528
0.378836 0.378836 0.378836
0.435447 0.435447 0.435447
0.175845 0.175845 0.175845
0.182650 0.182650 0.182650
0.215778 0.215778 0.215778
0.243580 0.243580 0.243580
0.280934 0.280934 0.280934
0.321324 0.321324 0.321324
0.360830 0.360830 0.360830
0.416007 0.416007 0.416007
0.481514 0.481514 0.481514
0.235706 0.235706 0.235706
0.236622 0.236622 0.236622
0.266590 0.266590 0.266590
0.320821 0.320821 0.320821
0.367941 0.367941 0.367941
0.397223 0.397223 0.397223
0.438849 0.438849 0.438849
0.486900 0.486900 0.486900
0.530907 0.530907 0.530907
0.249027 0.249027 0.249027
0.257191 0.257191 0.257191
0.335088 0.335088 0.335088
0.391501 0.391501 0.391501
0.439948 0.439948 0.439948
0.483772 0.483772 0.483772
0.517082 0.517082 0.517082
0.571527 0.571527 0.571527
0.605829 0.605829 0.605829
0.447059 0.447059 0.447059
0.447272 0.447272 0.447272
0.460136 0.460136 0.460136
0.480812 0.480812 0.480812
0.521965 0.521965 0.521965
0.560769 0.560769 0.560769
0.609049 0.609049 0.609049
0.658152 0.658152 0.658152
0.682017 0.682017 0.682017
0.548348 0.548348 0.548348
0.550088 0.550088 0.550088
0.570748 0.570748 0.570748
0.593240 0.593240 0.593240
0.621820 0.621820 0.621820
0.667460 0.667460 0.667460
0.695232 0.695232 0.695232
0.735668 0.735668 0.735668
0.744976 0.744976 0.744976
0.652735 0.652735 0.652735
0.652842 0.652842 0.652842
0.662501 0.662501 0.662501
0.685008 0.685008 0.685008
0.720562 0.720562 0.720562
0.759670 0.759670 0.759670
0.798169 0.798169 0.798169
0.813672 0.813672 0.813672
0.811719 0.811719 0.811719
0.736675 0.736675 0.736675
0.742596 0.742596 0.742596
0.751339 0.751339 0.751339
0.762066 0.762066 0.762066
0.797177 0.797177 0.797177
0.820417 0.820417 0.820417
0.846265 0.846265 0.846265
0.870176 0.870176 0.870176
0.868437 0.868437 0.868437
0.197650 0.197650 0.197650
0.203738 0.203738 0.203738
0.214893 0.214893 0.214893
0.276127 0.276127 0.276127
0.257801 0.257801 0.257801
0.269505 0.269505 0.269505
0.381277 0.381277 0.381277
0.447517 0.447517 0.447517
0.475105 0.475105 0.475105
0.177234 0.177234 0.177234
0.188525 0.188525 0.188525
0.230777 0.230777 0.230777
0.273808 0.273808 0.273808
0.274693 0.274693 0.274693
0.276493 0.276493 0.276493
0.405524 0.405524 0.405524
0.456062 0.456062 0.456062
0.485130 0.485130 0.485130
0.218692 0.218692 0.218692
0.215747 0.215747 0.215747
0.250431 0.250431 0.250431
0.280430 0.280430 0.280430
0.356558 0.356558 0.356558
0.358267 0.358267 0.358267
0.443091 0.443091 0.443091
0.469657 0.469657 0.469657
0.482689 0.482689 0.482689
0.278187 0.278187 0.278187
0.290410 0.290410 0.290410
0.313771 0.313771 0.313771
0.366430 0.366430 0.366430
0.399100 0.399100 0.399100
0.431510 0.431510 0.431510
0.467369 0.467369 0.467369
0.495811 0.495811 0.495811
0.549844 0.549844 0.549844
0.340078 0.340078 0.340078
0.344991 0.344991 0.344991
0.385290 0.385290 0.385290
0.427283 0.427283 0.427283
0.477150 0.477150 0.477150
0.511330 0.511330 0.511330
0.549691 0.549691 0.549691
0.575647 0.575647 0.575647
0.588861 0.588861 0.588861
0.415335 0.415335 0.415335
0.445304 0.445304 0.445304
0.458549 0.458549 0.458549
0.487892 0.487892 0.487892
0.539910 0.539910 0.539910
0.587366 0.587366 0.587366
0.633234 0.633234 0.633234
0.651377 0.651377 0.651377
0.695460 0.695460 0.695460
0.527382 0.527382 0.527382
0.544289 0.544289 0.544289
0.556085 0.556085 0.556085
0.589929 0.589929 0.589929
0.619348 0.619348 0.619348
0.669337 0.669337 0.669337
0.703868 0.703868 0.703868
0.739162 0.739162 0.739162
0.746426 0.746426 0.746426
0.643137 0.643137 0.643137
0.653223 0.653223 0.653223
0.663935 0.663935 0.663935
0.674006 0.674006 0.674006
0.707393 0.707393 0.707393
0.750042 0.750042 0.750042
0.800549 0.800549 0.800549
0.822171 0.822171 0.822171
0.807309 0.807309 0.807309
0.732448 0.732448 0.732448
0.735622 0.735622 0.735622
0.746395 0.746395 0.746395
0.764691 0.764691 0.764691
0.790311 0.790311 0.790311
0.813428 0.813428 0.813428
0.846235 0.846235 0.846235
0.871366 0.871366 0.871366
0.872953 0.872953 0.872953
0.236484 0.236484 0.236484
0.245029 0.245029 0.245029
0.256931 0.256931 0.256931
0.284886 0.284886 0.284886
0.352712 0.352712 0.352712
0.307424 0.307424 0.307424
0.371817 0.371817 0.371817
0.483146 0.483146 0.483146
0.499214 0.499214 0.499214
0.239582 0.239582 0.239582
0.245853 0.245853 0.245853
0.270909 0.270909 0.270909
0.308980 0.308980 0.308980
0.372564 0.372564 0.372564
0.320745 0.320745 0.320745
0.403479 0.403479 0.403479
0.485115 0.485115 0.485115
0.499443 0.499443 0.499443
0.245106 0.245106 0.245106
0.268177 0.268177 0.268177
0.298329 0.298329 0.298329
0.340841 0.340841 0.340841
0.401846 0.401846 0.401846
0.406973 0.406973 0.406973
0.480964 0.480964 0.480964
0.498604 0.498604 0.498604
0.501762 0.501762 0.501762
0.342855 0.342855 0.342855
0.340002 0.340002 0.340002
0.351064 0.351064 0.351064
0.403861 0.403861 0.403861
0.445747 0.445747 0.445747
0.484016 0.484016 0.484016
0.510445 0.510445 0.510445
0.521233 0.521233 0.521233
0.529854 0.529854 0.529854
0.419074 0.419074 0.419074
0.422950 0.422950 0.422950
0.430014 0.430014 0.430014
0.469474 0.469474 0.469474
0.518715 0.518715 0.518715
0.548836 0.548836 0.548836
0.582071 0.582071 0.582071
0.615396 0.615396 0.615396
0.605310 0.605310 0.605310
0.524193 0.524193 0.524193
0.521553 0.521553 0.521553
0.521813 0.521813 0.521813
0.523919 0.523919 0.523919
0.574899 0.574899 0.574899
0.623468 0.623468 0.623468
0.659266 0.659266 0.659266
0.684184 0.684184 0.684184
0.685908 0.685908 0.685908
0.510384 0.510384 0.510384
0.512520 0.512520 0.512520
0.529335 0.529335 0.529335
0.569390 0.569390 0.569390
0.623850 0.623850 0.623850
0.682963 0.682963 0.682963
0.730434 0.730434 0.730434
0.771695 0.771695 0.771695
0.765209 0.765209 0.765209
0.642039 0.642039 0.642039
0.648386 0.648386 0.648386
0.655375 0.655375 0.655375
0.674159 0.674159 0.674159
0.706249 0.706249 0.706249
0.751720 0.751720 0.751720
0.798901 0.798901 0.798901
0.829801 0.829801 0.829801
0.820661 0.820661 0.820661
0.728649 0.728649 0.728649
0.728786 0.728786 0.728786
0.738399 0.738399 0.738399
0.758816 0.758816 0.758816
0.791028 0.791028 0.791028
0.815442 0.815442 0.815442
0.841871 0.841871 0.841871
0.872358 0.872358 0.872358
0.886229 0.886229 0.886229
0.268070 0.268070 0.268070
0.270207 0.270207 0.270207
0.283330 0.283330 0.283330
0.306081 0.306081 0.306081
0.363027 0.363027 0.363027
0.439734 0.439734 0.439734
0.500938 0.500938 0.500938
0.484504 0.484504 0.484504
0.506157 0.506157 0.506157
0.279927 0.279927 0.279927
0.281071 0.281071 0.281071
0.294118 0.294118 0.294118
0.325383 0.325383 0.325383
0.396765 0.396765 0.396765
0.451575 0.451575 0.451575
0.512963 0.512963 0.512963
0.498054 0.498054 0.498054
0.509529 0.509529 0.509529
0.315496 0.315496 0.315496
0.320836 0.320836 0.320836
0.334081 0.334081 0.334081
0.375311 0.375311 0.375311
0.438666 0.438666 0.438666
0.478157 0.478157 0.478157
0.525444 0.525444 0.525444
0.510613 0.510613 0.510613
0.517815 0.517815 0.517815
0.373251 0.373251 0.373251
0.390417 0.390417 0.390417
0.406394 0.406394 0.406394
0.451408 0.451408 0.451408
0.490364 0.490364 0.490364
0.534859 0.534859 0.534859
0.522972 0.522972 0.522972
0.538094 0.538094 0.538094
0.532464 0.532464 0.532464
0.453513 0.453513 0.453513
0.455756 0.455756 0.455756
0.467491 0.467491 0.467491
0.501183 0.501183 0.501183
0.556191 0.556191 0.556191
0.590097 0.590097 0.590097
0.599466 0.599466 0.599466
0.602823 0.602823 0.602823
0.581064 0.581064 0.581064
0.558984 0.558984 0.558984
0.558846 0.558846 0.558846
0.554879 0.554879 0.554879
0.569879 0.569879 0.569879
0.612940 0.612940 0.612940
0.662455 0.662455 0.662455
0.693706 0.693706 0.693706
0.721386 0.721386 0.721386
0.712993 0.712993 0.712993
0.606775 0.606775 0.606775
0.607065 0.607065 0.607065
0.613504 0.613504 0.613504
0.636561 0.636561 0.636561
0.664714 0.664714 0.664714
0.709728 0.709728 0.709728
0.760464 0.760464 0.760464
0.792798 0.792798 0.792798
0.791333 0.791333 0.791333
0.622095 0.622095 0.622095
0.623255 0.623255 0.623255
0.636652 0.636652 0.636652
0.669688 0.669688 0.669688
0.730114 0.730114 0.730114
0.784192 0.784192 0.784192
0.825055 0.825055 0.825055
0.852659 0.852659 0.852659
0.861448 0.861448 0.861448
0.719799 0.719799 0.719799
0.723369 0.723369 0.723369
0.734676 0.734676 0.734676
0.767407 0.767407 0.767407
0.780255 0.780255 0.780255
0.817823 0.817823 0.817823
0.847501 0.847501 0.847501
0.891417 0.891417 0.891417
0.910521 0.910521 0.910521
0.285084 0.285084 0.285084
0.295033 0.295033 0.295033
0.303441 0.303441 0.303441
0.331044 0.331044 0.331044
0.393713 0.393713 0.393713
0.452384 0.452384 0.452384
0.486824 0.486824 0.486824
0.548333 0.548333 0.548333
0.514351 0.514351 0.514351
0.292515 0.292515 0.292515
0.301457 0.301457 0.301457
0.316777 0.316777 0.316777
0.348959 0.348959 0.348959
0.414038 0.414038 0.414038
0.469825 0.469825 0.469825
0.496284 0.496284 0.496284
0.558373 0.558373 0.558373
0.514794 0.514794 0.514794
0.344961 0.344961 0.344961
0.349020 0.349020 0.349020
0.360037 0.360037 0.360037
0.402945 0.402945 0.402945
0.451301 0.451301 0.451301
0.496025 0.496025 0.496025
0.543923 0.543923 0.543923
0.566003 0.566003 0.566003
0.529320 0.529320 0.529320
0.413123 0.413123 0.413123
0.422873 0.422873 0.422873
0.461570 0.461570 0.461570
0.489525 0.489525 0.489525
0.518181 0.518181 0.518181
0.556634 0.556634 0.556634
0.593149 0.593149 0.593149
0.592126 0.592126 0.592126
0.547082 0.547082 0.547082
0.488350 0.488350 0.488350
0.490410 0.490410 0.490410
0.512245 0.512245 0.512245
0.544732 0.544732 0.544732
0.611032 0.611032 0.611032
0.642451 0.642451 0.642451
0.653712 0.653712 0.653712
0.616419 0.616419 0.616419
0.588251 0.588251 0.588251
0.578332 0.578332 0.578332
0.581216 0.581216 0.581216
0.592477 0.592477 0.592477
0.609552 0.609552 0.609552
0.652354 0.652354 0.652354
0.706340 0.706340 0.706340
0.733471 0.733471 0.733471
0.736919 0.736919 0.736919
0.709789 0.709789 0.709789
0.668437 0.668437 0.668437
0.668772 0.668772 0.668772
0.672206 0.672206 0.672206
0.681361 0.681361 0.681361
0.713207 0.713207 0.713207
0.754116 0.754116 0.754116
0.794598 0.794598 0.794598
0.813916 0.813916 0.813916
0.807233 0.807233 0.807233
0.685054 0.685054 0.685054
0.686976 0.686976 0.686976
0.695048 0.695048 0.695048
0.708766 0.708766 0.708766
0.732998 0.732998 0.732998
0.787320 0.787320 0.787320
0.831373 0.831373 0.831373
0.876295 0.876295 0.876295
0.889189 0.889189 0.889189
0.701122 0.701122 0.701122
0.701183 0.701183 0.701183
0.725383 0.725383 0.725383
0.767910 0.767910 0.767910
0.815457 0.815457 0.815457
0.848936 0.848936 0.848936
0.888228 0.888228 0.888228
0.911955 0.911955 0.911955
0.943175 0.943175 0.943175
0.308385 0.308385 0.308385
0.314183 0.314183 0.314183
0.338628 0.338628 0.338628
0.361486 0.361486 0.361486
0.419638 0.419638 0.419638
0.465675 0.465675 0.465675
0.502602 0.502602 0.502602
0.547951 0.547951 0.547951
0.590921 0.590921 0.590921
0.328832 0.328832 0.328832
0.336461 0.336461 0.336461
0.350301 0.350301 0.350301
0.385443 0.385443 0.385443
0.431296 0.431296 0.431296
0.474708 0.474708 0.474708
0.522072 0.522072 0.522072
0.559426 0.559426 0.559426
0.599359 0.599359 0.599359
0.362783 0.362783 0.362783
0.369146 0.369146 0.369146
0.393500 0.393500 0.393500
0.431495 0.431495 0.431495
0.471504 0.471504 0.471504
0.507546 0.507546 0.507546
0.539895 0.539895 0.539895
0.594720 0.594720 0.594720
0.619287 0.619287 0.619287
0.463416 0.463416 0.463416
0.469169 0.469169 0.469169
0.480232 0.480232 0.480232
0.496666 0.496666 0.496666
0.526055 0.526055 0.526055
0.557076 0.557076 0.557076
0.609369 0.609369 0.609369
0.643977 0.643977 0.643977
0.655451 0.655451 0.655451
0.464576 0.464576 0.464576
0.474311 0.474311 0.474311
0.546883 0.546883 0.546883
0.604440 0.604440 0.604440
0.658350 0.658350 0.658350
0.679789 0.679789 0.679789
0.687968 0.687968 0.687968
0.703853 0.703853 0.703853
0.687114 0.687114 0.687114
0.605020 0.605020 0.605020
0.608286 0.608286 0.608286
0.620157 0.620157 0.620157
0.644297 0.644297 0.644297
0.681544 0.681544 0.681544
0.760357 0.760357 0.760357
0.771130 0.771130 0.771130
0.765133 0.765133 0.765133
0.731640 0.731640 0.731640
0.671794 0.671794 0.671794
0.677684 0.677684 0.677684
0.686137 0.686137 0.686137
0.706706 0.706706 0.706706
0.729976 0.729976 0.729976
0.771695 0.771695 0.771695
0.833173 0.833173 0.833173
0.838254 0.838254 0.838254
0.816251 0.816251 0.816251
0.703410 0.703410 0.703410
0.706310 0.706310 0.706310
0.709041 0.709041 0.709041
0.728206 0.728206 0.728206
0.758877 0.758877 0.758877
0.815076 0.815076 0.815076
0.866545 0.866545 0.866545
0.901427 0.901427 0.901427
0.902235 0.902235 0.902235
0.718959 0.718959 0.718959
0.720928 0.720928 0.720928
0.723796 0.723796 0.723796
0.733120 0.733120 0.733120
0.752941 0.752941 0.752941
0.801526 0.801526 0.801526
0.859129 0.859129 0.859129
0.934966 0.934966 0.934966
0.954894 0.954894 0.954894
0.348363 0.348363 0.348363
0.355322 0.355322 0.355322
0.368597 0.368597 0.368597
0.393164 0.393164 0.393164
0.442496 0.442496 0.442496
0.478065 0.478065 0.478065
0.517494 0.517494 0.517494
0.554696 0.554696 0.554696
0.601129 0.601129 0.601129
0.362310 0.362310 0.362310
0.363638 0.363638 0.363638
0.385061 0.385061 0.385061
0.410147 0.410147 0.410147
0.457298 0.457298 0.457298
0.489143 0.489143 0.489143
0.529000 0.529000 0.529000
0.563790 0.563790 0.563790
0.608164 0.608164 0.608164
0.397406 0.397406 0.397406
0.410346 0.410346 0.410346
0.428992 0.428992 0.428992
0.452979 0.452979 0.452979
0.487327 0.487327 0.487327
0.519997 0.519997 0.519997
0.544106 0.544106 0.544106
0.590173 0.590173 0.590173
0.626886 0.626886 0.626886
0.484443 0.484443 0.484443
0.485649 0.485649 0.485649
0.484764 0.484764 0.484764
0.500938 0.500938 0.500938
0.538598 0.538598 0.538598
0.566079 0.566079 0.566079
0.604868 0.604868 0.604868
0.637247 0.637247 0.637247
0.667750 0.667750 0.667750
0.566903 0.566903 0.566903
0.578454 0.578454 0.578454
0.600458 0.600458 0.600458
0.632029 0.632029 0.632029
0.668849 0.668849 0.668849
0.684886 0.684886 0.684886
0.687419 0.687419 0.687419
0.689677 0.689677 0.689677
0.701106 0.701106 0.701106
0.598489 0.598489 0.598489
0.600687 0.600687 0.600687
0.610391 0.610391 0.610391
0.661769 0.661769 0.661769
0.723064 0.723064 0.723064
0.763348 0.763348 0.763348
0.764187 0.764187 0.764187
0.754025 0.754025 0.754025
0.751110 0.751110 0.751110
0.678859 0.678859 0.678859
0.682521 0.682521 0.682521
0.696056 0.696056 0.696056
0.714534 0.714534 0.714534
0.750942 0.750942 0.750942
0.783886 0.783886 0.783886
0.856016 0.856016 0.856016
0.849409 0.849409 0.849409
0.828397 0.828397 0.828397
0.736156 0.736156 0.736156
0.744411 0.744411 0.744411
0.759121 0.759121 0.759121
0.774151 0.774151 0.774151
0.803357 0.803357 0.803357
0.831357 0.831357 0.831357
0.870680 0.870680 0.870680
0.921675 0.921675 0.921675
0.907988 0.907988 0.907988
0.730449 0.730449 0.730449
0.730602 0.730602 0.730602
0.736873 0.736873 0.736873
0.752209 0.752209 0.752209
0.781888 0.781888 0.781888
0.822904 0.822904 0.822904
0.872663 0.872663 0.872663
0.936065 0.936065 0.936065
0.986969 0.986969 0.986969
