app/src/main/assets/filters/Mosslight.cube
# Created by Desong
# Color profile: /System/Library/ColorSync/Profiles/sRGB Profile.icc
LUT_3D_SIZE 33
DOMAIN_MIN 0.0 0.0 0.0
DOMAIN_MAX 1.0 1.0 1.0
0.019379 0.039368 0.000183
0.023896 0.039307 0.000122
0.035065 0.039399 0.000000
0.054902 0.039216 0.000000
0.080964 0.039460 0.000092
0.108675 0.039368 0.000000
0.139010 0.039551 0.000000
0.170108 0.042298 0.000000
0.205234 0.043183 0.000000
0.240055 0.046326 0.000031
0.277958 0.047150 0.000031
0.317662 0.047211 0.000122
0.358404 0.049622 0.000275
0.397772 0.051118 0.000000
0.436530 0.051057 0.000031
0.474128 0.052247 0.000244
0.507652 0.054200 0.000031
0.538598 0.057160 0.000092
0.569482 0.060029 0.000061
0.599268 0.063874 0.000000
0.625452 0.069551 0.000122
0.650202 0.076295 0.000000
0.675624 0.085603 0.000000
0.698939 0.096742 0.000000
0.722225 0.107759 0.000061
0.744350 0.120668 0.000000
0.764706 0.136141 0.000000
0.787045 0.150637 0.000092
0.805936 0.162905 0.000092
0.820676 0.178286 0.000244
0.831601 0.193637 0.003998
0.835325 0.208408 0.007416
0.835325 0.215854 0.007630
0.019593 0.046967 0.000000
0.023804 0.047364 0.000000
0.035157 0.046998 0.000153
0.054292 0.046906 0.000214
0.077790 0.047181 0.000000
0.107973 0.047150 0.000244
0.139528 0.050599 0.000031
0.173312 0.050935 0.000214
0.208530 0.054047 0.000244
0.246647 0.055085 0.000275
0.285252 0.055970 0.000061
0.323980 0.058106 0.000214
0.361639 0.059022 0.000031
0.398505 0.059998 0.000122
0.436347 0.061952 0.000031
0.473945 0.062989 0.000244
0.507469 0.065064 0.000000
0.538384 0.066773 0.000214
0.569299 0.069001 0.000000
0.599176 0.073579 0.000000
0.625208 0.080446 0.000153
0.649958 0.088106 0.000031
0.675471 0.095857 0.000031
0.698726 0.103639 0.000000
0.722042 0.113710 0.000183
0.744106 0.128267 0.000000
0.764431 0.142977 0.000061
0.786770 0.155337 0.000092
0.805753 0.170687 0.000000
0.820554 0.185489 0.000397
0.831571 0.197818 0.004059
0.835325 0.212345 0.007416
0.835325 0.219852 0.007507
0.019440 0.058961 0.000305
0.020233 0.058900 0.000305
0.035126 0.058991 0.000000
0.053773 0.062348 0.000000
0.077333 0.062593 0.000122
0.105135 0.062654 0.000031
0.138552 0.065858 0.000122
0.174166 0.066651 0.000122
0.212131 0.069581 0.000000
0.250767 0.070558 0.000183
0.289586 0.070619 0.000000
0.328222 0.073365 0.000000
0.368536 0.074769 0.000000
0.406348 0.076967 0.000000
0.443915 0.078218 0.000244
0.481453 0.078614 0.000000
0.514977 0.080659 0.000000
0.545739 0.082033 0.000092
0.575494 0.083986 0.000000
0.603601 0.088014 0.000000
0.629023 0.093141 0.000000
0.652155 0.099947 0.000000
0.675502 0.107790 0.000000
0.698695 0.116701 0.000031
0.721889 0.127596 0.000000
0.744228 0.138796 0.000061
0.764736 0.151858 0.000061
0.786526 0.165866 0.000000
0.805386 0.178470 0.000000
0.820310 0.192905 0.000336
0.831449 0.205234 0.003662
0.835294 0.219760 0.007568
0.835325 0.227481 0.007782
0.019409 0.077790 0.000214
0.019409 0.077790 0.000214
0.031281 0.077821 0.000000
0.050263 0.078096 0.000000
0.073976 0.081697 0.000000
0.104280 0.085206 0.000336
0.138857 0.085512 0.000000
0.177157 0.088869 0.000031
0.218509 0.089570 0.000305
0.258610 0.092744 0.000244
0.300450 0.093599 0.000214
0.341985 0.094331 0.000000
0.381476 0.096437 0.000000
0.420233 0.097414 0.000183
0.456153 0.099947 0.000153
0.490120 0.101137 0.000183
0.522301 0.101228 0.000000
0.553216 0.103395 0.000000
0.583062 0.106050 0.000153
0.610986 0.109163 0.000214
0.636316 0.114809 0.000000
0.659449 0.122225 0.000000
0.682704 0.130373 0.000214
0.705837 0.137697 0.000000
0.729061 0.145907 0.000000
0.751217 0.155703 0.000000
0.771298 0.169039 0.000000
0.792660 0.180911 0.000122
0.808774 0.192508 0.000122
0.823301 0.204532 0.000427
0.831418 0.216251 0.003662
0.835294 0.230655 0.007599
0.835325 0.238987 0.007599
0.019654 0.100710 0.000031
0.019654 0.100710 0.000031
0.027039 0.100740 0.000000
0.043030 0.100954 0.000000
0.069825 0.104128 0.000244
0.100710 0.107912 0.000000
0.138186 0.112245 0.000122
0.180240 0.113252 0.000000
0.222965 0.116335 0.000183
0.267643 0.119509 0.000214
0.311315 0.120638 0.000092
0.353948 0.123079 0.000092
0.395758 0.123964 0.000000
0.435187 0.124269 0.000183
0.470405 0.125032 0.000000
0.502464 0.127321 0.000183
0.533532 0.128023 0.000122
0.563409 0.127993 0.000031
0.591363 0.130282 0.000092
0.618372 0.133272 0.000122
0.643763 0.138003 0.000000
0.666987 0.145449 0.000000
0.690120 0.153201 0.000000
0.713313 0.160952 0.000092
0.736446 0.168551 0.000000
0.758633 0.176425 0.000000
0.778012 0.185641 0.000000
0.797421 0.197055 0.000000
0.812375 0.208499 0.000000
0.824308 0.220096 0.000427
0.832029 0.231540 0.004395
0.838651 0.243320 0.008179
0.838743 0.253910 0.008026
0.019379 0.123751 0.000793
0.019379 0.123751 0.000793
0.023865 0.123751 0.000702
0.035828 0.124300 0.000305
0.061646 0.128237 0.000214
0.095735 0.134859 0.000000
0.134493 0.138857 0.000000
0.180026 0.143313 0.000061
0.226474 0.146883 0.000000
0.275181 0.150210 0.000092
0.322026 0.154055 0.000000
0.367437 0.154696 0.000000
0.407874 0.156191 0.000153
0.446967 0.157809 0.000183
0.484565 0.158572 0.000031
0.517479 0.158633 0.000061
0.548425 0.159182 0.000214
0.576440 0.161044 0.000031
0.601862 0.162539 0.000000
0.627161 0.162936 0.000183
0.651850 0.165713 0.000183
0.674861 0.171450 0.000000
0.697627 0.177432 0.000061
0.720729 0.184451 0.000031
0.743893 0.192142 0.000031
0.768063 0.201175 0.000000
0.787533 0.209628 0.000000
0.806210 0.220768 0.000000
0.820615 0.231083 0.000671
0.831327 0.240208 0.003540
0.838132 0.251560 0.007721
0.839780 0.262211 0.011139
0.839750 0.269780 0.011353
0.019928 0.151400 0.007416
0.019928 0.151400 0.007416
0.019928 0.151400 0.007416
0.031159 0.151766 0.004303
0.053712 0.158694 0.000946
0.085573 0.162875 0.000061
0.127871 0.170443 0.000000
0.176791 0.174929 0.000000
0.227817 0.181521 0.000000
0.280308 0.186221 0.000031
0.331701 0.192508 0.000214
0.380438 0.194095 0.000153
0.423743 0.194369 0.000031
0.462959 0.196353 0.000214
0.500542 0.197604 0.000000
0.533989 0.197696 0.000000
0.564904 0.197696 0.000000
0.592645 0.198520 0.000000
0.616785 0.200443 0.000000
0.640223 0.201053 0.000000
0.663752 0.200778 0.000214
0.687190 0.204471 0.000153
0.710109 0.209323 0.000122
0.732204 0.215061 0.000000
0.753780 0.222782 0.000122
0.774990 0.230747 0.000000
0.794491 0.238254 0.000000
0.813413 0.246494 0.000000
0.827451 0.255344 0.000702
0.836057 0.264775 0.005371
0.842863 0.273411 0.011231
0.843229 0.281651 0.015015
0.843198 0.289006 0.014923
0.019928 0.181735 0.015717
0.019409 0.181643 0.015778
0.019257 0.181765 0.015259
0.027314 0.182528 0.014740
0.044251 0.189120 0.007813
0.074250 0.193668 0.004211
0.116060 0.200717 0.000671
0.168338 0.208408 0.000336
0.223697 0.216251 0.000153
0.279759 0.223819 0.000000
0.334966 0.231022 0.000092
0.387488 0.235782 0.000214
0.434974 0.237919 0.000153
0.477699 0.238590 0.000000
0.515679 0.239445 0.000122
0.549279 0.239780 0.000092
0.580133 0.239719 0.000000
0.608057 0.239750 0.000031
0.632044 0.240116 0.000183
0.655238 0.240330 0.000000
0.678614 0.240360 0.000183
0.701534 0.241581 0.000000
0.723293 0.245426 0.000000
0.744015 0.249943 0.000153
0.764187 0.255619 0.000000
0.783871 0.261326 0.000061
0.802884 0.268772 0.000122
0.820706 0.275944 0.000458
0.834318 0.283604 0.003723
0.842435 0.291447 0.008637
0.849302 0.296513 0.014923
0.849485 0.304082 0.018677
0.849485 0.311467 0.018860
0.019532 0.213474 0.026734
0.019257 0.215763 0.026764
0.019776 0.216495 0.025879
0.023194 0.216617 0.025727
0.036866 0.220066 0.019776
0.065217 0.224430 0.015106
0.104341 0.231662 0.011017
0.154452 0.240085 0.004242
0.214664 0.250858 0.000732
0.273075 0.261601 0.000000
0.333776 0.270298 0.000000
0.391058 0.277928 0.000000
0.442237 0.281224 0.000153
0.487892 0.281895 0.000000
0.528222 0.282444 0.000000
0.563714 0.284428 0.000000
0.595270 0.284672 0.000000
0.623102 0.284184 0.000000
0.647242 0.284276 0.000000
0.670527 0.284276 0.000000
0.693690 0.284367 0.000000
0.715816 0.284276 0.000000
0.736294 0.285252 0.000000
0.755764 0.287572 0.000031
0.775021 0.291081 0.000000
0.793515 0.294316 0.000000
0.811643 0.298924 0.000000
0.827573 0.304967 0.001831
0.839597 0.311467 0.006928
0.847379 0.318120 0.012390
0.854490 0.322850 0.019654
0.854734 0.329717 0.023407
0.854704 0.334539 0.023224
0.019593 0.250370 0.038544
0.019867 0.250980 0.038544
0.019318 0.251164 0.038453
0.020844 0.251225 0.037476
0.032074 0.254185 0.034150
0.055390 0.257511 0.029389
0.093355 0.262333 0.023407
0.142245 0.270756 0.018494
0.202029 0.283909 0.010864
0.263920 0.296300 0.006989
0.324956 0.307958 0.002991
0.386542 0.318608 0.000244
0.442023 0.323949 0.000031
0.492378 0.326421 0.000061
0.535973 0.326696 0.000214
0.573968 0.327489 0.000275
0.606775 0.328405 0.000000
0.637263 0.328252 0.000000
0.662623 0.327764 0.000000
0.685817 0.327428 0.000000
0.708858 0.327337 0.000031
0.730556 0.327306 0.000183
0.749783 0.327337 0.000061
0.768063 0.327428 0.000000
0.786313 0.328191 0.000000
0.803769 0.329931 0.000397
0.820035 0.333074 0.002075
0.835142 0.336553 0.006439
0.846555 0.341039 0.011902
0.853880 0.346197 0.018677
0.858762 0.351812 0.023713
0.858824 0.356420 0.027436
0.858824 0.358343 0.027192
0.019623 0.287785 0.049989
0.019928 0.287724 0.050019
0.019623 0.287785 0.049989
0.020050 0.287724 0.049653
0.027619 0.288701 0.046296
0.050355 0.290043 0.044892
0.084016 0.293584 0.038544
0.130556 0.300755 0.033570
0.186831 0.312535 0.026429
0.248966 0.326909 0.018555
0.311955 0.339635 0.014740
0.375525 0.353887 0.007904
0.436316 0.364416 0.002930
0.490547 0.369512 0.000366
0.538262 0.370733 0.000244
0.578912 0.370642 0.000000
0.613886 0.370947 0.000000
0.645167 0.370977 0.000061
0.673457 0.370977 0.000000
0.697353 0.369970 0.000000
0.720455 0.369207 0.000061
0.743069 0.367773 0.000000
0.762753 0.366735 0.000092
0.779995 0.366766 0.000000
0.796109 0.366796 0.000427
0.812375 0.366644 0.001770
0.827787 0.368292 0.004974
0.842618 0.370092 0.011872
0.854154 0.372747 0.017670
0.861418 0.375891 0.023865
0.864561 0.380346 0.029969
0.864591 0.383246 0.033936
0.865415 0.383642 0.033967
0.020233 0.324041 0.064332
0.020478 0.323125 0.064271
0.020478 0.323125 0.064271
0.020844 0.323125 0.063294
0.027710 0.323308 0.060731
0.046509 0.323430 0.059327
0.077241 0.324529 0.054200
0.119753 0.331487 0.048707
0.175235 0.339727 0.041627
0.236088 0.354131 0.034607
0.298039 0.369085 0.026154
0.360082 0.383703 0.021363
0.422827 0.397528 0.013703
0.481636 0.407691 0.006653
0.534752 0.413001 0.000977
0.578393 0.414710 0.000000
0.614893 0.414923 0.000000
0.648798 0.416754 0.000092
0.679744 0.416358 0.000000
0.706203 0.414679 0.000000
0.729763 0.411780 0.000000
0.752743 0.410224 0.000000
0.773373 0.407813 0.000519
0.790372 0.406409 0.001648
0.805753 0.405982 0.002930
0.821164 0.405371 0.006043
0.836515 0.405341 0.011597
0.851041 0.405798 0.017121
0.862364 0.406897 0.024109
0.869078 0.409491 0.030335
0.870268 0.410925 0.035798
0.870207 0.411627 0.041627
0.870665 0.411658 0.041840
0.024475 0.357519 0.080018
0.025605 0.356054 0.080110
0.026276 0.355993 0.077302
0.026398 0.355993 0.077028
0.030610 0.355962 0.076448
0.045869 0.355901 0.075441
0.072969 0.355993 0.071443
0.112703 0.360479 0.065522
0.164523 0.368139 0.060060
0.222538 0.378973 0.053315
0.284489 0.394415 0.045838
0.345403 0.409857 0.037812
0.405921 0.425299 0.029603
0.466651 0.439826 0.019471
0.524559 0.448646 0.012024
0.573816 0.454536 0.004242
0.614740 0.456641 0.001617
0.647944 0.456703 0.001099
0.678920 0.456733 0.001221
0.706996 0.454627 0.001129
0.731014 0.451728 0.000946
0.754116 0.449134 0.002106
0.777218 0.447333 0.003052
0.796811 0.444129 0.005310
0.813016 0.442939 0.008209
0.828428 0.441169 0.012177
0.843778 0.440345 0.018616
0.858091 0.440314 0.023407
0.868376 0.440162 0.030579
0.874632 0.441444 0.037751
0.876188 0.441505 0.041810
0.877012 0.441474 0.049439
0.876982 0.441382 0.049561
0.032746 0.389899 0.093935
0.033112 0.386938 0.094118
0.033600 0.386847 0.092714
0.033417 0.386847 0.091493
0.038025 0.386847 0.091463
0.048737 0.386816 0.091371
0.072480 0.386786 0.088014
0.108217 0.388190 0.084260
0.155673 0.395331 0.079042
0.209995 0.403540 0.072602
0.268193 0.417487 0.067628
0.328222 0.432868 0.060029
0.388495 0.448341 0.051392
0.447181 0.462837 0.040223
0.504936 0.478065 0.028748
0.559472 0.486061 0.019043
0.604913 0.491707 0.010956
0.643488 0.492714 0.006897
0.675105 0.492683 0.005585
0.705715 0.492744 0.005158
0.730770 0.490181 0.005890
0.753872 0.487526 0.007568
0.777035 0.485298 0.009491
0.800168 0.482185 0.011566
0.819669 0.479866 0.015351
0.835935 0.477089 0.019135
0.851286 0.474922 0.025879
0.865385 0.474891 0.030671
0.874327 0.474769 0.038117
0.880644 0.474464 0.045624
0.881773 0.473548 0.049653
0.882444 0.473548 0.057191
0.883726 0.473518 0.058198
0.040986 0.421668 0.110079
0.041688 0.417945 0.110018
0.041169 0.417670 0.109957
0.041810 0.417731 0.108217
0.045045 0.417639 0.106966
0.054231 0.417609 0.106874
0.075410 0.417609 0.105959
0.106783 0.417700 0.102510
0.149722 0.421088 0.099062
0.199619 0.428840 0.093935
0.254032 0.440436 0.088106
0.311040 0.454871 0.083040
0.369207 0.468757 0.075135
0.427100 0.484138 0.064424
0.483772 0.498939 0.052644
0.537957 0.511101 0.040986
0.588006 0.518883 0.029786
0.631312 0.525292 0.019989
0.667353 0.525963 0.015320
0.698665 0.525994 0.014435
0.728267 0.525994 0.014496
0.752377 0.523430 0.015564
0.775479 0.520348 0.017914
0.798581 0.518303 0.019471
0.821378 0.515587 0.023255
0.840055 0.512444 0.027436
0.855436 0.508904 0.034028
0.870268 0.507286 0.039338
0.879820 0.506828 0.046845
0.885924 0.506828 0.054414
0.886351 0.505974 0.060060
0.887480 0.505028 0.066102
0.889403 0.504967 0.070863
0.050172 0.452308 0.128420
0.049897 0.448493 0.127321
0.051392 0.448432 0.126253
0.051453 0.448402 0.125368
0.052613 0.448127 0.124758
0.060700 0.447272 0.124422
0.079683 0.446113 0.122255
0.107973 0.446082 0.121248
0.146639 0.446723 0.117617
0.192508 0.452766 0.114351
0.242741 0.463386 0.109743
0.296849 0.476265 0.105135
0.351904 0.489937 0.098177
0.407568 0.504326 0.090211
0.462440 0.517693 0.079500
0.517266 0.532982 0.068269
0.567376 0.541711 0.056611
0.614740 0.549462 0.045075
0.655543 0.555962 0.035523
0.690242 0.556481 0.031281
0.720577 0.556542 0.031159
0.748409 0.555779 0.031037
0.772274 0.552667 0.031403
0.795438 0.550378 0.032807
0.818631 0.548638 0.035187
0.840116 0.544945 0.040436
0.856413 0.541772 0.046845
0.871275 0.538415 0.053407
0.882841 0.537804 0.060700
0.889006 0.537804 0.068391
0.890196 0.537713 0.075807
0.891264 0.536950 0.081941
0.893095 0.536858 0.089601
0.060761 0.479011 0.145663
0.060487 0.477272 0.144686
0.061646 0.477150 0.143771
0.061952 0.477089 0.143648
0.063081 0.475807 0.142702
0.070497 0.475288 0.141634
0.086671 0.473426 0.140322
0.113619 0.473030 0.139681
0.148470 0.472969 0.136690
0.190188 0.476081 0.134096
0.236637 0.485145 0.131411
0.286320 0.497597 0.127840
0.338293 0.509850 0.123232
0.391150 0.522728 0.115541
0.442908 0.537621 0.107637
0.494942 0.549432 0.097108
0.547021 0.561822 0.086397
0.593378 0.569482 0.074891
0.639338 0.577173 0.064942
0.677485 0.581964 0.057343
0.710658 0.582300 0.053193
0.739986 0.582269 0.052796
0.766262 0.581231 0.052735
0.789395 0.579858 0.052735
0.812558 0.578790 0.053437
0.835721 0.575494 0.058381
0.854948 0.572198 0.066316
0.870329 0.568963 0.073365
0.882536 0.568231 0.080476
0.890135 0.567376 0.088258
0.893095 0.567376 0.096040
0.893095 0.567346 0.103517
0.894072 0.567315 0.111269
0.071412 0.503838 0.162631
0.072328 0.502831 0.162692
0.071962 0.502831 0.161868
0.072419 0.502739 0.161746
0.075135 0.501946 0.160983
0.082856 0.499825 0.159701
0.097810 0.499153 0.158724
0.121553 0.498787 0.157870
0.153201 0.498787 0.156741
0.192386 0.501732 0.156283
0.234989 0.507988 0.153353
0.281651 0.519066 0.152041
0.330175 0.530663 0.148470
0.378393 0.542504 0.143191
0.428168 0.554437 0.135317
0.476478 0.568261 0.127260
0.525505 0.577905 0.116915
0.573663 0.587549 0.107362
0.617182 0.595239 0.097658
0.660578 0.601984 0.089784
0.697810 0.607141 0.082094
0.729397 0.607752 0.079530
0.758358 0.607721 0.079377
0.782010 0.607660 0.079438
0.805173 0.607385 0.079377
0.828305 0.605524 0.082460
0.850828 0.602350 0.089998
0.867918 0.599481 0.097292
0.881682 0.597711 0.104128
0.890166 0.595636 0.111818
0.894102 0.595544 0.119387
0.894102 0.595544 0.127047
0.894102 0.595514 0.134829
0.083314 0.530419 0.183261
0.083955 0.527489 0.183291
0.084016 0.527398 0.182467
0.084321 0.527367 0.182223
0.089754 0.527276 0.182223
0.097475 0.525689 0.181643
0.113832 0.525109 0.179477
0.135988 0.525048 0.178592
0.164218 0.525048 0.178256
0.197238 0.525628 0.178195
0.236271 0.530266 0.175479
0.277958 0.538506 0.174228
0.322850 0.549462 0.172000
0.369421 0.560876 0.169375
0.414862 0.571862 0.162875
0.460487 0.583520 0.155093
0.506615 0.595544 0.147250
0.552850 0.603265 0.139498
0.597284 0.612085 0.130892
0.638880 0.619776 0.122927
0.678309 0.626062 0.115175
0.715175 0.632136 0.109041
0.746334 0.632502 0.108705
0.773404 0.632502 0.108766
0.797116 0.632471 0.108644
0.820279 0.631983 0.110201
0.843412 0.629541 0.116640
0.863920 0.627375 0.123232
0.879759 0.624720 0.129458
0.889982 0.622278 0.136812
0.894255 0.622248 0.143343
0.895750 0.622187 0.150790
0.895750 0.622217 0.157656
0.095521 0.554101 0.205173
0.096376 0.550286 0.205234
0.096468 0.550195 0.205173
0.097475 0.550164 0.205051
0.104494 0.550134 0.205112
0.114595 0.550103 0.204471
0.131472 0.550072 0.201694
0.153597 0.550103 0.201053
0.179385 0.550042 0.201114
0.208316 0.550042 0.201022
0.241459 0.553063 0.199374
0.280034 0.559442 0.197116
0.319951 0.568475 0.196475
0.362097 0.578424 0.193729
0.405982 0.589715 0.191318
0.448188 0.600275 0.184695
0.491737 0.610925 0.177890
0.535943 0.620569 0.170352
0.578332 0.628229 0.164309
0.619226 0.635950 0.157534
0.658717 0.643549 0.149783
0.697139 0.651057 0.142489
0.730770 0.655055 0.139498
0.761593 0.655482 0.139254
0.788663 0.655421 0.139254
0.812345 0.655390 0.140719
0.835447 0.654749 0.146944
0.858091 0.651423 0.151675
0.876188 0.650721 0.158755
0.888426 0.649042 0.165316
0.894224 0.649012 0.170626
0.898955 0.648981 0.178256
0.898955 0.649012 0.183017
0.111055 0.575525 0.228031
0.112306 0.573114 0.227939
0.113252 0.572961 0.227909
0.115816 0.572900 0.227909
0.122988 0.572930 0.227817
0.135012 0.572869 0.227512
0.152316 0.572869 0.224521
0.173861 0.572839 0.223850
0.196811 0.572808 0.223880
0.222019 0.572808 0.223850
0.251133 0.574517 0.223392
0.283848 0.580591 0.221225
0.321019 0.588281 0.219913
0.359564 0.596735 0.219242
0.399603 0.606073 0.216800
0.440101 0.616968 0.213993
0.479805 0.627039 0.209232
0.521386 0.635767 0.203525
0.562127 0.643458 0.196445
0.601587 0.651179 0.190616
0.640101 0.658839 0.184329
0.678676 0.666560 0.177859
0.715969 0.672938 0.171908
0.747372 0.677028 0.170779
0.778134 0.677516 0.170809
0.804501 0.677546 0.171695
0.827604 0.677302 0.177584
0.850645 0.674495 0.181979
0.870359 0.674464 0.189364
0.884977 0.674464 0.193820
0.894072 0.674434 0.201175
0.900908 0.674464 0.208927
0.900969 0.674434 0.212802
0.135836 0.596368 0.250919
0.135866 0.595880 0.250828
0.137575 0.595880 0.250828
0.142580 0.595819 0.250797
0.150240 0.595789 0.250706
0.161929 0.595758 0.250675
0.178744 0.595697 0.248753
0.197940 0.595697 0.248020
0.218418 0.595697 0.247593
0.239658 0.595758 0.247654
0.264561 0.596185 0.247593
0.293309 0.601312 0.246769
0.325689 0.608606 0.245365
0.360632 0.616297 0.244144
0.397284 0.624750 0.243412
0.435096 0.633692 0.242405
0.472480 0.642908 0.240055
0.510735 0.651392 0.236301
0.548119 0.659602 0.230869
0.585565 0.666957 0.225681
0.624018 0.674678 0.220859
0.662715 0.682368 0.213107
0.700099 0.689265 0.210117
0.734035 0.693935 0.205478
0.765743 0.698634 0.205264
0.796170 0.698939 0.205356
0.820249 0.698939 0.209049
0.843351 0.697993 0.213565
0.865385 0.697963 0.220768
0.881468 0.697932 0.225315
0.892882 0.697932 0.232578
0.900542 0.697902 0.240269
0.901915 0.697871 0.244144
0.171237 0.618067 0.274144
0.171237 0.617243 0.274144
0.171756 0.617121 0.274113
0.178805 0.617121 0.274113
0.186679 0.617090 0.274083
0.197604 0.617060 0.274052
0.211765 0.617029 0.273930
0.227481 0.617029 0.273930
0.245151 0.616999 0.273411
0.263279 0.617823 0.273014
0.283116 0.618555 0.273014
0.307103 0.622004 0.273014
0.335271 0.628504 0.273808
0.365148 0.635706 0.273045
0.397284 0.643793 0.271672
0.431067 0.652064 0.271061
0.466407 0.660121 0.270695
0.500999 0.667231 0.267918
0.538079 0.674586 0.263981
0.573449 0.682918 0.259342
0.609674 0.689815 0.255253
0.646845 0.697505 0.251316
0.684352 0.704067 0.245487
0.718349 0.709804 0.243595
0.750759 0.715846 0.240696
0.781186 0.719387 0.240665
0.811307 0.719753 0.241215
0.835447 0.719753 0.244633
0.858244 0.719722 0.251682
0.876921 0.719905 0.256565
0.890135 0.720516 0.263157
0.897917 0.720516 0.270878
0.901823 0.720546 0.274815
0.212741 0.633356 0.298924
0.213230 0.633539 0.299290
0.214267 0.633539 0.299260
0.221500 0.633478 0.299199
0.229007 0.633478 0.299107
0.236942 0.633417 0.299077
0.247532 0.633356 0.298985
0.261295 0.633326 0.298924
0.275792 0.633326 0.298894
0.290471 0.635554 0.298863
0.306279 0.637690 0.298802
0.324834 0.641047 0.298741
0.348486 0.646937 0.300694
0.373907 0.654200 0.301762
0.400855 0.661891 0.301762
0.431678 0.669673 0.301793
0.464027 0.677089 0.301793
0.497200 0.684535 0.301122
0.529198 0.690791 0.297459
0.563226 0.697475 0.293980
0.597803 0.705196 0.290776
0.634119 0.712184 0.286778
0.669062 0.719448 0.283238
0.703639 0.724361 0.282048
0.735531 0.731136 0.279118
0.768490 0.735073 0.279088
0.796628 0.738155 0.279088
0.826291 0.738643 0.279393
0.849943 0.739376 0.282811
0.870054 0.739895 0.289647
0.888243 0.741939 0.293675
0.897063 0.741939 0.301274
0.901762 0.742184 0.305241
0.255619 0.648646 0.327825
0.255558 0.648615 0.327764
0.255711 0.648615 0.327764
0.261967 0.648615 0.327733
0.269596 0.648554 0.327703
0.277317 0.648524 0.327642
0.285008 0.648524 0.327581
0.294743 0.648493 0.327550
0.306371 0.648493 0.327733
0.318395 0.651209 0.328313
0.332036 0.653223 0.328252
0.347417 0.656184 0.328252
0.366064 0.662409 0.330571
0.387549 0.669764 0.332097
0.410773 0.677180 0.332128
0.436500 0.684932 0.332158
0.465888 0.691981 0.332219
0.496590 0.698207 0.332219
0.526574 0.704219 0.331518
0.557549 0.711910 0.328435
0.589349 0.719600 0.325414
0.622156 0.726864 0.323796
0.654261 0.732052 0.320317
0.689021 0.738827 0.317967
0.722072 0.745693 0.317235
0.753719 0.750179 0.317205
0.784512 0.754177 0.317174
0.812131 0.755062 0.317144
0.839658 0.758114 0.317052
0.862272 0.761349 0.320867
0.881956 0.761318 0.325048
0.893767 0.761349 0.331853
0.900938 0.762722 0.335851
0.296849 0.663905 0.354681
0.296849 0.663905 0.354681
0.296788 0.663874 0.354681
0.300481 0.663874 0.355200
0.307530 0.663844 0.355169
0.314794 0.663844 0.355169
0.322545 0.663813 0.355077
0.330175 0.663783 0.355077
0.338994 0.663783 0.355749
0.348882 0.666438 0.357977
0.359869 0.668482 0.358831
0.371984 0.671443 0.358801
0.387152 0.676997 0.360845
0.404181 0.683772 0.362707
0.423621 0.690028 0.362737
0.445716 0.697108 0.362737
0.470039 0.704433 0.363104
0.497780 0.711299 0.363348
0.526207 0.718135 0.363378
0.553613 0.724025 0.363134
0.584192 0.731746 0.361730
0.615137 0.739254 0.359503
0.646143 0.745602 0.358526
0.677119 0.751247 0.356481
0.708156 0.758541 0.355657
0.739010 0.762600 0.355749
0.769802 0.769009 0.355749
0.799985 0.772885 0.355718
0.829770 0.773983 0.355688
0.853758 0.777584 0.355718
0.876249 0.777584 0.359594
0.889891 0.777615 0.363592
0.897795 0.780117 0.367559
0.335302 0.678798 0.383398
0.335424 0.678798 0.383398
0.335302 0.678798 0.383398
0.339086 0.678798 0.385595
0.345220 0.678798 0.385992
0.351171 0.678798 0.386023
0.357916 0.678767 0.385962
0.365637 0.679255 0.385901
0.373358 0.679225 0.386603
0.381659 0.681910 0.388891
0.391150 0.683955 0.389807
0.400885 0.686732 0.389776
0.412818 0.690608 0.391363
0.426154 0.695491 0.392950
0.441566 0.701656 0.393957
0.459571 0.708064 0.394202
0.480903 0.715572 0.394965
0.505211 0.722255 0.396887
0.531365 0.728511 0.397498
0.556847 0.735195 0.397528
0.582208 0.742763 0.397070
0.611536 0.750362 0.395270
0.641382 0.757198 0.394781
0.669398 0.762844 0.394232
0.699550 0.770138 0.394171
