app/src/main/assets/filters/Mosslight.cube
# Created by Desong
# Color profile: /System/Library/ColorSync/Profiles/sRGB Profile.icc
LUT_3D_SIZE 5
DOMAIN_MIN 0.0 0.0 0.0
DOMAIN_MAX 1.0 1.0 1.0
0.019379 0.039368 0.000183
0.205234 0.043183 0.000000
0.507652 0.054200 0.000031
0.722225 0.107759 0.000061
0.835325 0.215854 0.007630
0.019532 0.213474 0.026734
0.214664 0.250858 0.000732
0.595270 0.284672 0.000000
0.775021 0.291081 0.000000
0.854704 0.334539 0.023224
0.060761 0.479011 0.145663
0.148470 0.472969 0.136690
0.547021 0.561822 0.086397
0.812558 0.578790 0.053437
0.894072 0.567315 0.111269
0.255619 0.648646 0.327825
0.306371 0.648493 0.327733
0.465888 0.691981 0.332219
0.722072 0.745693 0.317235
0.900938 0.762722 0.335851
0.544244 0.756588 0.571893
0.552056 0.756619 0.571893
0.604242 0.776181 0.594507
0.716182 0.823545 0.618463
0.862577 0.866636 0.627222
0.053040 0.069947 0.173526
0.227115 0.065888 0.187045
0.483101 0.048371 0.143160
0.679316 0.079957 0.104738
0.828000 0.181155 0.102907
0.019593 0.267948 0.229526
0.248173 0.270420 0.227787
0.545434 0.268772 0.187350
0.730373 0.268772 0.144137
0.849790 0.321752 0.151675
0.118593 0.518090 0.301579
0.271611 0.514244 0.305577
0.563287 0.566033 0.300694
0.806027 0.578241 0.283024
0.890166 0.563531 0.281865
0.324224 0.673274 0.415015
0.367651 0.673854 0.417456
0.486671 0.694057 0.422675
0.724666 0.746975 0.432258
0.901396 0.764004 0.448707
0.553765 0.760128 0.596216
0.561395 0.762173 0.599023
0.611872 0.781460 0.616724
0.719722 0.823392 0.643427
0.864836 0.874266 0.660151
0.075898 0.165652 0.467475
0.275059 0.155764 0.481514
0.531243 0.160861 0.468574
0.682887 0.158236 0.396368
0.818997 0.149813 0.335576
0.046113 0.308385 0.547448
0.293431 0.315801 0.548150
0.563043 0.333623 0.526726
0.702144 0.295293 0.429969
0.834287 0.267247 0.359716
0.124788 0.569055 0.567987
0.339879 0.577539 0.583185
0.594079 0.597009 0.599664
0.758907 0.562615 0.540642
0.878935 0.532708 0.485817
0.419898 0.716030 0.599023
0.472908 0.722286 0.607324
0.567834 0.730770 0.615656
0.741573 0.762783 0.628626
0.898833 0.776761 0.638758
0.598016 0.782040 0.678279
0.605859 0.786038 0.678309
0.650690 0.802396 0.689998
0.735439 0.834287 0.712795
0.875242 0.882231 0.729488
0.227298 0.276402 0.570275
0.337743 0.285710 0.572992
0.526909 0.337469 0.605432
0.692103 0.375067 0.616724
0.807370 0.394263 0.613519
0.275792 0.377630 0.647059
0.395666 0.393835 0.652033
0.577447 0.440436 0.670680
0.721828 0.463935 0.666835
0.825650 0.458045 0.658717
0.317296 0.584680 0.764096
0.433845 0.595392 0.769345
0.610956 0.621546 0.775784
0.757443 0.625940 0.753780
0.853544 0.589593 0.705043
0.444556 0.741024 0.757321
0.493812 0.747677 0.762631
0.620203 0.766018 0.781247
0.765286 0.777127 0.788724
0.882139 0.757321 0.764126
0.618891 0.799680 0.749172
0.631403 0.800900 0.751919
0.693446 0.822477 0.774655
0.767971 0.854490 0.796078
0.893675 0.896788 0.822843
0.474067 0.466163 0.707576
0.520562 0.482002 0.710445
0.630976 0.531334 0.734554
0.746670 0.589593 0.761776
0.825315 0.612818 0.763241
0.516838 0.538445 0.754604
0.559319 0.548211 0.757656
0.653864 0.579736 0.767666
0.757321 0.628809 0.780087
0.827939 0.646387 0.780331
0.555779 0.666102 0.839780
0.590051 0.666407 0.835538
0.677455 0.681941 0.835080
0.784237 0.709041 0.831205
0.857023 0.718257 0.829709
0.559899 0.774838 0.885954
0.585290 0.775998 0.889616
0.669795 0.784512 0.892760
0.791470 0.799435 0.889281
0.889891 0.811551 0.885618
0.650477 0.815671 0.850858
0.649897 0.815671 0.850340
0.707454 0.831907 0.865660
0.790799 0.868223 0.894591
0.908873 0.909148 0.916716
