app/src/main/assets/filters/Mosslight.cube
# Created by Desong
# Color profile: /System/Library/ColorSync/Profiles/sRGB Profile.icc
LUT_3D_SIZE 9
DOMAIN_MIN 0.0 0.0 0.0
DOMAIN_MAX 1.0 1.0 1.0
0.019379 0.039368 0.000183
0.080964 0.039460 0.000092
0.205234 0.043183 0.000000
0.358404 0.049622 0.000275
0.507652 0.054200 0.000031
0.625452 0.069551 0.000122
0.722225 0.107759 0.000061
0.805936 0.162905 0.000092
0.835325 0.215854 0.007630
0.019654 0.100710 0.000031
0.069825 0.104128 0.000244
0.222965 0.116335 0.000183
0.395758 0.123964 0.000000
0.533532 0.128023 0.000122
0.643763 0.138003 0.000000
0.736446 0.168551 0.000000
0.812375 0.208499 0.000000
0.838743 0.253910 0.008026
0.019532 0.213474 0.026734
0.036866 0.220066 0.019776
0.214664 0.250858 0.000732
0.442237 0.281224 0.000153
0.595270 0.284672 0.000000
0.693690 0.284367 0.000000
0.775021 0.291081 0.000000
0.839597 0.311467 0.006928
0.854704 0.334539 0.023224
0.024475 0.357519 0.080018
0.030610 0.355962 0.076448
0.164523 0.368139 0.060060
0.405921 0.425299 0.029603
0.614740 0.456641 0.001617
0.731014 0.451728 0.000946
0.813016 0.442939 0.008209
0.868376 0.440162 0.030579
0.876982 0.441382 0.049561
0.060761 0.479011 0.145663
0.063081 0.475807 0.142702
0.148470 0.472969 0.136690
0.338293 0.509850 0.123232
0.547021 0.561822 0.086397
0.710658 0.582300 0.053193
0.812558 0.578790 0.053437
0.882536 0.568231 0.080476
0.894072 0.567315 0.111269
0.111055 0.575525 0.228031
0.122988 0.572930 0.227817
0.196811 0.572808 0.223880
0.321019 0.588281 0.219913
0.479805 0.627039 0.209232
0.640101 0.658839 0.184329
0.778134 0.677516 0.170809
0.870359 0.674464 0.189364
0.900969 0.674434 0.212802
0.255619 0.648646 0.327825
0.269596 0.648554 0.327703
0.306371 0.648493 0.327733
0.366064 0.662409 0.330571
0.465888 0.691981 0.332219
0.589349 0.719600 0.325414
0.722072 0.745693 0.317235
0.839658 0.758114 0.317052
0.900938 0.762722 0.335851
0.413519 0.706477 0.448615
0.419867 0.706447 0.448493
0.440131 0.708919 0.451453
0.470863 0.717464 0.458381
0.518120 0.735592 0.466743
0.596612 0.762356 0.472358
0.692531 0.792416 0.475990
0.796201 0.819516 0.475288
0.877684 0.827329 0.475288
0.544244 0.756588 0.571893
0.544182 0.756588 0.571862
0.552056 0.756619 0.571893
0.573236 0.765377 0.582116
0.604242 0.776181 0.594507
0.657160 0.799741 0.607355
0.716182 0.823545 0.618463
0.789731 0.847379 0.623194
0.862577 0.866636 0.627222
0.019806 0.042939 0.050629
0.080201 0.042817 0.049042
0.204807 0.043336 0.042206
0.350042 0.047395 0.039277
0.490303 0.050904 0.034211
0.607874 0.068269 0.023041
0.704463 0.100465 0.015076
0.792477 0.157290 0.015167
0.834897 0.211460 0.033661
0.019654 0.111360 0.056977
0.072786 0.112367 0.052827
0.218479 0.119173 0.045777
0.375769 0.123262 0.041199
0.509819 0.124453 0.034485
0.621729 0.133303 0.023682
0.717861 0.163546 0.015564
0.804044 0.202823 0.016205
0.835294 0.249119 0.041199
0.019684 0.232395 0.086915
0.054414 0.234897 0.083772
0.224582 0.250401 0.075837
0.433814 0.277348 0.064668
0.577600 0.279698 0.050507
0.676204 0.279850 0.038056
0.760647 0.284245 0.033600
0.834104 0.306432 0.043885
0.850889 0.330175 0.068055
0.029206 0.372961 0.137575
0.053193 0.369268 0.136049
0.190738 0.372625 0.128450
0.411627 0.423926 0.113405
0.609766 0.451301 0.091157
0.725002 0.447395 0.076448
0.807279 0.438392 0.074952
0.864225 0.438117 0.086061
0.874022 0.439063 0.105592
0.064088 0.487037 0.193881
0.084047 0.483589 0.191440
0.185733 0.481422 0.187594
0.352880 0.510216 0.182223
0.547936 0.560967 0.162112
0.709834 0.582208 0.142458
0.809659 0.577966 0.140627
0.878477 0.567285 0.152560
0.892271 0.563592 0.170626
0.122530 0.579065 0.258946
0.155123 0.576043 0.259220
0.228824 0.575952 0.260990
0.337072 0.589136 0.260929
0.484596 0.626398 0.257572
0.639918 0.658259 0.240696
0.779232 0.677058 0.235721
0.869383 0.674006 0.243717
0.899321 0.674098 0.262882
0.270359 0.651820 0.349554
0.287266 0.651728 0.349432
0.324163 0.652064 0.352911
0.377478 0.663050 0.354894
0.468513 0.691890 0.357946
0.589807 0.719478 0.355932
0.721950 0.745602 0.354192
0.839658 0.758053 0.357122
0.901610 0.762753 0.371771
0.423560 0.706233 0.465553
0.426398 0.706600 0.466163
0.445533 0.709010 0.470100
0.476204 0.719020 0.474434
0.520287 0.735500 0.482216
0.596887 0.762264 0.488838
0.692805 0.792142 0.493660
0.796536 0.819516 0.494972
0.877714 0.827420 0.495735
0.544518 0.756649 0.575311
0.544488 0.756649 0.575372
0.554314 0.759365 0.579187
0.574609 0.766812 0.585992
0.605249 0.778164 0.597375
0.657282 0.799741 0.610834
0.719203 0.823575 0.623407
0.792142 0.847410 0.630640
0.862608 0.870542 0.634730
0.053040 0.069947 0.173526
0.095827 0.066011 0.188388
0.227115 0.065888 0.187045
0.358618 0.061830 0.165988
0.483101 0.048371 0.143160
0.586755 0.048463 0.120058
0.679316 0.079957 0.104738
0.766384 0.130648 0.102480
0.828000 0.181155 0.102907
0.031312 0.134707 0.202243
0.081910 0.132143 0.202060
0.232975 0.132174 0.194491
0.366430 0.131289 0.170352
0.489235 0.118196 0.145907
0.594141 0.118746 0.122530
0.689448 0.145541 0.108461
0.777493 0.181704 0.107240
0.831266 0.231083 0.120882
0.019593 0.267948 0.229526
0.069612 0.268009 0.229557
0.248173 0.270420 0.227787
0.418921 0.277348 0.212924
0.545434 0.268772 0.187350
0.642023 0.262303 0.162234
0.730373 0.268772 0.144137
0.810452 0.293492 0.142824
0.849790 0.321752 0.151675
0.041596 0.408057 0.263340
0.111635 0.405615 0.263432
0.260014 0.407996 0.266911
0.436011 0.435523 0.264134
0.603204 0.450935 0.248722
0.706661 0.440009 0.227298
0.785367 0.430213 0.209751
0.849271 0.430365 0.202731
0.870329 0.433722 0.207614
0.118593 0.518090 0.301579
0.175570 0.514824 0.303014
0.271611 0.514244 0.305577
0.395300 0.530846 0.306188
0.563287 0.566033 0.300694
0.707546 0.584527 0.291081
0.806027 0.578241 0.283024
0.873442 0.566155 0.281529
0.890166 0.563531 0.281865
0.205936 0.607172 0.349248
0.237980 0.604761 0.349310
0.299260 0.603204 0.349523
0.380713 0.606195 0.352728
0.503899 0.631586 0.352941
0.648341 0.661036 0.349584
0.777218 0.675105 0.348882
0.865202 0.673793 0.351568
0.898894 0.673579 0.357305
0.324224 0.673274 0.415015
0.336034 0.673213 0.416205
0.367651 0.673854 0.417456
0.411658 0.677821 0.419928
0.486671 0.694057 0.422675
0.600946 0.721309 0.427039
0.724666 0.746975 0.432258
0.839811 0.760189 0.439338
0.901396 0.764004 0.448707
0.448157 0.717250 0.504387
0.452277 0.717464 0.506462
0.468727 0.719387 0.507134
0.495827 0.727718 0.511315
0.530541 0.740108 0.518120
0.600397 0.765743 0.527550
0.693324 0.792905 0.536370
0.799741 0.819455 0.542443
0.881651 0.827390 0.545922
0.553765 0.760128 0.596216
0.553521 0.760159 0.595850
0.561395 0.762173 0.599023
0.580713 0.770230 0.605890
0.611872 0.781460 0.616724
0.657527 0.799496 0.630213
0.719722 0.823392 0.643427
0.791989 0.850645 0.654505
0.864836 0.874266 0.660151
0.081483 0.122713 0.325414
0.108095 0.111208 0.345800
0.263340 0.096864 0.371801
0.405341 0.094392 0.350439
0.503258 0.093019 0.310216
0.593194 0.081910 0.266850
0.676875 0.069062 0.226444
0.753872 0.088594 0.198734
0.819425 0.132570 0.195163
0.054994 0.165713 0.364019
0.092897 0.162203 0.370825
0.262089 0.162081 0.375219
0.406348 0.162905 0.353460
0.503838 0.156497 0.315221
0.593011 0.140993 0.269139
0.675898 0.126864 0.230198
0.754269 0.145418 0.207034
0.822293 0.191318 0.206119
0.026184 0.289342 0.404120
0.072633 0.289860 0.404242
0.268223 0.295750 0.404913
0.434821 0.302617 0.391638
0.534142 0.285008 0.353185
0.619104 0.261479 0.303960
0.698543 0.250370 0.265812
0.781155 0.262455 0.247166
0.841459 0.293217 0.246525
0.053712 0.440742 0.421759
0.102937 0.440650 0.423255
0.289769 0.444343 0.432197
0.461433 0.458564 0.437537
0.585321 0.454505 0.415778
0.676356 0.432990 0.380926
0.752621 0.415717 0.345922
0.822873 0.412696 0.319493
0.864927 0.418128 0.317205
0.138857 0.548821 0.432959
0.210575 0.548760 0.435431
0.334936 0.555169 0.450294
0.454902 0.563378 0.458106
0.581201 0.583429 0.457801
0.701808 0.587030 0.447395
0.789059 0.574731 0.427039
0.854551 0.561608 0.405859
0.886107 0.558984 0.404273
0.285618 0.638880 0.465919
0.320165 0.638819 0.469276
0.381720 0.639185 0.476509
0.450385 0.640742 0.479988
0.539055 0.650050 0.483833
0.661677 0.674556 0.483955
0.777279 0.685756 0.483192
0.862577 0.682765 0.482826
0.897917 0.682429 0.482948
0.392859 0.698390 0.515526
0.402380 0.698726 0.515892
0.431647 0.699977 0.515892
0.465492 0.701381 0.516503
0.519280 0.705653 0.516442
0.614832 0.729213 0.520623
0.731716 0.754910 0.530236
0.840116 0.766812 0.539910
0.901549 0.769100 0.544488
0.487556 0.736965 0.568597
0.490303 0.736934 0.568627
0.503166 0.737301 0.568811
0.525658 0.743252 0.571313
0.556695 0.752895 0.574640
0.611719 0.771237 0.582238
0.701808 0.797299 0.594354
0.804074 0.822721 0.605158
0.883604 0.831815 0.610285
0.572839 0.769924 0.634546
0.573327 0.770871 0.634150
0.581506 0.774197 0.635004
0.601862 0.779690 0.640040
0.628534 0.790768 0.650172
0.664942 0.805478 0.663600
0.726589 0.827970 0.676570
0.797665 0.854978 0.687129
0.868589 0.878264 0.691676
0.075898 0.165652 0.467475
0.121431 0.160983 0.472358
0.275059 0.155764 0.481514
0.424475 0.158907 0.482307
0.531243 0.160861 0.468574
0.608392 0.159640 0.433661
0.682887 0.158236 0.396368
0.755032 0.151797 0.361212
0.818997 0.149813 0.335576
0.060945 0.199893 0.498512
0.116762 0.199161 0.498909
0.278691 0.200748 0.504326
0.431220 0.214023 0.504356
0.537865 0.218143 0.487678
0.611658 0.212131 0.445686
0.684443 0.203983 0.401740
0.756893 0.191440 0.365789
0.821347 0.188846 0.340856
0.046113 0.308385 0.547448
0.113100 0.308415 0.547478
0.293431 0.315801 0.548150
0.454536 0.331792 0.547723
0.563043 0.333623 0.526726
0.634577 0.319280 0.478309
0.702144 0.295293 0.429969
0.771786 0.272190 0.383703
0.834287 0.267247 0.359716
0.070893 0.447089 0.568109
0.125765 0.447456 0.568048
0.303075 0.455329 0.575647
0.470527 0.470558 0.581872
0.587335 0.473762 0.569421
0.662257 0.448890 0.525444
0.729610 0.417945 0.473030
0.797574 0.389624 0.422309
0.854704 0.383978 0.404425
0.124788 0.569055 0.567987
0.198886 0.569696 0.568353
0.339879 0.577539 0.583185
0.479164 0.588739 0.597650
0.594079 0.597009 0.599664
0.686183 0.589288 0.577386
0.758907 0.562615 0.540642
0.827695 0.538415 0.503471
0.878935 0.532708 0.485817
0.283970 0.662440 0.575311
0.328161 0.662318 0.578271
0.407446 0.666316 0.590570
0.494331 0.670283 0.602564
0.578576 0.673274 0.606378
0.674983 0.687190 0.608881
0.773556 0.689631 0.604334
0.849210 0.682185 0.590173
0.893767 0.678676 0.578393
0.419898 0.716030 0.599023
0.436652 0.717128 0.600671
0.472908 0.722286 0.607324
0.518914 0.726802 0.612421
0.567834 0.730770 0.615656
0.639063 0.739803 0.617853
0.741573 0.762783 0.628626
0.842527 0.773251 0.636255
0.898833 0.776761 0.638758
0.517662 0.753780 0.630365
0.521813 0.753780 0.630854
0.538567 0.757229 0.634546
0.564141 0.762722 0.640101
0.593286 0.770169 0.643397
0.633661 0.781918 0.647425
0.714900 0.804623 0.659083
0.811704 0.828580 0.672419
0.887175 0.837308 0.678370
0.598016 0.782040 0.678279
0.599207 0.783871 0.678279
0.605859 0.786038 0.678309
0.624323 0.791836 0.681361
0.650690 0.802396 0.689998
0.681941 0.813993 0.699977
0.735439 0.834287 0.712795
0.805661 0.860624 0.724331
0.875242 0.882231 0.729488
0.121981 0.217502 0.528283
0.184329 0.218479 0.528344
0.295811 0.220859 0.530236
0.413581 0.232334 0.536767
0.527337 0.254276 0.543877
0.614160 0.258457 0.543664
0.686366 0.255894 0.529747
0.757229 0.266453 0.522057
0.822812 0.278752 0.518364
0.129397 0.247593 0.552575
0.194949 0.249210 0.552483
0.309209 0.254948 0.552605
0.429511 0.273960 0.561212
0.545800 0.293217 0.567437
0.626703 0.298985 0.566247
0.692775 0.297856 0.547539
0.760250 0.298711 0.531640
0.822477 0.307225 0.523339
0.141054 0.334569 0.608637
0.212314 0.334661 0.608637
0.334264 0.347234 0.612421
0.460487 0.367559 0.620020
0.572747 0.386023 0.623743
0.652033 0.388464 0.610712
0.715938 0.376959 0.583490
0.777615 0.367559 0.557000
0.833646 0.366369 0.537255
0.151369 0.453071 0.669978
0.226810 0.455207 0.669978
0.356268 0.467720 0.676967
0.484504 0.486030 0.682856
0.596094 0.500298 0.680720
0.673823 0.499763 0.658534
0.734676 0.476173 0.620874
0.793698 0.448402 0.577783
0.847929 0.431647 0.546624
0.188785 0.572564 0.677913
0.254978 0.573571 0.677882
0.368902 0.583825 0.688380
0.490913 0.596704 0.698116
0.597864 0.605737 0.701625
0.683650 0.606256 0.690089
0.748470 0.578119 0.654444
0.810269 0.539422 0.603876
0.862638 0.515343 0.565148
0.292393 0.669734 0.677577
0.335393 0.669734 0.678614
0.412512 0.677913 0.689174
0.505425 0.686275 0.701381
0.597681 0.693599 0.705989
0.685176 0.699092 0.706050
0.762325 0.689174 0.693477
0.827512 0.665126 0.662165
0.881956 0.649866 0.638514
0.429633 0.727626 0.678431
0.445960 0.729702 0.679103
0.484169 0.737148 0.688869
0.542779 0.747158 0.699672
0.605768 0.753048 0.707729
0.669581 0.757229 0.711543
0.753933 0.769863 0.715358
0.837919 0.775204 0.717556
0.894499 0.775509 0.717220
0.530724 0.763851 0.687892
0.535546 0.763882 0.687861
0.561913 0.769650 0.693935
0.592920 0.779965 0.702693
0.628962 0.789487 0.712642
0.668330 0.796963 0.719356
0.728664 0.812650 0.726864
0.819486 0.835477 0.739895
0.892638 0.843473 0.746761
0.608545 0.791928 0.710597
0.608911 0.792142 0.710780
0.622217 0.795468 0.714748
0.647303 0.803281 0.722377
0.676448 0.813748 0.732296
0.707790 0.824491 0.742306
0.746151 0.844083 0.754452
0.815671 0.867979 0.769680
0.885069 0.887449 0.775570
0.227298 0.276402 0.570275
0.269444 0.280308 0.570306
0.337743 0.285710 0.572992
0.428534 0.306096 0.585992
0.526909 0.337469 0.605432
0.622187 0.369024 0.617914
0.692103 0.375067 0.616724
0.753017 0.375036 0.612665
0.807370 0.394263 0.613519
0.244816 0.303014 0.588128
0.286290 0.306462 0.588220
0.355383 0.315282 0.593866
0.446296 0.340368 0.609583
0.546166 0.370703 0.626856
0.637263 0.399847 0.635981
0.699184 0.404639 0.635492
0.758999 0.403235 0.629450
0.812863 0.418158 0.628534
0.275792 0.377630 0.647059
0.319097 0.381231 0.646937
0.395666 0.393835 0.652033
0.484627 0.415259 0.660182
0.577447 0.440436 0.670680
0.661341 0.461616 0.673671
0.721828 0.463935 0.666835
0.776150 0.457374 0.659266
0.825650 0.458045 0.658717
0.308354 0.482582 0.724788
0.350774 0.485817 0.724697
0.427375 0.499214 0.725826
0.518730 0.515984 0.728969
0.607416 0.534325 0.730678
0.686610 0.549371 0.729397
0.746181 0.546502 0.716243
0.796658 0.530053 0.694697
0.841093 0.525902 0.688350
0.317296 0.584680 0.764096
0.355413 0.585534 0.764553
0.433845 0.595392 0.769345
0.521965 0.608301 0.773922
0.610956 0.621546 0.775784
0.694972 0.631800 0.770565
0.757443 0.625940 0.753780
0.808591 0.603632 0.726772
0.853544 0.589593 0.705043
0.358679 0.674495 0.762600
0.380285 0.674281 0.762692
0.441474 0.681147 0.768429
0.520684 0.690150 0.775692
0.608270 0.700008 0.779812
0.692164 0.707576 0.782742
0.759365 0.703761 0.774685
0.816648 0.677424 0.744167
0.864775 0.649622 0.714443
0.444556 0.741024 0.757321
0.458991 0.740963 0.757229
0.493812 0.747677 0.762631
0.550958 0.758145 0.772610
0.620203 0.766018 0.781247
0.695064 0.773617 0.787686
0.765286 0.777127 0.788724
0.831174 0.769558 0.780423
0.882139 0.757321 0.764126
0.540948 0.772305 0.748867
0.542382 0.773220 0.748928
0.572656 0.780423 0.753567
0.608331 0.792813 0.763485
0.654383 0.806668 0.775937
0.703639 0.815946 0.787259
0.761166 0.827451 0.796048
0.830808 0.843137 0.800839
0.893614 0.847166 0.804501
0.618891 0.799680 0.749172
0.618860 0.799649 0.749111
0.631403 0.800900 0.751919
0.661219 0.811276 0.761624
0.693446 0.822477 0.774655
0.728573 0.838834 0.787564
0.767971 0.854490 0.796078
0.826963 0.877562 0.812009
0.893675 0.896788 0.822843
0.349523 0.353307 0.627527
0.372930 0.357092 0.628016
0.421881 0.373297 0.636988
0.485756 0.402686 0.651637
0.568261 0.435981 0.670954
0.650996 0.471534 0.687739
0.721767 0.501793 0.697505
0.768276 0.504509 0.693874
0.802762 0.504234 0.693172
0.368139 0.380163 0.647791
0.390997 0.383398 0.647974
0.440253 0.399084 0.655390
0.504631 0.426154 0.669978
0.580255 0.456947 0.686305
0.657374 0.490974 0.697108
0.721096 0.517510 0.703517
0.771389 0.520256 0.700984
0.804715 0.518975 0.698787
0.405951 0.452583 0.703090
0.429633 0.455055 0.703120
0.477058 0.466865 0.705867
0.539483 0.488380 0.713161
0.609369 0.512963 0.721157
0.678553 0.538415 0.728695
0.738369 0.556298 0.730739
0.785519 0.556756 0.728206
0.819974 0.554772 0.723171
0.441901 0.540856 0.762814
0.463416 0.541100 0.762722
0.508476 0.550713 0.763485
0.570153 0.562432 0.764645
0.635737 0.581109 0.767208
0.700038 0.600610 0.769253
0.759121 0.614923 0.768032
0.804349 0.611597 0.761776
0.838010 0.607050 0.757595
0.452461 0.621241 0.817166
0.466804 0.621027 0.815732
0.510887 0.626215 0.814969
0.572107 0.635492 0.811521
0.639399 0.647822 0.811398
0.708217 0.661921 0.807462
0.768948 0.670375 0.803433
0.817899 0.666285 0.791684
0.852384 0.657710 0.783078
0.454261 0.697353 0.838437
0.466346 0.697078 0.838254
0.503258 0.696407 0.837156
0.564935 0.703334 0.837156
0.633692 0.712276 0.840146
0.707881 0.723079 0.836912
0.774136 0.727565 0.833280
0.829557 0.724910 0.821775
0.864042 0.714015 0.808957
0.493996 0.756405 0.833555
0.497780 0.756344 0.833555
0.531395 0.759823 0.833890
0.577234 0.766903 0.838163
0.639368 0.775021 0.843076
0.709712 0.783627 0.849973
0.779294 0.790799 0.852934
0.838437 0.788113 0.845914
0.877134 0.778805 0.833951
0.561975 0.786923 0.810941
0.562005 0.787106 0.810941
0.587671 0.792569 0.814389
0.620844 0.803922 0.822690
0.664485 0.817655 0.834531
0.720089 0.830716 0.845884
0.782895 0.845457 0.853788
0.845670 0.850156 0.857969
0.897673 0.853910 0.861723
0.629755 0.810941 0.806882
0.630091 0.810941 0.806882
0.642725 0.810971 0.806943
0.675776 0.819852 0.815427
0.708003 0.831601 0.827359
0.744808 0.850004 0.841825
0.791318 0.866606 0.854215
0.846067 0.889464 0.865660
0.901549 0.905608 0.869718
0.474067 0.466163 0.707576
0.488472 0.469642 0.707637
0.520562 0.482002 0.710445
0.570672 0.502495 0.722103
0.630976 0.531334 0.734554
0.689296 0.562097 0.749630
0.746670 0.589593 0.761776
0.797482 0.608850 0.763180
0.825315 0.612818 0.763241
0.489296 0.488472 0.720333
0.504143 0.491798 0.720485
0.536736 0.503868 0.727138
0.582391 0.523125 0.732662
0.635370 0.546380 0.741054
0.691035 0.572839 0.751339
0.746670 0.599298 0.763241
0.797360 0.613397 0.766690
0.825132 0.615808 0.769039
0.516838 0.538445 0.754604
0.526787 0.540368 0.754543
0.559319 0.548211 0.757656
0.602136 0.560601 0.762020
0.653864 0.579736 0.767666
0.705715 0.605463 0.773007
0.757321 0.628809 0.780087
0.802487 0.643336 0.781186
0.827939 0.646387 0.780331
0.543389 0.600427 0.798154
0.549126 0.601404 0.798062
0.581994 0.606348 0.798215
0.620813 0.615991 0.797971
0.670375 0.630091 0.799222
0.721340 0.646296 0.802823
0.771756 0.665980 0.803586
0.813413 0.676265 0.804654
0.839506 0.679408 0.804471
0.555779 0.666102 0.839780
0.556237 0.665614 0.838346
0.590051 0.666407 0.835538
0.624903 0.670283 0.835080
0.677455 0.681941 0.835080
0.730495 0.693416 0.833982
0.784237 0.709041 0.831205
0.827848 0.716884 0.830106
0.857023 0.718257 0.829709
0.543755 0.720089 0.871946
0.543725 0.719966 0.870359
0.577173 0.720394 0.869261
0.619562 0.723903 0.866117
0.673396 0.731533 0.865507
0.731350 0.739925 0.862119
0.785611 0.745449 0.855802
0.839506 0.753750 0.854337
0.871275 0.756497 0.851621
0.559899 0.774838 0.885954
0.559808 0.775570 0.885954
0.585290 0.775998 0.889616
0.619318 0.779995 0.890379
0.669795 0.784512 0.892760
0.728817 0.792050 0.889860
0.791470 0.799435 0.889281
0.850217 0.808042 0.885679
0.889891 0.811551 0.885618
0.604273 0.807553 0.866178
0.605341 0.807614 0.866178
0.624353 0.808286 0.870176
0.655848 0.817227 0.875944
0.688472 0.828122 0.885832
0.733639 0.838712 0.894926
0.792599 0.850980 0.902342
0.854795 0.858732 0.909300
0.902037 0.862547 0.912963
0.650477 0.815671 0.850858
0.650599 0.815671 0.850858
0.649897 0.815671 0.850340
0.674372 0.818692 0.856291
0.707454 0.831907 0.865660
0.742580 0.849119 0.878447
0.790799 0.868223 0.894591
0.847868 0.890654 0.911101
0.908873 0.909148 0.916716
