app/src/main/assets/filters/nature1600.cube
# Created from nature1600.plut
LUT_3D_SIZE 5
DOMAIN_MIN 0.0 0.0 0.0
DOMAIN_MAX 1.0 1.0 1.0
0.015686 0.015686 0.019608
0.118624 0.019608 0.023529
0.423529 0.000000 0.033341
0.761761 0.000000 0.063722
1.000000 0.196078 0.164706
0.000000 0.200977 0.087251
0.174517 0.227695 0.067887
0.546075 0.234806 0.089708
0.852201 0.268620 0.156619
1.000000 0.382361 0.254902
0.094118 0.531380 0.272541
0.255390 0.529412 0.284306
0.525490 0.570581 0.248035
0.865690 0.591180 0.250004
1.000000 0.670588 0.470588
0.481376 0.780392 0.511757
0.529656 0.779416 0.519356
0.640192 0.776471 0.539208
0.832349 0.811521 0.518868
1.000000 0.831373 0.522545
0.843137 0.949020 0.815686
0.854902 0.949020 0.819608
0.884321 0.949020 0.829419
0.926467 0.953918 0.843137
0.984314 0.980392 0.850980
0.000000 0.008820 0.134310
0.137255 0.000000 0.145098
0.374517 0.000000 0.153918
0.689464 0.033585 0.199023
1.000000 0.215686 0.268620
0.000000 0.201968 0.209064
0.192096 0.212253 0.217639
0.482353 0.239216 0.239704
0.784314 0.281376 0.274510
1.000000 0.389212 0.339223
0.157839 0.541176 0.350973
0.300008 0.536767 0.360662
0.534066 0.562737 0.348043
0.869612 0.600610 0.392035
1.000000 0.690196 0.567651
0.504173 0.784314 0.552941
0.552392 0.783337 0.560784
0.655879 0.776471 0.576959
0.836027 0.807843 0.565682
1.000000 0.834318 0.589212
0.843137 0.949020 0.826474
0.854902 0.949020 0.827451
0.884321 0.949020 0.836759
0.926467 0.953918 0.850980
0.984314 0.980392 0.858824
0.009812 0.000000 0.380392
0.107347 0.000000 0.402945
0.444114 0.000000 0.419608
0.667155 0.000000 0.388235
0.927459 0.100008 0.400000
0.000000 0.113725 0.404410
0.113725 0.126223 0.427817
0.480888 0.154910 0.448280
0.690684 0.225360 0.418143
0.935790 0.282841 0.417639
0.000000 0.522545 0.504906
0.228672 0.529168 0.510780
0.555886 0.545098 0.531868
0.816663 0.578683 0.563485
1.000000 0.636271 0.609812
0.496086 0.795590 0.639704
0.559442 0.792523 0.646937
0.690196 0.784314 0.663478
0.843503 0.803922 0.670588
1.000000 0.847547 0.735286
0.835294 0.956863 0.845090
0.850980 0.956863 0.850980
0.884321 0.954910 0.858824
0.927947 0.956863 0.873045
0.988235 0.980392 0.878431
0.000000 0.000000 0.639216
0.040436 0.000000 0.651713
0.475486 0.000000 0.700008
0.794110 0.000000 0.702937
0.978439 0.000000 0.663722
0.024506 0.000000 0.650248
0.052506 0.000000 0.665934
0.486519 0.000000 0.707836
0.797055 0.000000 0.705150
0.980392 0.137499 0.666667
0.000000 0.425986 0.650980
0.034195 0.412375 0.666178
0.477943 0.414710 0.715679
0.823651 0.482597 0.740688
0.978927 0.497063 0.693629
0.290196 0.773281 0.761761
0.395468 0.775494 0.764706
0.614466 0.778683 0.774762
0.854719 0.794614 0.799451
0.996078 0.828916 0.829664
0.787259 0.964706 0.883330
0.809812 0.964706 0.883330
0.860792 0.964706 0.891173
0.930388 0.964706 0.907591
0.988235 0.980392 0.917647
0.000000 0.235294 0.921569
0.000000 0.223529 0.925490
0.394125 0.164706 0.933333
0.826474 0.000000 0.949996
1.000000 0.000000 0.949020
0.000000 0.239216 0.928435
0.000000 0.228183 0.928435
0.410788 0.172549 0.936767
0.837995 0.000000 0.953674
1.000000 0.000000 0.951965
0.000000 0.256870 0.939208
0.000000 0.249027 0.941176
0.398032 0.208820 0.948043
0.853437 0.067155 0.964706
1.000000 0.278431 0.954910
0.000000 0.736278 0.921569
0.098039 0.728435 0.921569
0.442649 0.702449 0.929412
0.781613 0.647791 0.956863
1.000000 0.735286 0.953918
0.705882 0.976471 0.976471
0.724514 0.976471 0.976471
0.782361 0.976471 0.976471
0.872541 0.976471 0.980392
0.996078 0.984314 0.988235
