app/src/main/assets/filters/nature1600.cube
# Created from nature1600.plut
LUT_3D_SIZE 9
DOMAIN_MIN 0.0 0.0 0.0
DOMAIN_MAX 1.0 1.0 1.0
0.015686 0.015686 0.019608
0.046082 0.019608 0.023529
0.118624 0.019608 0.023529
0.250004 0.001465 0.027451
0.423529 0.000000 0.033341
0.597055 0.000000 0.043137
0.761761 0.000000 0.063722
0.923537 0.021073 0.102937
1.000000 0.196078 0.164706
0.016175 0.065202 0.035294
0.057847 0.073045 0.034806
0.159808 0.069123 0.031373
0.312261 0.065995 0.042649
0.474754 0.047791 0.050492
0.638727 0.021073 0.067460
0.792157 0.061280 0.090684
0.939147 0.144060 0.129412
1.000000 0.263722 0.190692
0.000000 0.200977 0.087251
0.042161 0.201968 0.092042
0.174517 0.227695 0.067887
0.352087 0.228428 0.045594
0.546075 0.234806 0.089708
0.721080 0.248035 0.131868
0.852201 0.268620 0.156619
0.975982 0.315312 0.196689
1.000000 0.382361 0.254902
0.000000 0.374014 0.174517
0.047364 0.375494 0.179721
0.185290 0.374884 0.183337
0.343191 0.407782 0.144610
0.538476 0.411276 0.089952
0.726467 0.427024 0.158892
0.895094 0.460288 0.237873
1.000000 0.497368 0.311269
1.000000 0.536278 0.363729
0.094118 0.531380 0.272541
0.163241 0.533333 0.278187
0.255390 0.529412 0.284306
0.362737 0.535790 0.283818
0.525490 0.570581 0.248035
0.700740 0.580148 0.198032
0.865690 0.591180 0.250004
0.993133 0.624018 0.356619
1.000000 0.670588 0.470588
0.283330 0.664714 0.378424
0.316182 0.664714 0.384802
0.373648 0.664714 0.390188
0.448524 0.660777 0.401968
0.549508 0.674510 0.393622
0.691173 0.703914 0.367224
0.844602 0.721080 0.333333
0.964706 0.722545 0.369421
1.000000 0.757351 0.497063
0.481376 0.780392 0.511757
0.495705 0.780392 0.514702
0.529656 0.779416 0.519356
0.579416 0.776471 0.529290
0.640192 0.776471 0.539208
0.725002 0.791180 0.531991
0.832349 0.811521 0.518868
0.942641 0.830396 0.500984
1.000000 0.831373 0.522545
0.682353 0.868635 0.666178
0.689708 0.868635 0.669612
0.705760 0.868635 0.672679
0.734798 0.868132 0.677455
0.769116 0.868132 0.687251
0.812558 0.869612 0.693629
0.866911 0.880888 0.693141
0.930877 0.899077 0.689220
0.995590 0.915190 0.689220
0.843137 0.949020 0.815686
0.847059 0.949020 0.819608
0.854902 0.949020 0.819608
0.866667 0.949020 0.823529
0.884321 0.949020 0.829419
0.903426 0.949020 0.836759
0.926467 0.953918 0.843137
0.953429 0.964706 0.843137
0.984314 0.980392 0.850980
0.000000 0.015686 0.053925
0.053925 0.000000 0.057420
0.114702 0.022675 0.057847
0.236271 0.023224 0.069917
0.402701 0.000000 0.085298
0.572732 0.000000 0.100679
0.739712 0.000855 0.121569
0.904906 0.040070 0.152880
1.000000 0.203433 0.202945
0.012253 0.068620 0.076463
0.060899 0.069490 0.080385
0.152071 0.076967 0.084703
0.289220 0.081941 0.094789
0.448249 0.077699 0.107836
0.612345 0.070542 0.123415
0.769238 0.093797 0.144549
0.923095 0.163180 0.175067
1.000000 0.267643 0.225483
0.000000 0.204898 0.129412
0.068193 0.205753 0.133440
0.182910 0.221347 0.126345
0.354910 0.227939 0.126421
0.542641 0.242649 0.165072
0.694423 0.253254 0.181857
0.832837 0.273442 0.203861
0.961212 0.319554 0.235782
1.000000 0.386267 0.285298
0.000000 0.377935 0.208820
0.087190 0.379141 0.214221
0.201831 0.375418 0.221744
0.348043 0.403052 0.194491
0.538476 0.408087 0.162402
0.726360 0.429419 0.222187
0.891905 0.465080 0.290562
0.998871 0.497551 0.341939
1.000000 0.538720 0.390509
0.123033 0.535286 0.297551
0.182849 0.537041 0.303426
0.271321 0.531380 0.309926
0.372305 0.534707 0.311849
0.525490 0.566674 0.281498
0.700740 0.576410 0.241520
0.867399 0.593133 0.297368
0.993133 0.628367 0.395071
1.000000 0.678431 0.505150
0.300008 0.666178 0.399023
0.331594 0.668620 0.405203
0.385519 0.665034 0.409308
0.458534 0.662257 0.419608
0.553429 0.674510 0.414710
0.694835 0.701472 0.391180
0.843626 0.720104 0.360830
0.964706 0.724025 0.402609
1.000000 0.761273 0.524025
0.489708 0.783337 0.526101
0.504738 0.783337 0.529900
0.538140 0.780392 0.533913
0.587182 0.779416 0.541787
0.647608 0.776471 0.550484
0.728695 0.789334 0.545602
0.833082 0.810788 0.533852
0.942275 0.827451 0.516182
1.000000 0.834318 0.541665
0.686275 0.872053 0.674022
0.693629 0.872053 0.677028
0.709316 0.869383 0.680125
0.738720 0.868132 0.685298
0.772824 0.868132 0.693141
0.812741 0.869612 0.700984
0.869612 0.880766 0.700053
0.930877 0.899016 0.696941
0.995590 0.915190 0.696635
0.843137 0.949020 0.819608
0.847059 0.949020 0.819608
0.854902 0.949020 0.823529
0.868818 0.949020 0.827451
0.884321 0.949020 0.831373
0.903426 0.949020 0.839216
0.926467 0.953918 0.843137
0.953429 0.964706 0.847059
0.984314 0.980392 0.850980
0.000000 0.008820 0.134310
0.046937 0.000000 0.141176
0.137255 0.000000 0.145098
0.244114 0.000000 0.149630
0.374517 0.000000 0.153918
0.515557 0.011154 0.167041
0.689464 0.033585 0.199023
0.863233 0.107973 0.228916
1.000000 0.215686 0.268620
0.000000 0.053925 0.152941
0.039902 0.053437 0.161105
0.155917 0.058213 0.167681
0.267277 0.075975 0.168627
0.396445 0.090684 0.173465
0.551461 0.109316 0.194614
0.719615 0.138231 0.220706
0.881865 0.187137 0.248524
1.000000 0.272053 0.289830
0.000000 0.201968 0.209064
0.015045 0.205890 0.212253
0.192096 0.212253 0.217639
0.332692 0.225681 0.226474
0.482353 0.239216 0.239704
0.634562 0.254414 0.255024
0.784314 0.281376 0.274510
0.927199 0.324147 0.301472
1.000000 0.389212 0.339223
0.000000 0.384802 0.270588
0.097993 0.384436 0.275975
0.235294 0.379690 0.284932
0.360494 0.395712 0.278233
0.545098 0.410300 0.282048
0.728923 0.441871 0.335729
0.872053 0.469856 0.373159
0.975982 0.496071 0.399023
1.000000 0.538720 0.436637
0.157839 0.541176 0.350973
0.213718 0.541176 0.354910
0.300008 0.536767 0.360662
0.395834 0.534005 0.368322
0.534066 0.562737 0.348043
0.703243 0.569116 0.323842
0.869612 0.600610 0.392035
0.989700 0.642771 0.482353
1.000000 0.690196 0.567651
0.326955 0.670100 0.440192
0.354910 0.672541 0.445594
0.408331 0.668620 0.449790
0.479698 0.664714 0.457725
0.564706 0.670588 0.459739
0.697856 0.698848 0.440681
0.843626 0.714794 0.420554
0.962554 0.729778 0.474998
1.000000 0.769116 0.585290
0.504173 0.784314 0.552941
0.520134 0.784314 0.556863
0.552392 0.783337 0.560784
0.599695 0.780392 0.568627
0.655879 0.776471 0.576959
0.732845 0.788724 0.576196
0.836027 0.807843 0.565682
0.940230 0.827451 0.553155
1.000000 0.834318 0.589212
0.690196 0.872053 0.688365
0.699794 0.872053 0.691783
0.715785 0.872053 0.693019
0.742641 0.868635 0.699626
0.776959 0.868132 0.707408
0.816480 0.868177 0.715236
0.869612 0.880766 0.715190
0.930877 0.896010 0.712520
0.995590 0.915190 0.711772
0.843137 0.949020 0.826474
0.847059 0.949020 0.827451
0.854902 0.949020 0.827451
0.869123 0.949020 0.831373
0.884321 0.949020 0.836759
0.903426 0.949020 0.843137
0.926467 0.953918 0.850980
0.953429 0.964706 0.850980
0.984314 0.980392 0.858824
0.000000 0.000000 0.252934
0.006561 0.000000 0.264210
0.144121 0.000000 0.280018
0.282841 0.000000 0.282841
0.399756 0.000000 0.269856
0.518135 0.000000 0.264714
0.643137 0.010666 0.269001
0.779904 0.094423 0.280079
0.963729 0.179416 0.324025
0.000000 0.023713 0.264210
0.000000 0.023529 0.272053
0.148165 0.016480 0.291005
0.293629 0.003861 0.292287
0.409812 0.029755 0.279652
0.529412 0.076280 0.277455
0.653269 0.123934 0.281987
0.802411 0.170245 0.300328
0.978119 0.239704 0.340871
0.000000 0.172061 0.294118
0.000000 0.168994 0.303899
0.163241 0.171084 0.323507
0.335790 0.190921 0.331258
0.442405 0.213230 0.315496
0.557702 0.233326 0.314092
0.692775 0.260288 0.324269
0.858824 0.299580 0.352941
0.999390 0.359686 0.387381
0.000000 0.369177 0.362799
0.000000 0.372122 0.364279
0.195041 0.378103 0.369116
0.373648 0.385992 0.377920
0.517861 0.399756 0.388724
0.659312 0.417441 0.402533
0.798672 0.440681 0.421073
0.929793 0.471870 0.444114
1.000000 0.518135 0.477455
0.056367 0.550240 0.421073
0.175677 0.550240 0.424323
0.307347 0.546502 0.430213
0.427909 0.539223 0.440681
0.545342 0.554910 0.436759
0.712474 0.571603 0.448981
0.873045 0.616236 0.519356
0.976959 0.655238 0.576165
1.000000 0.683818 0.607843
0.333333 0.677394 0.497063
0.367941 0.678920 0.500801
0.431830 0.675547 0.507347
0.507347 0.670100 0.514275
0.585290 0.667399 0.521355
0.704479 0.694545 0.512200
0.847059 0.709087 0.500740
0.962249 0.738231 0.576532
1.000000 0.782422 0.667643
0.513725 0.788235 0.593500
0.532235 0.787869 0.598398
0.567681 0.786435 0.601343
0.616770 0.782879 0.607218
0.673411 0.779904 0.616114
0.740688 0.784802 0.620951
0.839216 0.807599 0.614557
0.939590 0.823529 0.605875
1.000000 0.838239 0.654780
0.697063 0.875975 0.710780
0.704906 0.875975 0.714397
0.719615 0.872358 0.714702
0.746563 0.872053 0.719432
0.781949 0.869703 0.726467
0.821744 0.868132 0.736400
0.871214 0.879896 0.737926
0.930877 0.896010 0.737743
0.995590 0.915190 0.737926
0.843137 0.952941 0.835294
0.847059 0.952941 0.835294
0.854902 0.952941 0.837751
0.869123 0.952941 0.840742
0.884321 0.952941 0.845594
0.905882 0.952941 0.851896
0.926467 0.956863 0.859434
0.953429 0.965011 0.861463
0.984314 0.980392 0.866667
0.009812 0.000000 0.380392
0.019364 0.000000 0.387747
0.107347 0.000000 0.402945
0.299748 0.000000 0.429908
0.444114 0.000000 0.419608
0.557351 0.000000 0.397299
0.667155 0.000000 0.388235
0.792157 0.000000 0.388479
0.927459 0.100008 0.400000
0.015686 0.000000 0.387747
0.019394 0.000000 0.392126
0.096208 0.000000 0.410300
0.306523 0.000000 0.437263
0.449638 0.000000 0.423529
0.559808 0.000000 0.400336
0.669917 0.044053 0.391669
0.797299 0.111574 0.395590
0.930388 0.173526 0.405142
0.000000 0.113725 0.404410
0.000000 0.116609 0.412497
0.113725 0.126223 0.427817
0.331060 0.140078 0.454414
0.480888 0.154910 0.448280
0.581857 0.192462 0.424994
0.690684 0.225360 0.418143
0.810300 0.249821 0.417456
0.935790 0.282841 0.417639
0.000000 0.317159 0.421317
0.000000 0.322545 0.427848
0.167407 0.325551 0.443870
0.342672 0.334798 0.475517
0.519356 0.364218 0.487007
0.612284 0.374548 0.465690
0.718868 0.384375 0.457359
0.838087 0.398627 0.454658
0.981857 0.441184 0.482841
0.000000 0.522545 0.504906
0.012253 0.525368 0.507836
0.228672 0.529168 0.510780
0.395834 0.535286 0.518624
0.555886 0.545098 0.531868
0.686275 0.559564 0.545830
0.816663 0.578683 0.563485
0.929046 0.602457 0.582849
1.000000 0.636271 0.609812
0.264714 0.688975 0.571084
0.313481 0.689128 0.573526
0.402762 0.685786 0.575006
0.510231 0.681132 0.580423
0.610910 0.674266 0.589334
0.714153 0.689708 0.590692
0.855207 0.711269 0.610422
0.962066 0.755398 0.687495
1.000000 0.794125 0.745586
0.496086 0.795590 0.639704
0.518135 0.795590 0.643137
0.559442 0.792523 0.646937
0.624384 0.788785 0.654902
0.690196 0.784314 0.663478
0.753185 0.783337 0.673533
0.843503 0.803922 0.670588
0.942153 0.819608 0.666850
1.000000 0.847547 0.735286
0.679896 0.879896 0.733822
0.691173 0.879896 0.737255
0.713787 0.878187 0.741176
0.749355 0.875975 0.748379
0.787381 0.873289 0.752941
0.827207 0.872053 0.762066
0.873533 0.879530 0.768139
0.934310 0.896010 0.767926
0.995590 0.915190 0.768627
0.835294 0.956863 0.845090
0.840925 0.956863 0.847059
0.850980 0.956863 0.850980
0.865934 0.955642 0.852934
0.884321 0.954910 0.858824
0.907347 0.955642 0.864714
0.927947 0.956863 0.873045
0.953429 0.965194 0.874510
0.988235 0.980392 0.878431
0.000000 0.000000 0.503914
0.023529 0.000000 0.507836
0.053437 0.000000 0.523522
0.282353 0.000000 0.545586
0.485054 0.000000 0.575250
0.613657 0.000000 0.556374
0.719615 0.000000 0.531868
0.823041 0.000000 0.521080
0.950484 0.000000 0.527459
0.023529 0.000000 0.508644
0.031373 0.000000 0.515190
0.096010 0.000000 0.530022
0.287068 0.000000 0.552132
0.487984 0.000000 0.578988
0.617350 0.000000 0.560113
0.719112 0.000000 0.532723
0.823835 0.000000 0.522774
0.949996 0.057420 0.528252
0.000000 0.050492 0.517647
0.000000 0.050492 0.522545
0.013016 0.051316 0.536431
0.288441 0.047395 0.559609
0.506188 0.031434 0.588846
0.633600 0.075837 0.569604
0.730022 0.147921 0.544915
0.830869 0.199145 0.533654
0.953429 0.233326 0.537255
0.000000 0.272541 0.529900
0.000000 0.264775 0.536568
0.037003 0.257359 0.549966
0.309804 0.278843 0.574228
0.525978 0.313024 0.606836
0.660777 0.333333 0.599939
0.749371 0.352483 0.571984
0.847440 0.364889 0.559686
0.959319 0.381308 0.555886
0.000000 0.459312 0.547311
0.000000 0.462501 0.549996
0.160174 0.465202 0.556435
0.340200 0.472587 0.576959
0.517769 0.489220 0.618143
0.688518 0.522057 0.633051
0.769116 0.520104 0.607721
0.865110 0.516030 0.590005
0.966659 0.523278 0.580880
0.103243 0.654963 0.638727
0.188617 0.658213 0.641657
0.303502 0.658335 0.642649
0.433845 0.662867 0.649577
0.574945 0.670588 0.659098
0.724086 0.682475 0.677028
0.834867 0.696834 0.692531
0.927443 0.715953 0.709682
1.000000 0.740749 0.731365
0.434195 0.803922 0.707836
0.460761 0.803922 0.711147
0.513725 0.803311 0.712596
0.596277 0.799390 0.715068
0.690684 0.795102 0.720165
0.771695 0.787625 0.730388
0.848615 0.800000 0.734310
0.945907 0.822522 0.754467
1.000000 0.861891 0.818021
0.653437 0.885298 0.772061
0.668132 0.885298 0.773342
0.692470 0.883818 0.775677
0.733654 0.883818 0.779416
0.784649 0.879896 0.787259
0.834119 0.875975 0.795102
0.877333 0.876844 0.802945
0.934310 0.895583 0.802945
0.996078 0.911269 0.806867
0.811765 0.960784 0.856367
0.818143 0.960784 0.856367
0.831006 0.960784 0.860288
0.852506 0.960784 0.866667
0.880385 0.960784 0.874510
0.907347 0.960784 0.880827
0.930388 0.960784 0.887739
0.954711 0.965194 0.891661
0.988235 0.980392 0.895583
0.000000 0.000000 0.639216
0.000000 0.000000 0.640192
0.040436 0.000000 0.651713
0.245716 0.000000 0.673045
0.475486 0.000000 0.700008
0.683207 0.000000 0.724758
0.794110 0.000000 0.702937
0.878920 0.000000 0.671199
0.978439 0.000000 0.663722
0.000000 0.000000 0.642649
0.022507 0.000000 0.646357
0.047883 0.000000 0.657572
0.277409 0.000000 0.676967
0.494606 0.000000 0.703670
0.685679 0.000000 0.728008
0.793622 0.000000 0.702449
0.881376 0.000000 0.672251
0.980880 0.000000 0.666300
0.024506 0.000000 0.650248
0.031952 0.000000 0.655116
0.052506 0.000000 0.665934
0.269764 0.000000 0.682963
0.486519 0.000000 0.707836
0.692531 0.000000 0.731777
0.797055 0.000000 0.705150
0.881132 0.012955 0.674357
0.980392 0.137499 0.666667
0.000000 0.179904 0.653803
0.000000 0.181003 0.658686
0.000000 0.185779 0.668788
0.264714 0.192844 0.688731
0.497734 0.209247 0.715312
0.707454 0.240681 0.743008
0.811276 0.273747 0.720104
0.891264 0.307118 0.689448
0.980270 0.336156 0.676967
0.000000 0.425986 0.650980
0.000000 0.423713 0.654902
0.034195 0.412375 0.666178
0.233890 0.388846 0.687495
0.477943 0.414710 0.715679
0.701961 0.464149 0.751476
0.823651 0.482597 0.740688
0.896818 0.489220 0.709987
0.978927 0.497063 0.693629
0.000000 0.597177 0.678065
0.000000 0.597177 0.680522
0.113298 0.595621 0.680522
0.305272 0.595102 0.682643
0.483879 0.599939 0.704662
0.675746 0.620783 0.750607
0.833585 0.658824 0.765194
0.896223 0.649607 0.735698
0.976471 0.642649 0.720226
0.290196 0.773281 0.761761
0.326589 0.775494 0.764706
0.395468 0.775494 0.764706
0.495918 0.775738 0.768627
0.614466 0.778683 0.774762
0.737255 0.782879 0.783429
0.854719 0.794614 0.799451
0.933577 0.810269 0.814740
0.996078 0.828916 0.829664
0.602945 0.890806 0.825620
0.618341 0.891661 0.826474
0.651072 0.891661 0.829419
0.700633 0.891661 0.830396
0.761761 0.888609 0.834012
0.827817 0.886412 0.837018
0.884535 0.880888 0.842161
0.938231 0.895155 0.846769
0.999512 0.914702 0.868635
0.787259 0.964706 0.883330
0.795102 0.964706 0.883330
0.809812 0.964706 0.883330
0.832837 0.964706 0.887251
0.860792 0.964706 0.891173
0.896696 0.964706 0.899016
0.930388 0.964706 0.907591
0.957351 0.968627 0.914702
0.988235 0.980392 0.917647
0.000000 0.072541 0.782849
0.000000 0.058274 0.786282
0.000000 0.017639 0.790188
0.140810 0.000000 0.801968
0.438239 0.000000 0.817639
0.659007 0.000000 0.838239
0.851225 0.000000 0.855512
0.954910 0.000000 0.836820
1.000000 0.000000 0.810300
0.000000 0.065202 0.786709
0.000000 0.054353 0.786770
0.000000 0.009812 0.792935
0.182559 0.000000 0.804105
0.451682 0.000000 0.821073
0.667948 0.000000 0.840543
0.858457 0.000000 0.856367
0.955398 0.000000 0.837201
1.000000 0.000000 0.809812
0.000000 0.053925 0.790570
0.000000 0.036591 0.794125
0.002579 0.002701 0.798032
0.250248 0.000000 0.809751
0.482231 0.000000 0.826719
0.688823 0.000000 0.845182
0.865660 0.000000 0.859068
0.958068 0.000000 0.837263
1.000000 0.000000 0.809308
0.000000 0.058518 0.798352
0.000000 0.045090 0.801694
0.000000 0.006210 0.805890
0.220905 0.000000 0.816297
0.468605 0.000000 0.830640
0.685847 0.000000 0.847837
0.867201 0.000000 0.860456
0.958831 0.107317 0.837522
1.000000 0.222370 0.808820
0.000000 0.303929 0.794614
0.000000 0.302174 0.798291
0.000000 0.298039 0.801526
0.101961 0.293874 0.812436
0.436759 0.297551 0.828305
0.672541 0.326375 0.847547
0.866361 0.384619 0.865751
0.954910 0.418143 0.846601
1.000000 0.447547 0.815930
0.000000 0.565194 0.778927
0.000000 0.565194 0.781369
0.000000 0.561349 0.784405
0.216693 0.545281 0.796689
0.365072 0.504906 0.816907
0.629892 0.538048 0.839536
0.844907 0.601022 0.864576
0.943130 0.621118 0.856107
1.000000 0.624018 0.830701
0.000000 0.731243 0.810788
0.016510 0.731579 0.810788
0.161944 0.729931 0.810788
0.316625 0.723033 0.807309
0.453803 0.715190 0.806867
0.622538 0.710903 0.818769
0.813016 0.738231 0.857267
0.934798 0.775769 0.869337
0.988602 0.764706 0.849516
0.482780 0.875547 0.868635
0.501793 0.875547 0.868635
0.541726 0.875547 0.872053
0.601389 0.872541 0.872053
0.677729 0.872053 0.872541
0.762524 0.872053 0.876143
0.853986 0.875975 0.883497
0.941299 0.890806 0.899031
0.992157 0.906432 0.910842
0.744610 0.968139 0.918624
0.752453 0.968139 0.922057
0.768139 0.968627 0.922057
0.796262 0.968627 0.922057
0.832593 0.968627 0.925978
0.873045 0.969116 0.926467
0.918135 0.972549 0.931243
0.957351 0.972610 0.941665
0.992157 0.980880 0.945586
0.000000 0.235294 0.921569
0.000000 0.231861 0.921569
0.000000 0.223529 0.925490
0.000000 0.205386 0.925490
0.394125 0.164706 0.933333
0.625986 0.069612 0.941176
0.826474 0.000000 0.949996
0.993133 0.000000 0.956863
1.000000 0.000000 0.949020
0.000000 0.238727 0.925002
0.000000 0.234806 0.925002
0.000000 0.224384 0.925490
0.000000 0.207538 0.928923
0.399512 0.168139 0.933333
0.629419 0.073045 0.941176
0.830274 0.000000 0.952575
0.993133 0.000000 0.960296
1.000000 0.000000 0.949020
0.000000 0.239216 0.928435
0.000000 0.238239 0.928435
0.000000 0.228183 0.928435
0.028183 0.212253 0.929412
0.410788 0.172549 0.936767
0.636759 0.084810 0.945098
0.837995 0.000000 0.953674
0.999145 0.000000 0.960784
1.000000 0.000000 0.951965
0.000000 0.245594 0.931868
0.000000 0.243442 0.933333
0.000000 0.235904 0.933333
0.060975 0.219608 0.935790
0.415686 0.186023 0.941176
0.641672 0.110292 0.949020
0.847547 0.000000 0.957473
1.000000 0.000000 0.964706
1.000000 0.000000 0.952941
0.000000 0.256870 0.939208
0.000000 0.256870 0.939208
0.000000 0.249027 0.941176
0.040436 0.237995 0.943130
0.398032 0.208820 0.948043
0.637751 0.148531 0.955642
0.853437 0.067155 0.964706
1.000000 0.130877 0.968627
1.000000 0.278431 0.954910
0.000000 0.439704 0.937255
0.000000 0.434318 0.937255
0.000000 0.423163 0.940566
0.000000 0.404410 0.942092
0.277211 0.382849 0.949020
0.597604 0.370581 0.956863
0.835782 0.404532 0.964706
0.995285 0.488045 0.968322
1.000000 0.542641 0.952941
0.000000 0.736278 0.921569
0.000000 0.732723 0.921569
0.098039 0.728435 0.921569
0.293507 0.722667 0.925490
0.442649 0.702449 0.929412
0.520836 0.631373 0.946197
0.781613 0.647791 0.956863
0.957839 0.711757 0.961273
1.000000 0.735286 0.953918
0.430884 0.884321 0.942153
0.442588 0.884321 0.941665
0.472053 0.880385 0.941665
0.520287 0.876478 0.941665
0.584802 0.869123 0.941665
0.659129 0.857359 0.938231
0.769970 0.838117 0.942519
0.911330 0.834318 0.960784
1.000000 0.872541 0.964706
0.705882 0.976471 0.976471
0.709804 0.976471 0.976471
0.724514 0.976471 0.976471
0.747555 0.976471 0.976471
0.782361 0.976471 0.976471
0.824994 0.976471 0.976471
0.872541 0.976471 0.980392
0.926467 0.980392 0.980392
0.996078 0.984314 0.988235
