app/src/main/assets/filters/nature1600.cube
# Created from nature1600.plut
LUT_3D_SIZE 33
DOMAIN_MIN 0.0 0.0 0.0
DOMAIN_MAX 1.0 1.0 1.0
0.015686 0.015686 0.019608
0.019486 0.015686 0.023407
0.026963 0.015686 0.023529
0.034928 0.019608 0.023529
0.046082 0.019608 0.023529
0.057603 0.019608 0.023529
0.076219 0.019608 0.023529
0.095460 0.019608 0.023529
0.118624 0.019608 0.023529
0.145708 0.016785 0.023529
0.175494 0.012985 0.026230
0.212863 0.007843 0.027451
0.250004 0.001465 0.027451
0.292409 0.000000 0.031373
0.334798 0.000000 0.031373
0.381125 0.000000 0.031373
0.423529 0.000000 0.033341
0.468009 0.000000 0.035294
0.510536 0.000000 0.037003
0.554650 0.000000 0.039216
0.597055 0.000000 0.043137
0.639460 0.000000 0.047059
0.680644 0.000000 0.052201
0.723156 0.000000 0.059922
0.761761 0.000000 0.063722
0.804288 0.000000 0.072297
0.842893 0.000000 0.083085
0.885420 0.004532 0.091417
0.923537 0.021073 0.102937
0.958328 0.053559 0.114458
0.992645 0.107347 0.129900
1.000000 0.149752 0.145342
1.000000 0.196078 0.164706
0.015686 0.023407 0.023529
0.019486 0.023407 0.023529
0.027207 0.023407 0.023529
0.038376 0.027314 0.023529
0.049897 0.027329 0.023529
0.065324 0.027329 0.023529
0.083940 0.027329 0.023529
0.103182 0.027329 0.023529
0.126345 0.027329 0.026383
0.153429 0.023407 0.027329
0.187137 0.020706 0.027451
0.220584 0.012985 0.027451
0.259190 0.007767 0.031327
0.301671 0.001541 0.031373
0.344244 0.000000 0.035172
0.388846 0.000000 0.035233
0.431250 0.000000 0.035294
0.473655 0.000000 0.037079
0.518257 0.000000 0.040879
0.560830 0.000000 0.043061
0.603357 0.000000 0.046937
0.645838 0.000000 0.050904
0.685740 0.000000 0.056001
0.726955 0.000000 0.063722
0.766629 0.000000 0.071443
0.808118 0.000000 0.079164
0.846815 0.001450 0.086915
0.885420 0.016693 0.098528
0.924025 0.041306 0.106859
0.962142 0.084077 0.118379
0.992645 0.126467 0.133700
1.000000 0.165072 0.149386
1.000000 0.207721 0.168627
0.015686 0.031128 0.027451
0.023407 0.031128 0.027207
0.030884 0.034806 0.027207
0.038849 0.035050 0.027207
0.053681 0.035050 0.026749
0.069368 0.035050 0.027420
0.088685 0.035050 0.027253
0.110903 0.031983 0.027451
0.136828 0.031128 0.027451
0.163973 0.031128 0.027451
0.194858 0.028351 0.031128
0.231983 0.027039 0.031373
0.270741 0.020584 0.031373
0.311772 0.010681 0.035187
0.355779 0.005280 0.035294
0.398291 0.003677 0.037247
0.440803 0.000000 0.039094
0.483452 0.000000 0.040940
0.525978 0.000000 0.044739
0.568505 0.000000 0.046906
0.611032 0.000000 0.052201
0.653559 0.000000 0.056001
0.692164 0.000000 0.062577
0.734676 0.000000 0.067521
0.773281 0.000000 0.075242
0.812131 0.005341 0.082963
0.854414 0.016663 0.091615
0.892439 0.036973 0.102373
0.927916 0.071839 0.113970
0.962249 0.106981 0.125643
0.996094 0.145357 0.137743
1.000000 0.180514 0.153307
1.000000 0.223041 0.176226
0.019608 0.046326 0.031373
0.023529 0.046326 0.031373
0.031128 0.046326 0.031022
0.038849 0.050248 0.031006
0.057801 0.050248 0.027893
0.076280 0.049882 0.027451
0.096498 0.046983 0.027451
0.122545 0.046326 0.030228
0.148379 0.046052 0.031281
0.179171 0.043397 0.031373
0.210056 0.042405 0.033814
0.247425 0.042039 0.034928
0.286030 0.038254 0.035294
0.328405 0.030274 0.038849
0.369360 0.024140 0.039048
0.411765 0.016617 0.041108
0.454170 0.009064 0.044724
0.496574 0.007111 0.046693
0.538964 0.009110 0.050614
0.579934 0.009430 0.054536
0.622446 0.000000 0.058457
0.662501 0.000000 0.063722
0.703426 0.001114 0.067521
0.742397 0.008103 0.075242
0.781003 0.016815 0.082963
0.819608 0.027985 0.090684
0.858213 0.048020 0.098482
0.896818 0.075120 0.110048
0.931823 0.102449 0.118257
0.966171 0.134035 0.130114
0.996323 0.168734 0.145220
1.000000 0.203326 0.160662
1.000000 0.238483 0.180026
0.016175 0.065202 0.035294
0.020081 0.065202 0.038621
0.027237 0.065202 0.038727
0.038483 0.068803 0.035172
0.057847 0.073045 0.034806
0.080522 0.076463 0.030961
0.106065 0.073289 0.028092
0.130266 0.072541 0.031373
0.159808 0.069123 0.031373
0.194476 0.068772 0.034806
0.231617 0.068620 0.037659
0.271397 0.068620 0.038727
0.312261 0.065995 0.042649
0.350851 0.064408 0.042649
0.393378 0.058091 0.046571
0.432471 0.051713 0.048646
0.474754 0.047791 0.050492
0.515206 0.042023 0.054414
0.556130 0.035538 0.059831
0.598657 0.029206 0.063645
0.638727 0.021073 0.067460
0.679774 0.024094 0.073701
0.714946 0.034073 0.079011
0.753552 0.048646 0.085435
0.792157 0.061280 0.090684
0.830762 0.076722 0.101839
0.869368 0.096178 0.109560
0.904051 0.117082 0.118303
0.939147 0.144060 0.129412
0.973083 0.174228 0.140932
0.999542 0.198993 0.156374
1.000000 0.229419 0.171817
1.000000 0.263722 0.190692
0.008453 0.092287 0.045838
0.016175 0.092287 0.046448
0.023896 0.092287 0.046448
0.038483 0.092287 0.046448
0.053925 0.096208 0.045914
0.080003 0.103426 0.038605
0.110292 0.106859 0.031998
0.137270 0.104158 0.031235
0.168017 0.102968 0.031373
0.205631 0.102815 0.035294
0.244236 0.102815 0.039216
0.286763 0.102815 0.043137
0.329061 0.102815 0.046830
0.373159 0.098894 0.050370
0.413458 0.098558 0.054292
0.455634 0.094972 0.057923
0.494545 0.092409 0.061830
0.536767 0.090150 0.065736
0.575631 0.089830 0.069627
0.614588 0.088853 0.073533
0.656489 0.088991 0.079057
0.691783 0.089433 0.083085
0.730388 0.097673 0.090196
0.768063 0.103792 0.096986
0.804135 0.115312 0.102327
0.842283 0.130755 0.110780
0.877577 0.146807 0.121080
0.912261 0.166278 0.129931
0.946441 0.186648 0.140932
0.980941 0.209812 0.153002
1.000000 0.233005 0.167895
1.000000 0.260685 0.183352
1.000000 0.288365 0.203311
0.000732 0.122545 0.054170
0.008453 0.122545 0.057359
0.019852 0.122545 0.058045
0.031678 0.122545 0.058091
0.053437 0.125978 0.057359
0.073411 0.130510 0.054047
0.106264 0.138231 0.046326
0.140963 0.144762 0.038605
0.175738 0.142214 0.032166
0.213352 0.141421 0.034394
0.251957 0.141421 0.037995
0.297063 0.141421 0.042039
0.339742 0.141421 0.049516
0.389410 0.140688 0.057237
0.434882 0.140688 0.064210
0.477302 0.140688 0.071199
0.520592 0.140688 0.074998
0.559930 0.139956 0.078798
0.598535 0.139956 0.082597
0.637125 0.140246 0.086397
0.674540 0.143877 0.092653
0.711147 0.145708 0.097917
0.745830 0.151720 0.104417
0.783337 0.156954 0.109438
0.819120 0.168566 0.117159
0.853803 0.177691 0.124880
0.889082 0.193133 0.136522
0.923278 0.208698 0.144854
0.956954 0.228031 0.156374
0.985046 0.248112 0.167895
1.000000 0.267643 0.183337
1.000000 0.291646 0.198779
1.000000 0.318624 0.218143
0.000000 0.156497 0.068879
0.000824 0.160296 0.068879
0.008270 0.160418 0.072541
0.027207 0.157641 0.072801
0.046830 0.160037 0.072801
0.072679 0.163851 0.072068
0.099886 0.170871 0.064836
0.137743 0.180026 0.054719
0.175494 0.186252 0.043168
0.214099 0.183948 0.036149
0.256611 0.183093 0.035294
0.301152 0.183093 0.041794
0.347189 0.183093 0.049516
0.393500 0.183597 0.057237
0.442405 0.183948 0.067155
0.490074 0.187015 0.076600
0.537926 0.187015 0.085420
0.583093 0.188449 0.092409
0.621698 0.190066 0.098039
0.660288 0.190936 0.105409
0.694972 0.193988 0.109560
0.730220 0.197910 0.115373
0.764935 0.203067 0.121080
0.799878 0.207721 0.128557
0.834562 0.216205 0.135668
0.868574 0.227939 0.143572
0.903182 0.239460 0.152529
0.934920 0.254902 0.163607
0.965698 0.270344 0.174502
0.992111 0.286641 0.186404
1.000000 0.306065 0.198779
1.000000 0.326345 0.217304
1.000000 0.349508 0.236637
0.000000 0.200977 0.087251
0.000000 0.201968 0.087251
0.000000 0.201968 0.088167
0.012619 0.201968 0.090898
0.042161 0.201968 0.092042
0.072053 0.201968 0.093812
0.101961 0.209064 0.087984
0.132967 0.216785 0.079500
0.174517 0.227695 0.067887
0.219852 0.232624 0.054170
0.261585 0.232349 0.043076
0.307942 0.229786 0.042161
0.352087 0.228428 0.045594
0.397299 0.229419 0.054292
0.447547 0.229419 0.067155
0.495949 0.232868 0.078157
0.546075 0.234806 0.089708
0.595743 0.238636 0.104204
0.641367 0.240620 0.113481
0.684657 0.245319 0.125917
0.721080 0.248035 0.131868
0.754742 0.251316 0.135668
0.786282 0.255207 0.143389
0.821073 0.260914 0.150820
0.852201 0.268620 0.156619
0.883818 0.276570 0.166537
0.917647 0.288167 0.174258
0.945586 0.301076 0.185077
0.975982 0.315312 0.196689
0.999115 0.328191 0.208301
1.000000 0.346624 0.221073
1.000000 0.363119 0.235538
1.000000 0.382361 0.254902
0.000000 0.244358 0.103670
0.000000 0.248203 0.106493
0.000000 0.248280 0.107530
0.001999 0.248280 0.110155
0.034089 0.245472 0.111376
0.068132 0.245472 0.113893
0.099016 0.248646 0.111147
0.132967 0.253559 0.106249
0.169451 0.263386 0.094881
0.214099 0.272602 0.080140
0.262348 0.279652 0.065461
0.308843 0.279652 0.051087
0.354772 0.276097 0.045960
0.398932 0.272953 0.051194
0.447303 0.274495 0.063722
0.495445 0.276326 0.078676
0.545647 0.280201 0.090196
0.595346 0.284092 0.105638
0.645594 0.289220 0.121080
0.691905 0.293675 0.135409
0.737407 0.300328 0.150439
0.773159 0.303426 0.157351
0.809430 0.309163 0.168475
0.840314 0.313848 0.174258
0.871199 0.319020 0.181979
0.902953 0.327565 0.189700
0.930144 0.338323 0.198169
0.960586 0.347555 0.209064
0.985031 0.359075 0.220706
1.000000 0.371695 0.232715
1.000000 0.387137 0.246876
1.000000 0.402579 0.259678
1.000000 0.421942 0.279042
0.000000 0.286763 0.125734
0.000000 0.290608 0.126925
0.000000 0.290684 0.129656
0.000000 0.290684 0.129656
0.028580 0.290684 0.133242
0.070405 0.287984 0.133577
0.102937 0.290181 0.133577
0.133822 0.291646 0.132616
0.167651 0.298772 0.125490
0.209064 0.307378 0.114946
0.255390 0.318135 0.099504
0.304707 0.325048 0.082841
0.354864 0.328679 0.066484
0.401480 0.325628 0.058686
0.445304 0.319310 0.058976
0.494850 0.320790 0.074754
0.543755 0.324025 0.090196
0.593912 0.327825 0.105638
0.642206 0.332311 0.121080
0.689220 0.338247 0.139223
0.735546 0.344366 0.155123
0.779294 0.350851 0.170901
0.820584 0.358572 0.188235
0.856870 0.365957 0.201007
0.887739 0.372793 0.209751
0.918364 0.380514 0.219486
0.945083 0.388235 0.227207
0.971939 0.396155 0.236576
0.995499 0.404898 0.248127
1.000000 0.416663 0.258579
1.000000 0.428260 0.271321
1.000000 0.441184 0.286763
1.000000 0.460533 0.304906
0.000000 0.329168 0.144976
0.000000 0.333013 0.148898
0.000000 0.333089 0.152728
0.000000 0.333089 0.152819
0.031006 0.333089 0.152819
0.074022 0.330510 0.156741
0.109438 0.330510 0.158831
0.140322 0.330510 0.157305
0.174136 0.335454 0.155734
0.209201 0.342519 0.147677
0.249699 0.352819 0.136080
0.297795 0.361883 0.121447
0.349386 0.372183 0.103044
0.401160 0.376226 0.086641
0.447776 0.372671 0.072175
0.492851 0.365667 0.073243
0.539895 0.365805 0.086275
0.588846 0.369726 0.105638
0.637751 0.374777 0.121080
0.685420 0.379171 0.140444
0.731228 0.386893 0.156847
0.774136 0.394614 0.175250
0.818311 0.402335 0.193683
0.860792 0.410056 0.213001
0.898039 0.420340 0.230640
0.931502 0.428061 0.246342
0.957717 0.435782 0.258091
0.983047 0.443503 0.268589
1.000000 0.451225 0.277943
1.000000 0.459068 0.289220
1.000000 0.470665 0.300984
1.000000 0.482353 0.316426
1.000000 0.499138 0.334432
0.000000 0.374014 0.174517
0.000000 0.375494 0.174517
0.000000 0.375494 0.175982
0.002228 0.375494 0.178424
0.047364 0.375494 0.179721
0.088106 0.375494 0.181964
0.122789 0.371847 0.183551
0.154406 0.371572 0.185733
0.185290 0.374884 0.183337
0.216175 0.379782 0.179538
0.252689 0.387503 0.170809
0.294713 0.396689 0.160052
0.343191 0.407782 0.144610
0.395239 0.417639 0.127703
0.447456 0.423377 0.108980
0.495216 0.421439 0.093996
0.538476 0.411276 0.089952
0.584268 0.411475 0.104173
0.633829 0.415351 0.121080
0.680140 0.421088 0.140444
0.726467 0.427024 0.158892
0.769833 0.433204 0.178195
0.812284 0.440925 0.197513
0.854734 0.448646 0.217517
0.895094 0.460288 0.237873
0.930922 0.468009 0.259602
0.963455 0.479652 0.278614
0.988602 0.486519 0.293996
1.000000 0.497368 0.311269
1.000000 0.503944 0.322789
1.000000 0.512993 0.334310
1.000000 0.524636 0.349706
1.000000 0.536278 0.363729
0.000000 0.413977 0.197543
0.000000 0.419364 0.201404
0.000000 0.419486 0.203067
0.029191 0.419486 0.203067
0.071290 0.418097 0.205386
0.106493 0.415930 0.206989
0.138964 0.415564 0.208881
0.169848 0.414313 0.210910
0.196811 0.413413 0.212650
0.227695 0.416709 0.210422
0.259678 0.422187 0.204303
0.297551 0.431495 0.194980
0.340200 0.439216 0.183215
0.388113 0.450858 0.168719
0.440558 0.459892 0.152453
0.494606 0.468620 0.134447
0.541543 0.467277 0.119478
0.579797 0.456413 0.114000
0.626261 0.455802 0.123400
0.673899 0.459342 0.139055
0.720226 0.464088 0.160403
0.762615 0.471015 0.180514
0.807721 0.477211 0.199756
0.850248 0.485588 0.221317
0.888853 0.495369 0.242161
0.925353 0.504295 0.264973
0.957473 0.514641 0.286885
0.988113 0.524269 0.311757
1.000000 0.535592 0.335546
1.000000 0.549264 0.359075
1.000000 0.556985 0.372915
1.000000 0.564828 0.386023
1.000000 0.576349 0.403799
0.000000 0.454170 0.222309
0.008545 0.458091 0.226169
0.034073 0.458091 0.228290
0.068223 0.458091 0.229984
0.100984 0.458091 0.230152
0.129656 0.458091 0.230152
0.158740 0.454170 0.233753
0.187503 0.454170 0.234073
0.214893 0.454170 0.237995
0.241901 0.454170 0.237995
0.271275 0.456870 0.236271
0.306035 0.464576 0.229786
0.343877 0.473381 0.220340
0.386526 0.481743 0.208698
0.433814 0.493385 0.194858
0.486885 0.501106 0.178500
0.538720 0.511025 0.162249
0.585885 0.510475 0.146441
0.622339 0.499779 0.140978
0.666178 0.497307 0.147189
0.711666 0.499840 0.159808
0.754910 0.504295 0.180514
0.800000 0.512016 0.201968
0.842527 0.519738 0.222919
0.881132 0.527459 0.246082
0.918868 0.537758 0.269245
0.952285 0.546807 0.292821
0.982498 0.556588 0.318044
1.000000 0.566674 0.344854
1.000000 0.579736 0.371939
1.000000 0.593378 0.397192
1.000000 0.603357 0.418692
1.000000 0.614954 0.440192
0.030518 0.492775 0.247547
0.061158 0.496696 0.249393
0.082490 0.496696 0.253315
0.107179 0.496696 0.253315
0.130510 0.496696 0.253315
0.155520 0.496696 0.256611
0.180514 0.493111 0.257237
0.207599 0.492775 0.258854
0.234165 0.492775 0.261158
0.261173 0.492775 0.262654
0.286198 0.492775 0.265080
0.317632 0.497185 0.260655
0.351598 0.504906 0.252934
0.390188 0.512627 0.245228
0.432837 0.521370 0.233463
0.480140 0.531991 0.221942
0.529290 0.540627 0.206500
0.581247 0.549264 0.189212
0.627375 0.550790 0.175387
0.660182 0.541558 0.169116
0.700862 0.535912 0.172427
0.747189 0.539086 0.181888
0.790845 0.544976 0.203677
0.834806 0.553216 0.226322
0.873411 0.562249 0.250004
0.911604 0.569970 0.273167
0.945953 0.577691 0.298405
0.976226 0.587259 0.323735
1.000000 0.597055 0.349142
1.000000 0.606806 0.376104
1.000000 0.618509 0.403067
1.000000 0.633890 0.433890
1.000000 0.647547 0.459068
0.094118 0.531380 0.272541
0.111452 0.533272 0.276402
0.125124 0.533333 0.276478
0.142214 0.533333 0.276478
0.163241 0.533333 0.278187
0.184436 0.533333 0.280385
0.207599 0.531380 0.280385
0.230762 0.531380 0.284306
0.255390 0.529412 0.284306
0.281010 0.529412 0.288228
0.305516 0.529412 0.288228
0.332540 0.532662 0.288228
0.362737 0.535790 0.283818
0.398718 0.543511 0.277272
0.436515 0.551232 0.269245
0.479164 0.558953 0.258701
0.525490 0.570581 0.248035
0.572732 0.578302 0.234501
0.621820 0.586023 0.220096
0.666789 0.588602 0.205447
0.700740 0.580148 0.198032
0.738781 0.574517 0.198032
0.783215 0.575738 0.203677
0.827085 0.583459 0.226841
0.865690 0.591180 0.250004
0.903853 0.599329 0.275120
0.938231 0.608576 0.302205
0.967163 0.616297 0.329290
0.993133 0.624018 0.356619
1.000000 0.635660 0.383642
1.000000 0.647303 0.412619
1.000000 0.659007 0.441611
1.000000 0.670588 0.470588
0.140444 0.566049 0.297551
0.155886 0.569924 0.299626
0.167529 0.569970 0.301472
0.181170 0.569970 0.303548
0.196445 0.568368 0.303548
0.215518 0.568139 0.303548
0.236515 0.566445 0.307088
0.257847 0.566049 0.307469
0.279438 0.564675 0.310414
0.304173 0.564218 0.311391
0.327321 0.562783 0.315312
0.351858 0.564218 0.315312
0.378180 0.567453 0.313237
0.409064 0.573297 0.309316
0.444236 0.580270 0.303182
0.481010 0.587991 0.295460
0.522484 0.595712 0.285664
0.567025 0.604288 0.275120
0.613291 0.612985 0.263416
0.662623 0.620706 0.249882
0.707378 0.625391 0.236316
0.738567 0.617533 0.230167
0.774136 0.613107 0.226963
0.818036 0.613703 0.227985
0.857969 0.620096 0.250004
0.896574 0.627817 0.277089
0.930510 0.635538 0.304509
0.961395 0.643259 0.331868
0.987869 0.653071 0.360662
1.000000 0.660777 0.391379
1.000000 0.672419 0.418509
1.000000 0.684062 0.449393
1.000000 0.695705 0.480262
0.190692 0.599023 0.322789
0.202213 0.602869 0.326650
0.212116 0.602945 0.328328
0.221530 0.602945 0.328435
0.235050 0.602945 0.328435
0.250492 0.601083 0.330632
0.267720 0.599344 0.330632
0.286641 0.599023 0.332357
0.306432 0.599023 0.334554
0.329046 0.597436 0.337865
0.350484 0.595636 0.339666
0.373648 0.595102 0.342397
0.396811 0.597543 0.344121
0.425208 0.601343 0.340200
0.455390 0.607355 0.335027
0.489387 0.615076 0.328069
0.525246 0.622797 0.321447
0.566049 0.630518 0.312627
0.609537 0.638239 0.303944
0.654902 0.645960 0.292363
0.701228 0.653681 0.278767
0.744686 0.659129 0.267185
0.775250 0.652888 0.261082
0.808820 0.647791 0.256733
0.850248 0.648341 0.255573
0.886656 0.653071 0.277943
0.922789 0.660777 0.306294
0.953674 0.668498 0.335790
0.980148 0.676219 0.364462
1.000000 0.684154 0.395178
1.000000 0.695583 0.424506
1.000000 0.705562 0.455390
1.000000 0.717159 0.487984
0.237003 0.633829 0.351476
0.246983 0.633829 0.353719
0.254780 0.635309 0.355398
0.263951 0.633829 0.355398
0.273854 0.633829 0.355398
0.285786 0.633829 0.357717
0.302510 0.633829 0.359014
0.319631 0.631495 0.359319
0.337743 0.630304 0.362844
0.357107 0.629908 0.363241
0.379171 0.629908 0.366659
0.399207 0.629908 0.369482
0.420569 0.629908 0.372534
0.444526 0.629908 0.372671
0.471534 0.635126 0.368872
0.501717 0.640925 0.363989
0.534920 0.647547 0.358145
0.570825 0.654520 0.351232
0.609277 0.661402 0.343511
0.651102 0.669764 0.333455
0.694499 0.678431 0.323262
0.738476 0.686152 0.312749
0.780270 0.690822 0.301946
0.809934 0.689220 0.295384
0.843717 0.684215 0.289738
0.878447 0.682643 0.287922
0.911894 0.687434 0.309682
0.945342 0.691661 0.335790
0.972427 0.699382 0.366674
0.994995 0.707103 0.397543
1.000000 0.717250 0.428428
1.000000 0.726543 0.459312
1.000000 0.738109 0.491783
0.283330 0.664714 0.378424
0.293431 0.664714 0.382361
0.297307 0.667155 0.384649
0.305028 0.667155 0.384802
0.316182 0.664714 0.384802
0.327703 0.664714 0.386267
0.339498 0.664714 0.386267
0.354650 0.664714 0.389868
0.373648 0.664714 0.390188
0.391226 0.662943 0.394125
0.410056 0.662257 0.394125
0.429282 0.661295 0.398032
0.448524 0.660777 0.401968
0.469368 0.660777 0.401968
0.492317 0.663630 0.403433
0.519310 0.668620 0.399512
0.549508 0.674510 0.393622
0.581537 0.682231 0.387381
0.615442 0.689311 0.382757
0.653452 0.696208 0.375860
0.691173 0.703914 0.367224
0.732738 0.710796 0.357961
0.774762 0.716915 0.348013
0.812665 0.723522 0.338598
0.844602 0.721080 0.333333
0.874022 0.717159 0.329534
0.904906 0.713695 0.327382
0.935561 0.716304 0.343511
0.964706 0.722545 0.369421
0.989334 0.730266 0.399161
1.000000 0.738079 0.431525
1.000000 0.749630 0.464759
1.000000 0.757351 0.497063
0.333577 0.695583 0.410666
0.341299 0.696895 0.413230
0.345098 0.699504 0.413230
0.352819 0.699504 0.413230
0.359197 0.695583 0.417151
0.368261 0.695583 0.417151
0.381735 0.695583 0.417151
0.393256 0.695583 0.420218
0.408698 0.695583 0.421073
0.424140 0.695583 0.423896
0.442161 0.694667 0.424994
0.460166 0.691661 0.428458
0.478569 0.691661 0.431373
0.497856 0.691661 0.432837
0.519020 0.695003 0.434287
0.541711 0.696956 0.435401
0.568078 0.702754 0.431556
0.597650 0.707836 0.427710
0.627817 0.715557 0.421836
0.660288 0.719356 0.416907
0.696590 0.727077 0.409689
0.732235 0.734798 0.402823
0.770413 0.741176 0.395102
0.808087 0.746319 0.387381
0.845716 0.753063 0.379660
0.874022 0.751537 0.372793
0.900725 0.749752 0.368872
0.929900 0.746563 0.369680
0.956985 0.749142 0.384070
0.984070 0.753307 0.406607
1.000000 0.759884 0.436362
1.000000 0.768872 0.471077
1.000000 0.779171 0.505882
0.381125 0.726467 0.444114
0.387625 0.726467 0.445304
0.391501 0.726467 0.445350
0.395590 0.726467 0.448035
0.402945 0.726467 0.448035
0.410666 0.726467 0.448035
0.422080 0.726467 0.448035
0.432715 0.725505 0.451377
0.447303 0.725246 0.451957
0.461860 0.723308 0.454780
0.476967 0.722545 0.455879
0.492409 0.722545 0.458885
0.510750 0.722545 0.462257
0.527199 0.722545 0.464454
0.546563 0.722545 0.467643
0.567361 0.725246 0.467643
0.589944 0.727825 0.466300
0.614374 0.731655 0.463111
0.640681 0.738186 0.459312
0.670344 0.742519 0.455512
0.701228 0.749783 0.451713
0.734798 0.754040 0.444419
0.767758 0.761379 0.440192
0.803525 0.767498 0.433707
0.837995 0.772976 0.425986
0.872801 0.779187 0.419120
0.900252 0.779644 0.414969
0.923827 0.777447 0.411276
0.949264 0.773526 0.411612
0.975128 0.776226 0.420356
0.997696 0.780316 0.438819
1.000000 0.786893 0.471199
1.000000 0.795834 0.507103
0.430152 0.753429 0.476097
0.433982 0.756252 0.478920
0.437995 0.756252 0.478920
0.441917 0.756252 0.478920
0.449271 0.753780 0.480018
0.456992 0.753429 0.480018
0.464714 0.753429 0.482322
0.474632 0.753429 0.482841
0.486183 0.752331 0.483940
0.499321 0.752331 0.486763
0.512871 0.752331 0.489799
0.528313 0.752331 0.491417
0.543755 0.752331 0.494606
0.559197 0.749508 0.497383
0.577447 0.749508 0.500740
0.594385 0.751003 0.502449
0.613657 0.752331 0.502449
0.635752 0.756252 0.501137
0.658335 0.760174 0.497917
0.683742 0.765240 0.494560
0.711803 0.769482 0.490730
0.739834 0.775128 0.486900
0.770718 0.780667 0.483070
0.801282 0.786831 0.477211
0.834470 0.792248 0.472297
0.865080 0.798520 0.468498
0.895949 0.802945 0.460990
0.923400 0.804410 0.457603
0.945464 0.803311 0.453681
0.968368 0.803052 0.453681
0.987869 0.803311 0.459983
1.000000 0.807324 0.478233
1.000000 0.813977 0.509804
0.481376 0.780392 0.511757
0.485176 0.780392 0.514702
0.488045 0.780392 0.514702
0.491875 0.780392 0.514702
0.495705 0.780392 0.514702
0.500832 0.780392 0.514702
0.510475 0.780392 0.518074
0.519509 0.779416 0.518624
0.529656 0.779416 0.519356
0.540932 0.779416 0.522545
0.552453 0.779416 0.523217
0.565316 0.777478 0.526467
0.579416 0.776471 0.529290
0.594278 0.776471 0.531380
0.609308 0.776471 0.534859
0.624750 0.776471 0.538750
0.640192 0.776471 0.539208
0.659556 0.779873 0.539208
0.679652 0.781674 0.537926
0.702815 0.785504 0.534096
0.725002 0.791180 0.531991
0.751110 0.795438 0.528435
0.776165 0.800244 0.526528
0.805386 0.804044 0.522698
0.832349 0.811521 0.518868
0.862257 0.815564 0.512749
0.889220 0.821759 0.508827
0.919478 0.826932 0.504448
0.942641 0.830396 0.500984
0.961883 0.830121 0.497063
0.983886 0.827451 0.500069
1.000000 0.827543 0.507103
1.000000 0.831373 0.522545
0.534554 0.806500 0.552453
0.538384 0.806500 0.553307
0.539284 0.806500 0.553307
0.542397 0.806500 0.553307
0.545937 0.806500 0.553307
0.550240 0.806500 0.553307
0.557351 0.806500 0.555795
0.565072 0.805829 0.557046
0.575097 0.803342 0.557229
0.584192 0.802579 0.560296
0.595224 0.802579 0.561151
0.606867 0.802579 0.564782
0.618509 0.802579 0.566995
0.631968 0.802579 0.568994
0.645335 0.802579 0.572534
0.658579 0.802579 0.575982
0.674022 0.802579 0.578363
0.689006 0.802579 0.580758
0.707973 0.806012 0.580758
0.724651 0.807736 0.576837
0.746151 0.811566 0.576837
0.766537 0.815396 0.572915
0.789700 0.821317 0.571954
0.812009 0.825483 0.568139
0.839094 0.830152 0.565713
0.862928 0.833951 0.562005
0.888487 0.840925 0.558083
0.914702 0.845472 0.554162
0.937865 0.849271 0.550240
0.960739 0.853559 0.547097
0.977157 0.853559 0.546319
0.995377 0.853559 0.549416
1.000000 0.853559 0.557229
0.584802 0.829664 0.587991
0.585519 0.829664 0.587991
0.588724 0.829664 0.591180
0.589395 0.828992 0.591180
0.592645 0.828916 0.591821
0.596567 0.826230 0.591913
0.603677 0.825742 0.591913
0.610819 0.825742 0.591913
0.618387 0.825742 0.594858
0.626108 0.825742 0.595834
0.634562 0.825742 0.598535
0.645472 0.825742 0.599756
0.657115 0.825742 0.603677
0.668452 0.825742 0.606012
0.680064 0.825742 0.607599
0.691691 0.825742 0.611521
0.704906 0.824994 0.615076
0.716808 0.824994 0.617273
0.731868 0.825742 0.619364
0.747311 0.828916 0.615885
0.765927 0.830854 0.615442
0.784558 0.834668 0.614343
0.803922 0.838499 0.612024
0.824186 0.842313 0.611521
0.845838 0.846143 0.608331
0.866056 0.852445 0.606897
0.889082 0.857115 0.604410
