app/src/main/assets/filters/nc.cube
# Created from nc.plut
LUT_3D_SIZE 33
DOMAIN_MIN 0.0 0.0 0.0
DOMAIN_MAX 1.0 1.0 1.0
0.028168 0.030655 0.030243
0.032853 0.030854 0.029129
0.043595 0.031449 0.027451
0.061265 0.032517 0.025681
0.084550 0.033890 0.024186
0.111040 0.035691 0.023117
0.140749 0.037613 0.022095
0.173404 0.039384 0.020783
0.211124 0.040925 0.018738
0.250935 0.043290 0.016999
0.293263 0.047227 0.015946
0.335622 0.052232 0.015579
0.378470 0.057313 0.015534
0.420630 0.062379 0.016312
0.462318 0.067613 0.018097
0.503731 0.073518 0.020920
0.545083 0.079347 0.023041
0.585885 0.085084 0.023636
0.623041 0.090105 0.023133
0.651713 0.095506 0.025406
0.676143 0.100847 0.030320
0.704524 0.105379 0.032914
0.744030 0.107271 0.027619
0.784298 0.107424 0.017319
0.816983 0.107195 0.009400
0.838514 0.107881 0.007691
0.855146 0.109148 0.010468
0.870176 0.111131 0.015000
0.884337 0.113237 0.020661
0.897414 0.115480 0.028336
0.908904 0.118364 0.038453
0.918105 0.122179 0.049500
0.923369 0.125353 0.057069
0.024781 0.035416 0.030045
0.029587 0.035935 0.029343
0.040711 0.036942 0.028244
0.058885 0.038285 0.026871
0.082719 0.039765 0.025498
0.109682 0.041672 0.024460
0.139590 0.043854 0.023621
0.172335 0.046067 0.022690
0.209751 0.048051 0.021180
0.249760 0.050660 0.019867
0.292454 0.054353 0.018967
0.335637 0.058656 0.018555
0.379141 0.062684 0.018372
0.421653 0.066590 0.019074
0.463416 0.070756 0.020768
0.504356 0.075837 0.023728
0.545006 0.081163 0.025986
0.584909 0.086656 0.026810
0.621363 0.091478 0.026307
0.649760 0.096651 0.028428
0.674266 0.101732 0.032975
0.703151 0.106065 0.035004
0.743145 0.107942 0.029191
0.783978 0.108110 0.018387
0.817121 0.107866 0.010117
0.838956 0.108492 0.008194
0.855787 0.109758 0.011002
0.870771 0.111833 0.015686
0.884794 0.113985 0.021454
0.897704 0.116182 0.029160
0.909133 0.118990 0.039292
0.918334 0.122850 0.050385
0.923644 0.126055 0.057984
0.019165 0.044678 0.030655
0.023926 0.045747 0.030655
0.035203 0.047562 0.030518
0.053819 0.049607 0.029938
0.078325 0.051545 0.028946
0.106065 0.053758 0.028016
0.136294 0.056291 0.027436
0.169009 0.059068 0.027070
0.205692 0.061707 0.026368
0.245350 0.064744 0.025605
0.287831 0.068391 0.024903
0.331289 0.072236 0.024445
0.375174 0.075471 0.024125
0.418250 0.078126 0.024643
0.460929 0.080354 0.026139
0.502480 0.083146 0.029297
0.543191 0.086305 0.031968
0.582162 0.090333 0.033341
0.617411 0.094224 0.032959
0.645350 0.098817 0.034760
0.670314 0.103410 0.038499
0.700237 0.107485 0.039582
0.741039 0.109331 0.032914
0.782666 0.109575 0.021363
0.816678 0.109285 0.012329
0.839277 0.109804 0.009857
0.856641 0.111070 0.012421
0.871672 0.113222 0.017212
0.885573 0.115343 0.023056
0.898238 0.117494 0.030808
0.909545 0.120226 0.040986
0.918730 0.124239 0.052232
0.924025 0.127581 0.059983
0.013672 0.058305 0.033829
0.017914 0.059861 0.034409
0.028412 0.062486 0.035157
0.046555 0.065370 0.035386
0.071305 0.067948 0.034836
0.099825 0.070436 0.033951
0.130449 0.073182 0.033463
0.162768 0.076417 0.033600
0.197925 0.080034 0.033906
0.235950 0.084092 0.033967
0.277150 0.088304 0.033494
0.320546 0.092088 0.032517
0.365225 0.094759 0.031250
0.409735 0.096376 0.030701
0.453941 0.097002 0.031388
0.497032 0.097749 0.034470
0.538674 0.098482 0.037858
0.577447 0.099855 0.040620
0.611688 0.101259 0.041489
0.639414 0.103914 0.043580
0.665156 0.107408 0.046662
0.695995 0.110994 0.047013
0.736690 0.112718 0.040269
0.778317 0.112871 0.028809
0.813199 0.112398 0.019257
0.837354 0.112673 0.015747
0.856123 0.113710 0.017151
0.871931 0.115648 0.021073
0.886183 0.117494 0.026276
0.898817 0.119463 0.033783
0.910094 0.122225 0.044007
0.919188 0.126543 0.055482
0.924392 0.130159 0.063386
0.010712 0.075807 0.040497
0.013916 0.077516 0.041245
0.022507 0.080430 0.042329
0.038621 0.083757 0.043000
0.062364 0.086900 0.042878
0.091157 0.089815 0.042191
0.122499 0.092836 0.041749
0.154955 0.096254 0.042008
0.189425 0.100130 0.042634
0.226215 0.104372 0.042908
0.266194 0.108812 0.042252
0.308629 0.113054 0.040528
0.353094 0.116472 0.037934
0.398459 0.118685 0.035538
0.444648 0.119387 0.034348
0.490440 0.119265 0.036042
0.534173 0.118517 0.039384
0.573831 0.117784 0.043259
0.608164 0.116991 0.045747
0.637156 0.117510 0.048325
0.664546 0.119463 0.050889
0.695277 0.121874 0.051667
0.732815 0.122347 0.047578
0.771008 0.120912 0.039918
0.804791 0.118868 0.032502
0.830411 0.118135 0.028885
0.851621 0.118639 0.028550
0.869444 0.120165 0.030518
0.885145 0.121492 0.034028
0.898589 0.123125 0.040436
0.910292 0.125978 0.050172
0.919402 0.130663 0.061448
0.924498 0.134569 0.069306
0.011551 0.096559 0.050568
0.013611 0.098024 0.051102
0.019669 0.100587 0.051942
0.032441 0.103670 0.052522
0.053437 0.106844 0.052491
0.081254 0.109941 0.051820
0.112932 0.113161 0.051209
0.145983 0.116701 0.051240
0.180575 0.120729 0.051835
0.217075 0.125032 0.052110
0.256748 0.129381 0.051148
0.299107 0.133455 0.048478
0.344182 0.137041 0.044404
0.391012 0.139956 0.039765
0.439033 0.142153 0.035813
0.487007 0.143679 0.034241
0.532631 0.144228 0.035355
0.574090 0.143481 0.038590
0.610315 0.141711 0.041871
0.642283 0.140490 0.044602
0.671931 0.140932 0.046647
0.701396 0.142077 0.048432
0.732799 0.141405 0.049287
0.763867 0.138094 0.049409
0.793118 0.133516 0.048859
0.818494 0.130083 0.048478
0.841703 0.128405 0.047929
0.862348 0.128374 0.047868
0.880400 0.128740 0.049149
0.895750 0.129946 0.053574
0.908675 0.132738 0.061738
0.918334 0.137469 0.071778
0.923476 0.141375 0.078950
0.015549 0.119203 0.062440
0.016693 0.120287 0.062684
0.020279 0.122286 0.063188
0.029129 0.124849 0.063584
0.045930 0.127779 0.063645
0.071107 0.130846 0.063020
0.102159 0.134142 0.062181
0.135912 0.137713 0.061707
0.171527 0.141634 0.061784
0.208927 0.145693 0.061646
0.249210 0.149767 0.060334
0.291646 0.153765 0.057374
0.336858 0.157763 0.053040
0.384649 0.161593 0.047623
0.434897 0.165026 0.041642
0.485801 0.167773 0.036072
0.534356 0.169879 0.032395
0.578683 0.170962 0.031144
0.618265 0.170977 0.031601
0.654414 0.170275 0.032227
0.686976 0.170092 0.032837
0.715404 0.170138 0.035142
0.740429 0.169009 0.040757
0.763165 0.165164 0.049424
0.785733 0.159380 0.058122
0.808286 0.153536 0.064576
0.831189 0.148913 0.067750
0.852888 0.145846 0.069154
0.872374 0.143648 0.070466
0.889479 0.142885 0.073716
0.903990 0.144137 0.079789
0.914595 0.147585 0.087526
0.919997 0.150683 0.093202
0.021805 0.142947 0.075608
0.022461 0.143786 0.075792
0.024369 0.145373 0.076204
0.029801 0.147539 0.076600
0.041779 0.150149 0.076707
0.062623 0.153002 0.076005
0.091279 0.156130 0.074754
0.124819 0.159564 0.073564
0.161151 0.163439 0.072877
0.199512 0.167529 0.072190
0.240467 0.171633 0.070649
0.283528 0.175662 0.067842
0.329168 0.179889 0.064103
0.377691 0.184268 0.059342
0.429267 0.188525 0.053223
0.482612 0.192126 0.045594
0.534569 0.194949 0.037644
0.582818 0.196841 0.030823
0.626276 0.197833 0.026001
0.665873 0.197803 0.022690
0.700786 0.197772 0.020874
0.729641 0.198138 0.022065
0.752163 0.198856 0.028717
0.770596 0.197772 0.040955
0.788174 0.194171 0.055818
0.806989 0.188296 0.069017
0.827176 0.182132 0.078569
0.847272 0.176638 0.085084
0.865721 0.171710 0.090242
0.882506 0.167224 0.095491
0.897139 0.163943 0.101381
0.907866 0.162753 0.107607
0.913298 0.162890 0.111818
0.029664 0.167391 0.089937
0.030152 0.168170 0.090211
0.031220 0.169635 0.090761
0.034333 0.171649 0.091371
0.042161 0.174105 0.091737
0.058000 0.176883 0.091249
0.082628 0.179873 0.089815
0.114199 0.183078 0.087846
0.150134 0.186557 0.086015
0.188769 0.190311 0.084260
0.230045 0.194369 0.082185
0.273610 0.198795 0.079515
0.319493 0.203693 0.076402
0.368170 0.208865 0.072740
0.419974 0.213733 0.067750
0.474617 0.217746 0.060822
0.529366 0.220661 0.051728
0.581674 0.222583 0.041428
0.628992 0.223651 0.031556
0.671412 0.223774 0.023697
0.708125 0.223850 0.019043
0.738842 0.224582 0.018479
0.762966 0.226856 0.023316
0.782345 0.228931 0.033265
0.799390 0.229419 0.047150
0.816327 0.227131 0.062043
0.833539 0.223163 0.076463
0.850156 0.218128 0.089433
0.865476 0.212177 0.100877
0.879469 0.204410 0.111040
0.891859 0.195315 0.119661
0.900877 0.186679 0.126818
0.905470 0.181460 0.130953
0.039063 0.192645 0.106020
0.039658 0.193454 0.106447
0.040742 0.194965 0.107179
0.043000 0.197055 0.108019
0.048112 0.199634 0.108721
0.059266 0.202609 0.108690
0.078813 0.205783 0.107454
0.106523 0.208881 0.104860
0.140337 0.211856 0.101610
0.177829 0.214908 0.098253
0.218479 0.218448 0.095109
0.262089 0.222812 0.092088
0.308568 0.228000 0.089021
0.357900 0.233783 0.085710
0.409659 0.239460 0.081514
0.464164 0.244541 0.076295
0.519570 0.248280 0.069093
0.574243 0.250385 0.059831
0.624659 0.250813 0.048646
0.669688 0.250294 0.038071
0.708248 0.250034 0.030701
0.741299 0.251041 0.028168
0.768841 0.253635 0.030320
0.791958 0.256550 0.035828
0.811490 0.258732 0.044572
0.829007 0.259464 0.055772
0.845151 0.259434 0.069596
0.859602 0.258457 0.084916
0.872145 0.255924 0.100847
0.882719 0.249409 0.116320
0.891676 0.238560 0.129900
0.898009 0.225605 0.140826
0.901289 0.216739 0.146929
0.050416 0.220050 0.124346
0.051148 0.220874 0.124773
0.052491 0.222416 0.125551
0.054673 0.224537 0.126467
0.058488 0.227192 0.127382
0.066163 0.230320 0.127749
0.080491 0.233783 0.126925
0.102831 0.237034 0.124163
0.132631 0.239719 0.119844
0.167681 0.241947 0.114717
0.206836 0.244450 0.109926
0.249760 0.248035 0.105745
0.296284 0.252949 0.102144
0.346471 0.258976 0.098680
0.398840 0.265370 0.094606
0.453391 0.271641 0.090166
0.508248 0.276890 0.084962
0.563317 0.280522 0.078798
0.615457 0.281819 0.070222
0.663142 0.281453 0.060410
0.704311 0.280797 0.052018
0.739895 0.281086 0.047883
0.770443 0.282322 0.047837
0.796902 0.283619 0.049805
0.819471 0.284688 0.053391
0.838743 0.285618 0.059174
0.855375 0.286976 0.068666
0.869306 0.288731 0.081636
0.880797 0.290532 0.097368
0.889647 0.289860 0.114824
0.896544 0.284581 0.132326
0.901198 0.275151 0.147829
0.903639 0.267597 0.157153
0.063005 0.249607 0.143801
0.063828 0.250370 0.144106
0.065461 0.251896 0.144747
0.067872 0.254017 0.145586
0.071244 0.256687 0.146487
0.076722 0.259815 0.147036
0.086732 0.263386 0.146609
0.103334 0.266865 0.144182
0.127596 0.269612 0.139651
0.158648 0.271443 0.133532
0.195377 0.272999 0.127245
0.236957 0.275441 0.121492
0.282750 0.279408 0.116945
0.333135 0.285100 0.113207
0.386755 0.291752 0.109239
0.442634 0.298741 0.104585
0.498146 0.305180 0.099611
0.552758 0.310552 0.095232
0.605097 0.313848 0.090272
0.654170 0.315099 0.084138
0.697948 0.315023 0.077516
0.736095 0.314977 0.073152
0.769085 0.314839 0.071550
0.797833 0.314137 0.071519
0.822568 0.312734 0.072053
0.843534 0.311330 0.073655
0.861357 0.310811 0.077913
0.876005 0.312047 0.085908
0.887846 0.315679 0.098253
0.896773 0.320653 0.114809
0.903746 0.324697 0.134173
0.908782 0.325978 0.153048
0.911666 0.325643 0.165133
0.076265 0.280842 0.163088
0.077089 0.281529 0.163256
0.078721 0.282948 0.163714
0.081025 0.284932 0.164324
0.084123 0.287388 0.164935
0.088426 0.290227 0.165255
0.095476 0.293584 0.164965
0.107210 0.297154 0.163241
0.125734 0.300206 0.159564
0.151873 0.302251 0.153735
0.185000 0.303441 0.146792
0.224384 0.304982 0.139712
0.268711 0.307820 0.133898
0.318532 0.312688 0.129442
0.372457 0.319219 0.125658
0.429770 0.326650 0.121218
0.487190 0.333913 0.115938
0.542916 0.340444 0.111254
0.595590 0.345571 0.107805
0.644739 0.348989 0.105180
0.689860 0.350729 0.102434
0.730037 0.351400 0.100237
0.765393 0.351080 0.098848
0.796185 0.349538 0.097810
0.822812 0.346578 0.096498
0.845304 0.342840 0.095537
0.864149 0.339178 0.096239
0.879667 0.337270 0.100023
0.892378 0.338903 0.108217
0.902419 0.345190 0.121843
0.910567 0.354788 0.140658
0.916793 0.364340 0.160708
0.920470 0.370245 0.174243
0.089540 0.312612 0.181445
0.090410 0.313268 0.181521
0.092058 0.314565 0.181735
0.094285 0.316335 0.182010
0.097185 0.318486 0.182223
0.100908 0.320989 0.182223
0.106279 0.324041 0.181994
0.114488 0.327520 0.181079
0.127581 0.330907 0.178866
0.147662 0.333577 0.174533
0.175540 0.335210 0.168276
0.211444 0.336614 0.160876
0.254047 0.338628 0.153994
0.303136 0.342428 0.148440
0.357168 0.348165 0.144198
0.414908 0.355413 0.139895
0.474250 0.363058 0.134585
0.532097 0.370230 0.129000
0.586770 0.376501 0.124651
0.636362 0.381659 0.122820
0.681834 0.385550 0.122728
0.722774 0.388159 0.123949
0.759747 0.389151 0.125292
0.792416 0.388205 0.125826
0.820981 0.385031 0.124559
0.845258 0.380255 0.122210
0.865400 0.374716 0.120531
0.881941 0.370184 0.121584
0.895598 0.368521 0.126848
0.906844 0.372137 0.137758
0.916213 0.381292 0.154559
0.923491 0.393118 0.173465
0.927779 0.401511 0.186557
0.103227 0.344930 0.199847
0.104036 0.345480 0.199847
0.105531 0.346502 0.199863
0.107530 0.347906 0.199786
0.110277 0.349660 0.199481
0.113893 0.351827 0.198932
0.118700 0.354543 0.198367
0.125048 0.357794 0.197818
0.134264 0.361257 0.196780
0.148440 0.364446 0.194217
0.169665 0.366842 0.189563
0.199756 0.368765 0.183154
0.239033 0.370825 0.176196
0.286976 0.374105 0.169787
0.340993 0.379034 0.164584
0.398703 0.385657 0.160250
0.458335 0.393240 0.155673
0.518120 0.400778 0.150347
0.575906 0.407691 0.144854
0.628397 0.413825 0.141299
0.675013 0.419318 0.140780
0.716136 0.423957 0.143465
0.753429 0.427085 0.147646
0.787152 0.427848 0.151141
0.817243 0.425711 0.152178
0.843229 0.421271 0.151034
0.864927 0.415488 0.149462
0.882826 0.410010 0.149584
0.897658 0.406043 0.152850
0.910140 0.405737 0.160647
0.920516 0.410254 0.173907
0.928420 0.418219 0.189685
0.932891 0.424613 0.201038
0.118059 0.378073 0.218143
0.118761 0.378470 0.218036
0.120058 0.379171 0.217807
0.121874 0.380148 0.217334
0.124437 0.381460 0.216510
0.127977 0.383291 0.215442
0.132448 0.385687 0.214481
0.137606 0.388647 0.213931
0.143908 0.391958 0.213535
0.153033 0.395361 0.212421
0.167544 0.398383 0.209598
0.190570 0.401038 0.204898
0.224567 0.403677 0.198779
0.269825 0.407019 0.192401
0.323873 0.411444 0.186450
0.381872 0.417197 0.181521
0.441245 0.424125 0.177188
0.500710 0.431678 0.172900
0.560464 0.439139 0.167987
0.617212 0.446006 0.163378
0.668009 0.452384 0.160616
0.711055 0.458228 0.161425
0.748425 0.463081 0.165362
0.781857 0.466011 0.170748
0.812360 0.466163 0.175128
0.839414 0.463645 0.177707
0.862547 0.459236 0.179309
0.881987 0.454246 0.181353
0.898222 0.449516 0.184787
0.912016 0.446403 0.190387
0.923445 0.446204 0.199435
0.932021 0.448997 0.210529
0.936736 0.452003 0.218799
0.134447 0.410452 0.233707
0.134981 0.410697 0.233509
0.135973 0.411154 0.233143
0.137499 0.411887 0.232502
0.139849 0.412970 0.231449
0.143221 0.414557 0.230091
0.147387 0.416693 0.228809
0.151858 0.419318 0.228122
0.156634 0.422278 0.227893
0.162737 0.425574 0.227604
0.172061 0.428931 0.226291
0.187778 0.432273 0.223514
0.214130 0.435706 0.219120
0.253620 0.439673 0.213794
0.305272 0.444373 0.208316
0.363561 0.449851 0.203342
0.422950 0.456138 0.199298
0.481804 0.463279 0.195804
0.540917 0.471061 0.192523
0.600900 0.478782 0.188785
0.657115 0.486030 0.185275
0.705486 0.492485 0.183185
0.744778 0.498054 0.183749
0.778058 0.502235 0.187228
0.807767 0.504509 0.192554
0.834760 0.504616 0.198871
0.858564 0.502876 0.205707
0.879301 0.499962 0.212909
0.897124 0.496300 0.219898
0.912398 0.492088 0.225864
0.925002 0.488701 0.232197
0.934310 0.487007 0.238972
0.939345 0.486900 0.244236
0.153063 0.441154 0.244923
0.153582 0.441444 0.244755
0.154513 0.441993 0.244419
0.155932 0.442817 0.243870
0.157931 0.443900 0.243015
0.160723 0.445380 0.241978
0.164096 0.447318 0.241077
0.167773 0.449790 0.240726
0.171557 0.452644 0.240833
0.176074 0.455970 0.241154
0.182086 0.459586 0.241001
0.192065 0.463462 0.239948
0.210575 0.467521 0.237476
0.242008 0.472099 0.233768
0.287892 0.477256 0.229343
0.343877 0.482826 0.224659
0.403540 0.488701 0.220569
0.462181 0.495308 0.217319
0.520180 0.503059 0.215564
0.579873 0.511452 0.214054
0.640131 0.519570 0.211872
0.694942 0.526558 0.208820
0.740032 0.532387 0.206363
0.775341 0.537163 0.206531
0.804761 0.540856 0.209888
0.830747 0.543236 0.216648
0.854185 0.544305 0.226459
0.875319 0.544228 0.238849
0.894224 0.543053 0.251942
0.910964 0.540063 0.262715
0.924971 0.536126 0.270924
0.935271 0.532219 0.276692
0.940780 0.530175 0.280430
0.173892 0.470420 0.253529
0.174441 0.470832 0.253407
0.175418 0.471611 0.253208
0.176776 0.472679 0.252949
0.178470 0.473915 0.252583
0.180606 0.475380 0.252201
0.183200 0.477180 0.251987
0.186252 0.479545 0.252277
0.189593 0.482414 0.252918
0.193500 0.485908 0.253880
0.198062 0.489754 0.254658
0.204578 0.494087 0.254978
0.216526 0.498650 0.254337
0.239063 0.503853 0.252369
0.275654 0.509529 0.249454
0.325490 0.515480 0.245472
0.382788 0.521401 0.241566
0.442283 0.527733 0.237995
0.500282 0.535195 0.236439
0.558923 0.543694 0.236179
0.618433 0.552346 0.236301
0.677089 0.560006 0.235203
0.728527 0.566308 0.233082
0.770153 0.571481 0.231571
0.802182 0.575784 0.232059
0.828565 0.579355 0.236042
0.851194 0.582238 0.244373
0.871748 0.584665 0.257908
0.890501 0.586374 0.275303
0.907836 0.586007 0.292790
0.923049 0.583749 0.307836
0.934722 0.580270 0.318563
0.941100 0.578088 0.324666
0.196231 0.499351 0.263035
0.196780 0.499855 0.263066
0.197711 0.500786 0.263157
0.198962 0.502052 0.263294
0.200366 0.503380 0.263401
0.202060 0.504829 0.263600
0.204196 0.506569 0.263996
0.207004 0.508995 0.264866
0.210300 0.512062 0.266026
0.214130 0.515801 0.267521
0.218463 0.519921 0.268956
0.224018 0.524620 0.270222
0.232731 0.529610 0.270878
0.248676 0.535210 0.270481
0.275669 0.541100 0.268849
0.315404 0.547234 0.265660
0.365667 0.553292 0.261799
0.422583 0.559670 0.257939
0.481315 0.566857 0.255756
0.539345 0.575082 0.255512
0.596674 0.583688 0.256840
0.653956 0.591852 0.258549
0.708980 0.598871 0.259541
0.757397 0.604761 0.259770
0.796078 0.609613 0.259648
0.826246 0.613733 0.260685
0.850065 0.617395 0.264729
0.870130 0.621134 0.274266
0.887617 0.624903 0.290410
0.903975 0.627436 0.311406
0.919219 0.628153 0.334066
0.931899 0.627085 0.353384
0.939239 0.626108 0.364996
0.220737 0.528664 0.275059
0.221195 0.529091 0.275166
0.221988 0.529931 0.275395
0.223148 0.531151 0.275731
0.224552 0.532448 0.276081
0.226352 0.533928 0.276539
0.228717 0.535821 0.277256
0.231800 0.538445 0.278447
0.235447 0.541756 0.279957
0.239597 0.545617 0.281727
0.244465 0.549874 0.283482
0.250492 0.554726 0.285176
0.258503 0.560021 0.286656
0.270619 0.565881 0.287480
0.289525 0.572076 0.287510
0.318044 0.578485 0.285878
0.356756 0.584833 0.283085
0.406043 0.591302 0.279332
0.461952 0.598215 0.276173
0.520333 0.605844 0.274434
0.575921 0.614023 0.275273
0.630289 0.622324 0.278660
0.683711 0.630045 0.283299
0.736202 0.636790 0.287312
0.782071 0.642313 0.289525
0.819715 0.646784 0.290166
0.848356 0.650523 0.290852
0.870314 0.654383 0.294499
0.887190 0.658885 0.304646
0.901610 0.663401 0.323064
0.915358 0.667048 0.348516
0.927703 0.669139 0.374472
0.935393 0.670085 0.391455
0.249104 0.558160 0.288731
0.249516 0.558556 0.288945
0.250263 0.559319 0.289311
0.251453 0.560464 0.289815
0.253056 0.561761 0.290303
0.255314 0.563394 0.290913
0.258244 0.565560 0.291829
0.261952 0.568460 0.293172
0.266224 0.571939 0.294759
0.270954 0.575753 0.296407
0.276616 0.580026 0.298177
0.283467 0.584878 0.300084
0.291905 0.590311 0.302113
0.302205 0.596155 0.303929
0.315846 0.602335 0.305303
0.334752 0.608667 0.305379
0.361608 0.615106 0.304158
0.399054 0.621729 0.301564
0.447227 0.628687 0.298375
0.501915 0.636042 0.295491
0.556786 0.643793 0.294697
0.608499 0.651881 0.297597
0.658717 0.659968 0.304005
0.709468 0.667613 0.311742
0.759380 0.674189 0.318318
0.804395 0.679316 0.321645
0.841215 0.682948 0.321920
0.868757 0.686107 0.321386
0.888197 0.690105 0.324849
0.902098 0.695445 0.336690
0.913787 0.701320 0.358297
0.924086 0.706310 0.383993
0.930816 0.709163 0.402106
0.283909 0.588479 0.303182
0.284398 0.588891 0.303410
0.285252 0.589639 0.303807
0.286595 0.590723 0.304311
0.288350 0.591989 0.304845
0.290791 0.593622 0.305531
0.293919 0.595865 0.306615
0.297841 0.598871 0.308110
0.302312 0.602426 0.309819
0.307256 0.606134 0.311452
0.313191 0.610178 0.313161
0.320195 0.614694 0.315007
0.328481 0.619867 0.317250
0.337636 0.625513 0.319631
0.348333 0.631662 0.322148
0.361654 0.638102 0.324025
0.379873 0.644770 0.324971
0.406302 0.651545 0.324315
0.443153 0.658610 0.322148
0.489326 0.665843 0.318914
0.539620 0.673289 0.316716
0.589181 0.681025 0.317876
0.636591 0.689143 0.323629
0.684138 0.697429 0.332784
0.733013 0.705135 0.342931
0.781109 0.711238 0.350423
0.824781 0.714977 0.353353
0.860182 0.717281 0.352605
0.886610 0.720043 0.352560
0.903822 0.724681 0.358389
0.915435 0.730846 0.372900
0.923476 0.736858 0.392477
0.928450 0.740566 0.407050
0.322942 0.618860 0.317998
0.323507 0.619303 0.318242
0.324422 0.620050 0.318608
0.325750 0.621057 0.319097
0.327352 0.622202 0.319661
0.329580 0.623682 0.320424
0.332494 0.625742 0.321584
0.336278 0.628504 0.323110
0.340780 0.631876 0.324865
0.345876 0.635447 0.326574
0.351965 0.639368 0.328344
0.358923 0.643671 0.330251
0.366751 0.648508 0.332525
0.375143 0.653788 0.335119
0.384771 0.659648 0.338018
0.396063 0.665949 0.340764
0.410361 0.672724 0.343069
0.429374 0.679789 0.344381
0.455726 0.687221 0.344198
0.490059 0.694697 0.342367
0.530968 0.702083 0.340093
0.574456 0.709483 0.339528
0.618219 0.717281 0.342977
0.662074 0.725780 0.351034
0.707912 0.734356 0.362509
0.754559 0.741573 0.373556
0.800488 0.746151 0.380926
0.841840 0.748394 0.383642
0.876555 0.750103 0.384497
0.900938 0.752926 0.387442
0.916182 0.757183 0.395666
0.924437 0.761669 0.407721
0.928511 0.764599 0.417182
0.364401 0.648661 0.333227
0.364904 0.649042 0.333425
0.365728 0.649683 0.333745
0.366842 0.650523 0.334173
0.368154 0.651469 0.334676
0.369970 0.652674 0.335348
0.372549 0.654414 0.336385
0.376043 0.656886 0.337819
0.380468 0.660075 0.339635
0.385641 0.663645 0.341527
0.391730 0.667536 0.343435
0.398535 0.671702 0.345388
0.406073 0.676280 0.347616
0.414405 0.681407 0.350347
0.424292 0.687312 0.353521
0.435676 0.693828 0.356878
0.448661 0.700771 0.360067
0.463539 0.707790 0.362585
0.481910 0.715053 0.364034
0.505364 0.722377 0.364004
0.534615 0.729656 0.362783
0.569100 0.736843 0.361563
0.607080 0.744274 0.362478
0.647303 0.752468 0.367636
0.689113 0.761089 0.377508
0.731395 0.769009 0.389899
0.774304 0.774868 0.401511
0.816083 0.778302 0.409873
0.855222 0.780117 0.415213
0.886320 0.781292 0.419242
0.907820 0.782620 0.424811
0.920027 0.783963 0.431861
0.925704 0.784939 0.437430
0.405402 0.677241 0.348531
0.405753 0.677516 0.348684
0.406409 0.678019 0.348959
0.407385 0.678706 0.349355
0.408743 0.679622 0.349844
0.410727 0.680888 0.350546
0.413611 0.682704 0.351568
0.417304 0.685130 0.353002
0.421912 0.688182 0.354818
0.427268 0.691707 0.356863
0.433692 0.695705 0.359030
0.440833 0.700084 0.361318
0.448661 0.704768 0.363775
0.457069 0.709819 0.366552
0.466743 0.715435 0.369589
0.477531 0.721523 0.372763
0.489250 0.727993 0.375875
0.501549 0.734569 0.378683
0.515206 0.741421 0.381018
0.531518 0.748425 0.382422
0.551629 0.755413 0.382605
0.576684 0.762356 0.381918
0.606882 0.769528 0.381994
0.641459 0.777371 0.385138
0.678569 0.785702 0.392584
0.715831 0.793774 0.403906
0.753002 0.800824 0.417151
0.790066 0.806104 0.429831
0.826963 0.809476 0.440360
0.860212 0.810803 0.448005
0.886488 0.810925 0.454749
0.903838 0.810361 0.460777
0.912383 0.809995 0.465141
0.448966 0.706584 0.365332
0.449271 0.706813 0.365530
0.449912 0.707286 0.365850
0.450950 0.708019 0.366339
0.452583 0.709056 0.366888
0.454871 0.710460 0.367620
0.458045 0.712383 0.368658
0.461723 0.714672 0.370016
0.466087 0.717418 0.371710
0.471000 0.720577 0.373571
0.477043 0.724346 0.375677
0.483955 0.728603 0.378042
0.491524 0.733165 0.380652
0.499504 0.737942 0.383413
0.508263 0.743084 0.386267
0.517922 0.748592 0.389136
0.528252 0.754391 0.391974
0.538872 0.760220 0.394614
0.550011 0.766247 0.397040
0.562615 0.772580 0.399115
0.577829 0.779202 0.400519
0.597055 0.786053 0.401251
0.620996 0.793210 0.402045
0.649241 0.800885 0.404639
0.680003 0.808896 0.410208
0.710979 0.816876 0.419303
0.741207 0.824414 0.431235
