app/src/main/assets/filters/nc.cube
# Created from nc.plut
LUT_3D_SIZE 9
DOMAIN_MIN 0.0 0.0 0.0
DOMAIN_MAX 1.0 1.0 1.0
0.028168 0.030655 0.030243
0.084550 0.033890 0.024186
0.211124 0.040925 0.018738
0.378470 0.057313 0.015534
0.545083 0.079347 0.023041
0.676143 0.100847 0.030320
0.816983 0.107195 0.009400
0.884337 0.113237 0.020661
0.923369 0.125353 0.057069
0.010712 0.075807 0.040497
0.062364 0.086900 0.042878
0.189425 0.100130 0.042634
0.353094 0.116472 0.037934
0.534173 0.118517 0.039384
0.664546 0.119463 0.050889
0.804791 0.118868 0.032502
0.885145 0.121492 0.034028
0.924498 0.134569 0.069306
0.029664 0.167391 0.089937
0.042161 0.174105 0.091737
0.150134 0.186557 0.086015
0.319493 0.203693 0.076402
0.529366 0.220661 0.051728
0.708125 0.223850 0.019043
0.799390 0.229419 0.047150
0.865476 0.212177 0.100877
0.905470 0.181460 0.130953
0.076265 0.280842 0.163088
0.084123 0.287388 0.164935
0.125734 0.300206 0.159564
0.268711 0.307820 0.133898
0.487190 0.333913 0.115938
0.689860 0.350729 0.102434
0.822812 0.346578 0.096498
0.892378 0.338903 0.108217
0.920470 0.370245 0.174243
0.134447 0.410452 0.233707
0.139849 0.412970 0.231449
0.156634 0.422278 0.227893
0.214130 0.435706 0.219120
0.422950 0.456138 0.199298
0.657115 0.486030 0.185275
0.807767 0.504509 0.192554
0.897124 0.496300 0.219898
0.939345 0.486900 0.244236
0.220737 0.528664 0.275059
0.224552 0.532448 0.276081
0.235447 0.541756 0.279957
0.258503 0.560021 0.286656
0.356756 0.584833 0.283085
0.575921 0.614023 0.275273
0.782071 0.642313 0.289525
0.887190 0.658885 0.304646
0.935393 0.670085 0.391455
0.364401 0.648661 0.333227
0.368154 0.651469 0.334676
0.380468 0.660075 0.339635
0.406073 0.676280 0.347616
0.448661 0.700771 0.360067
0.534615 0.729656 0.362783
0.689113 0.761089 0.377508
0.855222 0.780117 0.415213
0.925704 0.784939 0.437430
0.534966 0.763760 0.401511
0.539590 0.766506 0.403372
0.550286 0.772717 0.407492
0.569543 0.783932 0.413901
0.600595 0.801053 0.424170
0.646296 0.823850 0.437201
0.713252 0.852583 0.454994
0.786526 0.880537 0.486259
0.850019 0.901381 0.533318
0.669780 0.843473 0.458091
0.673869 0.845365 0.458824
0.685420 0.851621 0.463340
0.706355 0.863005 0.474083
0.728283 0.875029 0.485374
0.751003 0.887770 0.499290
0.783383 0.904524 0.520928
0.828077 0.925856 0.555520
0.865064 0.944823 0.600900
0.036622 0.035767 0.065629
0.090364 0.045380 0.062455
0.209979 0.065537 0.052689
0.372869 0.085252 0.042649
0.544732 0.092744 0.031479
0.671885 0.104891 0.034516
0.815610 0.106264 0.011536
0.885588 0.112306 0.021378
0.925246 0.123949 0.056611
0.024949 0.090715 0.093263
0.084779 0.100694 0.094560
0.206210 0.113939 0.085435
0.363287 0.131731 0.072953
0.533989 0.128511 0.064897
0.652995 0.117601 0.064424
0.796796 0.120577 0.041154
0.884550 0.121675 0.036957
0.925658 0.133593 0.069398
0.033234 0.176486 0.121920
0.055451 0.183917 0.128237
0.166644 0.195743 0.123903
0.334371 0.211383 0.109590
0.537667 0.232090 0.089891
0.701091 0.219959 0.056916
0.778149 0.204608 0.088045
0.854261 0.191745 0.119295
0.903685 0.178500 0.135988
0.067201 0.282643 0.174563
0.074189 0.288045 0.176272
0.118349 0.301472 0.179019
0.282872 0.315206 0.162661
0.501503 0.341436 0.146960
0.698619 0.355398 0.127932
0.826581 0.347356 0.110201
0.893675 0.334951 0.117021
0.916838 0.352041 0.185275
0.124453 0.409354 0.241779
0.130129 0.412085 0.239628
0.146456 0.421271 0.236133
0.219577 0.438224 0.234821
0.438483 0.459815 0.215534
0.666163 0.488914 0.202136
0.814557 0.502541 0.204166
0.900664 0.492363 0.224048
0.940688 0.484108 0.248188
0.218509 0.527749 0.277211
0.222034 0.531167 0.278340
0.233494 0.541375 0.283085
0.257664 0.560525 0.292882
0.368338 0.586709 0.295262
0.593500 0.615290 0.285664
0.789960 0.642695 0.295735
0.890654 0.656672 0.312917
0.939315 0.667918 0.403647
0.361486 0.647532 0.334463
0.367041 0.651362 0.336172
0.380163 0.660166 0.341054
0.405829 0.676524 0.349279
0.447898 0.701030 0.362325
0.538857 0.729961 0.366293
0.705425 0.761303 0.384375
0.862974 0.779919 0.419516
0.928481 0.785290 0.444144
0.534478 0.763714 0.402441
0.539528 0.766766 0.404562
0.550042 0.772885 0.408637
0.569696 0.784375 0.415610
0.600458 0.801541 0.426673
0.646845 0.824781 0.440406
0.714534 0.853162 0.456855
0.792920 0.881331 0.490898
0.855055 0.901640 0.539620
0.669810 0.843549 0.458686
0.674342 0.845686 0.459907
0.686870 0.852415 0.465629
0.707149 0.863630 0.476265
0.729305 0.875624 0.486976
0.752468 0.888838 0.501305
0.785077 0.906020 0.524544
0.830365 0.928008 0.560754
0.868757 0.947143 0.607691
0.064622 0.068315 0.134249
0.094530 0.079316 0.143938
0.201282 0.108705 0.132403
0.376379 0.146426 0.136690
0.529824 0.162646 0.129976
0.643641 0.123507 0.068132
0.795850 0.116930 0.037125
0.879377 0.120455 0.041428
0.927260 0.129351 0.064027
0.066575 0.117876 0.183368
0.111223 0.124681 0.186099
0.223560 0.143313 0.171344
0.387976 0.170703 0.163684
0.542504 0.185138 0.146777
0.640223 0.149737 0.100328
0.772045 0.142870 0.081239
0.871824 0.138903 0.072770
0.927810 0.139315 0.078294
0.026886 0.204425 0.227115
0.080247 0.211475 0.226581
0.201541 0.224552 0.221347
0.366140 0.239124 0.203799
0.558648 0.262547 0.187182
0.692958 0.253010 0.174517
0.764599 0.204135 0.155978
0.844480 0.193637 0.157168
0.900114 0.183917 0.149157
0.071717 0.299260 0.240696
0.095094 0.304921 0.242725
0.151827 0.322271 0.257939
0.314778 0.341894 0.251331
0.526879 0.363348 0.231601
0.709071 0.379843 0.221530
0.818189 0.359457 0.205402
0.878523 0.304372 0.178454
0.902007 0.289631 0.205753
0.102434 0.416617 0.285191
0.115694 0.419837 0.284367
0.151934 0.432151 0.288640
0.244083 0.456489 0.306310
0.465309 0.480308 0.291127
0.676875 0.507088 0.283528
0.822004 0.521279 0.291447
0.906462 0.508339 0.285435
0.943984 0.487480 0.278843
0.212757 0.530159 0.298680
0.218738 0.534844 0.302144
0.234485 0.547051 0.313252
0.269993 0.569863 0.337545
0.393469 0.599710 0.356252
0.619486 0.626184 0.345541
0.798032 0.651164 0.351293
0.898344 0.662348 0.377462
0.946639 0.669093 0.436683
0.359716 0.648173 0.341405
0.364843 0.651438 0.343420
0.380346 0.661540 0.349203
0.406912 0.678080 0.360159
0.454124 0.704082 0.380499
0.555169 0.735195 0.403632
0.739422 0.764599 0.419913
0.878141 0.782727 0.444816
0.936950 0.786755 0.477241
0.533822 0.764431 0.407355
0.539452 0.767468 0.409262
0.549615 0.773571 0.413031
0.569390 0.785336 0.421775
0.600214 0.802655 0.434104
0.647440 0.826734 0.452369
0.719066 0.855512 0.472297
0.811765 0.883436 0.508659
0.871321 0.902556 0.563470
0.671702 0.844938 0.463981
0.676783 0.847379 0.465904
0.690593 0.854658 0.471656
0.708766 0.864897 0.481041
0.731701 0.877531 0.492012
0.755566 0.891630 0.508629
0.790173 0.910170 0.534524
0.838758 0.934142 0.576043
0.875944 0.951812 0.621027
0.107179 0.121096 0.226261
0.126070 0.132570 0.242176
0.196933 0.157534 0.240421
0.375021 0.185916 0.210971
0.530327 0.208545 0.199741
0.634531 0.218555 0.182635
0.781460 0.179767 0.113252
0.870863 0.174487 0.113497
0.926619 0.163485 0.107012
0.125109 0.158373 0.281331
0.151659 0.169284 0.292943
0.229877 0.189914 0.281529
0.386419 0.208637 0.248432
0.549722 0.233509 0.233906
0.668238 0.265888 0.223880
0.785672 0.232395 0.169711
0.871397 0.217273 0.163226
0.922835 0.186648 0.137774
0.082383 0.231388 0.335912
0.126467 0.240269 0.341833
0.246632 0.256641 0.337469
0.405097 0.271626 0.318990
0.585351 0.298421 0.301778
0.727443 0.329351 0.280934
0.822629 0.327993 0.270512
0.884230 0.284932 0.241184
0.897963 0.221088 0.192752
0.020066 0.339406 0.399008
0.056962 0.344350 0.394888
0.197147 0.356695 0.382254
0.365484 0.378088 0.375647
0.566949 0.398260 0.356008
0.736767 0.414694 0.344854
0.840574 0.403479 0.341009
0.874846 0.295369 0.260853
0.892042 0.245853 0.215808
0.153399 0.439216 0.379080
0.178958 0.443702 0.377630
0.222889 0.460472 0.393332
0.304982 0.486687 0.419196
0.508629 0.510994 0.407233
0.707607 0.531899 0.392813
0.839796 0.544121 0.396887
0.901610 0.512932 0.380270
0.938231 0.482673 0.334234
0.248264 0.548180 0.378393
0.258213 0.554284 0.386236
0.281636 0.569024 0.406363
0.323125 0.592752 0.438346
0.437705 0.621408 0.459480
0.653193 0.645762 0.446403
0.813413 0.668376 0.454810
0.909056 0.679591 0.481636
0.955032 0.689326 0.514702
0.370962 0.655100 0.383169
0.378347 0.659449 0.388296
0.397208 0.669764 0.401175
0.433326 0.688777 0.424949
0.489754 0.716182 0.460533
0.595010 0.747906 0.492790
0.770825 0.773800 0.501534
0.893187 0.789090 0.525185
0.949493 0.791653 0.557809
0.537163 0.767025 0.419806
0.541283 0.769787 0.422324
0.551766 0.775967 0.427817
0.572152 0.787320 0.437888
0.607462 0.806165 0.458213
0.660258 0.831586 0.490501
0.736019 0.861280 0.530388
0.843778 0.886717 0.562951
0.904967 0.905333 0.619684
0.676829 0.848219 0.474815
0.682200 0.851102 0.477348
0.695399 0.858213 0.483909
0.711925 0.867796 0.492576
0.735363 0.881361 0.506264
0.761715 0.897063 0.526360
0.800580 0.918242 0.560540
0.852384 0.944167 0.607813
0.889967 0.959014 0.645441
0.157351 0.184070 0.327199
0.172778 0.194583 0.341833
0.224765 0.224933 0.370886
0.343679 0.244663 0.344076
0.534371 0.263859 0.298833
0.629938 0.304097 0.322866
0.792630 0.327703 0.276570
0.881270 0.274723 0.222278
0.923613 0.237110 0.191882
0.179355 0.212802 0.368994
0.198383 0.224826 0.384833
0.252171 0.247974 0.396521
0.358099 0.258976 0.363622
0.554894 0.285786 0.329015
0.649393 0.319036 0.334356
0.805051 0.352743 0.303883
0.888869 0.306020 0.256672
0.917510 0.251835 0.211963
0.178576 0.275242 0.446296
0.212024 0.287327 0.457832
0.299916 0.309239 0.453605
0.407965 0.313878 0.425620
0.587823 0.329732 0.385016
0.703716 0.359564 0.357473
0.830198 0.395880 0.355428
0.901335 0.368841 0.328862
0.902235 0.269017 0.240879
0.086229 0.371221 0.506538
0.125002 0.377401 0.510674
0.254017 0.391760 0.508949
0.418357 0.413581 0.499382
0.600534 0.434424 0.476432
0.746609 0.451850 0.443748
0.860410 0.466941 0.439765
0.912398 0.462425 0.439246
0.910643 0.339528 0.316472
0.020294 0.495628 0.605005
0.047303 0.498466 0.598428
0.218509 0.503090 0.562051
0.378592 0.521523 0.546105
0.565011 0.547143 0.537484
0.741283 0.564340 0.521019
0.863142 0.574243 0.520150
0.925994 0.575235 0.537346
0.950896 0.565011 0.524254
0.262760 0.591257 0.557488
0.287587 0.593576 0.550057
0.347463 0.602335 0.542092
0.399680 0.621759 0.559899
0.501991 0.648722 0.579995
0.695247 0.671901 0.568368
0.842344 0.690318 0.567514
0.925811 0.698665 0.583581
0.966400 0.708949 0.608438
0.432837 0.679835 0.509545
0.441337 0.684428 0.515450
0.459739 0.694041 0.529259
0.495903 0.712490 0.552865
0.547448 0.737514 0.582345
0.646845 0.766751 0.606516
0.804654 0.789090 0.608515
0.911421 0.803922 0.628092
0.960571 0.805768 0.646403
0.558404 0.773236 0.476280
0.564340 0.776501 0.480827
0.578805 0.783642 0.491936
0.604959 0.796216 0.511376
0.647547 0.816510 0.543999
0.701747 0.842390 0.586221
0.768505 0.870268 0.626307
0.877485 0.893126 0.649958
0.937346 0.907225 0.683467
0.686931 0.854536 0.499474
0.692454 0.857710 0.503471
0.703166 0.863508 0.510170
0.719814 0.872831 0.521233
0.746929 0.888304 0.541848
0.780499 0.907073 0.574334
0.823682 0.930175 0.618158
0.869001 0.954940 0.661204
0.912734 0.968093 0.692760
0.203357 0.239384 0.407691
0.220218 0.249928 0.420218
0.251682 0.270420 0.439918
0.335576 0.286336 0.424537
0.504860 0.310079 0.391745
0.616251 0.322194 0.363989
0.781689 0.377081 0.351186
0.887861 0.379629 0.339712
0.917311 0.301061 0.263249
0.225330 0.267460 0.446036
0.239857 0.276020 0.455283
0.272007 0.295277 0.469718
0.358358 0.308217 0.448356
0.516472 0.325750 0.411109
0.625681 0.335073 0.377234
0.799344 0.390906 0.362219
0.891524 0.400168 0.364019
0.914046 0.316976 0.283085
0.259266 0.334539 0.538872
0.272328 0.341100 0.543557
0.315282 0.357824 0.543786
0.404837 0.369497 0.516457
0.533867 0.377234 0.476127
0.659602 0.389929 0.430106
0.830457 0.428244 0.401144
0.899931 0.450965 0.424338
0.917525 0.383825 0.358618
0.248920 0.413092 0.609918
0.270832 0.421027 0.616632
0.343984 0.439734 0.618845
0.460883 0.459709 0.600748
0.572763 0.474678 0.580758
0.705425 0.484718 0.518608
0.859236 0.495506 0.478279
0.917647 0.527321 0.513970
0.939101 0.535409 0.525338
0.082856 0.526802 0.681147
0.112123 0.530022 0.683223
0.251423 0.538247 0.680247
0.436698 0.557504 0.667552
0.603693 0.578744 0.648051
0.739712 0.592203 0.615213
0.869841 0.600916 0.590967
0.940200 0.613413 0.607935
0.960281 0.639078 0.635050
0.035874 0.638697 0.780896
0.051102 0.640955 0.779339
0.137652 0.646159 0.763439
0.446662 0.655100 0.697292
0.576928 0.678691 0.695537
0.738521 0.699641 0.684550
0.865965 0.712993 0.677287
0.944503 0.718563 0.684550
0.976623 0.724849 0.692042
0.417960 0.709651 0.681300
0.440833 0.713252 0.677852
0.503182 0.722927 0.668406
0.570352 0.739818 0.673854
0.620218 0.762783 0.699077
0.703258 0.788266 0.719142
0.836561 0.807431 0.718334
0.932738 0.819333 0.724575
0.973999 0.821225 0.734142
0.629862 0.793164 0.616861
0.636561 0.796567 0.621698
0.652430 0.804715 0.633295
0.680125 0.818708 0.654093
0.714870 0.837461 0.679271
0.753918 0.859922 0.706737
0.808576 0.884291 0.733501
0.901366 0.901564 0.747738
0.957046 0.910460 0.764858
0.716518 0.865354 0.586404
0.721584 0.868193 0.590631
0.734356 0.875059 0.602914
0.754040 0.886046 0.621378
0.780133 0.900618 0.645808
0.812512 0.919173 0.677577
0.850050 0.941131 0.713390
0.890364 0.963592 0.747265
0.932280 0.972732 0.761929
0.248631 0.304768 0.497902
0.260929 0.312795 0.506111
0.283680 0.330053 0.523278
0.341207 0.354147 0.532235
0.461021 0.363027 0.490532
0.587732 0.368978 0.444038
0.755703 0.403479 0.405859
0.883330 0.449592 0.423468
0.923262 0.435721 0.410391
0.265095 0.329458 0.529824
0.275334 0.336263 0.536492
0.297536 0.351720 0.550546
0.354360 0.374960 0.556527
0.471046 0.382071 0.512917
0.589334 0.391135 0.473274
0.774334 0.420691 0.419379
0.888319 0.464836 0.441535
0.925643 0.464363 0.443076
0.292760 0.373953 0.585016
0.302296 0.379232 0.589044
0.329000 0.394247 0.597772
0.383124 0.416739 0.599420
0.501915 0.433631 0.567910
0.590692 0.449989 0.547311
0.806409 0.464515 0.461540
0.901320 0.500832 0.483986
0.932586 0.526436 0.514672
0.327489 0.445350 0.650568
0.343008 0.452201 0.654795
0.378851 0.467155 0.660502
0.440116 0.489281 0.659632
0.548867 0.500984 0.629572
0.630610 0.520134 0.607172
0.838483 0.529061 0.529412
0.921141 0.559335 0.552056
0.944793 0.592569 0.589792
0.319524 0.570657 0.766751
0.333364 0.573404 0.767971
0.385183 0.582467 0.768841
0.476204 0.596216 0.754788
0.591836 0.606073 0.718944
0.689158 0.623239 0.694408
0.839429 0.631266 0.647242
0.939925 0.634318 0.633158
0.962264 0.659007 0.658412
0.134096 0.658671 0.818479
0.156603 0.662287 0.821973
0.253712 0.672023 0.827314
0.485313 0.692073 0.815473
0.624872 0.709102 0.797101
0.745312 0.716976 0.771435
0.856382 0.729824 0.748470
0.948852 0.739986 0.737819
0.979202 0.746517 0.743084
0.351369 0.731426 0.842466
0.386191 0.737758 0.842771
0.488777 0.755169 0.839719
0.612970 0.776120 0.829282
0.672755 0.791928 0.821958
0.751354 0.811612 0.820890
0.865736 0.827222 0.813886
0.949325 0.834257 0.810178
0.983917 0.836347 0.809033
0.693278 0.823758 0.771633
0.699062 0.825742 0.770947
0.713420 0.831861 0.774517
0.737423 0.842618 0.780163
0.768078 0.858106 0.792767
0.802976 0.878187 0.812146
0.849531 0.899641 0.832685
0.925856 0.913085 0.839094
0.976532 0.921553 0.848798
0.778393 0.884535 0.728405
0.781430 0.886809 0.730449
0.789548 0.891905 0.737636
0.803098 0.900435 0.749859
0.824765 0.914412 0.768246
0.851682 0.930495 0.787945
0.883589 0.949584 0.812421
0.920012 0.969146 0.838911
0.952605 0.976852 0.852232
0.286915 0.359533 0.566720
0.295018 0.364874 0.571771
0.310643 0.375738 0.581765
0.343877 0.397147 0.595392
0.424918 0.418540 0.585245
0.545846 0.439033 0.557610
0.679225 0.457420 0.516197
0.888380 0.495323 0.478920
0.927520 0.525322 0.513451
0.296681 0.371878 0.581109
0.303944 0.376684 0.585275
0.318517 0.387015 0.593973
0.353475 0.408865 0.606119
0.435950 0.431220 0.596689
0.549340 0.455436 0.576852
0.689281 0.473381 0.531075
0.893065 0.507500 0.493309
0.930251 0.541329 0.532143
0.317525 0.398901 0.609094
0.325109 0.403723 0.612436
0.344945 0.416876 0.620706
0.377905 0.437064 0.629419
0.474022 0.465080 0.621759
0.561227 0.484977 0.607431
0.724910 0.507347 0.555810
0.905852 0.538262 0.529335
0.937942 0.575418 0.571298
0.354330 0.475380 0.678172
0.363348 0.480369 0.680842
0.386069 0.492164 0.686717
0.422736 0.513924 0.696910
0.513588 0.531624 0.679789
0.596445 0.551812 0.663386
0.763577 0.583337 0.626993
0.922850 0.590173 0.588663
0.949065 0.614252 0.613657
0.368917 0.595499 0.792935
0.379232 0.598474 0.794568
0.408972 0.606668 0.796811
0.457893 0.619409 0.795102
0.555505 0.632029 0.771038
0.664393 0.651164 0.746792
0.775921 0.670909 0.724529
0.930053 0.660472 0.664881
0.964477 0.677974 0.678523
0.411688 0.681529 0.856672
0.426612 0.685969 0.859861
0.466270 0.697673 0.865919
0.542367 0.715404 0.864652
0.631418 0.727123 0.850523
0.725048 0.738811 0.833204
0.814267 0.755001 0.813336
0.931487 0.765118 0.777127
0.977417 0.761349 0.760510
0.518441 0.775357 0.913359
0.536675 0.780209 0.916686
0.569451 0.790372 0.923125
0.595331 0.800702 0.927550
0.657374 0.814527 0.920546
0.770947 0.832334 0.906584
0.869230 0.844038 0.891035
0.948043 0.855406 0.871504
0.982116 0.856321 0.855070
0.673991 0.849027 0.939513
0.679240 0.850965 0.939162
0.694759 0.856855 0.938384
0.723491 0.866957 0.935348
0.763989 0.880751 0.930327
0.811185 0.896468 0.924331
0.872541 0.915236 0.923018
0.947021 0.927413 0.919280
0.988968 0.932448 0.915923
0.810620 0.906508 0.879637
0.813764 0.908095 0.880278
0.822126 0.912123 0.881636
0.836774 0.918837 0.882185
0.858061 0.928557 0.883589
0.886656 0.943481 0.893446
0.917525 0.961349 0.909346
0.947829 0.977890 0.924849
0.973236 0.982345 0.928969
0.307149 0.384360 0.594141
0.312520 0.388128 0.597162
0.326162 0.398077 0.605707
0.352880 0.416999 0.617563
0.407019 0.439780 0.620600
0.530098 0.470832 0.605615
0.605463 0.494209 0.597986
0.884810 0.527962 0.523003
0.931975 0.570764 0.567025
0.313222 0.393622 0.604089
0.319997 0.397696 0.607050
0.334417 0.407355 0.613901
0.360403 0.426658 0.625956
0.419013 0.452247 0.630518
0.538567 0.480858 0.613764
0.617273 0.504417 0.604257
0.892241 0.539773 0.535225
0.934249 0.579889 0.577661
0.337240 0.421942 0.629557
0.343908 0.426291 0.632288
0.359716 0.437507 0.639460
0.385351 0.457633 0.651682
0.449042 0.489738 0.661707
0.551141 0.509255 0.640238
0.651286 0.546502 0.636149
0.904326 0.573709 0.573419
0.940429 0.599863 0.599603
0.363821 0.509819 0.711620
0.370260 0.513146 0.713420
0.389670 0.523507 0.718730
0.419181 0.541939 0.728893
0.477501 0.563470 0.729931
0.582452 0.584314 0.707332
0.698466 0.629374 0.708080
0.908385 0.618875 0.626673
0.951781 0.632517 0.633249
0.388418 0.610895 0.805753
0.396002 0.613687 0.807370
0.418082 0.621576 0.810269
0.456519 0.633783 0.811460
0.534707 0.651514 0.803815
0.651072 0.676020 0.787961
0.738674 0.701366 0.781445
0.893675 0.697948 0.720516
0.965164 0.697566 0.699351
0.466590 0.693095 0.866041
0.476295 0.697246 0.868101
0.500740 0.707530 0.872526
0.550942 0.724727 0.876326
0.631037 0.740658 0.871336
0.719081 0.757733 0.863844
0.791913 0.782895 0.866224
0.887907 0.798932 0.842893
0.969314 0.783062 0.788586
0.582177 0.792844 0.935256
0.586114 0.795239 0.936950
0.594995 0.799985 0.939925
0.615656 0.809903 0.945632
0.675273 0.826688 0.949645
0.779751 0.846967 0.946822
0.850828 0.860441 0.941161
0.924056 0.879957 0.928725
0.972045 0.883024 0.901915
0.673365 0.855680 0.965911
0.678599 0.858091 0.967010
0.690455 0.863630 0.969177
0.715618 0.874678 0.973449
0.749950 0.889235 0.978500
0.797314 0.907378 0.984085
0.874708 0.926131 0.982040
0.954803 0.939528 0.970550
0.987198 0.944503 0.956786
0.792874 0.912520 0.979095
0.795193 0.913664 0.979294
0.803311 0.917311 0.979873
0.818265 0.923552 0.980148
0.841840 0.933394 0.979583
0.878782 0.948257 0.977066
0.919097 0.965835 0.976638
0.955871 0.979629 0.978332
0.983398 0.982254 0.974075
