app/src/main/assets/filters/nc.cube
# Created from nc.plut
LUT_3D_SIZE 5
DOMAIN_MIN 0.0 0.0 0.0
DOMAIN_MAX 1.0 1.0 1.0
0.028168 0.030655 0.030243
0.211124 0.040925 0.018738
0.545083 0.079347 0.023041
0.816983 0.107195 0.009400
0.923369 0.125353 0.057069
0.029664 0.167391 0.089937
0.150134 0.186557 0.086015
0.529366 0.220661 0.051728
0.799390 0.229419 0.047150
0.905470 0.181460 0.130953
0.134447 0.410452 0.233707
0.156634 0.422278 0.227893
0.422950 0.456138 0.199298
0.807767 0.504509 0.192554
0.939345 0.486900 0.244236
0.364401 0.648661 0.333227
0.380468 0.660075 0.339635
0.448661 0.700771 0.360067
0.689113 0.761089 0.377508
0.925704 0.784939 0.437430
0.669780 0.843473 0.458091
0.685420 0.851621 0.463340
0.728283 0.875029 0.485374
0.783383 0.904524 0.520928
0.865064 0.944823 0.600900
0.064622 0.068315 0.134249
0.201282 0.108705 0.132403
0.529824 0.162646 0.129976
0.795850 0.116930 0.037125
0.927260 0.129351 0.064027
0.026886 0.204425 0.227115
0.201541 0.224552 0.221347
0.558648 0.262547 0.187182
0.764599 0.204135 0.155978
0.900114 0.183917 0.149157
0.102434 0.416617 0.285191
0.151934 0.432151 0.288640
0.465309 0.480308 0.291127
0.822004 0.521279 0.291447
0.943984 0.487480 0.278843
0.359716 0.648173 0.341405
0.380346 0.661540 0.349203
0.454124 0.704082 0.380499
0.739422 0.764599 0.419913
0.936950 0.786755 0.477241
0.671702 0.844938 0.463981
0.690593 0.854658 0.471656
0.731701 0.877531 0.492012
0.790173 0.910170 0.534524
0.875944 0.951812 0.621027
0.157351 0.184070 0.327199
0.224765 0.224933 0.370886
0.534371 0.263859 0.298833
0.792630 0.327703 0.276570
0.923613 0.237110 0.191882
0.178576 0.275242 0.446296
0.299916 0.309239 0.453605
0.587823 0.329732 0.385016
0.830198 0.395880 0.355428
0.902235 0.269017 0.240879
0.020294 0.495628 0.605005
0.218509 0.503090 0.562051
0.565011 0.547143 0.537484
0.863142 0.574243 0.520150
0.950896 0.565011 0.524254
0.432837 0.679835 0.509545
0.459739 0.694041 0.529259
0.547448 0.737514 0.582345
0.804654 0.789090 0.608515
0.960571 0.805768 0.646403
0.686931 0.854536 0.499474
0.703166 0.863508 0.510170
0.746929 0.888304 0.541848
0.823682 0.930175 0.618158
0.912734 0.968093 0.692760
0.248631 0.304768 0.497902
0.283680 0.330053 0.523278
0.461021 0.363027 0.490532
0.755703 0.403479 0.405859
0.923262 0.435721 0.410391
0.292760 0.373953 0.585016
0.329000 0.394247 0.597772
0.501915 0.433631 0.567910
0.806409 0.464515 0.461540
0.932586 0.526436 0.514672
0.319524 0.570657 0.766751
0.385183 0.582467 0.768841
0.591836 0.606073 0.718944
0.839429 0.631266 0.647242
0.962264 0.659007 0.658412
0.351369 0.731426 0.842466
0.488777 0.755169 0.839719
0.672755 0.791928 0.821958
0.865736 0.827222 0.813886
0.983917 0.836347 0.809033
0.778393 0.884535 0.728405
0.789548 0.891905 0.737636
0.824765 0.914412 0.768246
0.883589 0.949584 0.812421
0.952605 0.976852 0.852232
0.307149 0.384360 0.594141
0.326162 0.398077 0.605707
0.407019 0.439780 0.620600
0.605463 0.494209 0.597986
0.931975 0.570764 0.567025
0.337240 0.421942 0.629557
0.359716 0.437507 0.639460
0.449042 0.489738 0.661707
0.651286 0.546502 0.636149
0.940429 0.599863 0.599603
0.388418 0.610895 0.805753
0.418082 0.621576 0.810269
0.534707 0.651514 0.803815
0.738674 0.701366 0.781445
0.965164 0.697566 0.699351
0.582177 0.792844 0.935256
0.594995 0.799985 0.939925
0.675273 0.826688 0.949645
0.850828 0.860441 0.941161
0.972045 0.883024 0.901915
0.792874 0.912520 0.979095
0.803311 0.917311 0.979873
0.841840 0.933394 0.979583
0.919097 0.965835 0.976638
0.983398 0.982254 0.974075
