app/src/main/assets/filters/Pentax_Kyushu.cube
# Created from Pentax_Kyushu.plut
LUT_3D_SIZE 9
DOMAIN_MIN 0.0 0.0 0.0
DOMAIN_MAX 1.0 1.0 1.0
0.000000 0.000000 0.000000
0.098039 0.003922 0.000000
0.204150 0.003220 0.000000
0.311727 0.004990 0.000000
0.428687 0.009308 0.000000
0.557977 0.019516 0.000000
0.690318 0.020447 0.000000
0.821744 0.086473 0.000000
0.994186 0.175631 0.000000
0.000000 0.084092 0.013199
0.099916 0.086381 0.010697
0.210346 0.088487 0.000458
0.318013 0.090730 0.000000
0.438865 0.088426 0.000000
0.569100 0.096651 0.000000
0.697856 0.113634 0.000000
0.830121 0.160052 0.000000
1.000000 0.290089 0.012909
0.000000 0.172992 0.031739
0.091066 0.179095 0.009522
0.201114 0.184924 0.003555
0.315969 0.188022 0.000763
0.439673 0.188891 0.000000
0.571588 0.194018 0.000000
0.699138 0.216663 0.000000
0.832700 0.250889 0.000000
0.991989 0.377142 0.044343
0.000000 0.270588 0.058824
0.048798 0.283070 0.019715
0.185504 0.286000 0.014908
0.305272 0.287449 0.008164
0.432517 0.294942 0.000000
0.567681 0.297520 0.000000
0.699733 0.312978 0.000000
0.834180 0.336645 0.000000
0.984360 0.457984 0.083619
0.000000 0.388235 0.090196
0.000000 0.396872 0.042374
0.156786 0.401663 0.026184
0.290562 0.404257 0.020005
0.417700 0.405676 0.011643
0.557748 0.409262 0.000000
0.696773 0.420722 0.000000
0.835996 0.433234 0.000000
0.971649 0.540581 0.128634
0.000000 0.513725 0.137255
0.000000 0.520409 0.114488
0.103166 0.528496 0.064240
0.261875 0.527779 0.067536
0.399268 0.530327 0.059602
0.546365 0.535592 0.042176
0.686717 0.539467 0.015976
0.836103 0.546227 0.000000
0.957275 0.633753 0.189105
0.000000 0.647059 0.211765
0.000000 0.648737 0.200504
0.000000 0.654017 0.158907
0.209567 0.659449 0.138354
0.373938 0.658503 0.139254
0.527443 0.660700 0.123491
0.675090 0.665705 0.115206
0.829725 0.664866 0.078065
0.940795 0.733684 0.261326
0.000000 0.780392 0.321569
0.000000 0.781201 0.317357
0.000000 0.788724 0.297200
0.072511 0.795483 0.252201
0.324529 0.794736 0.254414
0.496742 0.797345 0.243778
0.655070 0.799054 0.236637
0.812833 0.799420 0.229206
0.921477 0.848463 0.351751
0.000000 0.945098 0.482353
0.000000 0.945098 0.482353
0.000000 0.946960 0.474846
0.000000 0.952026 0.452842
0.224231 0.957610 0.423346
0.443076 0.960510 0.420691
0.621592 0.958785 0.417823
0.792264 0.960143 0.413901
0.966033 0.964248 0.420111
0.019532 0.010407 0.093797
0.125154 0.013367 0.094835
0.231724 0.002075 0.088701
0.333150 0.000000 0.088182
0.444892 0.000000 0.090150
0.571069 0.000000 0.086900
0.702358 0.000000 0.082261
0.846021 0.000000 0.064958
1.000000 0.188922 0.165072
0.005585 0.099794 0.109010
0.114687 0.105608 0.105608
0.221942 0.104005 0.105318
0.335882 0.096513 0.103334
0.456962 0.091005 0.099260
0.589395 0.075380 0.084108
0.723568 0.077317 0.076951
0.864332 0.096147 0.048692
1.000000 0.299779 0.183001
0.000000 0.189639 0.122988
0.101717 0.194644 0.117418
0.212970 0.200320 0.117906
0.328664 0.199283 0.112581
0.450980 0.198749 0.109834
0.583597 0.203525 0.100267
0.718410 0.211475 0.089555
0.860517 0.232181 0.067140
0.988708 0.390188 0.203403
0.000000 0.283055 0.146761
0.067704 0.294667 0.130617
0.199573 0.297444 0.127764
0.314382 0.298909 0.123781
0.438056 0.302327 0.122667
0.576028 0.307271 0.114946
0.707942 0.315297 0.105913
0.856168 0.328710 0.083848
0.981506 0.461753 0.228946
0.000000 0.396231 0.175799
0.000000 0.405600 0.153429
0.168612 0.409247 0.149966
0.300557 0.411780 0.147051
0.426673 0.417212 0.142535
0.562692 0.416876 0.137118
0.700450 0.427146 0.127001
0.846693 0.434821 0.105226
0.973007 0.543999 0.256672
0.000000 0.521569 0.223529
0.000000 0.524926 0.206775
0.127504 0.532204 0.185351
0.277134 0.535393 0.182712
0.408942 0.537896 0.183963
0.551827 0.539162 0.177630
0.692058 0.542992 0.168490
0.839887 0.548730 0.148608
0.958389 0.637308 0.291814
0.000000 0.647059 0.290196
0.000000 0.653056 0.280339
0.000000 0.659144 0.247410
0.230137 0.659159 0.247639
0.379904 0.662211 0.243748
0.533150 0.664317 0.237873
0.676722 0.665324 0.230365
0.830900 0.668498 0.213703
0.941604 0.737346 0.340795
0.000000 0.784314 0.380392
0.000000 0.785351 0.379965
0.000000 0.789334 0.362203
0.112184 0.799252 0.330480
0.336049 0.798459 0.328084
0.502342 0.801038 0.323735
0.656596 0.798734 0.318898
0.813642 0.803143 0.307485
0.922484 0.848112 0.414221
0.000000 0.945098 0.521569
0.000000 0.945251 0.521035
0.000000 0.947280 0.513771
0.000000 0.952712 0.492851
0.238911 0.961395 0.469703
0.449226 0.960311 0.467720
0.622477 0.958602 0.465034
0.793103 0.959915 0.461326
0.966766 0.964019 0.467353
0.014237 0.024613 0.200977
0.135073 0.024552 0.197040
0.243153 0.012604 0.194903
0.348516 0.000000 0.191302
0.457816 0.000000 0.189654
0.580011 0.000000 0.185214
0.711177 0.000000 0.180911
0.851545 0.000000 0.168215
1.000000 0.214405 0.287388
0.003937 0.114565 0.214771
0.128130 0.115938 0.211749
0.237537 0.118303 0.211124
0.348013 0.116640 0.204807
0.465599 0.108797 0.197421
0.593729 0.104906 0.188785
0.724117 0.097917 0.185183
0.864866 0.124239 0.171176
0.996857 0.317906 0.301930
0.000000 0.205570 0.218677
0.110933 0.209873 0.219211
0.224475 0.215366 0.219928
0.336812 0.214557 0.215290
0.459358 0.214527 0.213428
0.587793 0.220645 0.205875
0.718532 0.230045 0.198260
0.861051 0.246204 0.184146
0.989822 0.397879 0.314382
0.000000 0.299199 0.238346
0.081010 0.306111 0.234211
0.212314 0.308690 0.231678
0.327398 0.309972 0.232700
0.446784 0.313603 0.227878
0.580529 0.319036 0.221775
0.712520 0.327337 0.215061
0.856809 0.341329 0.200534
0.982422 0.469474 0.326360
0.000000 0.408423 0.265385
0.016922 0.413458 0.252522
0.183902 0.416678 0.255375
0.310063 0.419150 0.252888
0.436011 0.424506 0.249165
0.571572 0.428275 0.244205
0.705440 0.434607 0.237644
0.851789 0.442329 0.222873
0.973785 0.551705 0.345251
0.000000 0.529625 0.305226
0.000000 0.533532 0.292515
0.139956 0.539849 0.281895
0.287739 0.538964 0.284779
0.418769 0.541390 0.281682
0.556786 0.546685 0.276387
0.697093 0.550484 0.269520
0.844984 0.556222 0.254826
0.959274 0.640864 0.372000
0.000000 0.654902 0.360784
0.000000 0.657389 0.352087
0.024933 0.663401 0.328161
0.240223 0.666880 0.330556
0.389975 0.665858 0.327932
0.538445 0.667918 0.323217
0.682017 0.668833 0.317144
0.831922 0.672114 0.303716
0.942260 0.740993 0.411536
0.000000 0.788235 0.439216
0.000000 0.789532 0.434791
0.000000 0.793851 0.418952
0.144686 0.799023 0.396460
0.341604 0.802213 0.393729
0.508278 0.800717 0.390478
0.661662 0.802380 0.385489
0.819150 0.802670 0.375723
0.923339 0.847761 0.470314
0.000000 0.945098 0.560784
0.000000 0.945403 0.559854
0.000000 0.951553 0.552834
0.000000 0.957305 0.533181
0.254261 0.961196 0.515923
0.455131 0.960098 0.514000
0.627222 0.962325 0.510903
0.793790 0.959701 0.503273
0.971679 0.963684 0.509041
0.005127 0.038499 0.315923
0.138994 0.034409 0.316167
0.256291 0.026551 0.309621
0.363821 0.004868 0.298177
0.470314 0.000000 0.292668
0.592767 0.000000 0.289906
0.718090 0.000000 0.284016
0.857511 0.000000 0.272419
1.000000 0.233661 0.390692
0.000000 0.133013 0.318578
0.131701 0.134203 0.321569
0.246296 0.136858 0.316701
0.359060 0.131197 0.310857
0.473426 0.125032 0.308248
0.597818 0.124544 0.299718
0.728130 0.127764 0.295735
0.865476 0.147967 0.287098
0.993378 0.331060 0.399496
0.000000 0.220829 0.322652
0.113954 0.228840 0.329091
0.238071 0.229953 0.325689
0.352148 0.229007 0.321065
0.462348 0.234638 0.319402
0.591547 0.237156 0.312139
0.722606 0.247272 0.309010
0.861463 0.264378 0.296086
0.986236 0.410468 0.407950
0.000000 0.315038 0.331701
0.086778 0.321386 0.335637
0.222110 0.323812 0.333074
0.342992 0.324910 0.329442
0.458595 0.328710 0.329229
0.584634 0.330571 0.323751
0.717067 0.338964 0.321569
0.857557 0.353491 0.308644
0.983185 0.477043 0.416083
0.000000 0.420615 0.352499
0.032303 0.424903 0.349798
0.200839 0.428000 0.348013
0.322240 0.430411 0.345556
0.440253 0.431830 0.346914
0.576165 0.435584 0.342061
0.710338 0.441886 0.335988
0.852689 0.449882 0.327764
0.970413 0.555352 0.427222
0.000000 0.533944 0.383322
0.000000 0.541802 0.375937
0.162860 0.543420 0.370993
0.296315 0.546502 0.369055
0.427359 0.548882 0.366049
0.561776 0.550088 0.366400
0.698009 0.553948 0.360555
0.846052 0.559655 0.347692
0.959991 0.644373 0.445243
0.000000 0.658976 0.431006
0.000000 0.661875 0.423972
0.064790 0.667140 0.409110
0.255863 0.670558 0.407095
0.404013 0.669413 0.404685
0.543343 0.671489 0.400656
0.686610 0.676387 0.394705
0.832837 0.675639 0.388037
0.943175 0.740475 0.476326
0.000000 0.788235 0.494118
0.000000 0.789914 0.489570
0.000000 0.798337 0.476234
0.168353 0.802747 0.460304
0.358206 0.801877 0.458305
0.513130 0.804395 0.454826
0.666575 0.805982 0.450278
0.819806 0.806302 0.445823
0.923598 0.851514 0.520500
0.000000 0.949020 0.596078
0.000000 0.949462 0.594873
0.000000 0.951919 0.588067
0.000000 0.958007 0.569650
0.268467 0.960998 0.557076
0.459892 0.963867 0.554742
0.632410 0.962081 0.552148
0.798428 0.963378 0.548898
0.971832 0.967483 0.550011
0.000000 0.059663 0.438102
0.145876 0.059220 0.442679
0.265827 0.048753 0.437324
0.376333 0.034257 0.430610
0.492073 0.005646 0.422782
0.607904 0.000000 0.416037
0.734081 0.000000 0.407797
0.872282 0.000000 0.403525
0.996216 0.268208 0.499641
0.000000 0.155230 0.437156
0.138705 0.155566 0.444068
0.259983 0.158206 0.443900
0.367163 0.153948 0.438712
0.487190 0.154574 0.430915
0.608453 0.152407 0.422568
0.735363 0.159091 0.413779
0.869566 0.179995 0.413703
0.993622 0.352514 0.504509
0.000000 0.247868 0.433982
0.120699 0.251301 0.447211
0.247700 0.252399 0.443809
0.360220 0.251759 0.443732
0.476646 0.253300 0.437598
0.602472 0.256886 0.430198
0.729931 0.268254 0.422416
0.865583 0.285969 0.418509
0.986725 0.422171 0.509392
0.000000 0.334691 0.438285
0.097047 0.340322 0.449332
0.237903 0.342535 0.446540
0.352087 0.343786 0.443000
0.469001 0.347768 0.438163
0.591531 0.350103 0.437110
0.720623 0.359060 0.430533
0.862119 0.369268 0.422660
0.979355 0.489036 0.513664
0.000000 0.432685 0.453239
0.055848 0.440116 0.458915
0.214115 0.443107 0.457053
0.336904 0.445396 0.454475
0.455695 0.446784 0.451255
0.583749 0.450797 0.446693
0.714366 0.457313 0.440940
0.853040 0.465660 0.438010
0.970993 0.562692 0.520989
0.000000 0.546075 0.474342
0.000000 0.550256 0.473182
0.179294 0.554849 0.471489
0.312642 0.553841 0.469932
0.439582 0.556115 0.467140
0.569772 0.561364 0.462959
0.706538 0.565087 0.461997
0.850736 0.570962 0.450263
0.960723 0.647608 0.535561
0.000000 0.663340 0.509087
0.000000 0.670390 0.504829
0.095720 0.674800 0.497490
0.275029 0.674113 0.496071
0.416541 0.676890 0.493355
0.551736 0.678889 0.489738
0.691554 0.679683 0.489479
0.837568 0.682979 0.478523
0.943648 0.743954 0.553460
0.000000 0.792279 0.560555
0.000000 0.794369 0.556603
0.000000 0.803265 0.545953
0.195773 0.806394 0.536950
0.372793 0.805447 0.535058
0.522316 0.807919 0.531838
0.671458 0.809445 0.527840
0.824720 0.809720 0.523476
0.924392 0.851011 0.588724
0.000000 0.949020 0.643137
0.000000 0.949798 0.641444
0.000000 0.952605 0.635050
0.000000 0.963119 0.618082
0.286854 0.964691 0.611002
0.470375 0.963561 0.609186
0.637598 0.961730 0.611200
0.799100 0.963058 0.603525
0.972503 0.967163 0.604456
0.000000 0.097368 0.571954
0.167590 0.096422 0.580911
0.284352 0.090364 0.576394
0.389853 0.078721 0.570886
0.503273 0.072313 0.562753
0.621515 0.058442 0.557992
0.740902 0.071015 0.548257
0.875715 0.094148 0.534066
0.995651 0.305592 0.612787
0.000000 0.193149 0.567483
0.153964 0.192721 0.582269
0.278691 0.191699 0.578286
0.384543 0.193576 0.572625
0.498375 0.192523 0.565576
0.612345 0.199680 0.557168
0.736660 0.204349 0.548547
0.872358 0.225879 0.539452
0.988876 0.383108 0.618112
0.000000 0.278584 0.564523
0.138201 0.281086 0.581094
0.266667 0.286397 0.577173
0.373678 0.286549 0.572793
0.487831 0.289174 0.566781
0.606744 0.294499 0.559792
0.731945 0.302281 0.552468
0.869169 0.315724 0.544427
0.986252 0.446906 0.618723
0.000000 0.362127 0.563516
0.119966 0.366690 0.578607
0.259281 0.368811 0.575723
0.366903 0.370275 0.572351
0.481682 0.370413 0.567987
0.601358 0.373205 0.562646
0.727352 0.382681 0.556283
0.865812 0.393393 0.548928
0.979202 0.504692 0.619364
0.000000 0.456641 0.568154
0.092805 0.458946 0.579965
0.243809 0.461769 0.577890
0.353399 0.464134 0.575586
0.473716 0.465415 0.572351
0.590036 0.469810 0.568231
0.722011 0.472129 0.563088
0.861448 0.480461 0.556176
0.971008 0.574029 0.622919
0.000000 0.562341 0.578851
0.001114 0.566735 0.585718
0.212360 0.570031 0.584253
0.334829 0.568917 0.582788
0.458350 0.571054 0.580133
0.581216 0.572274 0.576745
0.710201 0.576135 0.576425
0.850843 0.582132 0.569955
0.960800 0.654917 0.629313
0.000000 0.675547 0.600000
0.000000 0.679362 0.599741
0.140642 0.682261 0.603189
0.294499 0.685496 0.601419
0.432441 0.684154 0.594888
0.563745 0.686015 0.596048
0.699840 0.686763 0.591730
0.842039 0.690074 0.585946
0.947799 0.751232 0.642878
0.000000 0.800580 0.638682
0.000000 0.803174 0.636088
0.000000 0.808576 0.629801
0.225315 0.809903 0.626490
0.390173 0.812879 0.624155
0.535470 0.811246 0.621607
0.680400 0.812680 0.617960
0.825101 0.813123 0.613809
0.928481 0.858457 0.664454
0.000000 0.952941 0.705882
0.000000 0.954192 0.703929
0.000000 0.957733 0.698054
0.000000 0.964569 0.685130
0.316182 0.968246 0.678019
0.484581 0.967071 0.680766
0.646555 0.965240 0.678279
0.803723 0.966552 0.675288
0.977066 0.970657 0.671504
0.000000 0.158007 0.722103
0.197284 0.156771 0.721248
0.313619 0.159045 0.716121
0.412802 0.154696 0.710842
0.519799 0.152331 0.703410
0.626871 0.159319 0.694865
0.748028 0.168887 0.685405
0.880720 0.196231 0.676173
0.989578 0.360937 0.734386
0.000000 0.250340 0.711391
0.185397 0.251087 0.716213
0.308736 0.251133 0.711986
0.403204 0.255177 0.706889
0.514748 0.256901 0.700267
0.622004 0.262058 0.697566
0.744305 0.268956 0.689952
0.878202 0.286564 0.677409
0.987320 0.421530 0.735698
0.000000 0.328817 0.706416
0.178927 0.330922 0.714656
0.298283 0.332464 0.711223
0.398016 0.333318 0.707362
0.505455 0.337179 0.697658
0.617655 0.339330 0.696422
0.740444 0.348089 0.689845
0.875319 0.362402 0.682643
0.984970 0.475608 0.732433
0.000000 0.401343 0.699596
0.166201 0.404700 0.709255
0.292851 0.406867 0.706462
0.393027 0.404486 0.703792
0.500343 0.409186 0.699870
0.613123 0.412650 0.695293
0.736904 0.418219 0.689982
0.868132 0.430045 0.683406
0.977783 0.533028 0.733135
0.000000 0.484627 0.696330
0.145998 0.489433 0.707927
0.278721 0.492164 0.706004
0.380285 0.494560 0.703792
0.493751 0.491844 0.701366
0.602960 0.496422 0.697826
0.727489 0.503380 0.692943
0.863844 0.512261 0.686671
0.973999 0.593378 0.737346
0.000000 0.582864 0.699306
0.080674 0.589776 0.710994
0.250965 0.588876 0.709880
0.362799 0.591684 0.708095
0.479240 0.589715 0.706096
0.594430 0.595026 0.702708
0.720760 0.594842 0.698741
0.858091 0.600992 0.692821
0.964034 0.670069 0.739803
0.000000 0.688411 0.709178
0.000000 0.696483 0.715221
0.198367 0.697444 0.716716
0.332036 0.696529 0.715435
0.454337 0.699123 0.713146
0.577874 0.700969 0.710170
0.706310 0.701793 0.706310
0.849393 0.705043 0.700816
0.951537 0.758297 0.745235
0.000000 0.809216 0.733577
0.000000 0.812680 0.734035
0.050080 0.821820 0.733577
0.271748 0.821134 0.732433
0.420768 0.819989 0.730663
0.550973 0.822324 0.727947
0.688045 0.819760 0.724971
0.832792 0.824216 0.720317
0.932738 0.861616 0.758053
0.000000 0.957305 0.780041
0.000000 0.959228 0.778470
0.000000 0.967453 0.774273
0.137835 0.972412 0.768261
0.348486 0.971618 0.767010
0.507790 0.970397 0.765209
0.659297 0.972519 0.762493
0.812482 0.969833 0.759823
0.981552 0.973999 0.760250
0.099687 0.255436 0.865370
0.255528 0.256229 0.861479
0.355413 0.261097 0.856855
0.441672 0.260960 0.852537
0.541375 0.263493 0.846555
0.650507 0.268528 0.839857
0.757137 0.281682 0.833326
0.884550 0.294682 0.826612
0.986099 0.427054 0.864317
0.095354 0.332357 0.859556
0.251759 0.334096 0.856382
0.351614 0.335531 0.852979
0.437720 0.336553 0.849317
0.533120 0.336202 0.845151
0.646952 0.342260 0.839597
0.754284 0.351659 0.834318
0.882033 0.366476 0.827878
0.983978 0.476936 0.861524
0.078416 0.394553 0.855573
0.242374 0.396872 0.852888
0.342779 0.398886 0.850294
0.433677 0.400336 0.847623
0.529229 0.400839 0.844327
0.639399 0.403922 0.835645
0.751308 0.413855 0.835218
0.879622 0.425406 0.829297
0.981811 0.521172 0.863203
0.068040 0.455756 0.848096
0.236194 0.458350 0.850629
0.337591 0.460761 0.848569
0.424384 0.462852 0.846281
0.524895 0.463813 0.843763
0.635523 0.467674 0.835782
0.748165 0.474327 0.831479
0.876951 0.482704 0.825895
0.979004 0.569299 0.859724
0.000000 0.532448 0.847990
0.219181 0.531441 0.847990
0.324102 0.534203 0.846494
0.417609 0.532509 0.845060
0.514626 0.534203 0.842786
0.630488 0.538643 0.835065
0.739483 0.542123 0.835828
0.873274 0.547219 0.830396
0.971191 0.621271 0.860258
0.000000 0.615900 0.842863
0.183337 0.616236 0.849348
0.304311 0.619257 0.847990
0.401663 0.617945 0.846769
0.500877 0.620127 0.844755
0.614298 0.621347 0.837507
0.733089 0.625406 0.838087
0.867826 0.627695 0.828443
0.965820 0.689342 0.858717
0.000000 0.714076 0.837797
0.104967 0.716960 0.848707
0.268757 0.716152 0.847730
0.373526 0.719219 0.846189
0.482673 0.717708 0.844541
0.598734 0.719478 0.841703
0.724147 0.720211 0.838025
0.855253 0.723857 0.833051
0.953750 0.773480 0.859785
0.000000 0.826902 0.848173
0.000000 0.831205 0.854673
0.194903 0.832761 0.857099
0.329610 0.831968 0.855955
0.453468 0.830716 0.854276
0.574472 0.833021 0.847105
0.707027 0.834455 0.843626
0.844022 0.835004 0.839506
0.935546 0.872755 0.868299
0.000000 0.966461 0.874784
0.000000 0.969696 0.875135
0.000000 0.975006 0.875273
0.240665 0.979522 0.874022
0.398856 0.978668 0.872740
0.538720 0.977386 0.871000
0.680491 0.979446 0.868315
0.820233 0.976928 0.865629
0.985260 0.981216 0.865599
0.330449 0.426505 1.000000
0.406134 0.428931 1.000000
0.465354 0.431388 1.000000
0.527886 0.433356 1.000000
0.598428 0.434501 1.000000
0.681392 0.438392 1.000000
0.781704 0.443992 1.000000
0.905180 0.449149 0.995743
0.976410 0.551827 1.000000
0.324132 0.475349 1.000000
0.396506 0.478050 1.000000
0.461616 0.476478 1.000000
0.520241 0.478798 1.000000
0.595834 0.480064 1.000000
0.679347 0.484306 1.000000
0.780407 0.486213 1.000000
0.903014 0.493523 0.997742
0.972900 0.587152 1.000000
0.317571 0.515953 1.000000
0.391363 0.518761 1.000000
0.456992 0.521401 1.000000
0.516701 0.519768 1.000000
0.592966 0.521248 1.000000
0.677317 0.521614 1.000000
0.778820 0.528054 1.000000
0.896620 0.533242 0.995499
0.972869 0.615351 1.000000
0.309102 0.560586 1.000000
0.384115 0.559564 1.000000
0.449851 0.562417 1.000000
0.514168 0.560967 1.000000
0.590280 0.562829 1.000000
0.674418 0.563745 1.000000
0.775784 0.566842 1.000000
0.894224 0.572061 0.997314
0.972824 0.647501 1.000000
0.290730 0.613230 1.000000
0.368521 0.616373 1.000000
0.441886 0.615229 1.000000
0.502983 0.613993 1.000000
0.580377 0.616052 1.000000
0.665705 0.617227 1.000000
0.772396 0.620966 0.997971
0.890761 0.623484 0.993194
0.969299 0.689830 1.000000
0.264271 0.681895 1.000000
0.352911 0.681117 1.000000
0.428321 0.680201 1.000000
0.489754 0.683268 1.000000
0.568826 0.681621 1.000000
0.659342 0.683162 1.000000
0.762676 0.683742 0.996948
0.885863 0.686885 0.992126
0.964797 0.741802 1.000000
0.238941 0.761990 1.000000
0.330449 0.765545 1.000000
0.408179 0.764904 1.000000
0.476310 0.764157 1.000000
0.555886 0.762997 1.000000
0.646387 0.765240 1.000000
0.754772 0.766384 0.997253
0.878630 0.766384 0.992676
0.953994 0.812833 1.000000
0.173037 0.862165 1.000000
0.290776 0.861860 1.000000
0.374350 0.861494 1.000000
0.445487 0.861036 1.000000
0.531899 0.860273 1.000000
0.625711 0.862898 0.998367
0.740291 0.864576 0.995209
0.864836 0.865431 0.991363
0.946456 0.897154 1.000000
0.230716 0.987243 1.000000
0.321584 0.987259 1.000000
0.391089 0.991318 1.000000
0.459831 0.991333 1.000000
0.539467 0.991348 1.000000
0.625986 0.991348 1.000000
0.731868 0.991318 1.000000
0.847837 0.995392 0.999985
1.000000 1.000000 1.000000
