app/src/main/assets/filters/pentax.cube
# Created from pentax.plut
LUT_3D_SIZE 33
DOMAIN_MIN 0.0 0.0 0.0
DOMAIN_MAX 1.0 1.0 1.0
0.000000 0.000000 0.000000
0.029313 0.000580 0.000000
0.059403 0.001236 0.000000
0.089830 0.002167 0.000000
0.120256 0.003418 0.000000
0.150683 0.005020 0.000000
0.181109 0.006989 0.000000
0.211536 0.009354 0.000000
0.241962 0.012131 0.000000
0.272389 0.015335 0.000000
0.302815 0.018967 0.000000
0.333318 0.023087 0.000000
0.363928 0.027680 0.000000
0.394491 0.032761 0.000000
0.424826 0.038331 0.000000
0.454948 0.044236 0.000000
0.484459 0.050065 0.000000
0.513344 0.055802 0.000000
0.541924 0.061509 0.000000
0.569848 0.067109 0.000000
0.597070 0.072618 0.000000
0.623545 0.078019 0.000000
0.649271 0.083284 0.000000
0.674083 0.088411 0.000000
0.701198 0.093828 0.000000
0.724865 0.098756 0.000000
0.751690 0.104112 0.000000
0.774502 0.108873 0.000000
0.796872 0.113558 0.000000
0.823743 0.118868 0.000000
0.850690 0.124193 0.000000
0.873243 0.128847 0.000000
0.901137 0.134295 0.000000
0.000000 0.031235 0.000137
0.029679 0.031724 0.000000
0.059953 0.032273 0.000000
0.090394 0.033112 0.000000
0.120790 0.034302 0.000000
0.151171 0.035843 0.000000
0.181537 0.037781 0.000000
0.211933 0.040116 0.000000
0.242313 0.042786 0.000000
0.272816 0.045762 0.000000
0.303380 0.049027 0.000000
0.333852 0.052522 0.000000
0.364248 0.056245 0.000000
0.394202 0.060105 0.000000
0.424170 0.064149 0.000000
0.453819 0.068315 0.000000
0.482948 0.072541 0.000000
0.511559 0.076829 0.000000
0.538705 0.081025 0.000000
0.565560 0.085267 0.000000
0.593606 0.089799 0.000000
0.619486 0.094072 0.000000
0.647211 0.098695 0.000000
0.671946 0.102922 0.000000
0.695979 0.107103 0.000000
0.719356 0.111223 0.000000
0.746151 0.115908 0.000000
0.768856 0.120012 0.000000
0.795483 0.124743 0.000000
0.817929 0.128862 0.000000
0.849805 0.134493 0.000000
0.878157 0.139590 0.000000
0.901671 0.143954 0.000000
0.000000 0.062470 0.000305
0.029587 0.062867 0.000000
0.059998 0.063233 0.000000
0.090547 0.063798 0.000000
0.121019 0.064591 0.000000
0.151446 0.065644 0.000000
0.181872 0.066957 0.000000
0.212345 0.068559 0.000000
0.242817 0.070420 0.000000
0.273274 0.072511 0.000000
0.303532 0.074815 0.000000
0.333745 0.077333 0.000000
0.363745 0.080034 0.000000
0.393454 0.082902 0.000000
0.422797 0.085908 0.000000
0.451865 0.089052 0.000000
0.480110 0.092210 0.000000
0.509285 0.095735 0.000000
0.535180 0.098817 0.000000
0.561685 0.102159 0.000000
0.589715 0.105928 0.000000
0.615122 0.109346 0.000000
0.639841 0.112764 0.000000
0.663890 0.116167 0.000000
0.694057 0.120745 0.000000
0.717540 0.124239 0.000000
0.740566 0.127749 0.000000
0.767330 0.131960 0.000000
0.794369 0.136309 0.000000
0.817212 0.139971 0.000000
0.844907 0.144533 0.000000
0.873213 0.149248 0.000000
0.901961 0.154086 0.000000
0.000000 0.093721 0.000534
0.029389 0.094041 0.000000
0.059907 0.094285 0.000000
0.090593 0.094697 0.000000
0.121202 0.095262 0.000000
0.151797 0.096040 0.000000
0.182269 0.096956 0.000000
0.212711 0.098070 0.000000
0.243061 0.099367 0.000000
0.273014 0.100725 0.000000
0.302937 0.102312 0.000000
0.333059 0.104189 0.000000
0.362173 0.105974 0.000000
0.391608 0.108095 0.000000
0.420249 0.110201 0.000000
0.448432 0.112398 0.000000
0.477409 0.115007 0.000000
0.504631 0.117372 0.000000
0.531258 0.119799 0.000000
0.557229 0.122271 0.000000
0.582559 0.124773 0.000000
0.609857 0.127855 0.000000
0.634195 0.130480 0.000000
0.661143 0.133761 0.000000
0.684672 0.136492 0.000000
0.711482 0.139986 0.000000
0.734508 0.142840 0.000000
0.764782 0.147204 0.000000
0.793637 0.151385 0.000000
0.821668 0.155474 0.000000
0.850217 0.159731 0.000000
0.874388 0.163241 0.000000
0.903380 0.167712 0.000000
0.000000 0.125002 0.000839
0.029114 0.125338 0.000000
0.059785 0.125566 0.000000
0.090608 0.125872 0.000000
0.121233 0.126192 0.000000
0.151843 0.126741 0.000000
0.182071 0.127199 0.000000
0.212467 0.127993 0.000000
0.242451 0.128771 0.000000
0.272206 0.129656 0.000000
0.302129 0.130846 0.000000
0.330709 0.131701 0.000000
0.359930 0.133043 0.000000
0.388586 0.134401 0.000000
0.416449 0.135729 0.000000
0.443793 0.137118 0.000000
0.471214 0.138750 0.000000
0.498650 0.140597 0.000000
0.524468 0.142199 0.000000
0.552071 0.144457 0.000000
0.579156 0.146761 0.000000
0.604196 0.148699 0.000000
0.631418 0.151354 0.000000
0.655299 0.153353 0.000000
0.682444 0.156268 0.000000
0.709758 0.159335 0.000000
0.737331 0.162570 0.000000
0.763470 0.165591 0.000000
0.788724 0.168536 0.000000
0.817365 0.172290 0.000000
0.846296 0.176196 0.000000
0.875257 0.180179 0.000000
0.904265 0.184253 0.000000
0.000000 0.156344 0.001236
0.028717 0.156588 0.000000
0.059464 0.156634 0.000000
0.090257 0.156710 0.000000
0.120806 0.156786 0.000000
0.151095 0.156893 0.000000
0.181415 0.157290 0.000000
0.211566 0.157763 0.000000
0.241215 0.158099 0.000000
0.270451 0.158450 0.000000
0.299306 0.158846 0.000000
0.328099 0.159472 0.000000
0.356802 0.160296 0.000000
0.385748 0.161425 0.000000
0.411521 0.161501 0.000000
0.439765 0.162799 0.000000
0.466514 0.163760 0.000000
0.493858 0.165148 0.000000
0.521645 0.166842 0.000000
0.546563 0.167834 0.000000
0.571160 0.168933 0.000000
0.598428 0.171008 0.000000
0.625772 0.173236 0.000000
0.653254 0.175647 0.000000
0.676875 0.177157 0.000000
0.704601 0.179889 0.000000
0.732677 0.182818 0.000000
0.761181 0.185962 0.000000
0.790036 0.189258 0.000000
0.818601 0.192584 0.000000
0.842954 0.195026 0.000000
0.875746 0.199496 0.000000
0.905516 0.203342 0.000000
0.000000 0.187259 0.001724
0.028153 0.187259 0.000000
0.058839 0.187015 0.000000
0.089631 0.186999 0.000000
0.120012 0.186801 0.000000
0.150011 0.186526 0.000000
0.179965 0.186557 0.000000
0.209461 0.186435 0.000000
0.238422 0.186206 0.000000
0.267796 0.186572 0.000000
0.296437 0.186679 0.000000
0.324010 0.186435 0.000000
0.352331 0.186908 0.000000
0.380819 0.187671 0.000000
0.407324 0.187701 0.000000
0.435401 0.188678 0.000000
0.463401 0.189807 0.000000
0.488167 0.189822 0.000000
0.513878 0.190478 0.000000
0.541390 0.191974 0.000000
0.565682 0.192523 0.000000
0.596399 0.195392 0.000000
0.624231 0.197406 0.000000
0.651453 0.199344 0.000000
0.676509 0.200763 0.000000
0.705028 0.203342 0.000000
0.733837 0.206104 0.000000
0.758206 0.207721 0.000000
0.791257 0.211810 0.000000
0.820172 0.214862 0.000000
0.849119 0.217990 0.000000
0.877760 0.221134 0.000000
0.906767 0.224445 0.000000
0.000000 0.217105 0.002289
0.027420 0.217212 0.000000
0.058000 0.216602 0.000000
0.088701 0.216464 0.000000
0.118761 0.215808 0.000000
0.148379 0.215076 0.000000
0.178119 0.215015 0.000000
0.206989 0.214313 0.000000
0.235355 0.213565 0.000000
0.264302 0.213672 0.000000
0.293111 0.213901 0.000000
0.320333 0.213260 0.000000
0.348699 0.213672 0.000000
0.375097 0.213138 0.000000
0.403098 0.213779 0.000000
0.431052 0.214542 0.000000
0.456443 0.214267 0.000000
0.484169 0.215305 0.000000
0.508980 0.215259 0.000000
0.539635 0.217807 0.000000
0.567666 0.219348 0.000000
0.592294 0.219760 0.000000
0.620600 0.221683 0.000000
0.650385 0.224201 0.000000
0.677684 0.225971 0.000000
0.706477 0.228321 0.000000
0.735317 0.230777 0.000000
0.762188 0.232715 0.000000
0.792767 0.235874 0.000000
0.825879 0.239811 0.000000
0.850340 0.241321 0.000000
0.879332 0.244236 0.000000
0.913024 0.248493 0.000000
0.000000 0.246647 0.002945
0.026474 0.245701 0.000000
0.056901 0.244938 0.000000
0.087388 0.244633 0.000000
0.117082 0.243488 0.000000
0.146807 0.243244 0.000000
0.175586 0.242069 0.000000
0.204776 0.241917 0.000000
0.233509 0.241566 0.000000
0.261433 0.240742 0.000000
0.290028 0.240848 0.000000
0.316869 0.239811 0.000000
0.345083 0.240116 0.000000
0.371191 0.239216 0.000000
0.399145 0.239765 0.000000
0.426429 0.240070 0.000000
0.454948 0.241230 0.000000
0.480156 0.240803 0.000000
0.511070 0.243351 0.000000
0.536217 0.243259 0.000000
0.564691 0.244831 0.000000
0.591989 0.246006 0.000000
0.621836 0.248310 0.000000
0.650584 0.250248 0.000000
0.675441 0.250813 0.000000
0.707912 0.254276 0.000000
0.732570 0.255009 0.000000
0.765347 0.258656 0.000000
0.795422 0.261418 0.000000
0.822889 0.263401 0.000000
0.855802 0.267170 0.000000
0.880537 0.268467 0.000000
0.914183 0.272557 0.000000
0.000000 0.273457 0.003662
0.025422 0.273350 0.000000
0.055543 0.271824 0.000000
0.085801 0.271382 0.000000
0.115068 0.269795 0.000000
0.144411 0.269429 0.000000
0.172702 0.267826 0.000000
0.201495 0.267582 0.000000
0.228931 0.266041 0.000000
0.258595 0.267323 0.000000
0.285435 0.265919 0.000000
0.313649 0.266102 0.000000
0.339834 0.264866 0.000000
0.369879 0.266773 0.000000
0.395727 0.265797 0.000000
0.426246 0.268070 0.000000
0.451942 0.267399 0.000000
0.480400 0.268544 0.000000
0.508782 0.269734 0.000000
0.537453 0.271138 0.000000
0.564446 0.271794 0.000000
0.594629 0.274067 0.000000
0.619791 0.274144 0.000000
0.651911 0.277348 0.000000
0.680461 0.279057 0.000000
0.709285 0.280964 0.000000
0.737881 0.282841 0.000000
0.766781 0.284916 0.000000
0.795407 0.286946 0.000000
0.828565 0.290654 0.000000
0.854032 0.291722 0.000000
0.886488 0.295247 0.000000
0.920043 0.299153 0.000000
0.000000 0.300694 0.004486
0.024186 0.299260 0.000000
0.054093 0.297734 0.000000
0.084382 0.298146 0.000000
0.113405 0.296239 0.000000
0.142550 0.295888 0.000000
0.170550 0.294011 0.000000
0.199161 0.293828 0.000000
0.227588 0.293645 0.000000
0.256031 0.293706 0.000000
0.284077 0.293507 0.000000
0.311299 0.292744 0.000000
0.340169 0.293690 0.000000
0.367361 0.293324 0.000000
0.395834 0.294133 0.000000
0.424277 0.294987 0.000000
0.452918 0.296040 0.000000
0.481392 0.297032 0.000000
0.510079 0.298222 0.000000
0.538567 0.299367 0.000000
0.566430 0.300252 0.000000
0.595834 0.302022 0.000000
0.624369 0.303395 0.000000
0.653178 0.304982 0.000000
0.681758 0.306508 0.000000
0.710628 0.308232 0.000000
0.739254 0.309926 0.000000
0.772061 0.313390 0.000000
0.800763 0.315206 0.000000
0.829923 0.317266 0.000000
0.858762 0.319265 0.000000
0.892271 0.323033 0.000000
0.916747 0.323583 0.000000
0.000000 0.327138 0.005402
0.022950 0.325444 0.000000
0.052644 0.323201 0.000000
0.082963 0.324422 0.000000
0.111803 0.322286 0.000000
0.140810 0.322057 0.000000
0.169558 0.321813 0.000000
0.197086 0.319921 0.000000
0.226825 0.321843 0.000000
0.253925 0.320195 0.000000
0.284031 0.322438 0.000000
0.310903 0.321080 0.000000
0.337652 0.319997 0.000000
0.368078 0.322454 0.000000
0.394446 0.321416 0.000000
0.425284 0.324071 0.000000
0.453819 0.324895 0.000000
0.481895 0.325505 0.000000
0.511070 0.326894 0.000000
0.539620 0.327932 0.000000
0.568399 0.329152 0.000000
0.596979 0.330327 0.000000
0.629023 0.333410 0.000000
0.654398 0.333013 0.000000
0.683024 0.334401 0.000000
0.715511 0.337682 0.000000
0.744289 0.339208 0.000000
0.773342 0.340917 0.000000
0.802152 0.342596 0.000000
0.830991 0.344335 0.000000
0.864317 0.347967 0.000000
0.888960 0.348150 0.000000
0.922560 0.351904 0.000000
0.000000 0.353140 0.006409
0.021653 0.351278 0.000000
0.051530 0.350790 0.000000
0.081117 0.348501 0.000000
0.110994 0.350332 0.000000
0.139269 0.348257 0.000000
0.169024 0.350393 0.000000
0.196735 0.348608 0.000000
0.225406 0.348928 0.000000
0.254154 0.349493 0.000000
0.282780 0.349950 0.000000
0.311528 0.350591 0.000000
0.340124 0.351141 0.000000
0.366751 0.349844 0.000000
0.397467 0.352514 0.000000
0.426047 0.353216 0.000000
0.454643 0.353964 0.000000
0.483406 0.354925 0.000000
0.512016 0.355795 0.000000
0.543603 0.358709 0.000000
0.570825 0.358740 0.000000
0.598062 0.358938 0.000000
0.630076 0.362005 0.000000
0.658854 0.363195 0.000000
0.687648 0.364462 0.000000
0.716670 0.365896 0.000000
0.745495 0.367300 0.000000
0.777310 0.370169 0.000000
0.807324 0.372198 0.000000
0.836316 0.373785 0.000000
0.865858 0.375692 0.000000
0.894545 0.377279 0.000000
0.923568 0.379080 0.000000
0.000000 0.376867 0.007462
0.020279 0.377066 0.000000
0.050462 0.379156 0.000000
0.080354 0.376974 0.000000
0.110063 0.377996 0.000000
0.138994 0.377493 0.000000
0.167956 0.377798 0.000000
0.196902 0.378271 0.000000
0.225696 0.378637 0.000000
0.253071 0.376989 0.000000
0.283253 0.379599 0.000000
0.311955 0.380072 0.000000
0.340627 0.380575 0.000000
0.369436 0.381277 0.000000
0.398093 0.381872 0.000000
0.426749 0.382513 0.000000
0.457923 0.385321 0.000000
0.484230 0.384100 0.000000
0.512886 0.384894 0.000000
0.544472 0.387839 0.000000
0.573266 0.388754 0.000000
0.602075 0.389715 0.000000
0.631083 0.390875 0.000000
0.659907 0.391958 0.000000
0.688731 0.393103 0.000000
0.721294 0.396353 0.000000
0.750271 0.397635 0.000000
0.779248 0.398962 0.000000
0.812345 0.402396 0.000000
0.837476 0.401923 0.000000
0.866499 0.403449 0.000000
0.899977 0.407050 0.000000
0.929152 0.408682 0.000000
0.000000 0.405524 0.008728
0.018997 0.406027 0.000000
0.049165 0.406241 0.000000
0.079759 0.406638 0.000000
0.109483 0.406882 0.000000
0.138048 0.404959 0.000000
0.167971 0.407614 0.000000
0.196948 0.407935 0.000000
0.224643 0.406119 0.000000
0.254765 0.408804 0.000000
0.283558 0.409201 0.000000
0.312337 0.409644 0.000000
0.342489 0.411795 0.000000
0.369955 0.410788 0.000000
0.398688 0.411337 0.000000
0.429725 0.414176 0.000000
0.458579 0.414817 0.000000
0.487419 0.415488 0.000000
0.518975 0.418418 0.000000
0.545281 0.417136 0.000000
0.574136 0.417975 0.000000
0.602991 0.418860 0.000000
0.635111 0.421988 0.000000
0.664103 0.422980 0.000000
0.693095 0.424033 0.000000
0.725765 0.427298 0.000000
0.754894 0.428458 0.000000
0.780316 0.427634 0.000000
0.809354 0.428916 0.000000
0.842527 0.432395 0.000000
0.871702 0.433783 0.000000
0.900877 0.435248 0.000000
0.930053 0.436759 0.000000
0.000000 0.435355 0.010147
0.017533 0.433387 0.000000
0.048096 0.436149 0.000000
0.079088 0.436378 0.000000
0.108721 0.435233 0.000000
0.138613 0.437064 0.000000
0.167864 0.437354 0.000000
0.197375 0.438605 0.000000
0.226017 0.438148 0.000000
0.254948 0.438514 0.000000
0.283818 0.438895 0.000000
0.314382 0.441718 0.000000
0.343343 0.442145 0.000000
0.372290 0.442618 0.000000
0.400961 0.442847 0.000000
0.430274 0.443824 0.000000
0.459174 0.444419 0.000000
0.488090 0.445045 0.000000
0.519677 0.448051 0.000000
0.548714 0.448768 0.000000
0.577737 0.449531 0.000000
0.606760 0.450355 0.000000
0.639017 0.453498 0.000000
0.668162 0.454414 0.000000
0.694652 0.453635 0.000000
0.723064 0.454246 0.000000
0.755825 0.457572 0.000000
0.785000 0.458686 0.000000
0.814176 0.459876 0.000000
0.843351 0.461112 0.000000
0.872541 0.462394 0.000000
0.906065 0.465965 0.000000
0.935393 0.467369 0.000000
0.000000 0.465141 0.011673
0.016144 0.465751 0.000000
0.046876 0.465965 0.000000
0.078721 0.468437 0.000000
0.108629 0.466621 0.000000
0.138323 0.466880 0.000000
0.168566 0.469551 0.000000
0.197986 0.470024 0.000000
0.226062 0.467948 0.000000
0.255085 0.468284 0.000000
0.285557 0.471168 0.000000
0.314626 0.471565 0.000000
0.343664 0.471977 0.000000
0.372671 0.472419 0.000000
0.403769 0.475380 0.000000
0.432868 0.475883 0.000000
0.461982 0.476432 0.000000
0.491066 0.477012 0.000000
0.522805 0.480079 0.000000
0.549584 0.478630 0.000000
0.578439 0.479149 0.000000
0.607507 0.479911 0.000000
0.636576 0.480705 0.000000
0.668940 0.483940 0.000000
0.698131 0.484825 0.000000
0.727337 0.485771 0.000000
0.756527 0.486763 0.000000
0.785733 0.487800 0.000000
0.818845 0.491249 0.000000
0.848173 0.492378 0.000000
0.877501 0.493568 0.000000
0.906844 0.494820 0.000000
0.936187 0.496101 0.000000
0.000000 0.497200 0.013397
0.014511 0.495613 0.000000
0.045518 0.495827 0.000000
0.077729 0.497505 0.000000
0.108080 0.496483 0.000000
0.137957 0.496742 0.000000
0.168399 0.499702 0.000000
0.197864 0.499992 0.000000
0.227207 0.500282 0.000000
0.257343 0.502388 0.000000
0.287114 0.503593 0.000000
0.316396 0.503944 0.000000
0.343938 0.501869 0.000000
0.373007 0.502296 0.000000
0.404120 0.505333 0.000000
0.433280 0.505821 0.000000
0.462440 0.506325 0.000000
0.491585 0.506874 0.000000
0.520714 0.507454 0.000000
0.552575 0.510613 0.000000
0.581811 0.511269 0.000000
0.611048 0.511971 0.000000
0.640284 0.512703 0.000000
0.669520 0.513481 0.000000
0.698741 0.514321 0.000000
0.731472 0.517662 0.000000
0.760830 0.518578 0.000000
0.790173 0.519539 0.000000
0.819532 0.520546 0.000000
0.848875 0.521599 0.000000
0.878233 0.522713 0.000000
0.910552 0.525566 0.000000
0.941283 0.527504 0.000000
0.000000 0.527779 0.015213
0.012757 0.525536 0.000000
0.044251 0.528618 0.000000
0.076967 0.528832 0.000000
0.107988 0.529061 0.000000
0.138277 0.529473 0.000000
0.168109 0.529732 0.000000
0.197711 0.530007 0.000000
0.227146 0.530297 0.000000
0.257801 0.533364 0.000000
0.287190 0.533684 0.000000
0.316533 0.534020 0.000000
0.345830 0.534401 0.000000
0.375097 0.534798 0.000000
0.406363 0.537911 0.000000
0.435706 0.538354 0.000000
0.465049 0.538827 0.000000
0.494362 0.539330 0.000000
0.523674 0.539879 0.000000
0.552956 0.540444 0.000000
0.585077 0.543694 0.000000
0.614481 0.544335 0.000000
0.643870 0.545022 0.000000
0.673259 0.545739 0.000000
0.702647 0.546502 0.000000
0.732036 0.547311 0.000000
0.761410 0.548165 0.000000
0.790784 0.549050 0.000000
0.823987 0.552560 0.000000
0.853483 0.553536 0.000000
0.882979 0.554559 0.000000
0.912474 0.555627 0.000000
0.941970 0.556741 0.000000
0.000000 0.557824 0.017151
0.010895 0.557763 0.000000
0.042557 0.558694 0.000000
0.075914 0.558907 0.000000
0.107271 0.559136 0.000000
0.138460 0.562295 0.000000
0.168612 0.562539 0.000000
0.198459 0.562799 0.000000
0.228138 0.563058 0.000000
0.258991 0.566217 0.000000
0.288594 0.566522 0.000000
0.318135 0.566842 0.000000
0.347631 0.567178 0.000000
0.377081 0.567559 0.000000
0.406516 0.567956 0.000000
0.438041 0.571160 0.000000
0.467475 0.571511 0.000000
0.495155 0.569894 0.000000
0.524102 0.569940 0.000000
0.553445 0.570489 0.000000
0.583673 0.571954 0.000000
0.612696 0.572244 0.000000
0.644297 0.574914 0.000000
0.671717 0.573877 0.000000
0.703273 0.576425 0.000000
0.732692 0.577173 0.000000
0.762341 0.578149 0.000000
0.795010 0.581369 0.000000
0.824537 0.582238 0.000000
0.854063 0.583154 0.000000
0.883574 0.584100 0.000000
0.913100 0.585107 0.000000
0.942611 0.586145 0.000000
0.000000 0.587930 0.019211
0.008865 0.588434 0.000000
0.040894 0.591714 0.000000
0.075120 0.591913 0.000000
0.106493 0.589258 0.000000
0.137896 0.592508 0.000000
0.168200 0.592752 0.000000
0.198199 0.592996 0.000000
0.227970 0.593271 0.000000
0.257603 0.593561 0.000000
0.288579 0.596796 0.000000
0.318181 0.597101 0.000000
0.347738 0.597436 0.000000
0.377249 0.597787 0.000000
0.406714 0.598169 0.000000
0.436164 0.598581 0.000000
0.465599 0.599008 0.000000
0.495003 0.599466 0.000000
0.526879 0.602792 0.000000
0.556374 0.603296 0.000000
0.585870 0.603830 0.000000
0.615351 0.604395 0.000000
0.644816 0.605005 0.000000
0.674281 0.605646 0.000000
0.703731 0.606317 0.000000
0.733181 0.607019 0.000000
0.765957 0.610437 0.000000
0.795514 0.611215 0.000000
0.825071 0.612024 0.000000
0.854612 0.612879 0.000000
0.884154 0.613779 0.000000
0.913695 0.614725 0.000000
0.943236 0.615702 0.000000
0.000000 0.621073 0.021530
0.006683 0.620432 0.000000
0.038804 0.621973 0.000000
0.073854 0.622171 0.000000
0.106142 0.622385 0.000000
0.137926 0.625711 0.000000
0.168551 0.625940 0.000000
0.198810 0.626169 0.000000
0.228824 0.626429 0.000000
0.258686 0.626688 0.000000
0.288441 0.626978 0.000000
0.318120 0.627283 0.000000
0.349401 0.630610 0.000000
0.379095 0.630945 0.000000
0.408743 0.631296 0.000000
0.438361 0.631678 0.000000
0.467964 0.632074 0.000000
0.497536 0.632502 0.000000
0.527092 0.632944 0.000000
0.556634 0.633433 0.000000
0.586160 0.633936 0.000000
0.615671 0.634470 0.000000
0.645167 0.635050 0.000000
0.674662 0.635645 0.000000
0.704158 0.636286 0.000000
0.736812 0.639719 0.000000
0.766400 0.640421 0.000000
0.795987 0.641154 0.000000
0.825559 0.641917 0.000000
0.855131 0.642725 0.000000
0.884703 0.643565 0.000000
0.914260 0.644450 0.000000
0.947829 0.648096 0.000000
0.000000 0.651347 0.023911
0.004349 0.651911 0.000000
0.036667 0.655360 0.000000
0.072801 0.655543 0.000000
0.105669 0.655741 0.000000
0.137194 0.655955 0.000000
0.168734 0.659022 0.000000
0.199344 0.659586 0.000000
0.229618 0.659815 0.000000
0.259709 0.660075 0.000000
0.289662 0.660334 0.000000
0.319539 0.660609 0.000000
0.349325 0.660914 0.000000
0.379080 0.661234 0.000000
0.408774 0.661570 0.000000
0.438437 0.661936 0.000000
0.468086 0.662318 0.000000
0.497688 0.662715 0.000000
0.527291 0.663157 0.000000
0.557229 0.664057 0.000000
0.588968 0.666987 0.000000
0.618296 0.667109 0.000000
0.647776 0.667491 0.000000
0.680415 0.671031 0.000000
0.710460 0.671916 0.000000
0.737530 0.670115 0.000000
0.766812 0.670466 0.000000
0.796429 0.671168 0.000000
0.826032 0.671885 0.000000
0.855619 0.672648 0.000000
0.888945 0.676280 0.000000
0.918654 0.677104 0.000000
0.948348 0.677958 0.000000
0.000000 0.684871 0.026535
0.001846 0.685435 0.000000
0.034180 0.685618 0.000000
0.071595 0.689158 0.000000
0.104631 0.686152 0.000000
0.136431 0.686366 0.000000
0.167437 0.686580 0.000000
0.197971 0.686809 0.000000
0.228214 0.687053 0.000000
0.258671 0.688396 0.000000
0.289509 0.690806 0.000000
0.319448 0.691081 0.000000
0.349310 0.691371 0.000000
0.379950 0.693202 0.000000
0.410666 0.695064 0.000000
0.440497 0.695399 0.000000
0.470314 0.695750 0.000000
0.500084 0.696132 0.000000
0.529839 0.696544 0.000000
0.559579 0.696956 0.000000
0.589288 0.697414 0.000000
0.618997 0.697887 0.000000
0.651453 0.701396 0.000000
0.681254 0.701915 0.000000
0.711025 0.702464 0.000000
0.740795 0.703044 0.000000
0.769894 0.703059 0.000000
0.799969 0.704005 0.000000
0.829938 0.704891 0.000000
0.859663 0.705592 0.000000
0.889387 0.706340 0.000000
0.919112 0.707103 0.000000
0.949905 0.708721 0.000000
0.000000 0.715297 0.029206
0.000000 0.719188 0.000809
0.031571 0.716747 0.000000
0.069596 0.716258 0.000000
0.103761 0.718456 0.000000
0.136217 0.720058 0.000000
0.167559 0.720256 0.000000
0.198383 0.720470 0.000000
0.228885 0.720684 0.000000
0.259159 0.720928 0.000000
0.289265 0.721172 0.000000
0.319265 0.721447 0.000000
0.349187 0.721721 0.000000
0.380697 0.725200 0.000000
0.410620 0.725505 0.000000
0.440497 0.725826 0.000000
0.470344 0.726162 0.000000
0.500160 0.726528 0.000000
0.529946 0.726909 0.000000
0.559716 0.727321 0.000000
0.591989 0.730861 0.000000
0.621836 0.731304 0.000000
0.651667 0.731777 0.000000
0.681483 0.732280 0.000000
0.711284 0.732799 0.000000
0.744198 0.736431 0.000000
0.770764 0.733837 0.000000
0.800534 0.734447 0.000000
0.830304 0.735088 0.000000
0.860060 0.735760 0.000000
0.893477 0.739498 0.000000
0.923339 0.740230 0.000000
0.953170 0.740978 0.000000
0.000000 0.749142 0.032181
0.000000 0.746136 0.003616
0.028748 0.746380 0.000000
0.068101 0.750103 0.000000
0.102708 0.750271 0.000000
0.135286 0.750469 0.000000
0.166842 0.750668 0.000000
0.197818 0.750866 0.000000
0.228443 0.751095 0.000000
0.258808 0.751324 0.000000
0.288991 0.751583 0.000000
0.319066 0.751843 0.000000
0.350195 0.754589 0.000000
0.380591 0.755657 0.000000
0.410559 0.755962 0.000000
0.440467 0.756268 0.000000
0.470359 0.756603 0.000000
0.500206 0.756954 0.000000
0.532296 0.760555 0.000000
0.562203 0.760922 0.000000
0.592111 0.761334 0.000000
0.621988 0.761761 0.000000
0.651850 0.762203 0.000000
0.684535 0.765866 0.000000
0.714488 0.766354 0.000000
0.741253 0.763607 0.000000
0.771054 0.764157 0.000000
0.800855 0.764736 0.000000
0.834058 0.768490 0.000000
0.863951 0.769116 0.000000
0.893828 0.769772 0.000000
0.920516 0.767819 0.000000
0.953475 0.771099 0.000000
0.000000 0.779553 0.035172
0.000000 0.780072 0.006622
0.025925 0.780362 0.000000
0.066133 0.780529 0.000000
0.101350 0.780713 0.000000
0.134890 0.784482 0.000000
0.166827 0.784665 0.000000
0.198108 0.784863 0.000000
0.228992 0.785061 0.000000
0.259586 0.785275 0.000000
0.289982 0.785504 0.000000
0.321630 0.789136 0.000000
0.351919 0.789380 0.000000
0.382132 0.789639 0.000000
0.411185 0.787839 0.000000
0.440421 0.786755 0.000000
0.470344 0.787076 0.000000
0.502342 0.790738 0.000000
0.532326 0.791073 0.000000
0.562280 0.791440 0.000000
0.592203 0.791821 0.000000
0.624704 0.795529 0.000000
0.654704 0.795956 0.000000
0.684627 0.796307 0.000000
0.711650 0.793500 0.000000
0.741497 0.794003 0.000000
0.774487 0.797772 0.000000
