app/src/main/assets/filters/pentax.cube
# Created from pentax.plut
LUT_3D_SIZE 9
DOMAIN_MIN 0.0 0.0 0.0
DOMAIN_MAX 1.0 1.0 1.0
0.000000 0.000000 0.000000
0.120256 0.003418 0.000000
0.241962 0.012131 0.000000
0.363928 0.027680 0.000000
0.484459 0.050065 0.000000
0.597070 0.072618 0.000000
0.701198 0.093828 0.000000
0.796872 0.113558 0.000000
0.901137 0.134295 0.000000
0.000000 0.125002 0.000839
0.121233 0.126192 0.000000
0.242451 0.128771 0.000000
0.359930 0.133043 0.000000
0.471214 0.138750 0.000000
0.579156 0.146761 0.000000
0.682444 0.156268 0.000000
0.788724 0.168536 0.000000
0.904265 0.184253 0.000000
0.000000 0.246647 0.002945
0.117082 0.243488 0.000000
0.233509 0.241566 0.000000
0.345083 0.240116 0.000000
0.454948 0.241230 0.000000
0.564691 0.244831 0.000000
0.675441 0.250813 0.000000
0.795422 0.261418 0.000000
0.914183 0.272557 0.000000
0.000000 0.353140 0.006409
0.110994 0.350332 0.000000
0.225406 0.348928 0.000000
0.340124 0.351141 0.000000
0.454643 0.353964 0.000000
0.570825 0.358740 0.000000
0.687648 0.364462 0.000000
0.807324 0.372198 0.000000
0.923568 0.379080 0.000000
0.000000 0.465141 0.011673
0.108629 0.466621 0.000000
0.226062 0.467948 0.000000
0.343664 0.471977 0.000000
0.461982 0.476432 0.000000
0.578439 0.479149 0.000000
0.698131 0.484825 0.000000
0.818845 0.491249 0.000000
0.936187 0.496101 0.000000
0.000000 0.587930 0.019211
0.106493 0.589258 0.000000
0.227970 0.593271 0.000000
0.347738 0.597436 0.000000
0.465599 0.599008 0.000000
0.585870 0.603830 0.000000
0.703731 0.606317 0.000000
0.825071 0.612024 0.000000
0.943236 0.615702 0.000000
0.000000 0.715297 0.029206
0.103761 0.718456 0.000000
0.228885 0.720684 0.000000
0.349187 0.721721 0.000000
0.470344 0.726162 0.000000
0.591989 0.730861 0.000000
0.711284 0.732799 0.000000
0.830304 0.735088 0.000000
0.953170 0.740978 0.000000
0.000000 0.844266 0.041688
0.098802 0.845426 0.000000
0.228840 0.849760 0.000000
0.351415 0.850614 0.000000
0.472206 0.851575 0.000000
0.592264 0.852796 0.000000
0.714870 0.857877 0.000000
0.838071 0.863157 0.000000
0.960220 0.867231 0.000000
0.000000 0.974807 0.054994
0.115007 0.975311 0.048203
0.239551 0.975616 0.061479
0.361913 0.975906 0.082994
0.485466 0.980087 0.113390
0.609339 0.984192 0.154131
0.736843 0.993225 0.210864
0.862364 1.000000 0.293935
0.975814 1.000000 0.435889
0.000000 0.000000 0.000000
0.125093 0.000000 0.124743
0.250065 0.000000 0.124605
0.375723 0.000000 0.118746
0.501381 0.000000 0.107866
0.625025 0.000000 0.090196
0.744167 0.000000 0.061372
0.861936 0.000000 0.009476
0.941787 0.052308 0.000000
0.000000 0.124971 0.126467
0.125002 0.125002 0.125002
0.276326 0.107836 0.101534
0.426795 0.057053 0.021042
0.533700 0.059892 0.000000
0.632654 0.079820 0.000000
0.723232 0.098650 0.000000
0.820127 0.118166 0.000000
0.922377 0.138415 0.000000
0.000000 0.244907 0.121218
0.082521 0.248829 0.084001
0.234714 0.242130 0.049821
0.365637 0.231846 0.000000
0.481163 0.227008 0.000000
0.589151 0.225956 0.000000
0.700984 0.230640 0.000000
0.813336 0.238193 0.000000
0.926314 0.247974 0.000000
0.000000 0.348745 0.115801
0.000000 0.358907 0.006668
0.206577 0.354131 0.000000
0.339849 0.350851 0.000000
0.465003 0.351965 0.000000
0.586221 0.354192 0.000000
0.702617 0.356283 0.000000
0.822004 0.361868 0.000000
0.937530 0.367330 0.000000
0.000000 0.465583 0.117861
0.000000 0.471031 0.011994
0.200031 0.474907 0.000000
0.335714 0.474998 0.000000
0.460838 0.475257 0.000000
0.584466 0.478325 0.000000
0.706828 0.482124 0.000000
0.824887 0.484550 0.000000
0.946624 0.490364 0.000000
0.000000 0.591226 0.122560
0.000000 0.595377 0.019638
0.197436 0.599893 0.000000
0.334676 0.600473 0.000000
0.461341 0.601038 0.000000
0.586725 0.604700 0.000000
0.707729 0.605982 0.000000
0.831006 0.610529 0.000000
0.950286 0.613123 0.000000
0.000000 0.715496 0.127291
0.000000 0.718776 0.029526
0.194537 0.723705 0.000000
0.334615 0.727657 0.000000
0.462760 0.728328 0.000000
0.589410 0.732341 0.000000
0.711971 0.733501 0.000000
0.833158 0.734981 0.000000
0.957488 0.740093 0.000000
0.000000 0.844434 0.133303
0.000000 0.846342 0.041962
0.191547 0.848692 0.000000
0.333333 0.852934 0.000000
0.462455 0.853651 0.000000
0.588464 0.855985 0.000000
0.713207 0.859007 0.000000
0.838636 0.863737 0.000000
0.964126 0.868818 0.000000
0.000000 0.973693 0.139818
0.115999 0.975402 0.137942
0.240055 0.975708 0.143664
0.362295 0.975998 0.154437
0.487724 0.984070 0.173495
0.612055 0.988144 0.202075
0.737270 0.993423 0.246479
0.862684 1.000000 0.318700
0.976165 1.000000 0.451041
0.000000 0.000000 0.000000
0.130831 0.000000 0.241428
0.250141 0.000000 0.249561
0.375097 0.000000 0.251118
0.500267 0.000000 0.248142
0.622797 0.000000 0.241169
0.741314 0.000000 0.230579
0.855390 0.000000 0.216556
0.953262 0.017975 0.200519
0.000000 0.120668 0.270253
0.130938 0.106706 0.312718
0.296147 0.070893 0.295537
0.439261 0.000000 0.268162
0.549920 0.000000 0.238453
0.660822 0.000000 0.216953
0.771054 0.000000 0.197177
0.878019 0.000000 0.175662
0.927779 0.123201 0.192996
0.000000 0.243244 0.245701
0.069108 0.246204 0.248402
0.236576 0.236576 0.236576
0.377127 0.222080 0.217609
0.517311 0.197986 0.184466
0.658671 0.153918 0.117494
0.784405 0.111086 0.000000
0.872480 0.128679 0.000000
0.938781 0.238743 0.189258
0.000000 0.348272 0.230701
0.000000 0.355200 0.212436
0.197223 0.353765 0.198260
0.344991 0.353094 0.180560
0.485161 0.345953 0.142596
0.624903 0.331701 0.045838
0.746807 0.324331 0.000000
0.861601 0.323949 0.000000
0.952377 0.360296 0.179110
0.000000 0.465873 0.230945
0.000000 0.471382 0.204685
0.154696 0.480491 0.158053
0.319951 0.480217 0.130861
0.466011 0.480156 0.068452
0.602777 0.474861 0.000000
0.732555 0.472969 0.000000
0.857527 0.472831 0.000000
0.959640 0.482826 0.153674
0.000000 0.588632 0.234180
0.000000 0.592782 0.204227
0.061280 0.605402 0.074540
0.288823 0.609094 0.000000
0.449683 0.609613 0.000000
0.588876 0.606928 0.000000
0.719020 0.604685 0.000000
0.847623 0.605875 0.000000
0.970092 0.609705 0.083650
0.000000 0.719173 0.239948
0.000000 0.722560 0.207919
0.000000 0.731212 0.030503
0.279744 0.731930 0.000000
0.439643 0.734295 0.000000
0.579248 0.733181 0.000000
0.713695 0.735271 0.000000
0.840909 0.734508 0.000000
0.969177 0.737438 0.000000
0.000000 0.844648 0.243687
0.000000 0.847456 0.210788
0.000000 0.854566 0.042771
0.274968 0.859373 0.000000
0.435492 0.862791 0.000000
0.575891 0.862394 0.000000
0.708446 0.861967 0.000000
0.840055 0.865202 0.000000
0.969848 0.868727 0.000000
0.000000 0.975113 0.248859
0.118364 0.975509 0.248783
0.241276 0.975799 0.251652
0.364614 0.979995 0.258274
0.488472 0.984131 0.269154
0.612818 0.988296 0.287068
0.740581 0.996918 0.318791
0.863493 1.000000 0.373251
0.977066 1.000000 0.486992
0.000000 0.000000 0.000000
0.000000 0.000000 0.000000
0.254063 0.000000 0.367437
0.375570 0.000000 0.374762
0.498772 0.000000 0.375814
0.620081 0.000000 0.372320
0.737407 0.000000 0.365087
0.846021 0.000000 0.353277
0.946777 0.012512 0.339834
0.000000 0.099062 0.437629
0.134646 0.000000 0.539574
0.303334 0.000000 0.470954
0.426535 0.000000 0.425620
0.541543 0.000000 0.397162
0.655772 0.000000 0.377737
0.764065 0.000000 0.359457
0.869718 0.000000 0.342489
0.928573 0.121248 0.332296
0.000000 0.240192 0.380117
0.026383 0.240772 0.420401
0.241779 0.225284 0.404547
0.390692 0.204395 0.390082
0.533577 0.170779 0.372061
0.677150 0.107118 0.346563
0.828519 0.000000 0.321843
0.924315 0.000000 0.292164
0.939391 0.237797 0.333455
0.000000 0.347509 0.350820
0.000000 0.352880 0.356237
0.192752 0.352148 0.354498
0.349340 0.349340 0.349340
0.493309 0.339498 0.335500
0.638285 0.323796 0.313207
0.780346 0.295949 0.274311
0.916625 0.251011 0.208087
0.952834 0.359686 0.332601
0.000000 0.466224 0.348409
0.000000 0.471153 0.341543
0.142611 0.480583 0.329107
0.320958 0.481910 0.321920
0.471717 0.480552 0.307439
0.615610 0.473182 0.280858
0.758679 0.460761 0.237339
0.902022 0.441718 0.158846
0.960006 0.482353 0.324437
0.000000 0.591928 0.352422
0.000000 0.595850 0.339803
0.019135 0.607050 0.297688
0.286168 0.612284 0.288746
0.445426 0.610956 0.268940
0.592111 0.607660 0.236454
0.738949 0.604181 0.181781
0.882673 0.594141 0.045441
0.970336 0.609216 0.306477
0.000000 0.719432 0.356893
0.000000 0.719417 0.339727
0.000000 0.731243 0.289525
0.234516 0.740047 0.240101
0.414801 0.739742 0.213565
0.570397 0.741421 0.168292
0.716777 0.738201 0.065553
0.860639 0.735927 0.000000
0.975616 0.735515 0.255009
0.000000 0.848280 0.361456
0.000000 0.847761 0.342748
0.000000 0.854795 0.287327
0.145281 0.868132 0.159152
0.375494 0.868421 0.111101
0.541527 0.867445 0.000000
0.697749 0.867704 0.000000
0.842603 0.867811 0.000000
0.981140 0.868177 0.000000
0.001694 0.975311 0.365148
0.121996 0.975616 0.365805
0.243168 0.975906 0.367422
0.365988 0.980087 0.372030
0.489616 0.984131 0.379141
0.616541 0.992477 0.392416
0.744076 0.999985 0.414160
0.864912 1.000000 0.451896
0.978653 1.000000 0.543893
0.000000 0.000000 0.000000
0.000000 0.000000 0.000000
0.263386 0.000000 0.482399
0.378592 0.000000 0.493187
0.498939 0.000000 0.497887
0.617472 0.000000 0.496056
0.732723 0.000000 0.490120
0.841032 0.000000 0.479622
0.945480 0.005692 0.467994
0.000000 0.008179 0.626139
0.158328 0.000000 0.613825
0.293736 0.000000 0.584039
0.417334 0.000000 0.556222
0.534722 0.000000 0.533593
0.647196 0.000000 0.514000
0.759121 0.000000 0.498558
0.862837 0.000000 0.480903
0.923919 0.117952 0.456809
0.000000 0.231495 0.526635
0.000000 0.220737 0.601221
0.247623 0.193500 0.602457
0.414420 0.160494 0.583322
0.565560 0.099596 0.564431
0.715282 0.000000 0.547372
0.816037 0.000000 0.506081
0.910719 0.000000 0.472984
0.940002 0.236530 0.463355
0.000000 0.345556 0.477867
0.000000 0.350530 0.500786
0.182788 0.346548 0.514565
0.354986 0.340627 0.513176
0.504921 0.326452 0.504280
0.652720 0.305440 0.492195
0.791272 0.269215 0.467659
0.931334 0.214878 0.436347
0.953048 0.358770 0.466896
0.000000 0.466102 0.470405
0.000000 0.472572 0.476936
0.119127 0.479408 0.483543
0.319036 0.479393 0.481941
0.475120 0.475120 0.475120
0.623590 0.466728 0.462867
0.772122 0.453864 0.444327
0.917082 0.431800 0.413977
0.964599 0.483803 0.467094
0.000000 0.595010 0.475181
0.000000 0.595682 0.469596
0.000000 0.604929 0.457801
0.277897 0.608865 0.453742
0.445609 0.609552 0.446525
0.595819 0.605097 0.431769
0.744823 0.600275 0.411566
0.893828 0.591333 0.380926
0.970581 0.608515 0.459434
0.000000 0.719768 0.476814
0.000000 0.722805 0.469642
0.000000 0.727993 0.445686
0.221347 0.737514 0.423880
0.413703 0.742596 0.415991
0.571221 0.740414 0.398764
0.722881 0.739544 0.375097
0.869184 0.733074 0.338140
0.975799 0.734646 0.438056
0.000000 0.845258 0.479240
0.000000 0.847868 0.469795
0.000000 0.858366 0.443717
0.119310 0.868605 0.387945
0.370062 0.868559 0.374411
0.541329 0.871138 0.355306
0.697566 0.872526 0.326299
0.845716 0.868696 0.280888
0.988312 0.870283 0.358526
0.011658 0.975402 0.484825
0.126162 0.975708 0.485252
0.245426 0.975998 0.486168
0.369146 0.984070 0.491798
0.491127 0.984192 0.494926
0.618357 0.992966 0.505165
0.745769 1.000000 0.520333
0.866972 1.000000 0.545769
0.981064 1.000000 0.617487
0.000000 0.000000 0.000000
0.000000 0.000000 0.000000
0.000000 0.000000 0.000000
0.385229 0.000000 0.608591
0.500572 0.000000 0.615091
0.615564 0.000000 0.614298
0.728222 0.000000 0.609049
0.836027 0.000000 0.599664
0.939284 0.000000 0.587869
0.000000 0.000000 0.000000
0.185870 0.000000 0.700191
0.296239 0.000000 0.688304
0.413397 0.000000 0.673198
0.530068 0.000000 0.657984
0.640757 0.000000 0.639429
0.751690 0.000000 0.624979
0.856428 0.000000 0.608392
0.929732 0.115877 0.581598
0.000000 0.212543 0.689601
0.000000 0.180804 0.790463
0.259174 0.062669 0.891920
0.457038 0.000000 0.832181
0.588464 0.000000 0.754833
0.699367 0.000000 0.697948
0.800793 0.000000 0.654414
0.901564 0.000000 0.622843
0.940291 0.235126 0.587518
0.000000 0.340734 0.613275
0.000000 0.340307 0.644572
0.161807 0.333806 0.697444
0.360800 0.321355 0.691707
0.520912 0.301320 0.682765
0.668193 0.269566 0.667033
0.811063 0.222004 0.647791
0.933669 0.188128 0.618372
0.953491 0.357855 0.594354
0.000000 0.467247 0.601007
0.000000 0.467536 0.609659
0.067109 0.475319 0.643366
0.316365 0.476020 0.647761
0.481804 0.468086 0.642481
0.634028 0.455421 0.633356
0.785306 0.438849 0.622446
0.927230 0.410544 0.600000
0.960525 0.480827 0.596078
0.000000 0.591775 0.597116
0.000000 0.597726 0.603128
0.000000 0.605386 0.610864
0.267887 0.609964 0.614511
0.445167 0.606455 0.609155
0.603159 0.603159 0.603159
0.752483 0.593744 0.589975
0.899550 0.580194 0.571298
0.970718 0.607645 0.597238
0.000000 0.719753 0.599588
0.000000 0.722499 0.597894
0.000000 0.729686 0.592355
0.202350 0.739712 0.586358
0.407355 0.738323 0.580179
0.572045 0.738476 0.572946
0.723751 0.733394 0.558785
0.871534 0.725765 0.539086
0.975906 0.733562 0.588968
0.000000 0.845396 0.600839
0.000000 0.847837 0.596384
0.000000 0.857877 0.585931
0.067613 0.868650 0.557656
0.363409 0.871946 0.552667
0.539345 0.870390 0.541466
0.698741 0.871015 0.527703
0.855787 0.873365 0.509865
0.992813 0.872313 0.561395
0.019120 0.975509 0.606134
0.129274 0.975799 0.606424
0.248280 0.979995 0.609323
0.370672 0.984131 0.612558
0.494636 0.988251 0.616510
0.622385 0.996796 0.624781
0.747768 1.000000 0.633234
0.869566 1.000000 0.649088
0.984329 1.000000 0.703075
0.000000 0.000000 0.000000
0.000000 0.000000 0.000000
0.000000 0.000000 0.000000
0.395453 0.000000 0.722087
0.505547 0.000000 0.730114
0.616815 0.000000 0.730144
0.724407 0.000000 0.722942
0.829877 0.000000 0.713527
0.936553 0.000000 0.705486
0.000000 0.000000 0.000000
0.000000 0.000000 0.000000
0.307393 0.000000 0.790738
0.415412 0.000000 0.783459
0.526650 0.000000 0.771771
0.637461 0.000000 0.758633
0.744884 0.000000 0.743374
0.852277 0.000000 0.730312
0.925139 0.113298 0.696666
0.000000 0.171832 0.872450
0.000381 0.077913 1.000000
0.279652 0.000000 0.994079
0.442924 0.000000 0.934524
0.570977 0.000000 0.875456
0.683803 0.000000 0.826673
0.789792 0.000000 0.788190
0.887953 0.000000 0.753719
0.945541 0.235355 0.711788
0.000000 0.330968 0.758282
0.000000 0.325444 0.798367
0.107103 0.298314 0.906600
0.364950 0.278920 0.895720
0.537758 0.247303 0.878264
0.691295 0.198383 0.857450
0.829023 0.108827 0.827390
0.932982 0.156298 0.779797
0.953704 0.357122 0.717403
0.000000 0.461509 0.731731
0.000000 0.464271 0.752483
0.000000 0.463157 0.804028
0.306371 0.462165 0.819913
0.485710 0.451087 0.814710
0.646876 0.436118 0.809369
0.798123 0.412329 0.796887
0.949996 0.381491 0.784131
0.965072 0.482338 0.724941
0.000000 0.593423 0.729473
0.000000 0.595697 0.737377
0.000000 0.601236 0.759442
0.248432 0.602991 0.773663
0.443565 0.600717 0.773632
0.608652 0.595315 0.770901
0.762097 0.583459 0.761410
0.915587 0.569558 0.751308
0.970840 0.606882 0.727260
0.000000 0.719280 0.725689
0.000000 0.721782 0.728222
0.000000 0.727810 0.734295
0.170047 0.738293 0.744549
0.402152 0.739193 0.744045
0.572564 0.734966 0.737758
0.731563 0.731563 0.731563
0.882643 0.722271 0.718563
0.979919 0.735485 0.729442
0.000000 0.846860 0.726390
0.000000 0.851240 0.727382
0.000000 0.856962 0.724559
0.000000 0.867353 0.716884
0.351553 0.871077 0.715206
0.536248 0.868818 0.708156
0.700008 0.868544 0.700893
0.859907 0.869902 0.692607
0.996765 0.873854 0.726711
0.016495 0.975616 0.729290
0.128557 0.975906 0.729488
0.248280 0.980087 0.732570
0.372580 0.988098 0.738552
0.497551 0.992462 0.742031
0.623896 0.997177 0.746380
0.749645 1.000000 0.751034
0.872450 1.000000 0.759091
0.988556 1.000000 0.796933
0.000000 0.000000 0.000000
0.000000 0.000000 0.000000
0.000000 0.000000 0.000000
0.000000 0.000000 0.000000
0.511055 0.000000 0.839460
0.616144 0.000000 0.837797
0.721675 0.000000 0.832395
0.828473 0.000000 0.826795
0.934844 0.000000 0.820142
0.000000 0.000000 0.000000
0.000000 0.000000 0.000000
0.000000 0.000000 0.000000
0.422751 0.000000 0.890364
0.528283 0.000000 0.882139
0.634562 0.000000 0.869825
0.742428 0.000000 0.859007
0.841566 0.000000 0.839872
0.930846 0.114214 0.816602
0.129778 0.146120 0.970565
0.195117 0.140719 0.963653
0.298192 0.127535 0.955245
0.417777 0.101442 0.953185
0.550439 0.037446 0.962997
0.673350 0.000000 0.944701
0.777081 0.000000 0.907012
0.880186 0.000000 0.878416
0.941176 0.234272 0.825650
0.000000 0.313878 0.915618
0.105440 0.308583 0.928573
0.249332 0.304585 0.930846
0.384634 0.296483 0.934112
0.517876 0.280705 0.933669
0.653285 0.254765 0.934340
0.791470 0.208133 0.934005
0.931212 0.106889 0.929381
0.957244 0.358328 0.839719
0.000000 0.455009 0.872633
0.000000 0.453925 0.895842
0.141207 0.452659 0.940887
0.337621 0.449485 0.947372
0.496880 0.441566 0.953048
0.647425 0.424720 0.953704
0.802533 0.398672 0.958709
0.954131 0.349477 0.952438
0.965225 0.482185 0.846616
0.000000 0.590631 0.864027
0.000000 0.590890 0.874357
0.000000 0.594812 0.909606
0.218189 0.594812 0.945907
0.439872 0.590555 0.946990
0.611933 0.579858 0.941146
0.776944 0.569909 0.940826
0.926436 0.547433 0.925154
0.970947 0.606561 0.851362
0.000000 0.718166 0.855818
0.000000 0.720073 0.861509
0.000000 0.728115 0.880812
0.109850 0.734829 0.906889
0.391653 0.734813 0.908537
0.572442 0.729122 0.903899
0.737026 0.723934 0.900710
0.891585 0.712566 0.890883
0.979995 0.734890 0.858427
0.000000 0.848463 0.855970
0.000000 0.850431 0.857954
0.000000 0.853468 0.861006
0.000000 0.864317 0.871946
0.334630 0.869184 0.875898
0.533806 0.869505 0.874601
0.703975 0.868101 0.871000
0.868376 0.868376 0.868376
0.997147 0.872755 0.870024
0.000000 0.975601 0.854963
0.118212 0.975998 0.855100
0.244633 0.984070 0.861906
0.368658 0.984192 0.861585
0.496620 0.992996 0.868681
0.625437 1.000000 0.874174
0.750469 1.000000 0.873869
0.874846 1.000000 0.875471
0.993759 1.000000 0.896483
0.000000 0.000000 0.000000
0.000000 0.000000 0.000000
0.000000 0.000000 0.000000
0.000000 0.000000 0.000000
0.000000 0.000000 0.000000
0.621347 0.000000 0.947585
0.726802 0.000000 0.946349
0.824369 0.000000 0.932860
0.933440 0.005524 0.931579
0.000000 0.000000 0.000000
0.000000 0.000000 0.000000
0.000000 0.000000 0.000000
0.000000 0.000000 0.000000
0.524697 0.031235 0.969940
0.616526 0.052110 0.946365
0.710918 0.071504 0.928054
0.817319 0.090700 0.925490
0.934813 0.119036 0.932967
0.232731 0.195346 0.935714
0.260731 0.194598 0.929183
0.323537 0.196796 0.932357
0.405661 0.198398 0.927382
0.502678 0.202716 0.929351
0.609354 0.209216 0.935454
0.714885 0.215061 0.933333
0.830060 0.223926 0.940002
0.946334 0.237613 0.944549
0.231754 0.327062 0.931945
0.261555 0.327520 0.932296
0.325032 0.329976 0.936843
0.410849 0.332387 0.939391
0.508659 0.335042 0.940597
0.616495 0.340169 0.946609
0.729351 0.346014 0.952377
0.841657 0.350759 0.953277
0.954345 0.358480 0.952651
0.235492 0.457664 0.946609
0.266224 0.458900 0.948699
0.328771 0.458976 0.947616
0.416770 0.462654 0.953048
0.517845 0.466499 0.957778
0.624491 0.469245 0.959091
0.734874 0.472221 0.959823
0.849607 0.476661 0.962509
0.965362 0.483055 0.963851
0.239124 0.587549 0.959091
0.269612 0.587839 0.959274
0.333288 0.588663 0.959884
0.421912 0.592370 0.964599
0.521767 0.593835 0.965072
0.631357 0.598383 0.969833
0.739467 0.598093 0.966094
0.856596 0.603342 0.970718
0.971069 0.607156 0.969818
0.242466 0.714717 0.965667
0.272877 0.714961 0.965805
0.337881 0.718593 0.970214
0.425132 0.719524 0.970581
0.527413 0.723781 0.975006
0.634943 0.725338 0.975311
0.746578 0.727214 0.975616
0.860868 0.729381 0.975906
0.980087 0.735195 0.979141
0.250080 0.845212 0.975311
0.280018 0.845426 0.975402
0.343023 0.845930 0.975616
0.429603 0.846662 0.975799
0.529305 0.847684 0.975998
0.641337 0.855848 0.984070
0.753307 0.857420 0.984192
0.875639 0.866789 0.992950
1.000000 0.875059 0.999481
0.271977 0.976104 0.984131
0.299763 0.976211 0.984131
0.360494 0.979385 0.987015
0.446967 0.985428 0.992569
0.547967 0.990692 0.997070
0.656825 0.994690 1.000000
0.768719 0.996124 1.000000
0.883452 0.997879 1.000000
1.000000 1.000000 1.000000
