app/src/main/assets/filters/Pentax_Fuyuno.cube
# Created from Pentax_Fuyuno.plut
LUT_3D_SIZE 33
DOMAIN_MIN 0.0 0.0 0.0
DOMAIN_MAX 1.0 1.0 1.0
0.000000 0.000000 0.000000
0.011765 0.000000 0.000000
0.047059 0.000000 0.000000
0.082353 0.000000 0.000000
0.125490 0.000000 0.000000
0.176471 0.000000 0.000000
0.227451 0.000000 0.000000
0.274510 0.003922 0.000000
0.329412 0.003922 0.000000
0.372549 0.003922 0.000000
0.417151 0.000000 0.001755
0.469184 0.000000 0.000107
0.512047 0.000000 0.000504
0.554955 0.000000 0.000855
0.598672 0.000626 0.000000
0.637797 0.000000 0.000168
0.681102 0.002029 0.000000
0.716442 0.004730 0.000000
0.751629 0.008286 0.000000
0.782864 0.012238 0.000000
0.814115 0.016190 0.000000
0.845365 0.020127 0.000000
0.868803 0.028153 0.000000
0.896162 0.036973 0.000000
0.915694 0.051041 0.000000
0.935225 0.064530 0.000000
0.950851 0.077638 0.000000
0.960784 0.101961 0.000000
0.972549 0.117647 0.000000
0.984314 0.145098 0.000000
0.992157 0.176471 0.000000
0.996078 0.207843 0.000000
1.000000 0.376471 0.074510
0.003922 0.007843 0.000000
0.019608 0.007843 0.000000
0.050980 0.011765 0.000000
0.090471 0.009796 0.001144
0.133791 0.012696 0.000000
0.184405 0.011734 0.000000
0.230777 0.015366 0.000000
0.281376 0.014847 0.000000
0.332143 0.014160 0.000000
0.371237 0.017533 0.000000
0.422156 0.016617 0.000000
0.469184 0.015671 0.000000
0.516228 0.018585 0.000000
0.555459 0.021576 0.000000
0.601221 0.009155 0.000000
0.641794 0.023087 0.000000
0.679805 0.012222 0.000000
0.719097 0.013733 0.000000
0.754101 0.017807 0.000000
0.782788 0.041962 0.000000
0.814038 0.046601 0.000000
0.847456 0.042954 0.000000
0.874693 0.053422 0.000000
0.898070 0.063401 0.000000
0.917510 0.077775 0.000000
0.936950 0.096132 0.000000
0.952514 0.109453 0.000000
0.962463 0.132158 0.000000
0.974136 0.156634 0.000000
0.985824 0.180880 0.000000
0.992157 0.215686 0.000000
0.996078 0.247059 0.000000
1.000000 0.431373 0.101961
0.002182 0.028138 0.002182
0.023102 0.031754 0.001465
0.052567 0.031128 0.000839
0.089097 0.034195 0.000000
0.136233 0.037324 0.000000
0.183352 0.040436 0.000000
0.234134 0.039719 0.000000
0.283680 0.039048 0.000000
0.334478 0.037415 0.000000
0.377478 0.040528 0.000000
0.424506 0.038712 0.000000
0.471519 0.041550 0.000000
0.518624 0.039384 0.000000
0.561807 0.042206 0.000000
0.605005 0.044938 0.000000
0.644282 0.052796 0.000000
0.683619 0.050568 0.000000
0.718868 0.054292 0.000000
0.753826 0.064118 0.000000
0.784924 0.073655 0.000000
0.816052 0.082902 0.000000
0.849271 0.079194 0.000000
0.874464 0.100877 0.000000
0.897841 0.109667 0.000000
0.917281 0.122698 0.000000
0.938415 0.134936 0.000000
0.952255 0.156649 0.000000
0.963882 0.173312 0.000000
0.975494 0.193927 0.000000
0.985672 0.225010 0.000000
0.993408 0.256870 0.000000
0.996078 0.290196 0.000000
1.000000 0.482353 0.121569
0.000000 0.058824 0.007843
0.016190 0.063828 0.003204
0.049973 0.067323 0.002090
0.087984 0.066529 0.000946
0.132723 0.069398 0.000000
0.184390 0.072221 0.000000
0.231769 0.071092 0.000000
0.282887 0.069886 0.000000
0.332235 0.069978 0.000000
0.376974 0.076127 0.000000
0.426444 0.070710 0.000000
0.473564 0.073228 0.000000
0.516777 0.075868 0.000000
0.563958 0.078218 0.000000
0.603296 0.080873 0.000000
0.646616 0.083238 0.000000
0.685847 0.090898 0.000000
0.720775 0.095232 0.000000
0.755627 0.104387 0.000000
0.786709 0.108782 0.000000
0.817746 0.117739 0.000000
0.848814 0.126589 0.000000
0.875959 0.139773 0.000000
0.899229 0.152773 0.000000
0.918608 0.165637 0.000000
0.937972 0.182574 0.000000
0.953475 0.195148 0.000000
0.963592 0.218524 0.000000
0.975189 0.238804 0.000000
0.986755 0.267018 0.000000
0.994400 0.295079 0.000000
0.997101 0.328222 0.000000
1.000000 0.521569 0.141176
0.000000 0.094118 0.011765
0.011810 0.099641 0.003143
0.045930 0.103288 0.001846
0.085405 0.102724 0.000702
0.131228 0.105791 0.000000
0.179782 0.108736 0.000000
0.231724 0.111589 0.000000
0.283467 0.110277 0.000000
0.330861 0.113207 0.000000
0.380148 0.114107 0.000000
0.427634 0.112230 0.000000
0.478904 0.114488 0.000000
0.522286 0.117006 0.000000
0.561730 0.119631 0.000000
0.605066 0.126513 0.000000
0.648341 0.129137 0.000000
0.687190 0.132937 0.000000
0.721981 0.141588 0.000000
0.756909 0.145647 0.000000
0.787884 0.154269 0.000000
0.818891 0.162829 0.000000
0.849928 0.171328 0.000000
0.877028 0.184146 0.000000
0.901762 0.194003 0.000000
0.921035 0.206882 0.000000
0.938857 0.226246 0.000000
0.955642 0.236545 0.000000
0.964523 0.261234 0.000000
0.976059 0.281529 0.000000
0.987564 0.305745 0.000000
0.995132 0.333883 0.000000
0.997894 0.362844 0.000000
1.000000 0.554650 0.147967
0.000000 0.141176 0.015686
0.005722 0.143191 0.000443
0.041367 0.146746 0.000000
0.081971 0.146410 0.000000
0.128405 0.149813 0.000000
0.177768 0.153017 0.000000
0.230457 0.156023 0.000000
0.279988 0.154421 0.000000
0.332128 0.156939 0.000000
0.380194 0.155306 0.000000
0.427924 0.157809 0.000000
0.475563 0.160235 0.000000
0.523171 0.162585 0.000000
0.566644 0.169390 0.000000
0.605951 0.172396 0.000000
0.648783 0.175845 0.000000
0.687526 0.183948 0.000000
0.722530 0.187716 0.000000
0.757397 0.195926 0.000000
0.788403 0.204166 0.000000
0.819440 0.212406 0.000000
0.850492 0.220615 0.000000
0.878965 0.231022 0.000000
0.900771 0.245548 0.000000
0.920165 0.253773 0.000000
0.939406 0.270314 0.000000
0.955932 0.285283 0.000000
0.966247 0.303182 0.000000
0.976684 0.320714 0.000000
0.988144 0.344915 0.000000
0.995636 0.373053 0.000000
0.998444 0.401801 0.000000
1.000000 0.586221 0.167239
0.000000 0.180392 0.019608
0.000000 0.186007 0.003952
0.033646 0.190204 0.000000
0.076829 0.190005 0.000000
0.124712 0.193576 0.000000
0.174975 0.196979 0.000000
0.224277 0.200244 0.000000
0.277958 0.199115 0.000000
0.330694 0.201816 0.000000
0.375006 0.204639 0.000000
0.427222 0.207126 0.000000
0.479255 0.209522 0.000000
0.522972 0.212299 0.000000
0.567834 0.213962 0.000000
0.610941 0.217090 0.000000
0.648493 0.222049 0.000000
0.687373 0.229862 0.000000
0.723964 0.231815 0.000000
0.758877 0.239780 0.000000
0.788540 0.249470 0.000000
0.820935 0.255909 0.000000
0.851987 0.263966 0.000000
0.875227 0.272145 0.000000
0.902281 0.284474 0.000000
0.921538 0.296849 0.000000
0.940703 0.313329 0.000000
0.956085 0.325628 0.000000
0.966598 0.338949 0.000000
0.977081 0.360189 0.000000
0.988479 0.384344 0.000000
0.995987 0.408423 0.000000
0.998840 0.437003 0.000000
1.000000 0.613825 0.182345
0.000000 0.227451 0.023529
0.000000 0.228717 0.011566
0.012177 0.234150 0.000000
0.065141 0.237903 0.000000
0.117784 0.237613 0.000000
0.174563 0.241016 0.000000
0.225162 0.244312 0.000000
0.274937 0.247456 0.000000
0.328283 0.250385 0.000000
0.373022 0.253376 0.000000
0.425803 0.252033 0.000000
0.474846 0.254353 0.000000
0.518639 0.257313 0.000000
0.566201 0.260243 0.000000
0.605402 0.267704 0.000000
0.644755 0.270985 0.000000
0.687968 0.274250 0.000000
0.723247 0.277745 0.000000
0.758297 0.285542 0.000000
0.789410 0.293416 0.000000
0.820539 0.301305 0.000000
0.851682 0.309224 0.000000
0.878889 0.317189 0.000000
0.902190 0.325216 0.000000
0.921462 0.337438 0.000000
0.940749 0.349630 0.000000
0.956039 0.365942 0.000000
0.966674 0.378912 0.000000
0.978119 0.395071 0.000000
0.988693 0.419883 0.000000
0.996170 0.443931 0.000000
0.999084 0.472343 0.000000
1.000000 0.637491 0.197559
0.000000 0.274510 0.027451
0.000000 0.275471 0.022416
0.000000 0.281300 0.003586
0.044480 0.285466 0.000000
0.106569 0.285603 0.000000
0.164462 0.288777 0.000000
0.220874 0.292149 0.000000
0.271733 0.291478 0.000000
0.325399 0.298573 0.000000
0.370626 0.297765 0.000000
0.423819 0.300633 0.000000
0.472236 0.303624 0.000000
0.516320 0.306722 0.000000
0.564401 0.305638 0.000000
0.603845 0.313039 0.000000
0.643397 0.316350 0.000000
0.682872 0.319707 0.000000
0.722057 0.327260 0.000000
0.757443 0.330770 0.000000
0.789593 0.337804 0.000000
0.820050 0.342184 0.000000
0.851255 0.349996 0.000000
0.879271 0.361257 0.000000
0.902602 0.369192 0.000000
0.921874 0.381323 0.000000
0.941176 0.393423 0.000000
0.956435 0.409644 0.000000
0.966567 0.418875 0.000000
0.977920 0.439002 0.000000
0.989319 0.459068 0.000000
0.996216 0.479500 0.000000
0.999237 0.503807 0.000000
1.000000 0.661143 0.212589
0.000000 0.317647 0.039216
0.000000 0.318456 0.030533
0.000000 0.323964 0.009445
0.033326 0.325124 0.000000
0.100649 0.328801 0.000000
0.158923 0.332387 0.000000
0.216907 0.335821 0.000000
0.272740 0.335225 0.000000
0.322957 0.338506 0.000000
0.368353 0.341802 0.000000
0.421698 0.340902 0.000000
0.470298 0.344045 0.000000
0.518593 0.347189 0.000000
0.563439 0.346059 0.000000
0.603098 0.353399 0.000000
0.642863 0.356695 0.000000
0.686488 0.359930 0.000000
0.721859 0.367498 0.000000
0.757366 0.370962 0.000000
0.788693 0.378653 0.000000
0.820172 0.382238 0.000000
0.851453 0.389990 0.000000
0.878630 0.401907 0.000000
0.902022 0.409781 0.000000
0.921340 0.421805 0.000000
0.940795 0.429725 0.000000
0.956771 0.445335 0.000000
0.966934 0.458366 0.000000
0.978347 0.474418 0.000000
0.989242 0.490806 0.000000
0.996719 0.510796 0.000000
0.999344 0.531350 0.000000
1.000000 0.680858 0.227802
0.000000 0.360784 0.043137
0.000000 0.361471 0.034653
0.000000 0.366766 0.017411
0.017395 0.372030 0.000000
0.090349 0.371893 0.000000
0.153307 0.375830 0.000000
0.212726 0.379355 0.000000
0.265064 0.378912 0.000000
0.320089 0.382269 0.000000
0.365850 0.385641 0.000000
0.415442 0.384955 0.000000
0.468452 0.388113 0.000000
0.513176 0.387366 0.000000
0.557656 0.394522 0.000000
0.601831 0.397726 0.000000
0.641794 0.401038 0.000000
0.681636 0.404364 0.000000
0.721157 0.411795 0.000000
0.756817 0.415244 0.000000
0.788434 0.418784 0.000000
0.819837 0.426444 0.000000
0.851225 0.434119 0.000000
0.874662 0.441932 0.000000
0.902052 0.449699 0.000000
0.921386 0.461662 0.000000
0.940887 0.469535 0.000000
0.956283 0.481544 0.000000
0.967163 0.493965 0.000000
0.978119 0.506294 0.000000
0.989578 0.522271 0.000000
0.996567 0.542519 0.000000
0.999725 0.562676 0.000000
1.000000 0.700557 0.238636
0.000000 0.407843 0.050980
0.000000 0.408438 0.043336
0.000000 0.413382 0.033143
0.000000 0.415381 0.004318
0.075074 0.419455 0.000000
0.146929 0.419242 0.000000
0.203586 0.422858 0.000000
0.262333 0.426154 0.000000
0.317006 0.425910 0.000000
0.363165 0.429374 0.000000
0.412894 0.432731 0.000000
0.466239 0.435996 0.000000
0.511192 0.435355 0.000000
0.555886 0.434668 0.000000
0.600336 0.441886 0.000000
0.640497 0.445228 0.000000
0.680522 0.448569 0.000000
0.719692 0.456214 0.000000
0.756023 0.459419 0.000000
0.787762 0.462959 0.000000
0.819272 0.470573 0.000000
0.850919 0.474128 0.000000
0.874418 0.481895 0.000000
0.901884 0.489631 0.000000
0.921401 0.497475 0.000000
0.940780 0.509377 0.000000
0.956207 0.521324 0.000000
0.967376 0.525566 0.000000
0.978759 0.541573 0.000000
0.989792 0.553796 0.000000
0.997208 0.573770 0.000000
0.999985 0.590143 0.000000
1.000000 0.720272 0.253529
0.000000 0.454902 0.058824
0.000000 0.455421 0.056214
0.000000 0.460243 0.043320
0.000000 0.465873 0.009689
0.061051 0.466682 0.000000
0.134188 0.470420 0.000000
0.198276 0.470192 0.000000
0.257053 0.473777 0.000000
0.313558 0.473396 0.000000
0.364355 0.476890 0.000000
0.410391 0.476432 0.000000
0.459937 0.479820 0.000000
0.509194 0.479271 0.000000
0.554055 0.482597 0.000000
0.598657 0.485908 0.000000
0.639002 0.489281 0.000000
0.679194 0.492653 0.000000
0.719265 0.496025 0.000000
0.755200 0.499474 0.000000
0.786877 0.507042 0.000000
0.818677 0.510582 0.000000
0.850248 0.518181 0.000000
0.874571 0.521569 0.000000
0.902113 0.529259 0.000000
0.921675 0.537057 0.000000
0.940642 0.545190 0.000000
0.956237 0.553063 0.000000
0.967330 0.561273 0.000000
0.978347 0.573480 0.000000
0.989776 0.589395 0.000000
0.996963 0.601556 0.000000
1.000000 0.613809 0.003067
1.000000 0.739986 0.268223
0.000000 0.501961 0.070588
0.000000 0.502312 0.066194
0.000000 0.507134 0.053239
0.000000 0.508492 0.029328
0.032517 0.513939 0.000000
0.125505 0.513802 0.000000
0.192386 0.517494 0.000000
0.246372 0.517525 0.000000
0.304265 0.521080 0.000000
0.356161 0.520699 0.000000
0.406928 0.524163 0.000000
0.457160 0.523659 0.000000
0.506737 0.527031 0.000000
0.551995 0.526452 0.000000
0.596872 0.529839 0.000000
0.637507 0.533211 0.000000
0.677699 0.536629 0.000000
0.714199 0.540002 0.000000
0.749981 0.543557 0.000000
0.786389 0.546868 0.000000
0.818341 0.550378 0.000000
0.846220 0.553964 0.000000
0.873869 0.561593 0.000000
0.901671 0.565194 0.000000
0.921279 0.572976 0.000000
0.940887 0.580774 0.000000
0.956497 0.588617 0.000000
0.967269 0.592981 0.000000
0.978790 0.604913 0.000000
0.990311 0.616815 0.000000
0.997467 0.628962 0.000000
1.000000 0.641413 0.005035
1.000000 0.759701 0.286915
0.000000 0.549020 0.082353
0.000000 0.549325 0.078492
0.000000 0.550042 0.068818
0.000000 0.555123 0.050370
0.000000 0.557504 0.008042
0.110216 0.557458 0.000000
0.177798 0.561181 0.000000
0.238972 0.561227 0.000000
0.298573 0.564813 0.000000
0.348318 0.564248 0.000000
0.403189 0.564034 0.000000
0.458091 0.567422 0.000000
0.504112 0.566918 0.000000
0.549584 0.570321 0.000000
0.590539 0.573831 0.000000
0.631479 0.577218 0.000000
0.676493 0.576532 0.000000
0.712978 0.579934 0.000000
0.749325 0.583352 0.000000
0.785565 0.586770 0.000000
0.817670 0.590249 0.000000
0.845670 0.593805 0.000000
0.873625 0.597375 0.000000
0.901350 0.604990 0.000000
0.921202 0.608698 0.000000
0.940856 0.616464 0.000000
0.956680 0.620249 0.000000
0.967849 0.628367 0.000000
0.979049 0.636439 0.000000
0.990570 0.648356 0.000000
0.997848 0.656458 0.000000
1.000000 0.669001 0.011810
1.000000 0.779431 0.301045
0.000000 0.592157 0.094118
0.000000 0.592432 0.090684
0.000000 0.592996 0.083452
0.000000 0.598062 0.071595
0.000000 0.600015 0.034531
0.064622 0.601465 0.000000
0.156252 0.605173 0.000000
0.225360 0.604959 0.000000
0.287480 0.604669 0.000000
0.341833 0.604334 0.000000
0.394369 0.607843 0.000000
0.450217 0.607355 0.000000
0.500847 0.610773 0.000000
0.546548 0.610391 0.000000
0.588067 0.613794 0.000000
0.629328 0.617182 0.000000
0.674662 0.616495 0.000000
0.711360 0.619913 0.000000
0.747936 0.623316 0.000000
0.784588 0.622705 0.000000
0.816861 0.626169 0.000000
0.844999 0.629709 0.000000
0.873075 0.633249 0.000000
0.897505 0.636713 0.000000
0.920851 0.644526 0.000000
0.940764 0.648219 0.000000
0.956451 0.656031 0.000000
0.967849 0.660044 0.000000
0.979095 0.668086 0.000000
0.990784 0.675959 0.000000
0.997925 0.688045 0.000000
1.000000 0.696605 0.018326
1.000000 0.799176 0.319051
0.000000 0.631373 0.113725
0.000000 0.631540 0.111788
0.000000 0.636057 0.104784
0.000000 0.637125 0.091173
0.000000 0.638727 0.066239
0.006958 0.645472 0.000000
0.134844 0.645304 0.000000
0.211719 0.645075 0.000000
0.275074 0.645090 0.000000
0.329229 0.648386 0.000000
0.387976 0.647974 0.000000
0.445045 0.647471 0.000000
0.495979 0.647150 0.000000
0.542733 0.650523 0.000000
0.584787 0.653910 0.000000
0.626734 0.653300 0.000000
0.668177 0.656641 0.000000
0.709606 0.655970 0.000000
0.746487 0.659327 0.000000
0.783215 0.662699 0.000000
0.815961 0.662104 0.000000
0.844282 0.665599 0.000000
0.872557 0.669093 0.000000
0.897063 0.672572 0.000000
0.920806 0.676265 0.000000
0.940810 0.679927 0.000000
0.956970 0.687572 0.000000
0.968032 0.691676 0.000000
0.979324 0.699672 0.000000
0.991196 0.703502 0.000000
0.998322 0.715572 0.000000
1.000000 0.724208 0.031144
1.000000 0.814969 0.337438
0.000000 0.670588 0.129412
0.000000 0.670741 0.127703
0.000000 0.675227 0.121538
0.000000 0.675959 0.112688
0.000000 0.677699 0.094530
0.000000 0.680247 0.039460
0.096574 0.681590 0.000000
0.184131 0.685603 0.000000
0.257282 0.685298 0.000000
0.317540 0.684962 0.000000
0.374243 0.684550 0.000000
0.433112 0.687938 0.000000
0.486198 0.687388 0.000000
0.538323 0.686763 0.000000
0.585245 0.690074 0.000000
0.623072 0.689677 0.000000
0.665126 0.692958 0.000000
0.707134 0.692226 0.000000
0.744457 0.695521 0.000000
0.777722 0.694896 0.000000
0.814710 0.698161 0.000000
0.843305 0.701610 0.000000
0.871824 0.705043 0.000000
0.896757 0.704463 0.000000
0.921080 0.707973 0.000000
0.940871 0.711681 0.000000
0.957061 0.719326 0.000000
0.967864 0.723445 0.000000
0.979812 0.727260 0.000000
0.991516 0.735103 0.000000
0.998825 0.743130 0.000000
1.000000 0.751827 0.050996
1.000000 0.834730 0.358816
0.000000 0.705882 0.149020
0.000000 0.709957 0.151476
0.000000 0.710399 0.147005
0.000000 0.711177 0.138857
0.000000 0.712627 0.122042
0.000000 0.718837 0.089525
0.000000 0.722271 0.008026
0.146548 0.722316 0.000000
0.232212 0.722011 0.000000
0.294911 0.722026 0.000000
0.362860 0.721218 0.000000
0.419394 0.724605 0.000000
0.472923 0.724331 0.000000
0.526741 0.723644 0.000000
0.574929 0.726879 0.000000
0.618402 0.726192 0.000000
0.660731 0.729595 0.000000
0.699275 0.728862 0.000000
0.741909 0.727901 0.000000
0.775311 0.731212 0.000000
0.808606 0.734554 0.000000
0.841932 0.733776 0.000000
0.870939 0.737148 0.000000
0.895857 0.736553 0.000000
0.920409 0.740002 0.000000
0.940764 0.743557 0.000000
0.956954 0.747219 0.000000
0.968276 0.751156 0.000000
0.980285 0.754940 0.000000
0.991669 0.762860 0.000000
0.999237 0.766827 0.000000
1.000000 0.775525 0.069657
1.000000 0.854536 0.379324
0.000000 0.745098 0.172549
0.000000 0.745174 0.175830
0.000000 0.745663 0.171328
0.000000 0.746288 0.165286
0.000000 0.747616 0.151827
0.000000 0.749737 0.127169
0.000000 0.752911 0.077867
0.112062 0.758267 0.038193
0.210910 0.758038 0.048646
0.280858 0.757778 0.046723
0.343191 0.757458 0.031571
0.406546 0.757015 0.041520
0.461952 0.760494 0.036118
0.520928 0.759884 0.032395
0.569833 0.759274 0.028656
0.613291 0.762646 0.022690
0.656855 0.761944 0.032120
0.695644 0.761273 0.015274
0.733898 0.764538 0.009216
0.772396 0.763729 0.018540
0.806012 0.767010 0.000000
0.839933 0.766186 0.000000
0.869123 0.769482 0.000000
0.894530 0.768841 0.000000
0.919371 0.772213 0.000000
0.939940 0.775708 0.000000
0.956298 0.779324 0.000000
0.968154 0.779110 0.000000
0.980270 0.782849 0.000000
0.991714 0.790723 0.000000
0.999344 0.794659 0.000000
1.000000 0.803204 0.087114
1.000000 0.870405 0.400229
0.000000 0.776471 0.200000
0.000000 0.776532 0.203372
0.000000 0.776928 0.200031
0.000000 0.777508 0.195071
0.000000 0.782620 0.184222
0.000000 0.784573 0.164920
0.000000 0.787518 0.130266
0.082734 0.789792 0.094072
0.195331 0.789593 0.093065
0.268803 0.789349 0.091951
0.338125 0.789044 0.090440
0.396826 0.792630 0.095689
0.453513 0.792203 0.093935
0.512993 0.791653 0.091783
0.562234 0.791104 0.089784
0.606363 0.790539 0.087785
0.649683 0.793896 0.092943
0.692927 0.793225 0.081941
0.731640 0.792538 0.079698
0.769802 0.795819 0.084306
0.803830 0.795148 0.071489
0.837491 0.798428 0.076051
0.867155 0.797742 0.072892
0.892180 0.801175 0.067933
0.917510 0.800534 0.064805
0.938262 0.804028 0.059754
0.954788 0.807630 0.054932
0.967330 0.807294 0.024002
0.979629 0.811002 0.019028
0.991684 0.814740 0.009567
0.999176 0.822675 0.001694
1.000000 0.826993 0.108949
1.000000 0.890349 0.417685
0.000000 0.807843 0.231373
0.000000 0.807843 0.235294
0.000000 0.808225 0.228458
0.000000 0.808759 0.228305
0.000000 0.813764 0.219486
0.000000 0.815396 0.205585
0.000000 0.818311 0.177615
0.018967 0.821317 0.142428
0.178332 0.821134 0.141650
0.256138 0.820920 0.140841
0.322423 0.820661 0.139895
0.393072 0.820264 0.145129
0.449683 0.823835 0.143053
0.505058 0.823377 0.141741
0.559121 0.822827 0.140291
0.599115 0.822354 0.145693
0.647288 0.821744 0.143923
0.690135 0.825147 0.133928
0.728908 0.824537 0.131853
0.767498 0.823880 0.129610
0.801266 0.827253 0.126238
0.835325 0.826566 0.123980
0.865034 0.825925 0.121904
0.890166 0.829374 0.126223
0.915541 0.828763 0.124361
0.932052 0.832380 0.124681
0.952682 0.835874 0.127901
0.965133 0.835584 0.114199
0.977249 0.839322 0.109056
0.989364 0.843061 0.112047
0.997269 0.846906 0.106600
1.000000 0.850889 0.128801
0.999344 0.906264 0.447425
0.000000 0.839216 0.266667
0.000000 0.839216 0.266667
0.000000 0.839521 0.264576
0.000000 0.840009 0.265080
0.000000 0.840909 0.258671
0.000000 0.842542 0.246555
0.000000 0.844816 0.228183
0.000000 0.848386 0.190005
0.153170 0.848722 0.190158
0.236728 0.852476 0.188861
0.311589 0.852216 0.188128
0.378698 0.851896 0.187259
0.441688 0.851514 0.186297
0.497398 0.851118 0.184894
0.551797 0.850629 0.189120
0.596277 0.850187 0.187732
0.639750 0.853681 0.185321
0.683330 0.853117 0.183703
0.726574 0.852491 0.181979
0.765209 0.851865 0.174273
0.799115 0.855268 0.177813
0.828977 0.854719 0.176379
0.863096 0.853971 0.176776
0.888273 0.857374 0.179309
0.913603 0.856779 0.181231
0.930419 0.856382 0.182559
0.951019 0.859907 0.185122
0.963485 0.859632 0.180331
0.975586 0.863386 0.176486
0.987716 0.867124 0.178683
0.995621 0.870985 0.174640
0.999374 0.874922 0.164141
0.998856 0.918166 0.477852
0.000000 0.866667 0.301961
0.000000 0.866667 0.301961
0.000000 0.866896 0.304433
0.000000 0.867369 0.301488
0.000000 0.868193 0.296162
0.000000 0.869703 0.286076
0.000000 0.871839 0.270924
0.000000 0.874952 0.251789
0.132937 0.876280 0.234363
0.224430 0.876127 0.233738
0.301732 0.875898 0.238132
0.369085 0.879606 0.236454
0.432898 0.879271 0.235370
0.489296 0.878904 0.234241
0.544106 0.878462 0.232990
0.593362 0.878004 0.231739
0.637537 0.877531 0.230503
0.681254 0.876997 0.229175
0.719875 0.880461 0.227146
0.758862 0.879820 0.226871
0.793515 0.879118 0.228458
0.827863 0.878416 0.230167
0.857465 0.881743 0.232471
0.887083 0.881132 0.234241
0.908171 0.880674 0.240772
0.928801 0.884230 0.237705
0.945480 0.883879 0.238880
0.962066 0.883558 0.234928
0.974182 0.887312 0.231556
0.986572 0.887068 0.232563
0.994537 0.890898 0.234134
0.998276 0.894850 0.219898
0.998154 0.934051 0.508095
0.000000 0.890196 0.345098
0.000000 0.890196 0.345098
0.000000 0.890364 0.344152
0.000000 0.890761 0.341924
0.000000 0.891478 0.337728
0.000000 0.892714 0.330449
0.000000 0.894820 0.317418
0.000000 0.897704 0.298314
0.083207 0.900023 0.281010
0.208148 0.903822 0.279728
0.283574 0.903639 0.279103
0.354528 0.903380 0.283268
0.419715 0.903059 0.282368
0.476951 0.902724 0.281422
0.536919 0.902281 0.280293
0.586511 0.901854 0.279225
0.631006 0.901381 0.283207
0.675410 0.900740 0.278904
0.719478 0.899992 0.280308
0.758511 0.903197 0.282277
0.792996 0.902571 0.283650
0.827207 0.901930 0.285161
0.856901 0.901366 0.286564
0.886412 0.900801 0.288090
0.907164 0.904356 0.289906
0.928069 0.903944 0.295903
0.944686 0.903639 0.296895
0.960937 0.907332 0.289158
0.973281 0.907118 0.285054
0.985657 0.906905 0.285252
0.993606 0.910780 0.280720
0.997421 0.914717 0.271321
0.997696 0.945907 0.538094
0.000000 0.909804 0.384314
0.000000 0.913725 0.384314
0.000000 0.913832 0.387686
0.000000 0.914214 0.385763
0.000000 0.914794 0.382712
0.000000 0.916030 0.376226
0.000000 0.917662 0.367330
0.000000 0.920500 0.350973
0.016632 0.923751 0.330724
0.178820 0.923598 0.330236
0.267018 0.923400 0.329656
0.340322 0.923171 0.328969
0.411963 0.922850 0.332906
0.474540 0.922484 0.332021
0.530892 0.921981 0.331991
0.581720 0.921355 0.332906
0.631464 0.920668 0.333974
0.675853 0.923888 0.335546
0.715312 0.923278 0.336660
0.754253 0.922667 0.333196
0.792905 0.922011 0.334585
0.827008 0.921416 0.340566
0.856580 0.920897 0.341817
0.885969 0.920378 0.343145
0.906676 0.923964 0.344778
0.927413 0.923644 0.345159
0.943969 0.923384 0.345342
0.960449 0.923140 0.340993
0.972595 0.926925 0.341238
0.984909 0.926741 0.336858
0.993133 0.926604 0.336980
0.996918 0.930556 0.323445
0.997253 0.957763 0.567926
0.000000 0.929412 0.431373
0.000000 0.929412 0.435294
0.000000 0.929458 0.435065
0.000000 0.929778 0.433631
0.000000 0.930312 0.431220
0.000000 0.931319 0.426596
0.000000 0.936995 0.418128
0.000000 0.939254 0.406806
0.000000 0.942733 0.388312
0.153414 0.943343 0.383902
0.249393 0.943160 0.383398
0.327031 0.942809 0.383551
0.401877 0.942275 0.388800
0.466377 0.941711 0.389471
0.527886 0.941100 0.385672
0.578561 0.940505 0.391073
0.628046 0.939879 0.392004
0.672282 0.939284 0.392950
0.715938 0.938643 0.394003
0.754711 0.938079 0.390555
0.788983 0.937530 0.396109
0.822858 0.936995 0.392767
0.856413 0.940383 0.398642
0.881407 0.940032 0.398810
0.906294 0.939696 0.394583
0.927047 0.939391 0.399176
0.943572 0.939147 0.399329
