app/src/main/assets/filters/Pentax_Harubeni.cube
# Created from Pentax_Harubeni.plut
LUT_3D_SIZE 5
DOMAIN_MIN 0.0 0.0 0.0
DOMAIN_MAX 1.0 1.0 1.0
0.019608 0.000000 0.000000
0.231373 0.000000 0.000000
0.498039 0.007843 0.000000
0.764706 0.047059 0.000000
1.000000 0.180392 0.000000
0.009171 0.173800 0.000000
0.224704 0.188235 0.000000
0.496513 0.198871 0.000000
0.771969 0.234409 0.000000
1.000000 0.364706 0.027451
0.000000 0.424247 0.058701
0.192538 0.435447 0.000000
0.486397 0.443854 0.000000
0.770397 0.462028 0.000000
1.000000 0.537255 0.082353
0.000000 0.698421 0.201099
0.000000 0.709575 0.134936
0.435889 0.713329 0.113329
0.755291 0.720043 0.085084
1.000000 0.745098 0.219608
0.000000 0.957107 0.520668
0.000000 0.962814 0.514137
0.344564 0.969665 0.482994
0.716732 0.966766 0.480613
1.000000 0.968627 0.525490
0.029831 0.008972 0.187945
0.271901 0.000000 0.181949
0.520745 0.000000 0.177081
0.787442 0.000000 0.170733
1.000000 0.211765 0.192157
0.000000 0.210254 0.215152
0.254276 0.218601 0.214160
0.529000 0.218082 0.205417
0.804410 0.238499 0.187839
1.000000 0.388235 0.227451
0.000000 0.447990 0.264057
0.209949 0.460227 0.249790
0.504860 0.463172 0.247166
0.789914 0.476402 0.239033
1.000000 0.549020 0.286275
0.000000 0.706264 0.383001
0.053574 0.718486 0.349752
0.456947 0.720531 0.344808
0.762432 0.723110 0.339666
1.000000 0.749020 0.392157
0.000000 0.961028 0.599329
0.000000 0.963500 0.596445
0.366918 0.969299 0.575570
0.726726 0.970108 0.573770
1.000000 0.968627 0.607843
0.005356 0.042817 0.467659
0.303029 0.025528 0.465339
0.551934 0.000000 0.446235
0.808972 0.000000 0.437324
1.000000 0.262745 0.439216
0.000000 0.255558 0.472892
0.286183 0.263035 0.479545
0.546883 0.265400 0.468040
0.812024 0.286748 0.452201
1.000000 0.419608 0.462745
0.000000 0.475944 0.484337
0.245136 0.486519 0.491554
0.524804 0.489296 0.484855
0.799069 0.499016 0.474174
1.000000 0.568627 0.490196
0.000000 0.718318 0.548165
0.143297 0.729717 0.536065
0.483803 0.731411 0.531792
0.772091 0.733913 0.528374
1.000000 0.760784 0.552941
0.000000 0.961028 0.689784
0.000000 0.968795 0.682521
0.397375 0.972763 0.671015
0.736416 0.969512 0.669413
1.000000 0.972549 0.694118
0.031815 0.155367 0.770245
0.371283 0.152331 0.762814
0.595239 0.143664 0.750484
0.834928 0.165728 0.737133
1.000000 0.360784 0.705882
0.000000 0.356344 0.753353
0.354726 0.363149 0.754131
0.579950 0.366262 0.749081
0.826062 0.380667 0.735882
1.000000 0.490196 0.713725
0.000000 0.536126 0.744778
0.329122 0.539284 0.752605
0.562921 0.542489 0.746777
0.812100 0.549432 0.737972
1.000000 0.611765 0.725490
0.000000 0.743618 0.756344
0.256718 0.752132 0.762219
0.527153 0.753491 0.758343
0.791516 0.755962 0.751537
1.000000 0.780392 0.752941
0.000000 0.969192 0.823285
0.000000 0.976577 0.819333
0.464271 0.975692 0.817105
0.758679 0.976242 0.815015
1.000000 0.976471 0.823529
0.403037 0.466560 1.000000
0.544778 0.471229 1.000000
0.683070 0.474159 1.000000
0.863981 0.487907 1.000000
1.000000 0.592157 0.956863
0.387457 0.563668 1.000000
0.537545 0.568856 1.000000
0.674052 0.568658 1.000000
0.861006 0.576165 0.997726
1.000000 0.654902 0.960784
0.369207 0.664561 1.000000
0.519280 0.666499 1.000000
0.666651 0.667033 1.000000
0.850370 0.672953 0.995087
1.000000 0.729412 0.964706
0.302098 0.814176 0.997528
0.486198 0.816205 0.993652
0.646143 0.813672 0.989685
0.838956 0.817838 0.983246
1.000000 0.843137 0.968627
0.180392 0.987961 0.989441
0.431907 0.986648 0.987640
0.608667 0.988830 0.985107
0.814023 0.986343 0.982269
1.000000 0.988235 0.984314
