app/src/main/assets/filters/Pentax_Katen.cube
# Created from Pentax_Katen.plut
LUT_3D_SIZE 33
DOMAIN_MIN 0.0 0.0 0.0
DOMAIN_MAX 1.0 1.0 1.0
0.000000 0.000000 0.000000
0.003922 0.000000 0.000000
0.019608 0.000000 0.000000
0.035294 0.000000 0.000000
0.054902 0.000000 0.000000
0.078431 0.000000 0.000000
0.101961 0.000000 0.000000
0.129412 0.000000 0.000000
0.160784 0.000000 0.000000
0.192157 0.000000 0.000000
0.223529 0.000000 0.000000
0.262745 0.003922 0.000000
0.301961 0.003922 0.000000
0.341176 0.003922 0.000000
0.384314 0.003922 0.000000
0.431373 0.003922 0.000000
0.478431 0.007843 0.000000
0.525490 0.007843 0.000000
0.572549 0.007843 0.000000
0.615686 0.011765 0.000000
0.658824 0.011765 0.000000
0.698039 0.015686 0.000000
0.737255 0.019608 0.000000
0.772549 0.023529 0.000000
0.807843 0.027451 0.000000
0.839216 0.031373 0.000000
0.870588 0.035294 0.000000
0.901961 0.043137 0.000000
0.929412 0.050980 0.000000
0.949020 0.062745 0.000000
0.968627 0.078431 0.000000
0.988235 0.094118 0.000000
1.000000 0.187472 0.020508
0.000000 0.003922 0.000000
0.007843 0.003922 0.000000
0.019608 0.003922 0.000000
0.035294 0.003922 0.000000
0.054902 0.007843 0.000000
0.078431 0.007843 0.000000
0.101961 0.007843 0.000000
0.129412 0.007843 0.000000
0.160784 0.007843 0.000000
0.192157 0.007843 0.000000
0.227451 0.011765 0.000000
0.262745 0.011765 0.000000
0.305882 0.011765 0.000000
0.341176 0.011765 0.000000
0.386969 0.005310 0.000000
0.433951 0.008438 0.000000
0.480980 0.007477 0.000000
0.528023 0.010376 0.000000
0.575097 0.009186 0.000000
0.618265 0.011933 0.000000
0.661448 0.010590 0.000000
0.700725 0.013199 0.000000
0.739895 0.016297 0.000000
0.775036 0.020233 0.000000
0.810178 0.028244 0.000000
0.841428 0.032502 0.000000
0.872694 0.041779 0.000000
0.901961 0.058824 0.000000
0.929412 0.070588 0.000000
0.949020 0.082353 0.000000
0.968627 0.098039 0.000000
0.988235 0.113725 0.000000
1.000000 0.228351 0.031235
0.000000 0.011765 0.000000
0.007843 0.011765 0.000000
0.019608 0.015686 0.000000
0.035294 0.015686 0.000000
0.058824 0.015686 0.000000
0.078431 0.015686 0.000000
0.105882 0.019608 0.000000
0.133471 0.016861 0.000000
0.164691 0.016266 0.000000
0.195895 0.015671 0.000000
0.230671 0.019440 0.000000
0.269612 0.019013 0.000000
0.304753 0.018555 0.000000
0.347753 0.017914 0.000000
0.390799 0.021180 0.000000
0.433890 0.020371 0.000000
0.480919 0.023362 0.000000
0.527993 0.022278 0.000000
0.575067 0.025025 0.000000
0.618235 0.027756 0.000000
0.661418 0.030472 0.000000
0.700694 0.029114 0.000000
0.739849 0.032715 0.000000
0.774975 0.041978 0.000000
0.810132 0.046601 0.000000
0.841382 0.055726 0.000000
0.872648 0.064637 0.000000
0.903929 0.068986 0.000000
0.931273 0.081971 0.000000
0.950820 0.094728 0.000000
0.968627 0.121569 0.000000
0.988235 0.137255 0.000000
1.000000 0.268742 0.043229
0.000000 0.023529 0.003922
0.006531 0.028016 0.002228
0.023392 0.027695 0.001907
0.036042 0.027451 0.001663
0.056580 0.031052 0.000961
0.081239 0.030365 0.000275
0.105272 0.029740 0.000000
0.132708 0.029221 0.000000
0.164004 0.032609 0.000000
0.195331 0.032029 0.000000
0.230396 0.031601 0.000000
0.265461 0.035157 0.000000
0.304570 0.034577 0.000000
0.347631 0.033875 0.000000
0.386786 0.037278 0.000000
0.433829 0.036362 0.000000
0.480873 0.039673 0.000000
0.527932 0.043015 0.000000
0.575036 0.041855 0.000000
0.618204 0.045182 0.000000
0.661387 0.048478 0.000000
0.700664 0.051835 0.000000
0.739773 0.055970 0.000000
0.774914 0.060395 0.000000
0.810071 0.069184 0.000000
0.841321 0.077836 0.000000
0.872587 0.086366 0.000000
0.903868 0.094820 0.000000
0.931228 0.107378 0.000000
0.950759 0.119814 0.000000
0.970275 0.140337 0.000000
0.988235 0.160784 0.000000
1.000000 0.304845 0.051026
0.000000 0.043137 0.003922
0.005447 0.044068 0.001144
0.022309 0.043778 0.000824
0.034974 0.043549 0.000580
0.055680 0.047150 0.000000
0.080217 0.046632 0.000000
0.104036 0.050233 0.000000
0.131777 0.049760 0.000000
0.163439 0.049149 0.000000
0.194827 0.048661 0.000000
0.232792 0.045075 0.000000
0.269139 0.051835 0.000000
0.306935 0.047425 0.000000
0.346014 0.050721 0.000000
0.389059 0.053864 0.000000
0.436133 0.052293 0.000000
0.483192 0.055192 0.000000
0.530327 0.053330 0.000000
0.577447 0.056031 0.000000
0.620661 0.058824 0.000000
0.663920 0.061524 0.000000
0.703197 0.064561 0.000000
0.742107 0.069093 0.000000
0.777096 0.078447 0.000000
0.812146 0.082933 0.000000
0.843305 0.091981 0.000000
0.874464 0.100877 0.000000
0.903792 0.119905 0.000000
0.931167 0.128099 0.000000
0.950683 0.144457 0.000000
0.970199 0.164752 0.000000
0.989715 0.184909 0.000000
1.000000 0.336385 0.044984
0.000000 0.062745 0.003922
0.003784 0.063920 0.003784
0.020661 0.063691 0.003464
0.037537 0.063462 0.003143
0.054307 0.067201 0.002411
0.079530 0.066728 0.001724
0.104234 0.070161 0.000443
0.132723 0.069398 0.000000
0.164797 0.068513 0.000000
0.196475 0.067720 0.000000
0.231769 0.071092 0.000000
0.271092 0.070161 0.000000
0.306355 0.073579 0.000000
0.349554 0.072526 0.000000
0.388754 0.075822 0.000000
0.435843 0.078904 0.000000
0.482994 0.077577 0.000000
0.530129 0.080537 0.000000
0.577279 0.083436 0.000000
0.620523 0.086397 0.000000
0.663783 0.089296 0.000000
0.702922 0.092851 0.000000
0.741863 0.097108 0.000000
0.776883 0.105837 0.000000
0.811948 0.110063 0.000000
0.843076 0.123033 0.000000
0.874266 0.131518 0.000000
0.905455 0.139925 0.000000
0.932738 0.152514 0.000000
0.952178 0.169192 0.000000
0.970108 0.192981 0.000000
0.989639 0.213001 0.000000
1.000000 0.368704 0.052384
0.000000 0.078431 0.007843
0.001724 0.083787 0.001724
0.014374 0.083635 0.001480
0.035462 0.083406 0.001083
0.052537 0.087190 0.000244
0.078233 0.086778 0.000000
0.102922 0.090303 0.000000
0.131426 0.089784 0.000000
0.165087 0.088579 0.000000
0.192935 0.091905 0.000000
0.230976 0.091936 0.000000
0.272282 0.093767 0.000000
0.307866 0.092699 0.000000
0.347204 0.095750 0.000000
0.394507 0.094224 0.000000
0.437751 0.097108 0.000000
0.484947 0.099809 0.000000
0.532174 0.102434 0.000000
0.579461 0.100496 0.000000
0.622782 0.103090 0.000000
0.666011 0.110323 0.000000
0.704906 0.114290 0.000000
0.743755 0.118441 0.000000
0.778668 0.127184 0.000000
0.813626 0.135821 0.000000
0.844709 0.144427 0.000000
0.875822 0.152941 0.000000
0.905287 0.165209 0.000000
0.932540 0.181720 0.000000
0.951980 0.198123 0.000000
0.971435 0.214420 0.000000
0.990875 0.234699 0.000000
1.000000 0.396857 0.059861
0.000000 0.101961 0.007843
0.000000 0.103471 0.004257
0.011246 0.107485 0.002655
0.032349 0.107301 0.002243
0.049805 0.111116 0.001312
0.076280 0.110780 0.000656
0.101686 0.114321 0.000000
0.130678 0.113817 0.000000
0.163088 0.117205 0.000000
0.191394 0.116625 0.000000
0.231510 0.115709 0.000000
0.271366 0.114748 0.000000
0.306950 0.117998 0.000000
0.350378 0.121065 0.000000
0.389807 0.124208 0.000000
0.437217 0.122911 0.000000
0.484489 0.125765 0.000000
0.531777 0.128573 0.000000
0.579065 0.131304 0.000000
0.622431 0.134096 0.000000
0.665507 0.137407 0.000000
0.704402 0.141360 0.000000
0.743236 0.149722 0.000000
0.778271 0.153735 0.000000
0.813260 0.162097 0.000000
0.844388 0.170443 0.000000
0.875471 0.182986 0.000000
0.906615 0.191226 0.000000
0.933837 0.203647 0.000000
0.953170 0.224338 0.000000
0.971221 0.246906 0.000000
0.990661 0.267002 0.000000
1.000000 0.428916 0.066590
0.000000 0.129412 0.011765
0.000000 0.130632 0.003983
0.008850 0.131121 0.000000
0.026001 0.134829 0.000000
0.047272 0.134859 0.001953
0.075303 0.134340 0.000000
0.100343 0.138048 0.000000
0.129229 0.137896 0.000000
0.162112 0.141299 0.000000
0.189929 0.144839 0.000000
0.231144 0.143847 0.000000
0.267414 0.142947 0.000000
0.307301 0.146014 0.000000
0.347219 0.144900 0.000000
0.390845 0.147784 0.000000
0.438224 0.154742 0.000000
0.485832 0.153201 0.000000
0.533288 0.155810 0.000000
0.580743 0.158343 0.000000
0.623987 0.161303 0.000000
0.666804 0.164935 0.000000
0.705715 0.168719 0.000000
0.744518 0.176944 0.000000
0.779446 0.185183 0.000000
0.814496 0.189105 0.000000
0.845502 0.201663 0.000000
0.876524 0.214115 0.000000
0.907652 0.222293 0.000000
0.933471 0.236820 0.000000
0.952865 0.253132 0.000000
0.972229 0.273426 0.000000
0.991608 0.293614 0.000000
1.000000 0.452888 0.073960
0.000000 0.152941 0.015686
0.000000 0.157885 0.007218
0.006271 0.158633 0.000000
0.023056 0.158541 0.000000
0.044953 0.162356 0.000000
0.071839 0.166125 0.000000
0.097841 0.165942 0.000000
0.131579 0.165606 0.000000
0.160357 0.169223 0.000000
0.193179 0.168750 0.000000
0.229587 0.172152 0.000000
0.269993 0.171389 0.000000
0.305989 0.174701 0.000000
0.346044 0.173800 0.000000
0.389792 0.176852 0.000000
0.439048 0.178515 0.000000
0.486778 0.181079 0.000000
0.534447 0.183566 0.000000
0.581811 0.186267 0.000000
0.624781 0.189624 0.000000
0.663752 0.193194 0.000000
0.706477 0.201129 0.000000
0.745434 0.204822 0.000000
0.780362 0.212940 0.000000
0.815320 0.221057 0.000000
0.846387 0.229206 0.000000
0.877394 0.241581 0.000000
0.907195 0.251545 0.000000
0.934401 0.263752 0.000000
0.953735 0.280079 0.000000
0.973037 0.300404 0.000000
0.991363 0.317830 0.000000
1.000000 0.480827 0.085573
0.000000 0.184314 0.019608
0.000000 0.185153 0.012009
0.000000 0.190295 0.000198
0.016190 0.190249 0.000000
0.038087 0.194095 0.000000
0.067277 0.193973 0.000000
0.094026 0.197757 0.000000
0.124422 0.197528 0.000000
0.157992 0.201144 0.000000
0.187167 0.200778 0.000000
0.224277 0.200244 0.000000
0.264927 0.203540 0.000000
0.305516 0.202731 0.000000
0.345708 0.205890 0.000000
0.389776 0.208911 0.000000
0.437736 0.211749 0.000000
0.485588 0.214542 0.000000
0.533120 0.217472 0.000000
0.580270 0.220691 0.000000
0.623362 0.224079 0.000000
0.662486 0.227619 0.000000
0.705486 0.231144 0.000000
0.741939 0.237430 0.000000
0.780835 0.245319 0.000000
0.815824 0.253300 0.000000
0.846921 0.261341 0.000000
0.877913 0.273594 0.000000
0.907866 0.283070 0.000000
0.935042 0.295216 0.000000
0.954421 0.307393 0.000000
0.972656 0.328847 0.000000
0.992065 0.344900 0.000000
1.000000 0.508705 0.086870
0.000000 0.215686 0.023529
0.000000 0.216358 0.017273
0.000000 0.221256 0.007752
0.006989 0.222004 0.000000
0.028687 0.225864 0.000000
0.060426 0.225772 0.000000
0.088792 0.229572 0.000000
0.120394 0.229374 0.000000
0.154788 0.233036 0.000000
0.184527 0.232731 0.000000
0.221912 0.236240 0.000000
0.263020 0.239612 0.000000
0.304051 0.238880 0.000000
0.344823 0.238041 0.000000
0.384970 0.245228 0.000000
0.433402 0.244068 0.000000
0.485237 0.246952 0.000000
0.532753 0.250050 0.000000
0.580102 0.253223 0.000000
0.623178 0.260731 0.000000
0.662425 0.264210 0.000000
0.705562 0.267659 0.000000
0.740795 0.271275 0.000000
0.779797 0.279072 0.000000
0.814878 0.286931 0.000000
0.846036 0.294850 0.000000
0.878187 0.305760 0.000000
0.908385 0.310719 0.000000
0.935470 0.326925 0.000000
0.954833 0.339055 0.000000
0.973220 0.356161 0.000000
0.991669 0.377081 0.000000
1.000000 0.532555 0.093416
0.000000 0.250980 0.027451
0.000000 0.255436 0.022461
0.000000 0.260136 0.015015
0.000000 0.261189 0.004486
0.015625 0.261585 0.000000
0.049042 0.265446 0.000000
0.081071 0.265339 0.000000
0.114107 0.269123 0.000000
0.150195 0.268894 0.000000
0.184665 0.272557 0.000000
0.218769 0.272190 0.000000
0.260487 0.275624 0.000000
0.302007 0.274968 0.000000
0.342901 0.278248 0.000000
0.383459 0.281498 0.000000
0.432059 0.280537 0.000000
0.484092 0.283543 0.000000
0.531853 0.286671 0.000000
0.575433 0.289937 0.000000
0.622843 0.293172 0.000000
0.662226 0.296590 0.000000
0.705318 0.304143 0.000000
0.740642 0.307729 0.000000
0.779736 0.315419 0.000000
0.814878 0.323201 0.000000
0.846082 0.331044 0.000000
0.877302 0.338903 0.000000
0.908507 0.346777 0.000000
0.935714 0.358785 0.000000
0.954208 0.371664 0.000000
0.977462 0.387701 0.000000
0.992889 0.403738 0.000000
1.000000 0.556405 0.104692
0.000000 0.290196 0.031373
0.000000 0.294347 0.029206
0.000000 0.295003 0.022736
0.000000 0.299779 0.014206
0.000000 0.301167 0.000168
0.034348 0.305013 0.000000
0.071412 0.304936 0.000000
0.102754 0.304814 0.000000
0.140658 0.308522 0.000000
0.176654 0.308278 0.000000
0.215625 0.311849 0.000000
0.253895 0.311452 0.000000
0.295552 0.314885 0.000000
0.341024 0.314244 0.000000
0.385855 0.317525 0.000000
0.430335 0.320806 0.000000
0.482597 0.323934 0.000000
0.526558 0.327214 0.000000
0.574319 0.330449 0.000000
0.617945 0.333776 0.000000
0.661433 0.337148 0.000000
0.704845 0.340551 0.000000
0.740261 0.344106 0.000000
0.780301 0.351095 0.000000
0.815518 0.358785 0.000000
0.846769 0.366567 0.000000
0.878019 0.374365 0.000000
0.908553 0.378775 0.000000
0.935775 0.390723 0.000000
0.955138 0.402747 0.000000
0.973709 0.419394 0.000000
0.992370 0.435935 0.000000
1.000000 0.584192 0.114916
0.000000 0.333333 0.035294
0.000000 0.337438 0.033158
0.000000 0.338003 0.026749
0.000000 0.342657 0.018280
0.000000 0.343618 0.007218
0.019272 0.344228 0.000000
0.059266 0.348043 0.000000
0.098146 0.347951 0.000000
0.137224 0.347799 0.000000
0.173617 0.351522 0.000000
0.213077 0.351278 0.000000
0.255650 0.354864 0.000000
0.292912 0.354681 0.000000
0.338613 0.358083 0.000000
0.379690 0.361501 0.000000
0.428595 0.364782 0.000000
0.477348 0.364019 0.000000
0.525597 0.367254 0.000000
0.573617 0.370489 0.000000
0.617441 0.373800 0.000000
0.661128 0.377142 0.000000
0.700740 0.380575 0.000000
0.740246 0.384024 0.000000
0.779553 0.391592 0.000000
0.815000 0.395163 0.000000
0.846311 0.402899 0.000000
0.877623 0.410651 0.000000
0.908232 0.418921 0.000000
0.935592 0.426749 0.000000
0.954971 0.438712 0.000000
0.974289 0.454704 0.000000
0.993011 0.471092 0.000000
1.000000 0.606104 0.103746
0.000000 0.376471 0.039216
0.000000 0.380560 0.037095
0.000000 0.381048 0.034714
0.000000 0.381689 0.026215
0.000000 0.386435 0.015167
0.003708 0.387579 0.000000
0.046296 0.391409 0.000000
0.089830 0.391333 0.000000
0.131182 0.391211 0.000000
0.168841 0.394965 0.000000
0.204791 0.394781 0.000000
0.252537 0.394476 0.000000
0.290608 0.398108 0.000000
0.332448 0.397726 0.000000
0.377813 0.401205 0.000000
0.422766 0.404639 0.000000
0.475685 0.403967 0.000000
0.524071 0.407294 0.000000
0.572229 0.410620 0.000000
0.616175 0.413993 0.000000
0.659983 0.417395 0.000000
0.699687 0.420859 0.000000
0.739300 0.424338 0.000000
0.779309 0.431540 0.000000
0.814237 0.435462 0.000000
0.845624 0.443153 0.000000
0.877012 0.450874 0.000000
0.908370 0.458595 0.000000
0.935180 0.466773 0.000000
0.954604 0.478691 0.000000
0.974029 0.490578 0.000000
0.992935 0.502815 0.000000
1.000000 0.634012 0.111162
0.000000 0.423529 0.047059
0.000000 0.427588 0.045136
0.000000 0.428016 0.039033
0.000000 0.428565 0.030610
0.000000 0.429313 0.019593
0.000000 0.434119 0.010040
0.037659 0.434470 0.000000
0.079850 0.434699 0.000000
0.118975 0.438499 0.000000
0.158724 0.438392 0.000000
0.200275 0.442115 0.000000
0.244526 0.441901 0.000000
0.287541 0.441627 0.000000
0.333837 0.445212 0.000000
0.375341 0.448783 0.000000
0.420722 0.448341 0.000000
0.473777 0.451713 0.000000
0.522393 0.455100 0.000000
0.570932 0.454490 0.000000
0.615061 0.457893 0.000000
0.659037 0.461295 0.000000
0.698894 0.464775 0.000000
0.738506 0.472282 0.000000
0.778180 0.475776 0.000000
0.813825 0.479332 0.000000
0.845304 0.486992 0.000000
0.876890 0.490639 0.000000
0.908324 0.498329 0.000000
0.935225 0.506401 0.000000
0.954757 0.514260 0.000000
0.974197 0.526131 0.000000
0.993164 0.538277 0.000000
1.000000 0.657923 0.119020
0.000000 0.474510 0.054902
0.000000 0.474632 0.057176
0.000000 0.474998 0.047761
0.000000 0.479286 0.041947
0.000000 0.480049 0.033738
0.000000 0.480858 0.015015
0.002487 0.482002 0.000000
0.060105 0.485832 0.000000
0.110445 0.485756 0.000000
0.152331 0.485664 0.000000
0.190707 0.485542 0.000000
0.240436 0.489250 0.000000
0.279744 0.489052 0.000000
0.326741 0.488762 0.000000
0.376989 0.492317 0.000000
0.418372 0.495903 0.000000
0.471702 0.499336 0.000000
0.520714 0.498833 0.000000
0.569299 0.502251 0.000000
0.613764 0.501717 0.000000
0.657923 0.505150 0.000000
0.697917 0.508629 0.000000
0.737819 0.512108 0.000000
0.778058 0.515435 0.000000
0.813825 0.518944 0.000000
0.844923 0.526802 0.000000
0.877104 0.530175 0.000000
0.908095 0.538079 0.000000
0.935225 0.542046 0.000000
0.954665 0.553902 0.000000
0.974243 0.561715 0.000000
0.993240 0.573816 0.000000
1.000000 0.685817 0.129671
0.000000 0.517647 0.066667
0.000000 0.521675 0.065171
0.000000 0.521904 0.062104
0.000000 0.522332 0.055619
0.000000 0.522896 0.046479
0.000000 0.527642 0.030518
0.000000 0.528740 0.009415
0.042405 0.529183 0.000000
0.094179 0.533028 0.000000
0.139803 0.532952 0.000000
0.184939 0.532830 0.000000
0.231479 0.532677 0.000000
0.275898 0.536400 0.000000
0.322347 0.536370 0.000000
0.369268 0.536065 0.000000
0.415366 0.539635 0.000000
0.465095 0.543130 0.000000
0.514549 0.542641 0.000000
0.563500 0.546059 0.000000
0.612345 0.545495 0.000000
0.652720 0.548959 0.000000
0.696971 0.552377 0.000000
0.737072 0.555840 0.000000
0.773053 0.559365 0.000000
0.808957 0.562890 0.000000
0.844785 0.566430 0.000000
0.876570 0.570016 0.000000
0.907836 0.573831 0.000000
0.935409 0.581537 0.000000
0.955001 0.589334 0.000000
0.974151 0.597360 0.000000
0.993317 0.605386 0.000000
1.000000 0.709728 0.140642
0.000000 0.564706 0.078431
0.000000 0.564706 0.078431
0.000000 0.564996 0.074434
0.000000 0.569314 0.068833
0.000000 0.569818 0.061128
0.000000 0.570428 0.050462
0.000000 0.571389 0.030961
0.000000 0.576684 0.000855
0.074311 0.576654 0.000000
0.126833 0.576593 0.000000
0.170367 0.576501 0.000000
0.219425 0.580255 0.000000
0.265553 0.580087 0.000000
0.314321 0.579858 0.000000
0.366110 0.579568 0.000000
0.412589 0.583169 0.000000
0.462242 0.582940 0.000000
0.511986 0.586404 0.000000
0.561334 0.589837 0.000000
0.606439 0.589334 0.000000
0.651148 0.592767 0.000000
0.695827 0.592187 0.000000
0.736141 0.595636 0.000000
0.772290 0.599145 0.000000
0.808362 0.602640 0.000000
0.844343 0.606149 0.000000
0.876249 0.609720 0.000000
0.903700 0.613504 0.000000
0.931487 0.617151 0.000000
0.954696 0.625071 0.000000
0.974334 0.632853 0.000000
0.993561 0.640818 0.000000
1.000000 0.737652 0.153033
0.000000 0.607843 0.090196
0.000000 0.607843 0.090196
0.000000 0.612039 0.086656
0.000000 0.612299 0.082979
0.000000 0.612741 0.076524
0.000000 0.613413 0.066072
0.000000 0.614282 0.050172
0.000000 0.619257 0.025513
0.033127 0.620310 0.000000
0.097002 0.620539 0.000000
0.154376 0.620432 0.000000
0.202701 0.620310 0.000000
0.251621 0.624033 0.000000
0.306981 0.623789 0.000000
0.355810 0.623529 0.000000
0.403372 0.627131 0.000000
0.458717 0.626703 0.000000
0.509133 0.626246 0.000000
0.558907 0.629694 0.000000
0.604349 0.629191 0.000000
0.649363 0.632609 0.000000
0.694148 0.636011 0.000000
0.734859 0.635477 0.000000
0.771206 0.638972 0.000000
0.807446 0.642451 0.000000
0.843595 0.645945 0.000000
0.875807 0.645472 0.000000
0.903410 0.649195 0.000000
0.931151 0.656840 0.000000
0.955016 0.660533 0.000000
0.974304 0.668437 0.000000
0.993729 0.672358 0.000000
0.999084 0.761868 0.173892
0.000000 0.650980 0.105882
0.000000 0.650980 0.105882
0.000000 0.651225 0.102800
0.000000 0.651469 0.099641
0.000000 0.655802 0.094148
0.000000 0.656291 0.087144
0.000000 0.657053 0.075273
0.000000 0.658198 0.054063
0.000000 0.659632 0.018769
0.060929 0.660319 0.000000
0.132387 0.664103 0.000000
0.187549 0.664286 0.000000
0.240146 0.664118 0.000000
0.293462 0.663890 0.000000
0.348638 0.663600 0.000000
0.393027 0.667216 0.000000
0.449561 0.666789 0.000000
0.500694 0.670268 0.000000
0.551339 0.669764 0.000000
0.601511 0.669200 0.000000
0.646983 0.672587 0.000000
0.688258 0.672053 0.000000
0.729137 0.675456 0.000000
0.769863 0.678859 0.000000
0.806546 0.678309 0.000000
0.843153 0.681712 0.000000
0.875166 0.685252 0.000000
0.903166 0.684886 0.000000
0.931029 0.692485 0.000000
0.955001 0.696147 0.000000
0.974548 0.699992 0.000000
0.993912 0.707866 0.000000
0.993118 0.790372 0.204547
0.000000 0.690196 0.125490
0.000000 0.694118 0.125490
0.000000 0.694270 0.123735
0.000000 0.694499 0.121065
0.000000 0.694881 0.116487
0.000000 0.695308 0.111025
0.000000 0.695995 0.101961
0.000000 0.697017 0.086748
0.000000 0.702205 0.063676
0.000000 0.704005 0.017258
0.086275 0.704540 0.000000
0.162097 0.704417 0.000000
0.220691 0.704250 0.000000
0.274922 0.704341 0.000000
0.333318 0.704036 0.000000
0.384146 0.707607 0.000000
0.437995 0.707195 0.000000
0.494957 0.706676 0.000000
0.546441 0.710048 0.000000
0.597467 0.709453 0.000000
0.643610 0.712795 0.000000
0.685435 0.712215 0.000000
0.727016 0.711589 0.000000
0.768170 0.714931 0.000000
0.805020 0.718303 0.000000
0.841962 0.717678 0.000000
0.870390 0.721187 0.000000
0.902785 0.720668 0.000000
0.931014 0.724193 0.000000
0.954925 0.731823 0.000000
0.974640 0.735592 0.000000
0.994293 0.739391 0.000000
0.991424 0.814633 0.230686
0.000000 0.729412 0.145098
0.000000 0.733333 0.145098
0.000000 0.733471 0.147524
0.000000 0.733684 0.145266
0.000000 0.733974 0.142199
0.000000 0.734447 0.136873
0.000000 0.734966 0.130861
0.000000 0.735882 0.119402
0.000000 0.737057 0.103197
0.000000 0.738705 0.075303
0.000000 0.740993 0.015732
0.111360 0.745266 0.000000
0.186770 0.745098 0.000000
0.252079 0.744869 0.000000
0.314992 0.744549 0.000000
0.373434 0.744182 0.000000
0.429084 0.747646 0.000000
0.483207 0.747143 0.000000
0.536172 0.746578 0.000000
0.588251 0.745953 0.000000
0.635203 0.749248 0.000000
0.681941 0.748562 0.000000
0.723613 0.751980 0.000000
0.765621 0.751247 0.000000
0.802976 0.754543 0.000000
0.836271 0.753918 0.000000
0.869169 0.757275 0.000000
0.902022 0.756619 0.000000
0.930282 0.760113 0.000000
0.954589 0.763668 0.000000
0.974762 0.767300 0.000000
0.994293 0.771099 0.000000
0.989776 0.838788 0.267659
0.000000 0.768627 0.172549
0.000000 0.768627 0.172549
0.000000 0.768688 0.171908
0.000000 0.768902 0.169955
0.000000 0.769223 0.166659
0.000000 0.769512 0.163790
0.000000 0.773968 0.158145
0.000000 0.774807 0.149050
0.000000 0.775860 0.136553
0.000000 0.777371 0.116533
0.000000 0.779477 0.081697
0.049470 0.781506 0.040314
0.154818 0.781369 0.039200
0.222812 0.781201 0.037919
0.296376 0.780926 0.035981
0.356954 0.784558 0.032013
0.414801 0.784176 0.030213
0.475013 0.783673 0.028077
0.529091 0.783139 0.025986
0.581796 0.786481 0.022187
0.629786 0.785840 0.020127
0.672984 0.785199 0.018204
0.720104 0.784436 0.016083
0.758083 0.787747 0.012879
0.800412 0.786938 0.010636
0.833814 0.790265 0.007233
0.867399 0.789563 0.005386
0.900465 0.792828 0.000000
0.929595 0.792172 0.000000
0.953964 0.795666 0.000000
0.974334 0.799252 0.000000
0.994110 0.802930 0.000000
0.988281 0.862821 0.303136
0.000000 0.803922 0.200000
0.000000 0.803922 0.200000
0.000000 0.803983 0.203372
0.000000 0.804181 0.201724
0.000000 0.804425 0.199496
0.000000 0.804761 0.196536
0.000000 0.805173 0.192706
0.000000 0.805936 0.185550
0.000000 0.810819 0.175921
0.000000 0.812222 0.161044
0.000000 0.813916 0.140581
0.000000 0.816526 0.102022
0.135103 0.816724 0.095766
0.215427 0.816541 0.095232
0.285649 0.816312 0.094545
0.343374 0.816037 0.101701
0.406989 0.815671 0.100816
0.467308 0.819165 0.099062
0.521736 0.818677 0.098116
0.574975 0.818143 0.088899
0.623117 0.817563 0.087877
0.670390 0.820905 0.085801
0.713298 0.820294 0.084596
0.755947 0.819608 0.091966
0.793774 0.822950 0.090105
0.831724 0.822248 0.089067
0.865324 0.821607 0.088136
0.898482 0.824949 0.077317
0.927672 0.824353 0.066529
0.952316 0.827832 0.068345
0.972717 0.831403 0.072190
0.993271 0.830976 0.054185
0.986954 0.886748 0.337591
0.000000 0.835294 0.235294
0.000000 0.835294 0.239216
0.000000 0.839216 0.239216
0.000000 0.839399 0.237812
0.000000 0.839628 0.235935
0.000000 0.839948 0.233509
0.000000 0.840314 0.230457
0.000000 0.840909 0.225681
0.000000 0.841917 0.217105
0.000000 0.843030 0.207156
0.000000 0.844800 0.190158
0.000000 0.847242 0.163653
0.106493 0.848066 0.158343
0.196551 0.847913 0.151934
0.276020 0.847684 0.151507
0.334249 0.851377 0.150561
0.398901 0.851041 0.156191
0.455573 0.850675 0.155673
0.514824 0.850217 0.148730
0.568338 0.849729 0.147997
0.620981 0.849180 0.147219
0.668315 0.852567 0.145953
0.711269 0.852003 0.145281
0.753918 0.851392 0.144594
0.792065 0.850797 0.143969
0.829801 0.854139 0.149294
0.863447 0.853529 0.149874
