app/src/main/assets/filters/Pentax_Kyushu.cube
# Created from Pentax_Kyushu.plut
LUT_3D_SIZE 5
DOMAIN_MIN 0.0 0.0 0.0
DOMAIN_MAX 1.0 1.0 1.0
0.000000 0.000000 0.000000
0.204150 0.003220 0.000000
0.428687 0.009308 0.000000
0.690318 0.020447 0.000000
0.994186 0.175631 0.000000
0.000000 0.172992 0.031739
0.201114 0.184924 0.003555
0.439673 0.188891 0.000000
0.699138 0.216663 0.000000
0.991989 0.377142 0.044343
0.000000 0.388235 0.090196
0.156786 0.401663 0.026184
0.417700 0.405676 0.011643
0.696773 0.420722 0.000000
0.971649 0.540581 0.128634
0.000000 0.647059 0.211765
0.000000 0.654017 0.158907
0.373938 0.658503 0.139254
0.675090 0.665705 0.115206
0.940795 0.733684 0.261326
0.000000 0.945098 0.482353
0.000000 0.946960 0.474846
0.224231 0.957610 0.423346
0.621592 0.958785 0.417823
0.966033 0.964248 0.420111
0.014237 0.024613 0.200977
0.243153 0.012604 0.194903
0.457816 0.000000 0.189654
0.711177 0.000000 0.180911
1.000000 0.214405 0.287388
0.000000 0.205570 0.218677
0.224475 0.215366 0.219928
0.459358 0.214527 0.213428
0.718532 0.230045 0.198260
0.989822 0.397879 0.314382
0.000000 0.408423 0.265385
0.183902 0.416678 0.255375
0.436011 0.424506 0.249165
0.705440 0.434607 0.237644
0.973785 0.551705 0.345251
0.000000 0.654902 0.360784
0.024933 0.663401 0.328161
0.389975 0.665858 0.327932
0.682017 0.668833 0.317144
0.942260 0.740993 0.411536
0.000000 0.945098 0.560784
0.000000 0.951553 0.552834
0.254261 0.961196 0.515923
0.627222 0.962325 0.510903
0.971679 0.963684 0.509041
0.000000 0.059663 0.438102
0.265827 0.048753 0.437324
0.492073 0.005646 0.422782
0.734081 0.000000 0.407797
0.996216 0.268208 0.499641
0.000000 0.247868 0.433982
0.247700 0.252399 0.443809
0.476646 0.253300 0.437598
0.729931 0.268254 0.422416
0.986725 0.422171 0.509392
0.000000 0.432685 0.453239
0.214115 0.443107 0.457053
0.455695 0.446784 0.451255
0.714366 0.457313 0.440940
0.970993 0.562692 0.520989
0.000000 0.663340 0.509087
0.095720 0.674800 0.497490
0.416541 0.676890 0.493355
0.691554 0.679683 0.489479
0.943648 0.743954 0.553460
0.000000 0.949020 0.643137
0.000000 0.952605 0.635050
0.286854 0.964691 0.611002
0.637598 0.961730 0.611200
0.972503 0.967163 0.604456
0.000000 0.158007 0.722103
0.313619 0.159045 0.716121
0.519799 0.152331 0.703410
0.748028 0.168887 0.685405
0.989578 0.360937 0.734386
0.000000 0.328817 0.706416
0.298283 0.332464 0.711223
0.505455 0.337179 0.697658
0.740444 0.348089 0.689845
0.984970 0.475608 0.732433
0.000000 0.484627 0.696330
0.278721 0.492164 0.706004
0.493751 0.491844 0.701366
0.727489 0.503380 0.692943
0.973999 0.593378 0.737346
0.000000 0.688411 0.709178
0.198367 0.697444 0.716716
0.454337 0.699123 0.713146
0.706310 0.701793 0.706310
0.951537 0.758297 0.745235
0.000000 0.957305 0.780041
0.000000 0.967453 0.774273
0.348486 0.971618 0.767010
0.659297 0.972519 0.762493
0.981552 0.973999 0.760250
0.330449 0.426505 1.000000
0.465354 0.431388 1.000000
0.598428 0.434501 1.000000
0.781704 0.443992 1.000000
0.976410 0.551827 1.000000
0.317571 0.515953 1.000000
0.456992 0.521401 1.000000
0.592966 0.521248 1.000000
0.778820 0.528054 1.000000
0.972869 0.615351 1.000000
0.290730 0.613230 1.000000
0.441886 0.615229 1.000000
0.580377 0.616052 1.000000
0.772396 0.620966 0.997971
0.969299 0.689830 1.000000
0.238941 0.761990 1.000000
0.408179 0.764904 1.000000
0.555886 0.762997 1.000000
0.754772 0.766384 0.997253
0.953994 0.812833 1.000000
0.230716 0.987243 1.000000
0.391089 0.991318 1.000000
0.539467 0.991348 1.000000
0.731868 0.991318 1.000000
1.000000 1.000000 1.000000
