app/src/main/assets/filters/Pentax_Kyushu.cube
# Created from Pentax_Kyushu.plut
LUT_3D_SIZE 33
DOMAIN_MIN 0.0 0.0 0.0
DOMAIN_MAX 1.0 1.0 1.0
0.000000 0.000000 0.000000
0.023529 0.000000 0.003922
0.050980 0.000000 0.000000
0.074510 0.003922 0.000000
0.098039 0.003922 0.000000
0.131212 0.000000 0.000000
0.153567 0.004196 0.000000
0.177035 0.003601 0.000000
0.204150 0.003220 0.000000
0.231006 0.007202 0.000000
0.257725 0.001984 0.000000
0.284565 0.005646 0.000000
0.311727 0.004990 0.000000
0.338872 0.008316 0.000000
0.366186 0.007477 0.000000
0.397391 0.010468 0.000000
0.428687 0.009308 0.000000
0.459983 0.012085 0.000000
0.491310 0.014740 0.000000
0.526604 0.017105 0.000000
0.557977 0.019516 0.000000
0.589380 0.021912 0.000000
0.620813 0.024430 0.000000
0.658824 0.018555 0.000000
0.690318 0.020447 0.000000
0.718929 0.043702 0.000000
0.756329 0.041321 0.000000
0.788891 0.063920 0.000000
0.821744 0.086473 0.000000
0.856886 0.103334 0.000000
0.894118 0.125490 0.000000
0.933333 0.141176 0.000000
0.994186 0.175631 0.000000
0.006928 0.016052 0.006928
0.033036 0.019333 0.005631
0.058793 0.018448 0.004746
0.079530 0.021592 0.003326
0.108812 0.019867 0.001602
0.132967 0.022568 0.000000
0.156313 0.021683 0.000000
0.183825 0.020386 0.000000
0.206683 0.024018 0.000000
0.233204 0.019135 0.000000
0.260075 0.018204 0.000000
0.286946 0.021393 0.000000
0.317998 0.020020 0.000000
0.341253 0.023072 0.000000
0.375235 0.015045 0.000000
0.399771 0.024186 0.000000
0.433738 0.014878 0.000000
0.465003 0.016754 0.000000
0.500237 0.018280 0.000000
0.529015 0.029740 0.000000
0.560418 0.032441 0.000000
0.594461 0.024033 0.000000
0.625940 0.025956 0.000000
0.661357 0.033524 0.000000
0.692760 0.042802 0.000000
0.723674 0.054261 0.000000
0.758343 0.065705 0.000000
0.790875 0.084703 0.000000
0.823697 0.105577 0.000000
0.858732 0.118608 0.000000
0.897673 0.135698 0.000000
0.933333 0.160784 0.000000
0.998505 0.199619 0.000000
0.004105 0.040635 0.008667
0.030732 0.039857 0.003326
0.056962 0.038926 0.006958
0.078065 0.042130 0.005539
0.107469 0.044724 0.003342
0.132662 0.043000 0.001511
0.157839 0.040726 0.000000
0.188037 0.041016 0.000412
0.215427 0.039063 0.000000
0.238285 0.042863 0.000000
0.261616 0.041459 0.000000
0.288869 0.039719 0.000000
0.315969 0.043168 0.000000
0.343328 0.041321 0.000000
0.374487 0.044419 0.000000
0.401801 0.047730 0.000000
0.435782 0.038376 0.000000
0.467079 0.041001 0.000000
0.499825 0.050889 0.000000
0.531243 0.053712 0.000000
0.562676 0.056458 0.000000
0.596735 0.050156 0.000000
0.628275 0.052308 0.000000
0.663691 0.060136 0.000000
0.694911 0.063661 0.000000
0.725597 0.074846 0.000000
0.757931 0.092882 0.000000
0.792691 0.102541 0.000000
0.827436 0.116777 0.000000
0.860410 0.135454 0.000000
0.899229 0.152773 0.000000
0.936507 0.173419 0.000000
1.000000 0.232715 0.007462
0.001419 0.060670 0.010544
0.022950 0.064179 0.009262
0.054322 0.063447 0.008255
0.075898 0.066850 0.006668
0.106050 0.065644 0.004990
0.131518 0.064332 0.003174
0.157000 0.066728 0.000381
0.186709 0.064164 0.002060
0.211765 0.061738 0.000000
0.238956 0.064790 0.000000
0.262638 0.063233 0.000000
0.289876 0.066331 0.000000
0.317433 0.064500 0.000000
0.348898 0.062318 0.000000
0.378729 0.061112 0.000000
0.406073 0.063981 0.000000
0.437430 0.066438 0.000000
0.468818 0.068849 0.000000
0.501854 0.071107 0.000000
0.533318 0.073686 0.000000
0.564828 0.076188 0.000000
0.598917 0.071611 0.000000
0.630411 0.079301 0.000000
0.665736 0.081575 0.000000
0.696513 0.091447 0.000000
0.727077 0.101839 0.000000
0.761715 0.106447 0.000000
0.794186 0.126543 0.000000
0.828946 0.135683 0.000000
0.861845 0.157916 0.000000
0.900633 0.170840 0.000000
0.937835 0.195239 0.000000
0.999969 0.261265 0.000000
0.000000 0.084092 0.013199
0.019440 0.084291 0.010315
0.050736 0.087755 0.008530
0.073533 0.087221 0.007599
0.099916 0.086381 0.010697
0.129763 0.089342 0.003342
0.155413 0.088014 0.005890
0.184894 0.090410 0.002701
0.210346 0.088487 0.000458
0.238880 0.086549 0.000000
0.262943 0.084977 0.000000
0.294469 0.087572 0.000000
0.318013 0.090730 0.000000
0.348135 0.086152 0.000000
0.379599 0.088518 0.000000
0.407111 0.091203 0.000000
0.438865 0.088426 0.000000
0.470375 0.090684 0.000000
0.505898 0.092485 0.000000
0.537484 0.094606 0.000000
0.569100 0.096651 0.000000
0.600763 0.098589 0.000000
0.632273 0.100862 0.000000
0.667124 0.109346 0.000000
0.697856 0.113634 0.000000
0.728374 0.123461 0.000000
0.762844 0.132937 0.000000
0.795514 0.146380 0.000000
0.830121 0.160052 0.000000
0.863127 0.176730 0.000000
0.901762 0.194003 0.000000
0.939040 0.213596 0.000000
1.000000 0.290089 0.012909
0.000000 0.107286 0.016953
0.014267 0.108370 0.009705
0.046052 0.111925 0.007782
0.074708 0.111345 0.011246
0.101350 0.114702 0.009094
0.127413 0.113970 0.007614
0.153231 0.113024 0.005936
0.178897 0.111833 0.004105
0.208347 0.114351 0.001175
0.237629 0.112551 0.000000
0.262150 0.111070 0.000000
0.290089 0.113832 0.000000
0.320333 0.110369 0.000000
0.346090 0.114824 0.000000
0.379904 0.115236 0.000000
0.407950 0.113008 0.000000
0.439643 0.115221 0.000000
0.471351 0.117403 0.000000
0.503075 0.119539 0.000000
0.538796 0.121233 0.000000
0.570535 0.123217 0.000000
0.602106 0.125490 0.000000
0.633371 0.128359 0.000000
0.667872 0.137102 0.000000
0.698619 0.141161 0.000000
0.729152 0.150378 0.000000
0.763638 0.159350 0.000000
0.796460 0.171466 0.000000
0.831159 0.180133 0.000000
0.865782 0.193347 0.000000
0.902800 0.213291 0.000000
0.940093 0.232456 0.000000
0.998505 0.310704 0.011109
0.000000 0.126696 0.020722
0.009110 0.132235 0.013031
0.037140 0.131868 0.012360
0.072358 0.131304 0.011353
0.098756 0.134890 0.009384
0.125124 0.134325 0.008118
0.150683 0.137667 0.005921
0.176516 0.136751 0.004379
0.206470 0.135409 0.002426
0.231662 0.138247 0.000015
0.260761 0.136690 0.000000
0.295277 0.133822 0.000000
0.319417 0.136660 0.000000
0.347555 0.139223 0.000000
0.380056 0.136873 0.000000
0.408011 0.139391 0.000000
0.439963 0.141573 0.000000
0.472190 0.138964 0.000000
0.508095 0.140673 0.000000
0.539956 0.142687 0.000000
0.571633 0.144930 0.000000
0.603021 0.147585 0.000000
0.634104 0.150774 0.000000
0.664576 0.159594 0.000000
0.699275 0.163272 0.000000
0.729839 0.172122 0.000000
0.764355 0.180774 0.000000
0.797299 0.192065 0.000000
0.831846 0.205158 0.000000
0.866453 0.218082 0.000000
0.903670 0.232944 0.000000
0.944900 0.251652 0.000000
0.997681 0.334752 0.020874
0.000000 0.149538 0.027802
0.006394 0.151873 0.013001
0.032715 0.155612 0.011566
0.067811 0.155352 0.010697
0.095628 0.155016 0.009781
0.121859 0.158587 0.007904
0.148226 0.158007 0.006699
0.174273 0.157275 0.005356
0.203952 0.160311 0.002976
0.229236 0.163363 0.000809
0.258900 0.161959 0.000000
0.288914 0.160082 0.001572
0.317983 0.162493 0.000000
0.346944 0.160632 0.000000
0.375265 0.163180 0.000000
0.407584 0.165408 0.000000
0.440192 0.163027 0.000000
0.472343 0.165133 0.000000
0.508415 0.166949 0.000000
0.540215 0.169284 0.000000
0.571740 0.171893 0.000000
0.602976 0.174884 0.000000
0.633921 0.178302 0.000000
0.668742 0.181674 0.000000
0.699336 0.190173 0.000000
0.729976 0.198657 0.000000
0.764569 0.206989 0.000000
0.797925 0.212848 0.000000
0.832456 0.225711 0.000000
0.867079 0.238468 0.000000
0.904234 0.257206 0.000000
0.945647 0.271183 0.000000
0.992828 0.354086 0.033783
0.000000 0.172992 0.031739
0.000046 0.175677 0.012314
0.024735 0.179553 0.011002
0.056794 0.179385 0.010407
0.091066 0.179095 0.009522
0.117952 0.182757 0.007843
0.144823 0.182300 0.006821
0.171206 0.181704 0.005676
0.201114 0.184924 0.003555
0.226535 0.188159 0.001602
0.256611 0.186938 0.000000
0.286534 0.185473 0.002960
0.315969 0.188022 0.000763
0.345464 0.186252 0.000000
0.374105 0.188830 0.000000
0.406760 0.191119 0.000000
0.439673 0.188891 0.000000
0.471931 0.191165 0.000000
0.503944 0.193561 0.000000
0.539712 0.195911 0.000000
0.571588 0.194018 0.000000
0.602319 0.201968 0.000000
0.633433 0.205264 0.000000
0.664500 0.208637 0.000000
0.699138 0.216663 0.000000
0.729885 0.224872 0.000000
0.766110 0.231052 0.000000
0.798108 0.238285 0.000000
0.832700 0.250889 0.000000
0.867338 0.263416 0.000000
0.905943 0.275807 0.000000
0.943481 0.289570 0.000000
0.991989 0.377142 0.044343
0.000000 0.196078 0.043137
0.000000 0.198718 0.020127
0.015106 0.203510 0.010849
0.048646 0.203372 0.010346
0.085420 0.203128 0.009598
0.113252 0.206851 0.008103
0.140826 0.206485 0.007233
0.172107 0.205921 0.006073
0.197910 0.209369 0.004349
0.224033 0.208621 0.008148
0.254307 0.207599 0.001801
0.283925 0.210513 0.004730
0.313893 0.209094 0.003235
0.343343 0.211688 0.001236
0.377234 0.209659 0.000000
0.405905 0.212284 0.000000
0.438499 0.214679 0.000000
0.470817 0.217166 0.000000
0.503334 0.215213 0.000000
0.539086 0.217762 0.000000
0.570535 0.220752 0.000000
0.601877 0.223850 0.000000
0.632746 0.231678 0.000000
0.667933 0.234791 0.000000
0.700694 0.236454 0.000000
0.731472 0.244511 0.000000
0.766186 0.252430 0.000000
0.798352 0.259129 0.000000
0.832975 0.271565 0.000000
0.867826 0.279545 0.000000
0.906279 0.296193 0.000000
0.946731 0.310857 0.000000
0.991302 0.395331 0.055787
0.000000 0.219608 0.047059
0.000000 0.221530 0.035538
0.003723 0.227451 0.011261
0.037598 0.227329 0.016037
0.072999 0.227161 0.015503
0.107546 0.230900 0.014069
0.136095 0.230594 0.013321
0.163607 0.230198 0.012497
0.194263 0.233661 0.010834
0.220737 0.233051 0.009842
0.250752 0.236286 0.007935
0.281086 0.235279 0.006531
0.311238 0.234089 0.004990
0.340841 0.236881 0.002625
0.370367 0.239536 0.005035
0.403998 0.237797 0.000000
0.436728 0.240375 0.000000
0.470451 0.242252 0.000000
0.501732 0.241352 0.000000
0.539117 0.242954 0.000000
0.569299 0.246983 0.000000
0.602380 0.248783 0.000000
0.633829 0.251835 0.000000
0.664790 0.259556 0.000000
0.700069 0.262608 0.000000
0.730968 0.270466 0.000000
0.766140 0.273701 0.000000
0.799573 0.282979 0.000000
0.834440 0.290837 0.000000
0.868055 0.300084 0.000000
0.906523 0.316579 0.000000
0.948089 0.329793 0.000000
0.986145 0.418235 0.065644
0.000000 0.247059 0.054902
0.000000 0.248707 0.042496
0.000000 0.250385 0.026978
0.024384 0.251286 0.017212
0.062150 0.255131 0.015946
0.100908 0.254917 0.015244
0.130739 0.254658 0.014527
0.158267 0.258350 0.012894
0.190326 0.257877 0.011780
0.216587 0.261402 0.009857
0.247532 0.260700 0.008469
0.278141 0.259846 0.006943
0.308034 0.262943 0.004456
0.338277 0.261769 0.007599
0.367895 0.264622 0.004837
0.402075 0.262959 0.002548
0.435538 0.265400 0.000000
0.468208 0.268070 0.000000
0.500603 0.270817 0.000000
0.533288 0.269200 0.000000
0.569284 0.271870 0.000000
0.601068 0.274815 0.000000
0.632715 0.277836 0.000000
0.664256 0.280934 0.000000
0.699290 0.288426 0.000000
0.730694 0.291676 0.000000
0.765652 0.299321 0.000000
0.799542 0.303822 0.000000
0.834485 0.311589 0.000000
0.869184 0.323766 0.000000
0.906706 0.336965 0.000000
0.944564 0.345800 0.000000
0.985382 0.435981 0.075578
0.000000 0.270588 0.058824
0.000000 0.272068 0.047349
0.000000 0.277440 0.038758
0.007828 0.279194 0.016159
0.048798 0.283070 0.019715
0.086595 0.282902 0.019074
0.123934 0.282673 0.018173
0.152544 0.286397 0.016114
0.185504 0.286000 0.014908
0.212924 0.285588 0.013764
0.243717 0.289006 0.011307
0.274662 0.288289 0.009796
0.305272 0.287449 0.008164
0.335180 0.290562 0.005310
0.365362 0.289448 0.003418
0.399268 0.292164 0.000015
0.432517 0.294942 0.000000
0.465949 0.293477 0.000000
0.498573 0.296284 0.000000
0.530968 0.299153 0.000000
0.567681 0.297520 0.000000
0.600931 0.299672 0.000000
0.632792 0.302617 0.000000
0.664088 0.310063 0.000000
0.699733 0.312978 0.000000
0.731273 0.316121 0.000000
0.765026 0.324712 0.000000
0.800397 0.327901 0.000000
0.834180 0.336645 0.000000
0.869200 0.344350 0.000000
0.907927 0.356298 0.000000
0.949722 0.364935 0.000000
0.984360 0.457984 0.083619
0.000000 0.298039 0.066667
0.000000 0.303258 0.056397
0.000000 0.304570 0.044373
0.000000 0.306249 0.026688
0.031754 0.310964 0.016403
0.075975 0.310826 0.015824
0.110994 0.310643 0.015137
0.147295 0.310384 0.014206
0.180407 0.314031 0.011948
0.208423 0.313664 0.010910
0.239673 0.317189 0.008392
0.271061 0.316564 0.012177
0.301930 0.315862 0.010544
0.332494 0.315023 0.008759
0.362371 0.318166 0.005692
0.392523 0.317098 0.003861
0.430640 0.319707 0.000290
0.463920 0.322499 0.000000
0.497383 0.321080 0.000000
0.530053 0.323919 0.000000
0.562493 0.326787 0.000000
0.598825 0.329534 0.000000
0.630884 0.332509 0.000000
0.662806 0.335531 0.000000
0.698619 0.338445 0.000000
0.730297 0.341588 0.000000
0.765530 0.349004 0.000000
0.799802 0.353079 0.000000
0.835218 0.356298 0.000000
0.870298 0.363912 0.000000
0.907927 0.376761 0.000000
0.949615 0.389471 0.000000
0.979294 0.475807 0.093370
0.000000 0.329412 0.074510
0.000000 0.330388 0.066835
0.000000 0.331762 0.054582
0.000000 0.337148 0.038590
0.005814 0.338796 0.018753
0.063783 0.338659 0.018097
0.102403 0.338506 0.017426
0.139696 0.342260 0.015229
0.174945 0.341970 0.014160
0.203662 0.341665 0.013138
0.236072 0.341238 0.011810
0.267140 0.344747 0.009064
0.298436 0.344121 0.013352
0.328740 0.347448 0.010590
0.359258 0.346654 0.008896
0.389105 0.349828 0.005936
0.427802 0.348547 0.003479
0.461585 0.351369 0.000031
0.495354 0.350042 0.000000
0.528313 0.352895 0.000000
0.561044 0.355764 0.000000
0.598123 0.354238 0.000000
0.630411 0.357168 0.000000
0.662531 0.360143 0.000000
0.698558 0.362997 0.000000
0.730419 0.366079 0.000000
0.765789 0.373388 0.000000
0.800259 0.377279 0.000000
0.835798 0.380423 0.000000
0.870970 0.387945 0.000000
0.908675 0.400595 0.000000
0.950652 0.408911 0.000000
0.978225 0.497429 0.107637
0.000000 0.356863 0.082353
0.000000 0.361654 0.075349
0.000000 0.362707 0.066148
0.000000 0.364248 0.050477
0.000000 0.366003 0.028443
0.039094 0.366491 0.020752
0.090791 0.370306 0.018647
0.126741 0.370138 0.017960
0.163989 0.369894 0.017029
0.193759 0.369635 0.016144
0.226352 0.373266 0.013703
0.263233 0.372778 0.012222
0.294759 0.372259 0.010803
0.325292 0.375677 0.008026
0.351720 0.375082 0.012848
0.386084 0.378256 0.009613
0.420630 0.377279 0.007492
0.459236 0.376013 0.004883
0.492943 0.378897 0.001205
0.526299 0.381750 0.000000
0.559777 0.380453 0.000000
0.596674 0.383169 0.000000
0.629191 0.386099 0.000000
0.661540 0.389059 0.000000
0.697810 0.391882 0.000000
0.729854 0.394919 0.000000
0.765805 0.397848 0.000000
0.800488 0.401556 0.000000
0.835843 0.408942 0.000000
0.871458 0.412085 0.000000
0.909270 0.424552 0.000000
0.951354 0.432700 0.000000
0.972808 0.519249 0.115297
0.000000 0.388235 0.090196
0.000000 0.389029 0.083757
0.000000 0.393896 0.075441
0.000000 0.395056 0.064012
0.000000 0.396872 0.042374
0.017060 0.398184 0.029786
0.079530 0.398047 0.022263
0.118563 0.397910 0.021592
0.156786 0.401663 0.026184
0.187655 0.401450 0.025315
0.221790 0.401129 0.024170
0.259236 0.400702 0.022736
0.290562 0.404257 0.020005
0.321920 0.403754 0.018509
0.352850 0.403159 0.016876
0.383001 0.406531 0.013779
0.417700 0.405676 0.011643
0.451728 0.408789 0.008057
0.490242 0.407584 0.005371
0.523919 0.410513 0.001556
0.557748 0.409262 0.000000
0.594934 0.412024 0.000000
0.627695 0.414939 0.000000
0.660273 0.417899 0.000000
0.696773 0.420722 0.000000
0.729015 0.423728 0.000000
0.765179 0.426627 0.000000
0.801205 0.429572 0.000000
0.835996 0.433234 0.000000
0.871412 0.440589 0.000000
0.909682 0.448600 0.000000
0.951904 0.456596 0.000000
0.971649 0.540581 0.128634
0.000000 0.419608 0.101961
0.000000 0.420188 0.097383
0.000000 0.421057 0.090135
0.000000 0.426169 0.079011
0.000000 0.427832 0.061265
0.000000 0.429618 0.036378
0.055375 0.429740 0.032517
0.101625 0.429618 0.031891
0.144244 0.429450 0.031037
0.180941 0.433204 0.028626
0.216083 0.432944 0.027512
0.249607 0.432624 0.026261
0.282094 0.432258 0.024903
0.317800 0.435752 0.021790
0.349004 0.435264 0.020188
0.379919 0.434668 0.026017
0.414343 0.437964 0.022522
0.448951 0.437140 0.020294
0.487175 0.440146 0.016236
0.521355 0.439124 0.013016
0.555032 0.442084 0.007950
0.588983 0.440848 0.004349
0.626596 0.443488 0.000000
0.659480 0.446387 0.000000
0.696315 0.449149 0.000000
0.728817 0.452094 0.000000
0.765255 0.454917 0.000000
0.800519 0.458305 0.000000
0.836591 0.461250 0.000000
0.872160 0.468513 0.000000
0.910964 0.472084 0.000000
0.953307 0.479911 0.000000
0.970428 0.561791 0.141543
0.000000 0.450980 0.109804
0.000000 0.451514 0.109606
0.000000 0.452308 0.103120
0.000000 0.453239 0.094972
0.000000 0.458595 0.080781
0.000000 0.460182 0.062379
0.032990 0.461387 0.044221
0.088823 0.461280 0.043641
0.135225 0.461128 0.042847
0.168322 0.464942 0.040589
0.210071 0.464683 0.039368
0.239582 0.464454 0.038346
0.277455 0.464103 0.036851
0.309636 0.463722 0.035401
0.340673 0.467292 0.032364
0.376211 0.466743 0.030472
0.410880 0.470115 0.034730
0.445640 0.469413 0.031876
0.480095 0.468635 0.020523
0.518303 0.471672 0.015122
0.552529 0.470665 0.019928
0.586145 0.473655 0.006271
0.624048 0.476387 0.008347
0.657984 0.475059 0.003311
0.691218 0.477867 0.000000
0.728161 0.480583 0.000000
0.764904 0.483345 0.000000
0.800504 0.486564 0.000000
0.836805 0.489448 0.000000
0.871962 0.492897 0.000000
0.911620 0.500008 0.000000
0.950500 0.503548 0.000000
0.964660 0.587381 0.159426
0.000000 0.482353 0.121569
0.000000 0.482719 0.122683
0.000000 0.483574 0.115892
0.000000 0.488167 0.110048
0.000000 0.489464 0.098299
0.000000 0.491142 0.080659
0.000000 0.492912 0.057740
0.073564 0.492927 0.055589
0.123781 0.496742 0.053651
0.160281 0.496605 0.053010
0.198474 0.496422 0.052155
0.233951 0.496193 0.051072
0.267750 0.495949 0.049683
0.305074 0.495598 0.047883
0.336355 0.499229 0.044388
0.372213 0.498772 0.042084
0.407645 0.498207 0.048127
0.442069 0.501625 0.034730
0.476799 0.500923 0.031662
0.510933 0.504158 0.035645
0.549477 0.503182 0.022599
0.583658 0.502205 0.018112
0.621714 0.505043 0.019455
0.655390 0.507927 0.012024
0.689372 0.506615 0.006546
0.727062 0.509178 0.000000
0.759960 0.512047 0.000000
0.800076 0.514977 0.000000
0.836652 0.517784 0.000000
0.872099 0.521080 0.000000
0.911971 0.528115 0.000000
0.955123 0.531365 0.000000
0.963317 0.608377 0.171618
0.000000 0.513725 0.137255
0.000000 0.517876 0.135546
0.000000 0.518654 0.129412
0.000000 0.519402 0.123232
0.000000 0.520409 0.114488
0.000000 0.521904 0.099977
0.000000 0.523796 0.078477
0.039994 0.524620 0.066392
0.103166 0.528496 0.064240
0.143923 0.528389 0.063539
0.184787 0.528237 0.062608
0.222065 0.528038 0.068818
0.261875 0.527779 0.067536
0.295277 0.527520 0.066270
0.331701 0.531151 0.063188
0.363500 0.530800 0.061601
0.399268 0.530327 0.059602
0.438453 0.533715 0.055467
0.473365 0.533120 0.052399
0.508019 0.532418 0.048905
0.546365 0.535592 0.042176
0.580713 0.534707 0.037522
0.614557 0.537789 0.030076
0.652995 0.536568 0.024094
0.686717 0.539467 0.015976
0.725032 0.537987 0.008835
0.758709 0.540673 0.000000
0.795102 0.543633 0.000000
0.836103 0.546227 0.000000
0.872755 0.549004 0.000000
0.912398 0.552117 0.000000
0.951385 0.559594 0.000000
0.957275 0.633753 0.189105
0.000000 0.545098 0.152941
0.000000 0.549233 0.151415
0.000000 0.549844 0.146715
0.000000 0.550515 0.141482
0.000000 0.551583 0.132753
0.000000 0.552758 0.122316
0.000000 0.554467 0.105425
0.000000 0.556222 0.084886
0.076417 0.560250 0.081102
0.131594 0.560143 0.080430
0.175387 0.560006 0.079652
0.214252 0.559838 0.078767
0.250492 0.559640 0.084596
0.289555 0.559380 0.076493
0.327337 0.559060 0.081834
0.358755 0.562753 0.078660
0.394888 0.562356 0.076600
0.430488 0.561883 0.074296
0.469551 0.565301 0.069657
0.504479 0.564675 0.066743
0.539178 0.563958 0.063508
0.577554 0.567117 0.057389
0.611948 0.566232 0.053239
0.650126 0.569192 0.045029
0.684352 0.568093 0.038911
0.722423 0.570825 0.028428
0.756222 0.573617 0.018372
0.794491 0.572015 0.000000
0.835920 0.574502 0.000000
0.872923 0.577173 0.000000
0.912947 0.580087 0.000000
0.952239 0.587396 0.000000
0.955398 0.658778 0.205966
0.000000 0.580392 0.168627
0.000000 0.580484 0.167941
0.000000 0.581064 0.163714
0.000000 0.581796 0.162448
0.000000 0.582620 0.156115
0.000000 0.583886 0.145922
0.000000 0.589105 0.134188
0.000000 0.590982 0.109972
0.034531 0.592065 0.102953
0.108186 0.591974 0.102296
0.157595 0.591852 0.101534
0.199359 0.591730 0.100649
0.242481 0.591531 0.099504
0.277852 0.591333 0.098375
0.315694 0.595071 0.095476
0.348623 0.594812 0.094041
0.389960 0.594400 0.091997
0.426001 0.593973 0.089967
0.460990 0.597498 0.086122
0.500633 0.596872 0.083284
0.535576 0.596231 0.080369
0.569802 0.599573 0.075074
0.608713 0.598672 0.070817
0.643183 0.597772 0.066575
0.681422 0.600717 0.058854
0.720012 0.599466 0.052567
0.753887 0.602335 0.043214
0.792004 0.604944 0.031312
0.834699 0.603128 0.009003
0.872557 0.605539 0.000000
0.913878 0.607950 0.000000
0.953536 0.615045 0.000000
0.949187 0.683925 0.222843
0.000000 0.611765 0.188235
0.000000 0.611765 0.188235
0.000000 0.612406 0.183856
0.000000 0.612970 0.179828
0.000000 0.617609 0.178622
0.000000 0.618738 0.170123
0.000000 0.619944 0.160418
0.000000 0.621668 0.145464
0.000000 0.623713 0.119341
0.075181 0.623865 0.122438
0.135515 0.623758 0.121782
0.181872 0.623636 0.121035
0.227939 0.623468 0.120058
0.270085 0.623270 0.118944
0.308934 0.627024 0.116350
0.342596 0.626780 0.115114
0.380011 0.626459 0.113497
0.421149 0.626047 0.111391
0.456443 0.629633 0.107759
0.496452 0.629053 0.105150
0.531685 0.628489 0.102571
0.566659 0.627832 0.099779
0.605295 0.631052 0.094530
0.639933 0.630213 0.091081
0.678340 0.633249 0.084840
0.712795 0.632242 0.080552
0.751049 0.635065 0.072938
0.789685 0.633677 0.066743
0.832090 0.636103 0.044450
0.870283 0.638560 0.030884
0.912734 0.640681 0.015473
0.953429 0.643336 0.000000
0.947173 0.708751 0.239170
0.000000 0.647059 0.211765
0.000000 0.647059 0.211765
0.000000 0.647486 0.209003
0.000000 0.648081 0.205005
0.000000 0.648737 0.200504
0.000000 0.649760 0.193301
0.000000 0.650858 0.185107
0.000000 0.652430 0.172686
0.000000 0.654017 0.158907
0.020066 0.655772 0.141939
0.107256 0.655695 0.141314
0.167819 0.655573 0.140490
0.209567 0.659449 0.138354
0.254582 0.659266 0.143175
0.296040 0.659052 0.136065
0.335622 0.658808 0.134722
0.373938 0.658503 0.139254
0.411063 0.658183 0.131548
0.451392 0.661753 0.128054
0.487404 0.661295 0.126009
0.527443 0.660700 0.123491
0.562707 0.660090 0.121035
0.601572 0.663371 0.116411
0.636439 0.662623 0.113451
0.675090 0.665705 0.115206
0.709697 0.664775 0.111803
0.748104 0.667689 0.105837
0.786786 0.666423 0.093172
0.829725 0.664866 0.078065
0.867948 0.667430 0.069230
0.910399 0.669688 0.058930
0.952743 0.671855 0.032319
0.940795 0.733684 0.261326
0.000000 0.678431 0.235294
0.000000 0.678431 0.231373
0.000000 0.678752 0.233326
0.000000 0.679225 0.230335
0.000000 0.679896 0.226032
0.000000 0.680827 0.219959
0.000000 0.681819 0.213077
0.000000 0.683268 0.202731
0.000000 0.688609 0.191501
0.000000 0.690593 0.174792
0.059937 0.691661 0.164324
0.140124 0.691554 0.163607
0.189639 0.691447 0.162875
0.238025 0.691279 0.161944
0.281834 0.691096 0.160891
0.322942 0.690867 0.159716
0.362387 0.690593 0.164172
0.399466 0.694301 0.155673
0.441367 0.693904 0.153872
0.482444 0.693431 0.151873
0.518441 0.692943 0.149935
0.557885 0.696361 0.146151
0.593240 0.695750 0.143832
0.632731 0.694957 0.141009
0.667231 0.698222 0.143267
0.706294 0.697261 0.133410
0.745388 0.696162 0.136553
0.783764 0.699077 0.124468
0.826886 0.697612 0.120241
0.865110 0.700298 0.106600
0.907652 0.702708 0.099306
0.950454 0.700847 0.083955
0.938125 0.762478 0.282994
0.000000 0.709804 0.258824
0.000000 0.709804 0.258824
0.000000 0.713954 0.257496
0.000000 0.714397 0.258808
0.000000 0.714992 0.255207
0.000000 0.715831 0.245975
0.000000 0.716732 0.244343
0.000000 0.717845 0.232746
0.000000 0.719387 0.226444
0.000000 0.721233 0.212894
0.000000 0.723369 0.195666
0.096757 0.723552 0.192966
0.166110 0.723430 0.192264
0.219471 0.723293 0.191440
0.266163 0.723110 0.190524
0.307866 0.726925 0.188327
0.348714 0.726680 0.187198
0.392767 0.726360 0.185763
0.435447 0.725978 0.184192
0.472541 0.725597 0.182650
0.513573 0.725093 0.180774
0.548898 0.728618 0.177691
0.589044 0.727977 0.175463
0.628840 0.727245 0.173053
0.663447 0.730571 0.169528
0.702846 0.729656 0.167056
0.737713 0.728771 0.164706
