app/src/main/assets/filters/Pentax_Fuyuno.cube
# Created from Pentax_Fuyuno.plut
LUT_3D_SIZE 5
DOMAIN_MIN 0.0 0.0 0.0
DOMAIN_MAX 1.0 1.0 1.0
0.000000 0.000000 0.000000
0.329412 0.003922 0.000000
0.681102 0.002029 0.000000
0.915694 0.051041 0.000000
1.000000 0.376471 0.074510
0.000000 0.274510 0.027451
0.325399 0.298573 0.000000
0.682872 0.319707 0.000000
0.921874 0.381323 0.000000
1.000000 0.661143 0.212589
0.000000 0.631373 0.113725
0.275074 0.645090 0.000000
0.668177 0.656641 0.000000
0.920806 0.676265 0.000000
1.000000 0.814969 0.337438
0.000000 0.890196 0.345098
0.083207 0.900023 0.281010
0.631006 0.901381 0.283207
0.907164 0.904356 0.289906
0.997696 0.945907 0.538094
0.000000 0.996078 0.741176
0.000000 0.998672 0.737148
0.586374 1.000000 0.735454
0.897612 0.998123 0.731594
1.000000 1.000000 0.749020
0.000000 0.014649 0.305119
0.387167 0.000000 0.300633
0.703807 0.000000 0.304509
0.938399 0.000000 0.301350
1.000000 0.471611 0.524102
0.000000 0.330068 0.358267
0.370550 0.352270 0.361425
0.724300 0.357366 0.353277
0.955245 0.406439 0.339345
1.000000 0.684657 0.572869
0.000000 0.655055 0.442802
0.310842 0.669764 0.425727
0.691127 0.675868 0.422782
0.933700 0.693080 0.419425
1.000000 0.826505 0.623606
0.000000 0.894118 0.596078
0.199298 0.907149 0.571679
0.657694 0.907652 0.573144
0.913756 0.907256 0.575875
0.998566 0.945342 0.706783
0.000000 0.996078 0.819608
0.003601 1.000000 0.816617
0.609842 1.000000 0.813382
0.901884 0.997818 0.810651
1.000000 1.000000 0.823529
0.000000 0.066819 0.670924
0.442893 0.000000 0.698634
0.743282 0.000000 0.669413
0.968612 0.000000 0.668742
1.000000 0.546304 0.769696
0.000000 0.408331 0.682277
0.417273 0.419547 0.711498
0.741695 0.429831 0.694438
0.955184 0.477989 0.679728
1.000000 0.711925 0.784207
0.000000 0.686946 0.706920
0.369070 0.699443 0.713420
0.714824 0.701610 0.706020
0.937575 0.719570 0.702586
1.000000 0.837980 0.801526
0.000000 0.902190 0.768536
0.280491 0.914168 0.767147
0.689448 0.910063 0.759762
0.918166 0.914382 0.762524
0.998550 0.948836 0.836179
0.000000 0.996078 0.890196
0.157763 1.000000 0.890059
0.636957 1.000000 0.887556
0.905928 0.997528 0.885267
1.000000 1.000000 0.894118
0.000000 0.253452 0.989319
0.546822 0.256352 0.975799
0.790677 0.261769 0.956252
0.972702 0.330068 0.937697
1.000000 0.652384 0.936400
0.000000 0.550988 0.943297
0.520226 0.557076 0.945464
0.772442 0.565286 0.934585
0.957061 0.595178 0.928405
1.000000 0.766644 0.939864
0.000000 0.748714 0.925292
0.491127 0.752209 0.932540
0.754421 0.755428 0.926329
0.941573 0.766476 0.924651
1.000000 0.865064 0.942870
0.000000 0.920027 0.932631
0.448875 0.923552 0.937362
0.736446 0.924041 0.932677
0.929610 0.925414 0.929610
0.997940 0.956374 0.948058
0.000000 0.996338 0.960998
0.341405 1.000000 0.963607
0.709804 1.000000 0.960784
0.921569 1.000000 0.960784
1.000000 1.000000 0.960784
0.605859 0.686137 1.000000
0.744930 0.693538 1.000000
0.856214 0.700832 1.000000
0.959747 0.723644 1.000000
0.996078 0.827451 1.000000
0.600092 0.780652 1.000000
0.739773 0.784161 1.000000
0.855451 0.791440 1.000000
0.959533 0.802396 1.000000
0.996078 0.878431 1.000000
0.588800 0.867506 1.000000
0.733547 0.867079 1.000000
0.849958 0.870405 1.000000
0.954940 0.877302 1.000000
0.996078 0.921569 1.000000
0.572549 0.952941 1.000000
0.725490 0.952941 1.000000
0.847059 0.952941 1.000000
0.952941 0.956863 1.000000
0.996078 0.972549 1.000000
0.486275 1.000000 1.000000
0.682353 1.000000 1.000000
0.823529 1.000000 1.000000
0.949020 1.000000 1.000000
1.000000 1.000000 1.000000
