app/src/main/assets/filters/Pentax_Harubeni.cube
# Created from Pentax_Harubeni.plut
LUT_3D_SIZE 9
DOMAIN_MIN 0.0 0.0 0.0
DOMAIN_MAX 1.0 1.0 1.0
0.019608 0.000000 0.000000
0.113725 0.000000 0.000000
0.231373 0.000000 0.000000
0.356863 0.000000 0.000000
0.498039 0.007843 0.000000
0.631373 0.023529 0.000000
0.764706 0.047059 0.000000
0.894118 0.090196 0.000000
1.000000 0.180392 0.000000
0.019608 0.070588 0.000000
0.109804 0.078431 0.000000
0.227451 0.082353 0.000000
0.356863 0.090196 0.000000
0.494118 0.101961 0.000000
0.631373 0.117647 0.000000
0.766766 0.136706 0.000000
0.895750 0.181064 0.000000
1.000000 0.278431 0.007843
0.009171 0.173800 0.000000
0.105348 0.181613 0.000000
0.224704 0.188235 0.000000
0.357397 0.189868 0.000000
0.496513 0.198871 0.000000
0.639582 0.210986 0.000000
0.771969 0.234409 0.000000
0.901305 0.277501 0.000000
1.000000 0.364706 0.027451
0.000000 0.291325 0.024399
0.073426 0.297475 0.000000
0.215015 0.304250 0.000000
0.349767 0.306172 0.000000
0.496315 0.315084 0.000000
0.635889 0.324269 0.000000
0.774350 0.345739 0.000000
0.899229 0.376822 0.000000
1.000000 0.443137 0.050980
0.000000 0.424247 0.058701
0.000778 0.432181 0.000000
0.192538 0.435447 0.000000
0.334890 0.438315 0.000000
0.486397 0.443854 0.000000
0.633722 0.452873 0.000000
0.770397 0.462028 0.000000
0.901747 0.483436 0.000000
1.000000 0.537255 0.082353
0.000000 0.565209 0.116869
0.000000 0.567514 0.092287
0.115694 0.576059 0.006012
0.300221 0.579095 0.000000
0.468833 0.580850 0.000000
0.622919 0.581888 0.000000
0.768231 0.590341 0.000000
0.902983 0.602808 0.000000
1.000000 0.635294 0.133333
0.000000 0.698421 0.201099
0.000000 0.703700 0.190539
0.000000 0.709575 0.134936
0.254063 0.710521 0.120928
0.435889 0.713329 0.113329
0.604913 0.715145 0.102037
0.755291 0.720043 0.085084
0.899733 0.723842 0.071153
1.000000 0.745098 0.219608
0.000000 0.831678 0.331685
0.000000 0.832181 0.332906
0.000000 0.836225 0.309758
0.152941 0.841840 0.271107
0.392599 0.844968 0.267048
0.577157 0.843107 0.265064
0.740902 0.844266 0.265995
0.885756 0.849165 0.277165
1.000000 0.854902 0.345098
0.000000 0.957107 0.520668
0.000000 0.961028 0.520668
0.000000 0.962814 0.514137
0.000000 0.968994 0.489525
0.344564 0.969665 0.482994
0.548440 0.968444 0.481849
0.716732 0.966766 0.480613
0.871473 0.968124 0.488960
1.000000 0.968627 0.525490
0.031373 0.000000 0.070588
0.134173 0.000000 0.072160
0.248524 0.000000 0.068666
0.375265 0.000000 0.070222
0.508721 0.000000 0.069017
0.643626 0.000000 0.065858
0.779690 0.000000 0.060166
0.913207 0.000000 0.047501
1.000000 0.196078 0.086275
0.019913 0.087419 0.087419
0.128298 0.093141 0.088777
0.249470 0.094789 0.083543
0.383185 0.083162 0.075807
0.529442 0.065293 0.068391
0.670283 0.038117 0.053300
0.809247 0.023011 0.032822
0.938048 0.091493 0.013336
1.000000 0.290196 0.101961
0.000000 0.190402 0.104173
0.112276 0.198199 0.100298
0.237812 0.203754 0.095583
0.373297 0.201541 0.088563
0.519997 0.202365 0.082231
0.665126 0.203983 0.068284
0.804013 0.219593 0.049302
0.933288 0.252247 0.029725
1.000000 0.376471 0.121569
0.000000 0.307164 0.123659
0.076402 0.314214 0.110384
0.224201 0.316945 0.106752
0.363088 0.321889 0.100084
0.507225 0.324163 0.096620
0.657145 0.332097 0.078523
0.793072 0.343679 0.069551
0.927932 0.367590 0.052949
1.000000 0.454902 0.145098
0.000000 0.435996 0.160998
0.000000 0.444800 0.130816
0.194980 0.448798 0.128405
0.343832 0.451148 0.124254
0.495216 0.455924 0.117418
0.643091 0.459022 0.108949
0.784710 0.468971 0.095674
0.921706 0.481819 0.082750
1.000000 0.541176 0.180392
0.000000 0.569131 0.212940
0.000000 0.575921 0.200259
0.139223 0.583734 0.171588
0.315755 0.582803 0.169024
0.477638 0.584833 0.169238
0.627741 0.589776 0.156176
0.771633 0.593439 0.151537
0.909789 0.604105 0.143511
1.000000 0.643137 0.235294
0.000000 0.702342 0.296147
0.000000 0.708019 0.287098
0.000000 0.714412 0.249622
0.267292 0.714214 0.250294
0.446723 0.716945 0.246143
0.610681 0.718730 0.240497
0.761257 0.719524 0.233509
0.900923 0.727474 0.228901
1.000000 0.749020 0.309804
0.000000 0.831678 0.406577
0.000000 0.836408 0.403098
0.000000 0.840742 0.383505
0.186557 0.845579 0.357259
0.404547 0.844678 0.354650
0.583139 0.846662 0.353292
0.741985 0.847883 0.358282
0.886748 0.848875 0.358450
1.000000 0.858824 0.415686
0.000000 0.961028 0.560006
0.000000 0.961028 0.563928
0.000000 0.963149 0.557198
0.000000 0.969726 0.534386
0.355978 0.969482 0.531685
0.553628 0.968246 0.530495
0.721782 0.970382 0.529808
0.871931 0.967956 0.532647
1.000000 0.968627 0.568627
0.029831 0.008972 0.187945
0.147478 0.009583 0.189166
0.271901 0.000000 0.181949
0.392630 0.000000 0.175875
0.520745 0.000000 0.177081
0.654994 0.000000 0.174517
0.787442 0.000000 0.170733
0.918059 0.000000 0.165560
1.000000 0.211765 0.192157
0.021363 0.102266 0.203845
0.142351 0.107622 0.205234
0.265797 0.109071 0.200366
0.396201 0.103410 0.198230
0.538552 0.085512 0.185260
0.675029 0.077668 0.180346
0.809735 0.076280 0.170993
0.938537 0.122560 0.165545
1.000000 0.305882 0.207843
0.000000 0.210254 0.215152
0.126909 0.213443 0.213611
0.254276 0.218601 0.214160
0.386023 0.220661 0.212924
0.529000 0.218082 0.205417
0.669795 0.221317 0.196918
0.804410 0.238499 0.187839
0.933715 0.271290 0.182437
1.000000 0.388235 0.227451
0.000000 0.319142 0.233265
0.095003 0.329656 0.231540
0.236774 0.332235 0.228794
0.376089 0.337041 0.224109
0.515999 0.339590 0.222797
0.661967 0.343847 0.211124
0.797772 0.355764 0.207965
0.928511 0.380240 0.202853
1.000000 0.462745 0.250980
0.000000 0.447990 0.264057
0.008331 0.453086 0.252232
0.209949 0.460227 0.249790
0.357702 0.462440 0.251301
0.504860 0.463172 0.247166
0.647974 0.470558 0.241382
0.789914 0.476402 0.239033
0.922408 0.493858 0.229206
1.000000 0.549020 0.286275
0.000000 0.577050 0.315694
0.000000 0.584512 0.302800
0.167041 0.587304 0.293996
0.330800 0.590280 0.291585
0.482963 0.592340 0.288136
0.633433 0.593179 0.283146
0.776883 0.600870 0.280690
0.914946 0.611582 0.272206
1.000000 0.647059 0.329412
0.000000 0.706264 0.383001
0.000000 0.712337 0.375113
0.053574 0.718486 0.349752
0.284367 0.717861 0.348150
0.456947 0.720531 0.344808
0.616220 0.722271 0.345006
0.762432 0.723110 0.339666
0.902022 0.731060 0.332280
1.000000 0.749020 0.392157
0.000000 0.835599 0.469581
0.000000 0.836683 0.465919
0.000000 0.841367 0.448905
0.208148 0.849332 0.430518
0.414923 0.848356 0.432792
0.593591 0.846189 0.432197
0.747387 0.847486 0.431937
0.891569 0.852491 0.435630
1.000000 0.858824 0.478431
0.000000 0.961028 0.599329
0.000000 0.961135 0.599069
0.000000 0.963500 0.596445
0.051591 0.970077 0.576455
0.366918 0.969299 0.575570
0.563165 0.968017 0.574319
0.726726 0.970108 0.573770
0.876555 0.967712 0.576059
1.000000 0.968627 0.607843
0.018402 0.022660 0.322164
0.157733 0.018326 0.318547
0.288045 0.007218 0.312673
0.407721 0.000000 0.306645
0.533547 0.000000 0.300359
0.664042 0.000000 0.296178
0.792981 0.000000 0.292149
0.928511 0.000000 0.288853
1.000000 0.231373 0.309804
0.006394 0.124468 0.332753
0.151904 0.125521 0.330327
0.279759 0.126650 0.330648
0.408026 0.117357 0.325048
0.546929 0.108492 0.317037
0.683772 0.099077 0.308293
0.814267 0.111009 0.299672
0.943267 0.146807 0.300069
1.000000 0.325490 0.325490
0.000000 0.228855 0.335988
0.129610 0.236362 0.343862
0.267918 0.237110 0.340566
0.401572 0.239155 0.335180
0.536812 0.237842 0.328511
0.673808 0.242664 0.320668
0.808896 0.255772 0.317037
0.938430 0.288716 0.312917
1.000000 0.400000 0.341176
0.000000 0.338918 0.347524
0.106416 0.344930 0.350057
0.251423 0.347234 0.347402
0.387793 0.351934 0.347463
0.524056 0.354757 0.342092
0.666209 0.359548 0.335592
0.802197 0.371832 0.333013
0.933379 0.392035 0.325093
1.000000 0.474510 0.356863
0.000000 0.459968 0.371695
0.035843 0.464500 0.367346
0.227893 0.467521 0.365393
0.370733 0.469612 0.362509
0.513405 0.474357 0.362722
0.657115 0.477607 0.357641
0.790387 0.488121 0.351446
0.923384 0.501381 0.348257
1.000000 0.556863 0.384314
0.000000 0.585138 0.406302
0.000000 0.592782 0.398413
0.182666 0.594842 0.396216
0.344396 0.597696 0.393942
0.496300 0.599649 0.390677
0.638239 0.600580 0.386419
0.782116 0.604166 0.380758
0.916045 0.614984 0.378317
1.000000 0.650980 0.419608
0.000000 0.710231 0.457771
0.000000 0.716808 0.455024
0.099001 0.722164 0.439353
0.304997 0.721447 0.437812
0.466514 0.724071 0.434882
0.625605 0.725719 0.430869
0.767514 0.726574 0.426184
0.907134 0.734447 0.424567
1.000000 0.752941 0.470588
0.000000 0.839506 0.528649
0.000000 0.840864 0.529000
0.000000 0.846098 0.514122
0.229068 0.849058 0.502846
0.430640 0.851820 0.500832
0.598795 0.849729 0.499977
0.752239 0.851057 0.499275
0.892317 0.852171 0.502403
1.000000 0.862745 0.537255
0.000000 0.961028 0.638651
0.000000 0.961318 0.637980
0.000000 0.964172 0.631128
0.110582 0.969909 0.615763
0.377493 0.969116 0.619211
0.567666 0.971771 0.617685
0.731579 0.969833 0.617395
0.876921 0.967529 0.619104
1.000000 0.968627 0.643137
0.005356 0.042817 0.467659
0.165484 0.037919 0.469276
0.303029 0.025528 0.465339
0.429099 0.000122 0.459831
0.551934 0.000000 0.446235
0.679408 0.000000 0.438712
0.808972 0.000000 0.437324
0.938582 0.000000 0.430915
1.000000 0.262745 0.439216
0.000000 0.150011 0.470741
0.158022 0.150317 0.478157
0.293980 0.151690 0.474357
0.420996 0.148806 0.469062
0.557336 0.144549 0.461418
0.690761 0.142382 0.452705
0.817777 0.152209 0.444099
0.942885 0.193820 0.439734
1.000000 0.349020 0.450980
0.000000 0.255558 0.472892
0.139864 0.258518 0.483391
0.286183 0.263035 0.479545
0.414343 0.265583 0.474556
0.546883 0.265400 0.468040
0.680552 0.271901 0.460273
0.812024 0.286748 0.452201
0.938277 0.315526 0.448447
1.000000 0.419608 0.462745
0.000000 0.362341 0.474739
0.113451 0.367788 0.484993
0.270848 0.369772 0.482155
0.401419 0.370504 0.478325
0.534463 0.377768 0.472648
0.673198 0.383230 0.466255
0.805982 0.391760 0.463996
0.933593 0.412512 0.456504
1.000000 0.490196 0.474510
0.000000 0.475944 0.484337
0.065385 0.483650 0.493584
0.245136 0.486519 0.491554
0.385031 0.488533 0.488670
0.524804 0.489296 0.484855
0.660716 0.492866 0.480049
0.799069 0.499016 0.474174
0.928130 0.512581 0.471748
1.000000 0.568627 0.490196
0.000000 0.597147 0.509438
0.000000 0.601419 0.511818
0.210483 0.606165 0.509758
0.360449 0.608927 0.507576
0.508751 0.606790 0.504799
0.650782 0.611627 0.500389
0.786496 0.615427 0.495415
0.920638 0.626322 0.489067
1.000000 0.662745 0.517647
0.000000 0.718318 0.548165
0.000000 0.721569 0.543740
0.143297 0.729717 0.536065
0.322942 0.728923 0.534615
0.483803 0.731411 0.531792
0.634165 0.733074 0.528145
0.772091 0.733913 0.528374
0.907698 0.737896 0.523827
1.000000 0.760784 0.552941
0.000000 0.843473 0.599390
0.000000 0.845411 0.599786
0.000000 0.851270 0.587915
0.258350 0.852689 0.578210
0.445762 0.855192 0.581216
0.608270 0.853117 0.580011
0.757015 0.854520 0.578820
0.896864 0.855726 0.576806
1.000000 0.866667 0.607843
0.000000 0.961028 0.689784
0.000000 0.965515 0.688746
0.000000 0.968795 0.682521
0.158267 0.973571 0.671992
0.397375 0.972763 0.671015
0.576928 0.971496 0.669703
0.736416 0.969512 0.669413
0.881331 0.971160 0.670680
1.000000 0.972549 0.694118
0.000000 0.083940 0.620783
0.191745 0.078950 0.621485
0.327169 0.072816 0.617762
0.447990 0.058412 0.612558
0.573495 0.025574 0.605447
0.703975 0.000000 0.596216
0.827649 0.012955 0.591348
0.949340 0.087556 0.582071
1.000000 0.305882 0.572549
0.000000 0.191714 0.615610
0.177539 0.195361 0.625116
0.321889 0.192859 0.621210
0.443488 0.192294 0.616083
0.568841 0.193393 0.608682
0.695216 0.197116 0.600336
0.823239 0.210163 0.591440
0.945510 0.245182 0.582650
1.000000 0.380392 0.580392
0.000000 0.298085 0.610330
0.159869 0.300374 0.625040
0.314137 0.304875 0.620722
0.432364 0.304173 0.616373
0.562417 0.309636 0.609689
0.689250 0.313695 0.602625
0.817853 0.325414 0.594858
0.941161 0.350301 0.587015
1.000000 0.450980 0.588235
0.000000 0.393652 0.607980
0.139345 0.398138 0.622644
0.300954 0.399863 0.619532
0.424979 0.400732 0.615808
0.551446 0.404318 0.610712
0.682918 0.410559 0.604532
0.812558 0.419760 0.598047
0.936950 0.440940 0.595224
1.000000 0.513725 0.596078
0.000000 0.499977 0.611643
0.107408 0.506462 0.622919
0.283803 0.509041 0.620600
0.410819 0.507012 0.618204
0.542733 0.511940 0.614191
0.671107 0.515846 0.609644
0.801999 0.522469 0.604227
0.931563 0.536355 0.597696
1.000000 0.588235 0.607843
0.000000 0.613397 0.621820
0.004700 0.618082 0.628214
0.249592 0.621225 0.626551
0.388296 0.619898 0.624796
0.523445 0.621775 0.621881
0.662058 0.626566 0.622126
0.794171 0.630442 0.617472
0.924910 0.637369 0.611902
1.000000 0.674510 0.623529
0.000000 0.730617 0.647028
0.000000 0.734417 0.646647
0.190234 0.737087 0.645396
0.353002 0.740154 0.643503
0.499947 0.738598 0.641321
0.642023 0.740261 0.637964
0.780438 0.741009 0.633936
0.911192 0.749325 0.634302
1.000000 0.768627 0.650980
0.000000 0.847700 0.685740
0.000000 0.850431 0.683314
0.026749 0.856794 0.676478
0.304005 0.859770 0.675151
0.469612 0.858350 0.673838
0.621485 0.860288 0.672023
0.765774 0.857832 0.670436
0.896773 0.863279 0.667750
1.000000 0.870588 0.686275
0.000000 0.964935 0.748745
0.000000 0.966079 0.751354
0.000000 0.970047 0.746380
0.218555 0.973220 0.736843
0.426841 0.972351 0.735760
0.590127 0.975036 0.738476
0.745495 0.972930 0.738293
0.885863 0.970794 0.738689
1.000000 0.972549 0.752941
0.031815 0.155367 0.770245
0.236606 0.153277 0.767224
0.371283 0.152331 0.762814
0.481056 0.150027 0.757290
0.595239 0.143664 0.750484
0.714260 0.152224 0.741772
0.834928 0.165728 0.737133
0.953948 0.209506 0.728023
1.000000 0.360784 0.705882
0.002914 0.260624 0.767025
0.223392 0.265782 0.763729
0.361044 0.264790 0.759426
0.471397 0.267262 0.754360
0.590127 0.267491 0.747860
0.709407 0.275471 0.740185
0.830335 0.291737 0.736370
0.950317 0.316716 0.728435
1.000000 0.431373 0.709804
0.000000 0.356344 0.753353
0.209201 0.358190 0.762844
0.354726 0.363149 0.754131
0.465370 0.363210 0.754467
0.579950 0.366262 0.749081
0.699748 0.372198 0.742672
0.826062 0.380667 0.735882
0.946899 0.401572 0.728756
1.000000 0.490196 0.713725
0.000000 0.440940 0.750027
0.194568 0.444129 0.757046
0.343191 0.445853 0.753902
0.454948 0.447150 0.750530
0.574258 0.451347 0.745937
0.694728 0.454353 0.741009
0.817319 0.464500 0.735195
0.938949 0.477806 0.728939
1.000000 0.545098 0.717647
0.000000 0.536126 0.744778
0.174426 0.536843 0.754894
0.329122 0.539284 0.752605
0.442374 0.541360 0.750057
0.562921 0.542489 0.746777
0.688426 0.546502 0.742626
0.812100 0.549432 0.737972
0.933944 0.564034 0.731945
1.000000 0.611765 0.725490
0.000000 0.638148 0.742443
0.121416 0.641016 0.752804
0.303944 0.643931 0.751003
0.426566 0.642512 0.749325
0.549004 0.644358 0.751034
0.676158 0.645289 0.747616
0.804898 0.649256 0.743191
0.927855 0.656550 0.738109
1.000000 0.690196 0.737255
0.000000 0.743618 0.756344
0.000000 0.752453 0.762768
0.256718 0.752132 0.762219
0.395483 0.751080 0.760784
0.527153 0.753491 0.758343
0.661082 0.755123 0.755200
0.791516 0.755962 0.751537
0.918318 0.760555 0.747616
1.000000 0.780392 0.752941
0.000000 0.856443 0.776745
0.000000 0.860136 0.777234
0.178973 0.867613 0.776547
0.356603 0.866621 0.775357
0.501488 0.865217 0.773800
0.642954 0.867247 0.771588
0.777905 0.865034 0.769421
0.905089 0.866499 0.771130
1.000000 0.878431 0.780392
0.000000 0.969192 0.823285
0.000000 0.971237 0.822339
0.000000 0.976577 0.819333
0.291539 0.976608 0.818235
0.464271 0.975692 0.817105
0.613062 0.974304 0.815930
0.758679 0.976242 0.815015
0.894255 0.974258 0.814710
1.000000 0.976471 0.823529
0.168627 0.278737 0.907729
0.323186 0.278477 0.903883
0.431617 0.282216 0.899199
0.524010 0.281025 0.894820
0.621485 0.287663 0.888914
0.729335 0.292546 0.882155
0.843427 0.309804 0.874784
0.956405 0.335531 0.867597
1.000000 0.443137 0.835294
0.162951 0.363806 0.898421
0.313573 0.365026 0.895109
0.427451 0.365591 0.891295
0.519554 0.370260 0.887037
0.617166 0.373922 0.882139
0.725246 0.380285 0.876600
0.839979 0.389532 0.870466
0.953384 0.410986 0.868376
1.000000 0.498039 0.839216
0.147784 0.438178 0.893889
0.303197 0.440146 0.891051
0.417945 0.441596 0.887800
0.515084 0.442664 0.884535
0.612818 0.447150 0.880613
0.721309 0.450294 0.875975
0.836515 0.460426 0.870695
0.950240 0.478508 0.864546
1.000000 0.545098 0.839216
0.131487 0.507378 0.885481
0.297230 0.509697 0.887633
0.408118 0.507698 0.885618
0.505821 0.509361 0.882887
0.604211 0.510323 0.879850
0.717479 0.514000 0.875883
0.833127 0.520760 0.871077
0.947173 0.535271 0.865324
1.000000 0.592157 0.843137
0.100664 0.583902 0.885863
0.277089 0.586740 0.884184
0.395941 0.585168 0.882628
0.494682 0.587335 0.880507
0.598291 0.588785 0.877867
0.707713 0.593454 0.874266
0.824002 0.597040 0.870024
0.938628 0.608164 0.864851
1.000000 0.650980 0.847059
0.005768 0.672236 0.881651
0.242908 0.675410 0.880232
0.379828 0.674113 0.878782
0.480842 0.676707 0.876844
0.585855 0.678737 0.874418
0.700877 0.679896 0.871366
0.818067 0.680171 0.867811
0.932982 0.688029 0.867369
1.000000 0.721569 0.854902
0.000000 0.770153 0.878538
0.192203 0.775647 0.883497
0.346624 0.774701 0.882277
0.458152 0.773571 0.880903
0.570382 0.775967 0.878660
0.687724 0.773648 0.875959
0.805585 0.774868 0.871977
0.923980 0.779980 0.867613
1.000000 0.800000 0.862745
0.000000 0.870924 0.880110
0.091829 0.878843 0.884886
0.300999 0.878035 0.883726
0.430472 0.877028 0.882353
0.550530 0.875715 0.880644
0.671748 0.878065 0.878325
0.793423 0.876081 0.876127
0.912306 0.877760 0.873442
1.000000 0.890196 0.878431
0.000000 0.974746 0.902800
0.000000 0.978851 0.904173
0.235569 0.980346 0.904189
0.376410 0.979782 0.903395
0.515541 0.978729 0.902220
0.649165 0.981109 0.900618
0.780148 0.979385 0.899336
0.902464 0.977722 0.898360
1.000000 0.980392 0.901961
0.403037 0.466560 1.000000
0.479072 0.468971 1.000000
0.544778 0.471229 1.000000
0.609781 0.473121 1.000000
0.683070 0.474159 1.000000
0.768933 0.481987 1.000000
0.863981 0.487907 1.000000
0.963668 0.500679 0.998718
1.000000 0.592157 0.956863
0.397818 0.519158 1.000000
0.470405 0.521828 1.000000
0.541588 0.520104 1.000000
0.607126 0.522194 1.000000
0.680919 0.523476 1.000000
0.763119 0.527718 1.000000
0.863111 0.533761 1.000000
0.961227 0.548867 0.995712
1.000000 0.627451 0.960784
0.387457 0.563668 1.000000
0.465873 0.566384 1.000000
0.537545 0.568856 1.000000
0.599634 0.567147 1.000000
0.674052 0.568658 1.000000
0.761212 0.572961 1.000000
0.861006 0.576165 0.997726
0.959121 0.587686 0.993164
1.000000 0.654902 0.960784
0.380209 0.608103 1.000000
0.455467 0.611002 1.000000
0.528771 0.609552 1.000000
0.595682 0.611917 1.000000
0.670848 0.613565 1.000000
0.758785 0.614374 0.998322
0.858167 0.622644 0.994369
0.956634 0.630335 0.990188
1.000000 0.686275 0.960784
0.369207 0.664561 1.000000
0.445365 0.667674 1.000000
0.519280 0.666499 1.000000
0.586465 0.669169 1.000000
0.666651 0.667033 1.000000
0.754788 0.668269 0.998444
0.850370 0.672953 0.995087
0.952270 0.681651 0.989441
1.000000 0.729412 0.964706
0.338216 0.733562 1.000000
0.425681 0.732677 0.999863
0.503578 0.735576 0.998352
0.574075 0.734325 0.997131
0.655848 0.736614 0.995117
0.744854 0.738415 0.992309
0.844968 0.739757 0.987640
0.946441 0.745174 0.982391
1.000000 0.780392 0.964706
0.302098 0.814176 0.997528
0.404547 0.813214 0.995911
0.486198 0.816205 0.993652
0.563134 0.815076 0.991867
0.646143 0.813672 0.989685
0.735149 0.815991 0.986587
0.838956 0.817838 0.983246
0.936538 0.819547 0.980301
1.000000 0.843137 0.968627
0.276417 0.900908 0.989075
0.384100 0.900282 0.988174
0.469764 0.899611 0.987228
0.545724 0.898863 0.986206
0.632441 0.897841 0.984863
0.725185 0.900511 0.982864
0.829084 0.898772 0.980835
0.930755 0.900908 0.982132
1.000000 0.913725 0.972549
0.180392 0.987961 0.989441
0.323537 0.987396 0.988647
0.431907 0.986648 0.987640
0.515465 0.985916 0.986679
0.608667 0.988830 0.985107
0.706493 0.987686 0.983764
0.814023 0.986343 0.982269
0.922560 0.985046 0.985061
1.000000 0.988235 0.984314
