app/src/main/assets/filters/Pentax_Katen.cube
# Created from Pentax_Katen.plut
LUT_3D_SIZE 9
DOMAIN_MIN 0.0 0.0 0.0
DOMAIN_MAX 1.0 1.0 1.0
0.000000 0.000000 0.000000
0.054902 0.000000 0.000000
0.160784 0.000000 0.000000
0.301961 0.003922 0.000000
0.478431 0.007843 0.000000
0.658824 0.011765 0.000000
0.807843 0.027451 0.000000
0.929412 0.050980 0.000000
1.000000 0.187472 0.020508
0.000000 0.043137 0.003922
0.055680 0.047150 0.000000
0.163439 0.049149 0.000000
0.306935 0.047425 0.000000
0.483192 0.055192 0.000000
0.663920 0.061524 0.000000
0.812146 0.082933 0.000000
0.931167 0.128099 0.000000
1.000000 0.336385 0.044984
0.000000 0.129412 0.011765
0.047272 0.134859 0.001953
0.162112 0.141299 0.000000
0.307301 0.146014 0.000000
0.485832 0.153201 0.000000
0.666804 0.164935 0.000000
0.814496 0.189105 0.000000
0.933471 0.236820 0.000000
1.000000 0.452888 0.073960
0.000000 0.250980 0.027451
0.015625 0.261585 0.000000
0.150195 0.268894 0.000000
0.302007 0.274968 0.000000
0.484092 0.283543 0.000000
0.662226 0.296590 0.000000
0.814878 0.323201 0.000000
0.935714 0.358785 0.000000
1.000000 0.556405 0.104692
0.000000 0.423529 0.047059
0.000000 0.429313 0.019593
0.118975 0.438499 0.000000
0.287541 0.441627 0.000000
0.473777 0.451713 0.000000
0.659037 0.461295 0.000000
0.813825 0.479332 0.000000
0.935225 0.506401 0.000000
1.000000 0.657923 0.119020
0.000000 0.607843 0.090196
0.000000 0.612741 0.076524
0.033127 0.620310 0.000000
0.251621 0.624033 0.000000
0.458717 0.626703 0.000000
0.649363 0.632609 0.000000
0.807446 0.642451 0.000000
0.931151 0.656840 0.000000
0.999084 0.761868 0.173892
0.000000 0.768627 0.172549
0.000000 0.769223 0.166659
0.000000 0.775860 0.136553
0.154818 0.781369 0.039200
0.414801 0.784176 0.030213
0.629786 0.785840 0.020127
0.800412 0.786938 0.010636
0.929595 0.792172 0.000000
0.988281 0.862821 0.303136
0.000000 0.898039 0.321569
0.000000 0.898314 0.319860
0.000000 0.903944 0.313085
0.013809 0.910704 0.264469
0.384237 0.909895 0.263447
0.608835 0.912215 0.262501
0.785870 0.909850 0.267201
0.923522 0.911696 0.268544
0.980606 0.946242 0.452552
0.000000 0.988235 0.564706
0.000000 0.988235 0.564706
0.000000 0.989059 0.561990
0.000000 0.992920 0.548623
0.338506 0.998428 0.540520
0.587182 0.997024 0.541360
0.773312 0.995636 0.541329
0.917845 0.994247 0.541558
0.995483 0.993423 0.549752
0.003616 0.003616 0.050446
0.074067 0.002106 0.049149
0.184054 0.000000 0.048768
0.321675 0.000000 0.047379
0.497597 0.000000 0.047028
0.666697 0.000000 0.049943
0.817212 0.000000 0.046220
0.938033 0.000000 0.033387
1.000000 0.228397 0.160296
0.000000 0.055680 0.064134
0.071153 0.062577 0.062577
0.182971 0.057893 0.063081
0.335210 0.050065 0.054047
0.513069 0.011826 0.047028
0.686122 0.000000 0.039765
0.835935 0.000000 0.029953
0.960754 0.015229 0.000000
1.000000 0.360708 0.189578
0.000000 0.145571 0.077195
0.057969 0.150500 0.077058
0.173495 0.156985 0.074083
0.327062 0.159350 0.067765
0.510491 0.155886 0.058137
0.694163 0.145022 0.033906
0.851469 0.148531 0.003967
0.961151 0.211963 0.000000
1.000000 0.472892 0.218372
0.000000 0.270588 0.101961
0.010681 0.281880 0.082872
0.158770 0.285283 0.079927
0.314260 0.290883 0.072435
0.499275 0.300053 0.061616
0.687510 0.303914 0.035767
0.845045 0.311009 0.005478
0.958358 0.353262 0.000000
1.000000 0.568353 0.250431
0.000000 0.439216 0.133333
0.000000 0.445274 0.118456
0.097398 0.453086 0.087861
0.292561 0.459876 0.074205
0.480873 0.464546 0.067399
0.671504 0.470237 0.045487
0.829419 0.483391 0.017365
0.953506 0.507576 0.000000
1.000000 0.665919 0.276326
0.000000 0.615686 0.188235
0.000000 0.620783 0.179843
0.000000 0.629953 0.135256
0.247837 0.635111 0.112413
0.456947 0.637201 0.112779
0.652079 0.641672 0.103777
0.816526 0.645274 0.101595
0.944472 0.657404 0.076310
1.000000 0.765515 0.319112
0.000000 0.772549 0.278431
0.000000 0.773281 0.273930
0.000000 0.780529 0.256580
0.188525 0.785031 0.220783
0.431052 0.787747 0.223606
0.635492 0.789471 0.215778
0.801495 0.790631 0.218357
0.934722 0.795834 0.205097
0.989181 0.862501 0.415381
0.000000 0.901961 0.415686
0.000000 0.902342 0.413931
0.000000 0.904311 0.404700
0.094041 0.910460 0.372519
0.396414 0.909606 0.376135
0.619440 0.911803 0.375601
0.791135 0.913436 0.374304
0.924224 0.915404 0.378286
0.981125 0.946044 0.528908
0.000000 0.988235 0.615686
0.000000 0.988235 0.615686
0.000000 0.993103 0.617029
0.000000 0.997498 0.604273
0.354788 0.998184 0.600153
0.591974 0.996857 0.600412
0.777890 0.995438 0.600168
0.918181 0.994110 0.596002
0.995636 0.997269 0.607935
0.007599 0.006561 0.146166
0.083803 0.008820 0.145113
0.204776 0.000000 0.145800
0.344411 0.000000 0.144488
0.508721 0.000000 0.146242
0.676829 0.000000 0.145068
0.823011 0.000000 0.143221
0.941100 0.000000 0.134035
1.000000 0.258824 0.308949
0.000000 0.070771 0.163272
0.080629 0.073487 0.168170
0.198810 0.072633 0.164981
0.347738 0.066514 0.163394
0.522286 0.032883 0.154330
0.699886 0.000000 0.145571
0.845502 0.000000 0.144839
0.969055 0.000000 0.120638
1.000000 0.380835 0.335317
0.000000 0.165286 0.181613
0.066529 0.169940 0.183108
0.189151 0.176120 0.184817
0.343938 0.178347 0.179644
0.519493 0.176440 0.175021
0.698939 0.169329 0.163058
0.851804 0.177127 0.150362
0.973693 0.209735 0.132891
1.000000 0.484840 0.357076
0.000000 0.290410 0.207538
0.020432 0.297536 0.201602
0.174838 0.304723 0.203525
0.331106 0.310079 0.198749
0.512520 0.315236 0.194888
0.692302 0.320134 0.184009
0.845502 0.328435 0.173007
0.966659 0.362737 0.151598
1.000000 0.574197 0.372992
0.000000 0.451118 0.246632
0.000000 0.461402 0.237934
0.121096 0.468635 0.222827
0.306279 0.475288 0.223423
0.494224 0.479835 0.217258
0.680323 0.485786 0.208942
0.834165 0.495186 0.205875
0.956100 0.518456 0.183246
1.000000 0.669810 0.402380
0.000000 0.627451 0.301961
0.000000 0.628946 0.295598
0.000000 0.638315 0.274174
0.265827 0.642588 0.266697
0.471839 0.644572 0.263371
0.661799 0.649058 0.258701
0.821668 0.652796 0.259007
0.945174 0.665171 0.245457
1.000000 0.769314 0.442496
0.000000 0.776471 0.384314
0.000000 0.777356 0.380667
0.000000 0.785229 0.363210
0.211612 0.788632 0.349065
0.442206 0.791302 0.347295
0.645609 0.792935 0.345052
0.806851 0.794171 0.342885
0.935683 0.799481 0.331655
0.989548 0.866224 0.506508
0.000000 0.901961 0.501961
0.000000 0.902388 0.500465
0.000000 0.908583 0.492348
0.129030 0.914137 0.470344
0.412085 0.913222 0.473777
0.625208 0.911437 0.469123
0.796384 0.913085 0.471122
0.924941 0.915160 0.469459
0.981506 0.945861 0.596109
0.000000 0.992157 0.666667
0.000000 0.992203 0.666560
0.000000 0.993301 0.664073
0.000000 0.998001 0.652766
0.370382 0.997940 0.650950
0.600885 0.996658 0.650767
0.782330 0.995270 0.650340
0.918441 0.993973 0.646006
0.995850 0.997147 0.653605
0.000000 0.012818 0.279698
0.087892 0.011597 0.289769
0.219028 0.004959 0.286015
0.366995 0.000000 0.276280
0.523095 0.000000 0.275212
0.686778 0.000000 0.276753
0.825956 0.000000 0.274632
0.948516 0.000000 0.266880
1.000000 0.287419 0.452811
0.000000 0.085435 0.299901
0.082933 0.087175 0.307973
0.212100 0.090135 0.305241
0.367773 0.079561 0.299794
0.535607 0.057313 0.301030
0.709895 0.000000 0.291341
0.853330 0.000000 0.283986
0.977768 0.000000 0.277882
1.000000 0.400778 0.467567
0.000000 0.184680 0.314687
0.064637 0.192813 0.327581
0.206119 0.194553 0.325399
0.359823 0.196521 0.316823
0.532525 0.195071 0.318135
0.707836 0.195758 0.308156
0.856748 0.201297 0.303090
0.974365 0.235264 0.294667
1.000000 0.500649 0.485908
0.000000 0.314153 0.334142
0.019562 0.320943 0.339223
0.186603 0.327901 0.341466
0.350637 0.332876 0.332876
0.525063 0.334081 0.335195
0.701061 0.339681 0.330846
0.849989 0.349233 0.322484
0.967178 0.379782 0.310460
1.000000 0.585992 0.496620
0.000000 0.470817 0.368399
0.000000 0.477302 0.365423
0.138613 0.484031 0.360098
0.323644 0.486412 0.361624
0.507576 0.490776 0.360876
0.685313 0.497002 0.354314
0.838987 0.506661 0.347982
0.956847 0.530266 0.342336
1.000000 0.677577 0.519829
0.000000 0.635462 0.419226
0.000000 0.637079 0.415473
0.019333 0.646891 0.399619
0.286671 0.649928 0.397772
0.486030 0.651789 0.394736
0.667079 0.656352 0.395163
0.822553 0.660288 0.391257
0.945937 0.672770 0.379004
1.000000 0.773053 0.542687
0.000000 0.780392 0.486275
0.000000 0.785412 0.487236
0.000000 0.789639 0.475013
0.237201 0.792157 0.465126
0.466300 0.794644 0.463233
0.650996 0.796414 0.461036
0.812024 0.797635 0.458747
0.936660 0.803006 0.456687
0.989731 0.869932 0.591882
0.000000 0.905882 0.580392
0.000000 0.906462 0.578912
0.000000 0.909255 0.571496
0.172168 0.913832 0.557595
0.431937 0.912856 0.556512
0.630549 0.914946 0.556268
0.801205 0.916640 0.557351
0.929458 0.918822 0.558556
0.981613 0.949645 0.658732
0.000000 0.992157 0.713725
0.000000 0.992294 0.709560
0.000000 0.993515 0.711299
0.027619 0.998627 0.697261
0.385504 0.997696 0.697292
0.609659 0.996460 0.700938
0.786694 0.995087 0.700359
0.922744 0.993790 0.695857
0.996048 0.997024 0.703304
0.000000 0.029068 0.456748
0.086030 0.019455 0.476509
0.235615 0.009476 0.473899
0.387228 0.000000 0.462028
0.545510 0.000000 0.451759
0.698955 0.000000 0.450828
0.838544 0.000000 0.447898
0.955413 0.000000 0.453208
1.000000 0.327749 0.596414
0.000000 0.107912 0.469978
0.083284 0.110613 0.491112
0.232120 0.108873 0.488563
0.384894 0.103212 0.485008
0.559792 0.084520 0.478614
0.724041 0.040589 0.474327
0.869368 0.029038 0.465003
0.983612 0.084688 0.465751
1.000000 0.432502 0.607477
0.000000 0.215595 0.482017
0.056641 0.222644 0.503258
0.220005 0.223926 0.501686
0.375845 0.225681 0.498131
0.555642 0.224826 0.491203
0.719768 0.224048 0.487007
0.864714 0.238132 0.477852
0.978149 0.273457 0.478676
1.000000 0.521645 0.617609
0.000000 0.341588 0.497383
0.000000 0.347570 0.515312
0.199512 0.354345 0.514611
0.366598 0.354864 0.511116
0.543771 0.360159 0.504601
0.712734 0.362432 0.501244
0.853361 0.378164 0.488838
0.970611 0.409384 0.481483
1.000000 0.601572 0.623346
0.000000 0.494530 0.518379
0.000000 0.500862 0.522362
0.156130 0.506996 0.525704
0.340459 0.509163 0.522866
0.526711 0.513329 0.517800
0.697185 0.515740 0.516350
0.842405 0.530327 0.510018
0.956985 0.545876 0.509361
1.000000 0.689158 0.635706
0.000000 0.647349 0.552850
0.000000 0.653147 0.552010
0.079042 0.658091 0.548943
0.308354 0.660990 0.546990
0.507271 0.662638 0.543740
0.679805 0.667262 0.544060
0.831128 0.671336 0.540108
0.950408 0.684062 0.532235
1.000000 0.780606 0.653178
0.000000 0.788357 0.599847
0.000000 0.789715 0.598032
0.000000 0.798444 0.590661
0.269444 0.799451 0.587121
0.484230 0.801892 0.585061
0.664103 0.803632 0.582620
0.816602 0.804974 0.584497
0.937026 0.810498 0.577996
0.990021 0.869566 0.684779
0.000000 0.909804 0.666667
0.000000 0.910658 0.665263
0.000000 0.913832 0.659846
0.212680 0.917388 0.652293
0.455482 0.916304 0.651148
0.644297 0.918303 0.650721
0.806027 0.916197 0.655085
0.929931 0.918517 0.650996
0.981842 0.949416 0.729427
0.000000 0.992157 0.764706
0.000000 0.992416 0.764385
0.000000 0.994034 0.762310
0.122820 0.998306 0.756222
0.409644 0.997375 0.755962
0.618326 0.996246 0.755138
0.790997 0.994873 0.758526
0.922911 0.993606 0.757977
0.996216 0.996857 0.761151
0.000000 0.057115 0.641810
0.098085 0.035828 0.672847
0.263584 0.021714 0.671611
0.416815 0.000000 0.666499
0.573373 0.000000 0.649195
0.718334 0.000000 0.645045
0.852689 0.000000 0.640482
0.971664 0.000000 0.633707
1.000000 0.375662 0.732113
0.000000 0.150149 0.645808
0.075929 0.149569 0.680140
0.258701 0.146960 0.678874
0.409949 0.142992 0.675990
0.580056 0.132815 0.669810
0.733288 0.121569 0.666209
0.871153 0.131579 0.657221
0.985367 0.179263 0.644007
1.000000 0.468742 0.736507
0.000000 0.262211 0.654047
0.023850 0.267643 0.689387
0.243961 0.268345 0.687663
0.399313 0.270542 0.683787
0.570581 0.272114 0.677272
0.728298 0.275349 0.669169
0.865660 0.293523 0.660243
0.979583 0.324971 0.651957
1.000000 0.549065 0.739254
0.000000 0.380728 0.657572
0.000000 0.389654 0.682704
0.225238 0.392111 0.686946
0.390280 0.396628 0.683131
0.563165 0.398306 0.677165
0.721202 0.402228 0.674281
0.858503 0.419379 0.666194
0.972335 0.447257 0.654414
1.000000 0.620935 0.745754
0.000000 0.522179 0.669642
0.000000 0.528328 0.680903
0.194965 0.537438 0.689601
0.371389 0.539376 0.686580
0.551904 0.539452 0.681880
0.706279 0.546807 0.675914
0.848783 0.553506 0.674372
0.963455 0.573724 0.664286
1.000000 0.700557 0.751247
0.000000 0.667185 0.687083
0.000000 0.669429 0.690547
0.140703 0.676936 0.700191
0.345113 0.679683 0.693614
0.530236 0.681285 0.690272
0.690517 0.686137 0.690532
0.833890 0.690593 0.686458
0.949676 0.699474 0.682811
1.000000 0.787991 0.762783
0.000000 0.800366 0.717678
0.000000 0.802136 0.717769
0.017517 0.807401 0.717586
0.307698 0.810529 0.716091
0.509743 0.808911 0.714092
0.676326 0.810742 0.711452
0.824750 0.812131 0.713024
0.940841 0.817838 0.710979
0.989548 0.877241 0.781094
0.000000 0.913863 0.760693
0.000000 0.915053 0.759960
0.000000 0.919051 0.757168
0.259022 0.920836 0.754849
0.483665 0.919463 0.753735
0.661891 0.921538 0.752575
0.814542 0.919631 0.751934
0.934112 0.922072 0.755261
0.981765 0.953140 0.808103
0.000000 0.992157 0.831373
0.000000 0.992615 0.831113
0.000000 0.994842 0.829801
0.193500 0.997879 0.827451
0.441611 0.997024 0.826764
0.635340 0.995911 0.825772
0.799359 0.994583 0.824796
0.926894 0.997360 0.823804
0.996307 0.996674 0.823056
0.000000 0.113222 0.811688
0.131334 0.100954 0.847669
0.312291 0.096773 0.846143
0.458000 0.076997 0.843046
0.609049 0.052323 0.837247
0.751507 0.018097 0.829770
0.882216 0.029786 0.820920
0.988968 0.111772 0.812024
1.000000 0.443305 0.848005
0.000000 0.223514 0.809537
0.104799 0.222904 0.849683
0.301198 0.221057 0.847135
0.449088 0.220447 0.843336
0.605234 0.219333 0.836988
0.747570 0.221012 0.829236
0.877775 0.239384 0.820203
0.984085 0.278630 0.811368
1.000000 0.524117 0.853849
0.000000 0.332433 0.807126
0.066743 0.337316 0.847257
0.287327 0.337957 0.844556
0.442725 0.340780 0.840421
0.599786 0.340719 0.834287
0.741680 0.352651 0.830732
0.872023 0.364874 0.822446
0.973953 0.398596 0.809888
1.000000 0.592233 0.852979
0.000000 0.443534 0.809049
0.015595 0.447883 0.845945
0.270588 0.449790 0.843412
0.429801 0.454475 0.839384
0.588022 0.457343 0.833555
0.730724 0.463462 0.826780
0.865049 0.477867 0.818936
0.967453 0.502632 0.812116
1.000000 0.652064 0.856046
0.000000 0.565606 0.811139
0.000000 0.572122 0.834043
0.250156 0.575509 0.838132
0.414893 0.577325 0.834897
0.579156 0.577783 0.830259
0.721935 0.585840 0.824537
0.852750 0.593576 0.818906
0.959869 0.610376 0.813428
1.000000 0.723690 0.858427
0.000000 0.695155 0.819226
0.000000 0.698100 0.829801
0.214588 0.703471 0.836149
0.393957 0.702052 0.834165
0.564767 0.703670 0.830732
0.708400 0.708888 0.826642
0.843824 0.713710 0.822461
0.951705 0.722988 0.818708
0.998795 0.803632 0.863447
0.000000 0.816464 0.832471
0.000000 0.819120 0.836301
0.167010 0.822309 0.840909
0.368322 0.821347 0.839536
0.546761 0.823682 0.837064
0.695674 0.825681 0.834394
0.831632 0.827344 0.831632
0.943435 0.833356 0.829191
0.988998 0.884871 0.872404
0.000000 0.918166 0.855131
0.000000 0.924041 0.855848
0.086748 0.928557 0.857252
0.330480 0.927764 0.856336
0.524605 0.926360 0.854871
0.683207 0.928618 0.857389
0.822492 0.927031 0.851911
0.937835 0.929625 0.850584
0.985641 0.956802 0.886473
0.000000 0.992279 0.898054
0.000000 0.993271 0.898207
0.000000 0.996628 0.898558
0.271916 0.997375 0.898192
0.486305 0.996567 0.897261
0.660548 0.999405 0.895964
0.811582 0.998184 0.894865
0.930922 0.997101 0.893828
0.996307 0.996429 0.897246
0.000000 0.234440 0.967453
0.229114 0.234226 0.988235
0.381659 0.231357 0.985199
0.515007 0.230488 0.980880
0.645533 0.231785 0.974807
0.776257 0.236179 0.962814
0.889891 0.263798 0.958251
0.984497 0.300389 0.945342
1.000000 0.534524 0.944228
0.000000 0.340230 0.961898
0.213504 0.339498 0.981720
0.370504 0.343587 0.978454
0.505303 0.346258 0.973770
0.636439 0.347127 0.968170
0.771145 0.355474 0.960113
0.884932 0.374365 0.951781
0.979202 0.409094 0.943618
1.000000 0.598199 0.943954
0.000000 0.438254 0.954528
0.195010 0.439933 0.977111
0.363607 0.440986 0.974075
0.499428 0.445274 0.969406
0.630762 0.448402 0.963851
0.765743 0.454719 0.952239
0.879179 0.474601 0.948852
0.973877 0.500069 0.941878
1.000000 0.647166 0.951202
0.000000 0.530495 0.944503
0.185382 0.529992 0.966827
0.352270 0.531960 0.963958
0.489082 0.537270 0.959701
0.625345 0.537423 0.954833
0.759976 0.545052 0.948455
0.869780 0.557382 0.942412
0.968795 0.578698 0.936095
1.000000 0.698939 0.950683
0.000000 0.625620 0.938384
0.157671 0.630915 0.958465
0.339574 0.633433 0.955917
0.477790 0.635447 0.952789
0.614282 0.636683 0.948882
0.753536 0.641154 0.943816
0.863462 0.650172 0.938842
0.962966 0.663539 0.933974
1.000000 0.758526 0.954086
0.000000 0.731884 0.937896
0.111162 0.738705 0.953948
0.320195 0.737652 0.952361
0.465705 0.740169 0.949783
0.602731 0.742184 0.946670
0.738064 0.743694 0.938781
0.856779 0.749111 0.935027
0.956619 0.758831 0.931411
0.996185 0.827771 0.950179
0.000000 0.837644 0.935546
0.048188 0.841642 0.946593
0.290517 0.840970 0.945556
0.444846 0.843900 0.943679
0.591974 0.842374 0.941650
0.727382 0.844480 0.938903
0.846357 0.846540 0.935775
0.949630 0.852964 0.932937
0.992203 0.896513 0.950683
0.000000 0.931044 0.943389
0.000000 0.934920 0.948653
0.254780 0.935348 0.949187
0.420706 0.934447 0.947936
0.577920 0.933165 0.946227
0.716945 0.935668 0.944198
0.842527 0.934356 0.942718
0.941344 0.937194 0.941344
0.985306 0.960525 0.956390
0.000000 0.996811 0.961379
0.000000 0.999145 0.963210
0.221378 1.000000 0.963775
0.382574 1.000000 0.963531
0.543297 0.999939 0.963058
0.694057 0.998917 0.961883
0.832074 0.997772 0.960678
0.934844 0.996841 0.959670
1.000000 0.996078 0.960784
0.389944 0.493523 1.000000
0.482765 0.497108 1.000000
0.562982 0.500633 1.000000
0.634989 0.504097 1.000000
0.718883 0.511284 1.000000
0.802777 0.522240 1.000000
0.890791 0.536858 1.000000
0.967025 0.559289 1.000000
0.995697 0.676036 1.000000
0.384436 0.556634 1.000000
0.481666 0.560250 1.000000
0.562112 0.563821 1.000000
0.634272 0.567330 1.000000
0.714321 0.574624 1.000000
0.802380 0.581643 1.000000
0.890578 0.592370 1.000000
0.966995 0.610864 1.000000
0.995727 0.711467 1.000000
0.382605 0.615793 1.000000
0.476249 0.619440 1.000000
0.557061 0.619104 1.000000
0.633433 0.622629 1.000000
0.713695 0.626017 1.000000
0.801938 0.633082 1.000000
0.890318 0.643839 1.000000
0.966949 0.658381 1.000000
0.995743 0.746899 1.000000
0.376364 0.667079 1.000000
0.470573 0.670756 1.000000
0.555779 0.670436 1.000000
0.628351 0.674006 1.000000
0.712856 0.677394 1.000000
0.801312 0.684504 1.000000
0.889967 0.691325 1.000000
0.966873 0.705852 1.000000
0.995758 0.778363 1.000000
0.368490 0.730251 1.000000
0.463645 0.733974 1.000000
0.549508 0.733669 1.000000
0.622446 0.737285 1.000000
0.711498 0.736721 1.000000
0.796231 0.743893 1.000000
0.889326 0.750668 1.000000
0.966720 0.757244 1.000000
0.992157 0.823529 1.000000
0.360922 0.804669 1.000000
0.462715 0.804562 1.000000
0.543282 0.804425 1.000000
0.619333 0.808209 1.000000
0.707332 0.807935 1.000000
0.795178 0.811505 1.000000
0.883177 0.814893 1.000000
0.959442 0.822080 1.000000
0.992157 0.874510 1.000000
0.337957 0.879698 1.000000
0.441794 0.879606 1.000000
0.531197 0.883436 1.000000
0.608057 0.883299 1.000000
0.696666 0.883055 1.000000
0.789014 0.886610 1.000000
0.881651 0.889937 1.000000
0.958785 0.893034 1.000000
0.992157 0.925490 1.000000
0.298512 0.951156 1.000000
0.411322 0.951125 1.000000
0.507301 0.951049 1.000000
0.589395 0.950958 1.000000
0.682460 0.954788 1.000000
0.775830 0.954452 1.000000
0.874571 0.953628 0.999268
0.956680 0.956710 0.998062
0.988235 0.972549 1.000000
0.278431 1.000000 1.000000
0.384314 1.000000 1.000000
0.486275 1.000000 1.000000
0.576471 1.000000 1.000000
0.670588 1.000000 1.000000
0.772549 1.000000 1.000000
0.870588 1.000000 1.000000
0.952941 1.000000 1.000000
1.000000 1.000000 1.000000
