app/src/main/assets/filters/Pentax_Fuyuno.cube
# Created from Pentax_Fuyuno.plut
LUT_3D_SIZE 9
DOMAIN_MIN 0.0 0.0 0.0
DOMAIN_MAX 1.0 1.0 1.0
0.000000 0.000000 0.000000
0.125490 0.000000 0.000000
0.329412 0.003922 0.000000
0.512047 0.000000 0.000504
0.681102 0.002029 0.000000
0.814115 0.016190 0.000000
0.915694 0.051041 0.000000
0.972549 0.117647 0.000000
1.000000 0.376471 0.074510
0.000000 0.094118 0.011765
0.131228 0.105791 0.000000
0.330861 0.113207 0.000000
0.522286 0.117006 0.000000
0.687190 0.132937 0.000000
0.818891 0.162829 0.000000
0.921035 0.206882 0.000000
0.976059 0.281529 0.000000
1.000000 0.554650 0.147967
0.000000 0.274510 0.027451
0.106569 0.285603 0.000000
0.325399 0.298573 0.000000
0.516320 0.306722 0.000000
0.682872 0.319707 0.000000
0.820050 0.342184 0.000000
0.921874 0.381323 0.000000
0.977920 0.439002 0.000000
1.000000 0.661143 0.212589
0.000000 0.454902 0.058824
0.061051 0.466682 0.000000
0.313558 0.473396 0.000000
0.509194 0.479271 0.000000
0.679194 0.492653 0.000000
0.818677 0.510582 0.000000
0.921675 0.537057 0.000000
0.978347 0.573480 0.000000
1.000000 0.739986 0.268223
0.000000 0.631373 0.113725
0.000000 0.638727 0.066239
0.275074 0.645090 0.000000
0.495979 0.647150 0.000000
0.668177 0.656641 0.000000
0.815961 0.662104 0.000000
0.920806 0.676265 0.000000
0.979324 0.699672 0.000000
1.000000 0.814969 0.337438
0.000000 0.776471 0.200000
0.000000 0.782620 0.184222
0.195331 0.789593 0.093065
0.453513 0.792203 0.093935
0.649683 0.793896 0.092943
0.803830 0.795148 0.071489
0.917510 0.800534 0.064805
0.979629 0.811002 0.019028
1.000000 0.890349 0.417685
0.000000 0.890196 0.345098
0.000000 0.891478 0.337728
0.083207 0.900023 0.281010
0.419715 0.903059 0.282368
0.631006 0.901381 0.283207
0.792996 0.902571 0.283650
0.907164 0.904356 0.289906
0.973281 0.907118 0.285054
0.997696 0.945907 0.538094
0.000000 0.960784 0.533333
0.000000 0.961334 0.531411
0.000000 0.968231 0.509880
0.382315 0.968826 0.503517
0.621836 0.970428 0.510506
0.784985 0.968582 0.507546
0.905913 0.967102 0.508003
0.971817 0.966247 0.504143
0.992493 0.981384 0.660563
0.000000 0.996078 0.741176
0.000000 0.996078 0.745098
0.000000 0.998672 0.737148
0.323812 1.000000 0.738231
0.586374 1.000000 0.735454
0.764294 0.999557 0.731930
0.897612 0.998123 0.731594
0.971557 0.997345 0.726726
1.000000 1.000000 0.749020
0.010834 0.002762 0.112413
0.168063 0.000000 0.113298
0.359854 0.000000 0.111604
0.534691 0.000000 0.114519
0.692332 0.000000 0.116869
0.823682 0.000000 0.114076
0.930358 0.000000 0.116274
1.000000 0.042908 0.086503
1.000000 0.431373 0.333333
0.000000 0.126589 0.143816
0.158145 0.140795 0.140795
0.363836 0.133257 0.141665
0.563363 0.114305 0.131930
0.728069 0.093721 0.125765
0.863813 0.096635 0.106447
0.967102 0.151751 0.099275
1.000000 0.283421 0.112078
1.000000 0.578332 0.379232
0.000000 0.302388 0.175326
0.126268 0.313863 0.165209
0.347005 0.322118 0.160815
0.548119 0.324758 0.153597
0.716060 0.329046 0.146502
0.850813 0.348730 0.135637
0.954879 0.380819 0.125216
1.000000 0.445151 0.133791
1.000000 0.672938 0.420706
0.000000 0.474632 0.223011
0.000000 0.489830 0.191730
0.322194 0.495888 0.186282
0.525566 0.503593 0.179217
0.695567 0.509819 0.182193
0.836545 0.524269 0.169253
0.938643 0.544366 0.167224
1.000000 0.580240 0.149187
1.000000 0.747799 0.461799
0.000000 0.643137 0.282353
0.000000 0.651743 0.262882
0.279500 0.658778 0.238315
0.504067 0.660365 0.234516
0.676951 0.664988 0.234577
0.824308 0.673106 0.229053
0.927871 0.686030 0.223682
0.988754 0.704417 0.208606
1.000000 0.822705 0.509148
0.000000 0.784314 0.368627
0.000000 0.787137 0.355825
0.232807 0.796994 0.322393
0.479805 0.795499 0.319890
0.665278 0.797116 0.325826
0.809979 0.802487 0.321218
0.919234 0.807980 0.316716
0.981277 0.814466 0.300969
1.000000 0.889937 0.560952
0.000000 0.894118 0.486275
0.000000 0.895888 0.479866
0.153445 0.903593 0.448035
0.446967 0.902510 0.450233
0.647242 0.904463 0.452888
0.799496 0.901900 0.450843
0.912993 0.903761 0.454108
0.974441 0.910674 0.447303
0.998276 0.945586 0.635370
0.000000 0.960784 0.623529
0.000000 0.961547 0.621622
0.000000 0.973190 0.600427
0.410101 0.972061 0.600015
0.631907 0.969940 0.605554
0.790005 0.968215 0.605753
0.906615 0.966796 0.605768
0.972274 0.969924 0.601709
0.992721 0.981201 0.718883
0.000000 0.996078 0.784314
0.000000 0.996124 0.784268
0.000000 0.999252 0.780758
0.345480 1.000000 0.779019
0.598138 1.000000 0.776440
0.768597 0.999359 0.773785
0.897719 0.997986 0.773281
0.971664 0.997208 0.768292
1.000000 1.000000 0.788235
0.000000 0.014649 0.305119
0.188602 0.010330 0.309346
0.387167 0.000000 0.300633
0.558572 0.000000 0.298863
0.703807 0.000000 0.304509
0.836225 0.000000 0.301976
0.938399 0.000000 0.301350
1.000000 0.107195 0.285527
1.000000 0.471611 0.524102
0.000000 0.156985 0.329244
0.180774 0.162036 0.342504
0.388586 0.161822 0.341054
0.577401 0.152911 0.335683
0.737224 0.139544 0.324697
0.867994 0.158114 0.314855
0.967559 0.194415 0.312230
1.000000 0.309911 0.313634
1.000000 0.597955 0.550515
0.000000 0.330068 0.358267
0.142229 0.340810 0.364065
0.370550 0.352270 0.361425
0.564874 0.351354 0.352941
0.724300 0.357366 0.353277
0.855268 0.373724 0.345754
0.955245 0.406439 0.339345
1.000000 0.469963 0.337514
1.000000 0.684657 0.572869
0.000000 0.498466 0.391745
0.049928 0.512886 0.387152
0.344045 0.518517 0.382956
0.543389 0.522133 0.382055
0.704616 0.528847 0.380941
0.841733 0.539528 0.375525
0.943771 0.559808 0.370520
1.000000 0.592386 0.357641
1.000000 0.755566 0.594842
0.000000 0.655055 0.442802
0.000000 0.664607 0.429557
0.310842 0.669764 0.425727
0.523079 0.671229 0.422400
0.691127 0.675868 0.422782
0.829831 0.684230 0.418555
0.933700 0.693080 0.419425
0.994598 0.711528 0.402579
1.000000 0.826505 0.623606
0.000000 0.788296 0.513573
0.000000 0.795987 0.503960
0.263935 0.800351 0.489128
0.499290 0.802655 0.486458
0.670878 0.804379 0.487922
0.815900 0.805692 0.484276
0.925139 0.811124 0.480674
0.986328 0.821775 0.472221
1.000000 0.893660 0.657557
0.000000 0.894118 0.596078
0.000000 0.900313 0.590723
0.199298 0.907149 0.571679
0.461616 0.905989 0.573999
0.657694 0.907652 0.573144
0.804898 0.905211 0.574166
0.913756 0.907256 0.575875
0.975372 0.910246 0.571954
0.998566 0.945342 0.706783
0.000000 0.964706 0.694118
0.000000 0.965789 0.692195
0.096605 0.973053 0.677760
0.430838 0.971557 0.677745
0.641382 0.969528 0.678187
0.794614 0.967926 0.677684
0.906996 0.966552 0.677409
0.972641 0.969680 0.673136
0.992874 0.981033 0.768765
0.000000 0.996078 0.819608
0.000000 0.996201 0.819516
0.003601 1.000000 0.816617
0.366827 1.000000 0.815747
0.609842 1.000000 0.813382
0.777035 0.999130 0.811353
0.901884 0.997818 0.810651
0.971725 0.997086 0.805676
1.000000 1.000000 0.823529
0.000000 0.030121 0.488701
0.205203 0.012070 0.511330
0.411734 0.000000 0.495644
0.582910 0.000000 0.484688
0.720882 0.000000 0.487785
0.846342 0.000000 0.484916
0.951400 0.000000 0.486290
1.000000 0.157870 0.475654
1.000000 0.503059 0.654826
0.000000 0.191577 0.508492
0.192813 0.194095 0.534890
0.408423 0.197986 0.530434
0.595926 0.183719 0.521767
0.743664 0.183856 0.524819
0.874815 0.200397 0.509972
0.966247 0.242969 0.506691
1.000000 0.343603 0.505089
1.000000 0.617533 0.669718
0.000000 0.365225 0.525551
0.149508 0.375067 0.548928
0.394141 0.377768 0.542550
0.582589 0.381628 0.533806
0.730114 0.389563 0.534218
0.857603 0.407126 0.526268
0.954269 0.435828 0.524224
1.000000 0.494011 0.519585
1.000000 0.696345 0.684565
0.000000 0.522118 0.546029
0.082963 0.535607 0.554864
0.365866 0.540917 0.554788
0.566842 0.544442 0.548928
0.716228 0.547555 0.548058
0.845396 0.558801 0.546944
0.943908 0.575204 0.542199
1.000000 0.608011 0.536278
1.000000 0.763317 0.695109
0.000000 0.671000 0.580301
0.000000 0.680903 0.577874
0.337133 0.680674 0.579614
0.539727 0.682078 0.576074
0.699504 0.686793 0.576394
0.834623 0.691218 0.572442
0.934051 0.704387 0.568673
0.995651 0.718608 0.565591
1.000000 0.830289 0.712764
0.000000 0.796307 0.627207
0.000000 0.800916 0.621988
0.299580 0.807630 0.615824
0.517205 0.805875 0.613504
0.684154 0.807568 0.610391
0.820478 0.812955 0.611109
0.925475 0.818509 0.608392
0.986816 0.825193 0.604242
1.000000 0.893446 0.736599
0.000000 0.898085 0.682292
0.000000 0.901122 0.678050
0.236286 0.910704 0.671885
0.484367 0.909438 0.665415
0.671717 0.906935 0.669215
0.809613 0.908614 0.669245
0.918166 0.910780 0.669734
0.975647 0.913878 0.669398
0.998505 0.949096 0.769467
0.000000 0.964706 0.756863
0.000000 0.966247 0.755138
0.167834 0.972564 0.746731
0.460258 0.971023 0.741970
0.654566 0.969131 0.745846
0.799023 0.967620 0.745037
0.911177 0.970214 0.744427
0.972885 0.969451 0.740047
0.997040 0.980835 0.814374
0.000000 0.996078 0.850980
0.000000 0.996368 0.850874
0.086473 1.000000 0.849241
0.392416 1.000000 0.848402
0.617380 1.000000 0.846342
0.781231 0.998962 0.844694
0.901869 0.997711 0.843854
0.971756 0.996963 0.843030
1.000000 1.000000 0.854902
0.000000 0.066819 0.670924
0.226856 0.040330 0.706477
0.442893 0.000000 0.698634
0.608362 0.000000 0.676982
0.743282 0.000000 0.669413
0.866499 0.000000 0.668482
0.968612 0.000000 0.668742
1.000000 0.219745 0.665293
1.000000 0.546304 0.769696
0.000000 0.241901 0.674723
0.208667 0.241642 0.717540
0.431327 0.242466 0.711299
0.609583 0.239048 0.701640
0.754467 0.246159 0.690654
0.878614 0.255894 0.685039
0.966384 0.302876 0.676432
1.000000 0.388571 0.674907
1.000000 0.641001 0.773007
0.000000 0.408331 0.682277
0.176074 0.416724 0.718288
0.417273 0.419547 0.711498
0.592264 0.420752 0.703304
0.741695 0.429831 0.694438
0.866423 0.443961 0.686595
0.955184 0.477989 0.679728
1.000000 0.525475 0.683024
1.000000 0.711925 0.784207
0.000000 0.553719 0.689693
0.127672 0.561975 0.711147
0.398642 0.567041 0.706142
0.579217 0.571054 0.700526
0.729824 0.574441 0.694926
0.851667 0.582040 0.694102
0.946151 0.603067 0.688960
1.000000 0.631266 0.681193
1.000000 0.774945 0.791180
0.000000 0.686946 0.706920
0.054795 0.697139 0.716213
0.369070 0.699443 0.713420
0.562722 0.700786 0.709773
0.714824 0.701610 0.706020
0.841886 0.706249 0.706462
0.937575 0.719570 0.702586
0.995239 0.733928 0.704021
1.000000 0.837980 0.801526
0.000000 0.804395 0.733440
0.000000 0.813916 0.734127
0.336873 0.814786 0.732708
0.541833 0.816922 0.729900
0.700069 0.818647 0.726802
0.828550 0.820081 0.728069
0.929107 0.825818 0.725963
0.986252 0.832731 0.720974
1.000000 0.897139 0.814588
0.000000 0.902190 0.768536
0.000000 0.906355 0.770748
0.280491 0.914168 0.767147
0.513024 0.912398 0.765438
0.689448 0.910063 0.759762
0.818189 0.911940 0.763195
0.918166 0.914382 0.762524
0.979767 0.917433 0.761913
0.998550 0.948836 0.836179
0.000000 0.964706 0.819608
0.000000 0.967208 0.818448
0.227024 0.972000 0.815183
0.488808 0.970397 0.814206
0.671626 0.972625 0.812985
0.807324 0.971206 0.811994
0.915419 0.969909 0.811246
0.977096 0.969146 0.810880
0.996887 0.984619 0.868132
0.000000 0.996078 0.890196
0.000000 0.996658 0.890211
0.157763 1.000000 0.890059
0.426017 1.000000 0.889296
0.636957 1.000000 0.887556
0.789563 0.998718 0.886290
0.905928 0.997528 0.885267
0.971725 0.996811 0.884504
1.000000 1.000000 0.894118
0.000000 0.134936 0.830564
0.276814 0.117220 0.869688
0.484428 0.100786 0.863722
0.642786 0.066377 0.854551
0.776745 0.060182 0.843351
0.889204 0.092531 0.832120
0.973983 0.163790 0.822705
1.000000 0.299336 0.801587
1.000000 0.593439 0.864897
0.000000 0.311742 0.824231
0.249027 0.315648 0.867781
0.474662 0.314260 0.859342
0.632944 0.316793 0.849317
0.766476 0.324331 0.839094
0.878798 0.347814 0.829267
0.964263 0.378454 0.821576
1.000000 0.453559 0.807630
1.000000 0.672313 0.868437
0.000000 0.467430 0.817350
0.229725 0.474678 0.851057
0.458915 0.477974 0.843931
0.617288 0.480720 0.836728
0.751156 0.487388 0.829465
0.868528 0.502754 0.826566
0.954711 0.528267 0.820462
1.000000 0.568826 0.808774
1.000000 0.735348 0.871931
0.000000 0.593561 0.817273
0.203586 0.604089 0.841230
0.439322 0.605203 0.836835
0.607568 0.605509 0.831907
0.741909 0.609644 0.826932
0.860273 0.617716 0.826184
0.947295 0.635065 0.821530
1.000000 0.658061 0.813535
1.000000 0.790478 0.875273
0.000000 0.711238 0.824140
0.168902 0.719814 0.839994
0.423362 0.721859 0.836881
0.588754 0.723415 0.833494
0.732860 0.724422 0.829816
0.847761 0.729503 0.826154
0.940093 0.738827 0.827024
0.993820 0.753460 0.819913
1.000000 0.849561 0.882200
0.000000 0.820722 0.836881
0.093706 0.827024 0.845991
0.395636 0.829664 0.843687
0.574182 0.827832 0.841367
0.719554 0.829587 0.838437
0.835615 0.831250 0.835615
0.931807 0.837293 0.833051
0.984817 0.844388 0.831724
1.000000 0.904753 0.888197
0.000000 0.910475 0.855253
0.000000 0.916808 0.858305
0.350973 0.917159 0.861830
0.549859 0.915236 0.859754
0.706615 0.917082 0.853269
0.830594 0.915221 0.856077
0.922011 0.917891 0.854765
0.979507 0.921035 0.853941
0.998260 0.952575 0.898436
0.000000 0.968948 0.886351
0.000000 0.973037 0.887266
0.312795 0.975051 0.886931
0.526070 0.973541 0.885588
0.692790 0.972122 0.884154
0.819760 0.970764 0.882963
0.919493 0.969589 0.882033
0.976898 0.972854 0.881346
0.996826 0.984451 0.913725
0.000000 0.996078 0.925490
0.000000 0.997391 0.926024
0.235691 1.000000 0.926818
0.472129 1.000000 0.926146
0.657618 0.999786 0.924865
0.802029 0.998444 0.923598
0.909941 0.997345 0.922530
0.972549 1.000000 0.925490
1.000000 1.000000 0.929412
0.000000 0.253452 0.989319
0.359884 0.256123 0.985214
0.546822 0.256352 0.975799
0.673655 0.254032 0.966354
0.790677 0.261769 0.956252
0.891203 0.287266 0.946410
0.972702 0.330068 0.937697
1.000000 0.421912 0.914397
1.000000 0.652384 0.936400
0.000000 0.421103 0.964843
0.339879 0.424338 0.970138
0.533211 0.421927 0.962219
0.663905 0.428687 0.954238
0.780713 0.439734 0.946258
0.881773 0.455818 0.938827
0.964019 0.486168 0.932006
1.000000 0.541314 0.917327
1.000000 0.715450 0.936141
0.000000 0.550988 0.943297
0.327764 0.552880 0.951522
0.520226 0.557076 0.945464
0.655512 0.557107 0.940276
0.772442 0.565286 0.934585
0.873869 0.577783 0.933394
0.957061 0.595178 0.928405
1.000000 0.630518 0.915862
1.000000 0.766644 0.939864
0.000000 0.650385 0.932906
0.314656 0.654047 0.942412
0.508476 0.655283 0.938399
0.643977 0.656382 0.934508
0.761349 0.661311 0.930282
0.867613 0.670222 0.925811
0.947311 0.679744 0.922271
1.000000 0.702907 0.918395
1.000000 0.813886 0.939483
0.000000 0.748714 0.925292
0.292500 0.754208 0.935164
0.491127 0.752209 0.932540
0.632059 0.753979 0.929427
0.754421 0.755428 0.926329
0.856962 0.760861 0.927520
0.941573 0.766476 0.924651
0.994308 0.781765 0.916915
1.000000 0.865064 0.942870
0.000000 0.842481 0.925383
0.252796 0.845914 0.934524
0.471244 0.848402 0.932158
0.614557 0.846693 0.930114
0.742824 0.848554 0.927047
0.850340 0.850492 0.923766
0.934005 0.852964 0.921309
0.986694 0.864271 0.919310
1.000000 0.912337 0.945800
0.000000 0.920027 0.932631
0.195926 0.925185 0.939666
0.448875 0.923552 0.937362
0.604364 0.925780 0.934768
0.736446 0.924041 0.932677
0.842390 0.922637 0.931090
0.929610 0.925414 0.929610
0.978866 0.928710 0.928725
0.997940 0.956374 0.948058
0.000000 0.970001 0.942382
0.141833 0.979141 0.946471
0.412589 0.977935 0.945022
0.583444 0.976761 0.943618
0.722240 0.975509 0.942199
0.836118 0.974289 0.940948
0.923293 0.973266 0.939986
0.976608 0.976623 0.939193
0.996735 0.984283 0.955169
0.000000 0.996338 0.960998
0.000000 0.999969 0.963851
0.341405 1.000000 0.963607
0.534386 1.000000 0.963119
0.709804 1.000000 0.960784
0.827451 1.000000 0.960784
0.921569 1.000000 0.960784
0.976471 1.000000 0.960784
1.000000 1.000000 0.960784
0.325216 0.443961 1.000000
0.494850 0.448920 1.000000
0.615015 0.453498 1.000000
0.712840 0.457633 1.000000
0.806394 0.464912 1.000000
0.900481 0.483207 1.000000
0.969390 0.511070 0.999374
1.000000 0.556237 0.985061
1.000000 0.723156 0.980209
0.311238 0.556603 1.000000
0.486717 0.562219 1.000000
0.609415 0.563394 1.000000
0.708644 0.568185 1.000000
0.803571 0.572061 1.000000
0.897383 0.584161 0.996979
0.963561 0.606638 0.992264
1.000000 0.637308 0.984527
1.000000 0.770397 0.984115
0.290379 0.644907 1.000000
0.471077 0.647120 1.000000
0.599374 0.648890 1.000000
0.699321 0.650340 1.000000
0.798642 0.655100 0.998993
0.892103 0.664302 0.994751
0.959060 0.678355 0.991333
1.000000 0.697597 0.988388
1.000000 0.809766 0.984009
0.261585 0.717418 1.000000
0.458717 0.719814 1.000000
0.591547 0.721767 0.998657
0.694224 0.719600 0.996185
0.793881 0.725216 0.992813
0.887831 0.730587 0.989700
0.950942 0.740810 0.986984
0.996002 0.756008 0.983902
1.000000 0.845182 0.983856
0.214023 0.793973 0.996475
0.440116 0.796307 0.993774
0.581247 0.794522 0.991714
0.683940 0.796796 0.989502
0.784253 0.798734 0.987030
0.882902 0.800443 0.983749
0.945006 0.811444 0.979919
0.989883 0.818830 0.977478
1.000000 0.884535 0.983612
0.168521 0.873701 0.992996
0.415137 0.872450 0.991302
0.564843 0.870909 0.989258
0.674784 0.873198 0.985977
0.775799 0.871519 0.983276
0.873625 0.873884 0.980209
0.939895 0.880873 0.977966
0.985122 0.884169 0.976837
0.999344 0.924163 0.982696
0.111086 0.936629 0.989853
0.393439 0.935302 0.987762
0.554009 0.933822 0.985519
0.666636 0.936431 0.983230
0.769833 0.935225 0.981674
0.866606 0.934005 0.980194
0.937041 0.937057 0.978882
0.982162 0.940459 0.978012
0.997635 0.960204 0.985168
0.000000 0.982773 0.988296
0.356817 0.981888 0.987045
0.529061 0.980896 0.985718
0.648646 0.979950 0.984497
0.760067 0.978882 0.983230
0.856626 0.977844 0.982055
0.931197 0.976989 0.981155
0.980392 0.980392 0.980392
0.996460 0.988144 0.983993
0.160784 1.000000 0.988235
0.345098 1.000000 0.988235
0.509804 1.000000 0.988235
0.635294 1.000000 0.988235
0.749020 1.000000 0.988235
0.850980 1.000000 0.988235
0.929412 1.000000 0.988235
0.980392 1.000000 0.988235
1.000000 1.000000 0.988235
0.605859 0.686137 1.000000
0.681376 0.689845 1.000000
0.744930 0.693538 1.000000
0.796567 0.697230 1.000000
0.856214 0.700832 1.000000
0.911910 0.712245 1.000000
0.959747 0.723644 1.000000
0.991730 0.739071 1.000000
0.996078 0.827451 1.000000
0.601053 0.737316 1.000000
0.680690 0.741039 1.000000
0.740383 0.744747 1.000000
0.796139 0.744503 1.000000
0.855879 0.748089 1.000000
0.911696 0.755566 1.000000
0.959655 0.766964 1.000000
0.991730 0.778424 1.000000
0.996078 0.854902 1.000000
0.600092 0.780652 1.000000
0.675914 0.784390 1.000000
0.739773 0.784161 1.000000
0.795575 0.787839 1.000000
0.855451 0.791440 1.000000
0.911421 0.794965 1.000000
0.959533 0.802396 1.000000
0.991730 0.813825 1.000000
0.996078 0.878431 1.000000
0.594903 0.820096 1.000000
0.674907 0.823835 1.000000
0.734920 0.823621 1.000000
0.790936 0.823362 1.000000
0.854932 0.826932 1.000000
0.911070 0.830442 1.000000
0.959350 0.837842 1.000000
0.991714 0.849226 1.000000
0.996078 0.898039 1.000000
0.588800 0.867506 1.000000
0.669291 0.867308 1.000000
0.733547 0.867079 1.000000
0.789624 0.870771 1.000000
0.849958 0.870405 1.000000
0.906340 0.873899 1.000000
0.954940 0.877302 1.000000
0.991653 0.884627 1.000000
0.996078 0.921569 1.000000
0.584314 0.909804 1.000000
0.666667 0.913725 1.000000
0.733333 0.913725 1.000000
0.788235 0.913725 1.000000
0.850980 0.913725 1.000000
0.905882 0.917647 1.000000
0.952941 0.921569 1.000000
0.988235 0.925490 1.000000
0.996078 0.949020 1.000000
0.572549 0.952941 1.000000
0.658824 0.952941 1.000000
0.725490 0.952941 1.000000
0.780392 0.952941 1.000000
0.847059 0.952941 1.000000
0.905882 0.956863 1.000000
0.952941 0.956863 1.000000
0.984314 0.960784 1.000000
0.996078 0.972549 1.000000
0.545098 0.984314 1.000000
0.639216 0.984314 1.000000
0.713725 0.984314 1.000000
0.772549 0.984314 1.000000
0.839216 0.984314 1.000000
0.901961 0.984314 1.000000
0.952941 0.984314 1.000000
0.984314 0.984314 1.000000
0.996078 0.992157 1.000000
0.486275 1.000000 1.000000
0.596078 1.000000 1.000000
0.682353 1.000000 1.000000
0.752941 1.000000 1.000000
0.823529 1.000000 1.000000
0.894118 1.000000 1.000000
0.949020 1.000000 1.000000
0.984314 1.000000 1.000000
1.000000 1.000000 1.000000
