app/src/main/assets/filters/Pentax_Harubeni.cube
# Created from Pentax_Harubeni.plut
LUT_3D_SIZE 33
DOMAIN_MIN 0.0 0.0 0.0
DOMAIN_MAX 1.0 1.0 1.0
0.019608 0.000000 0.000000
0.039216 0.000000 0.000000
0.062745 0.000000 0.000000
0.086275 0.000000 0.000000
0.113725 0.000000 0.000000
0.141176 0.000000 0.000000
0.168627 0.000000 0.000000
0.200000 0.000000 0.000000
0.231373 0.000000 0.000000
0.258824 0.000000 0.000000
0.294118 0.000000 0.000000
0.325490 0.000000 0.000000
0.356863 0.000000 0.000000
0.392157 0.003922 0.000000
0.427451 0.003922 0.000000
0.458824 0.007843 0.000000
0.498039 0.007843 0.000000
0.529412 0.011765 0.000000
0.564706 0.015686 0.000000
0.600000 0.019608 0.000000
0.631373 0.023529 0.000000
0.666667 0.027451 0.000000
0.698039 0.035294 0.000000
0.733333 0.039216 0.000000
0.764706 0.047059 0.000000
0.796078 0.054902 0.000000
0.827451 0.066667 0.000000
0.858824 0.078431 0.000000
0.894118 0.090196 0.000000
0.921569 0.105882 0.000000
0.952941 0.125490 0.000000
0.980392 0.149020 0.000000
1.000000 0.180392 0.000000
0.019608 0.003922 0.000000
0.035294 0.003922 0.000000
0.062745 0.007843 0.000000
0.086275 0.007843 0.000000
0.113725 0.007843 0.000000
0.141176 0.011765 0.000000
0.168627 0.011765 0.000000
0.200000 0.011765 0.000000
0.231373 0.015686 0.000000
0.258824 0.015686 0.000000
0.294118 0.019608 0.000000
0.325490 0.019608 0.000000
0.356863 0.019608 0.000000
0.392157 0.019608 0.000000
0.423529 0.023529 0.000000
0.458824 0.027451 0.000000
0.494118 0.031373 0.000000
0.529412 0.031373 0.000000
0.564706 0.035294 0.000000
0.600000 0.039216 0.000000
0.631373 0.043137 0.000000
0.666667 0.050980 0.000000
0.698039 0.054902 0.000000
0.733333 0.062745 0.000000
0.764706 0.070588 0.000000
0.796078 0.078431 0.000000
0.827451 0.086275 0.000000
0.858824 0.098039 0.000000
0.894118 0.113725 0.000000
0.921569 0.129412 0.000000
0.952941 0.145098 0.000000
0.980392 0.168627 0.000000
1.000000 0.203922 0.000000
0.019608 0.023529 0.000000
0.039216 0.023529 0.000000
0.058824 0.027451 0.000000
0.086275 0.027451 0.000000
0.113725 0.031373 0.000000
0.141176 0.031373 0.000000
0.168627 0.035294 0.000000
0.196078 0.035294 0.000000
0.231373 0.039216 0.000000
0.258824 0.039216 0.000000
0.290196 0.039216 0.000000
0.325490 0.039216 0.000000
0.356863 0.043137 0.000000
0.388235 0.043137 0.000000
0.423529 0.047059 0.000000
0.458824 0.050980 0.000000
0.494118 0.050980 0.000000
0.529412 0.054902 0.000000
0.564706 0.058824 0.000000
0.600000 0.062745 0.000000
0.631373 0.066667 0.000000
0.666667 0.074510 0.000000
0.698039 0.078431 0.000000
0.733333 0.086275 0.000000
0.764706 0.094118 0.000000
0.796078 0.101961 0.000000
0.827451 0.113725 0.000000
0.858824 0.125490 0.000000
0.894118 0.137255 0.000000
0.921569 0.152941 0.000000
0.952941 0.172549 0.000000
0.980392 0.196078 0.000000
1.000000 0.227451 0.003922
0.019608 0.047059 0.000000
0.035294 0.050980 0.000000
0.058824 0.050980 0.000000
0.082353 0.050980 0.000000
0.109804 0.054902 0.000000
0.141176 0.054902 0.000000
0.168627 0.054902 0.000000
0.196078 0.058824 0.000000
0.227451 0.058824 0.000000
0.258824 0.062745 0.000000
0.290196 0.062745 0.000000
0.325490 0.062745 0.000000
0.356863 0.066667 0.000000
0.388235 0.066667 0.000000
0.423529 0.070588 0.000000
0.458824 0.074510 0.000000
0.494118 0.078431 0.000000
0.529412 0.078431 0.000000
0.564706 0.082353 0.000000
0.600000 0.086275 0.000000
0.631373 0.090196 0.000000
0.666667 0.098039 0.000000
0.698039 0.105882 0.000000
0.733333 0.109804 0.000000
0.764706 0.117647 0.000000
0.796078 0.125490 0.000000
0.827451 0.137255 0.000000
0.858824 0.145098 0.000000
0.894118 0.160784 0.000000
0.923186 0.172930 0.000000
0.954452 0.193011 0.000000
0.981781 0.217014 0.000000
1.000000 0.250980 0.003922
0.019608 0.070588 0.000000
0.035294 0.070588 0.000000
0.058824 0.074510 0.000000
0.086275 0.074510 0.000000
0.109804 0.078431 0.000000
0.137255 0.078431 0.000000
0.168627 0.082353 0.000000
0.196078 0.082353 0.000000
0.227451 0.082353 0.000000
0.258824 0.086275 0.000000
0.286275 0.086275 0.000000
0.321569 0.090196 0.000000
0.356863 0.090196 0.000000
0.388235 0.094118 0.000000
0.423529 0.094118 0.000000
0.458824 0.098039 0.000000
0.494118 0.101961 0.000000
0.529412 0.101961 0.000000
0.564706 0.105882 0.000000
0.596078 0.109804 0.000000
0.631373 0.117647 0.000000
0.669078 0.116487 0.000000
0.698039 0.129412 0.000000
0.735515 0.128588 0.000000
0.766766 0.136706 0.000000
0.798032 0.144808 0.000000
0.829282 0.156939 0.000000
0.860548 0.169024 0.000000
0.895750 0.181064 0.000000
0.924620 0.194125 0.000000
0.955795 0.214481 0.000000
0.983017 0.238773 0.000000
1.000000 0.278431 0.007843
0.019608 0.098039 0.000000
0.035294 0.098039 0.000000
0.058824 0.098039 0.000000
0.086275 0.101961 0.000000
0.114137 0.102022 0.000000
0.142016 0.101808 0.000000
0.168627 0.105882 0.000000
0.197391 0.105333 0.000000
0.228901 0.109071 0.000000
0.260426 0.108797 0.000000
0.287938 0.112566 0.000000
0.323339 0.112261 0.000000
0.358724 0.111940 0.000000
0.390143 0.115679 0.000000
0.425483 0.119371 0.000000
0.460807 0.123064 0.000000
0.496178 0.122698 0.000000
0.531518 0.126375 0.000000
0.566857 0.130037 0.000000
0.598276 0.133745 0.000000
0.633631 0.137377 0.000000
0.668879 0.145235 0.000000
0.700160 0.149203 0.000000
0.733425 0.153567 0.000000
0.768505 0.161730 0.000000
0.799695 0.169894 0.000000
0.830854 0.182177 0.000000
0.862074 0.190280 0.000000
0.897139 0.206546 0.000000
0.925841 0.220356 0.000000
0.956909 0.240803 0.000000
0.984054 0.265217 0.000000
1.000000 0.301961 0.015686
0.016205 0.122148 0.000000
0.032364 0.122087 0.000000
0.057115 0.125917 0.000000
0.081590 0.125795 0.000000
0.113649 0.125673 0.000000
0.137697 0.129580 0.000000
0.165850 0.129290 0.000000
0.193729 0.132937 0.000000
0.229603 0.132494 0.000000
0.257404 0.132128 0.000000
0.289006 0.135714 0.000000
0.324620 0.135195 0.000000
0.356146 0.138781 0.000000
0.391669 0.138216 0.000000
0.427085 0.141726 0.000000
0.458579 0.145281 0.000000
0.497978 0.144594 0.000000
0.533394 0.148058 0.000000
0.564874 0.151583 0.000000
0.600290 0.155016 0.000000
0.637781 0.155352 0.000000
0.666789 0.166629 0.000000
0.703883 0.167453 0.000000
0.734966 0.175677 0.000000
0.769986 0.183825 0.000000
0.801114 0.192004 0.000000
0.832197 0.204334 0.000000
0.863310 0.216602 0.000000
0.899779 0.226566 0.000000
0.926894 0.243076 0.000000
0.957885 0.263584 0.000000
0.984955 0.288060 0.000000
1.000000 0.321569 0.015686
0.009323 0.146578 0.000000
0.026246 0.146441 0.000000
0.052857 0.150179 0.000000
0.078508 0.153964 0.000000
0.107851 0.153750 0.000000
0.140795 0.153429 0.000000
0.165072 0.157137 0.000000
0.193423 0.156771 0.000000
0.229511 0.160266 0.000000
0.257572 0.159823 0.000000
0.289540 0.159289 0.000000
0.321279 0.162783 0.000000
0.357076 0.162112 0.000000
0.392676 0.165484 0.000000
0.428351 0.164752 0.000000
0.459937 0.168170 0.000000
0.495460 0.171496 0.000000
0.530983 0.174807 0.000000
0.566506 0.178088 0.000000
0.601892 0.181521 0.000000
0.637018 0.185275 0.000000
0.669932 0.190997 0.000000
0.705013 0.194781 0.000000
0.736080 0.202899 0.000000
0.771160 0.206729 0.000000
0.802182 0.219074 0.000000
0.833295 0.227176 0.000000
0.864363 0.239429 0.000000
0.899367 0.251621 0.000000
0.927672 0.270420 0.000000
0.958694 0.286748 0.000000
0.985687 0.311254 0.000000
1.000000 0.341176 0.023529
0.009171 0.173800 0.000000
0.021729 0.174182 0.000000
0.048264 0.177996 0.000000
0.075395 0.177874 0.000000
0.105348 0.181613 0.000000
0.134798 0.181369 0.000000
0.167926 0.181033 0.000000
0.192309 0.184695 0.000000
0.224704 0.188235 0.000000
0.257115 0.187732 0.000000
0.289372 0.187167 0.000000
0.321340 0.190600 0.000000
0.357397 0.189868 0.000000
0.389212 0.193240 0.000000
0.425116 0.192416 0.000000
0.460822 0.195666 0.000000
0.496513 0.198871 0.000000
0.532143 0.202075 0.000000
0.567544 0.205493 0.000000
0.602762 0.209094 0.000000
0.639582 0.210986 0.000000
0.670787 0.214694 0.000000
0.705776 0.222644 0.000000
0.736843 0.230671 0.000000
0.771969 0.234409 0.000000
0.802960 0.246662 0.000000
0.834073 0.254688 0.000000
0.866377 0.265309 0.000000
0.901305 0.277501 0.000000
0.928344 0.293919 0.000000
0.959335 0.310201 0.000000
0.987350 0.329427 0.000000
1.000000 0.364706 0.027451
0.000000 0.201892 0.001526
0.010117 0.205936 0.000000
0.041657 0.205844 0.000000
0.070726 0.205737 0.000000
0.102174 0.205570 0.000000
0.132082 0.209277 0.000000
0.165835 0.208972 0.000000
0.194949 0.208621 0.000000
0.223575 0.212207 0.000000
0.256321 0.211704 0.000000
0.288670 0.215152 0.000000
0.321080 0.214527 0.000000
0.353201 0.217899 0.000000
0.389425 0.217075 0.000000
0.425391 0.220279 0.000000
0.461295 0.223453 0.000000
0.498390 0.225727 0.000000
0.533913 0.229023 0.000000
0.568063 0.229374 0.000000
0.604807 0.231586 0.000000
0.640055 0.235096 0.000000
0.671153 0.242985 0.000000
0.706188 0.250813 0.000000
0.737438 0.254520 0.000000
0.773754 0.260990 0.000000
0.804837 0.268971 0.000000
0.835798 0.281193 0.000000
0.866896 0.289158 0.000000
0.901839 0.301289 0.000000
0.928847 0.317632 0.000000
0.959823 0.333852 0.000000
0.987732 0.353216 0.000000
1.000000 0.384314 0.035294
0.000000 0.229023 0.008453
0.000855 0.233783 0.000000
0.027253 0.233707 0.000000
0.064332 0.233600 0.000000
0.097139 0.237385 0.000000
0.128466 0.237201 0.000000
0.158755 0.236957 0.000000
0.188159 0.240620 0.000000
0.225803 0.240162 0.000000
0.250278 0.243900 0.000000
0.283497 0.243290 0.000000
0.320333 0.246525 0.000000
0.353140 0.245747 0.000000
0.389578 0.248890 0.000000
0.426062 0.247898 0.000000
0.462058 0.251072 0.000000
0.497826 0.254322 0.000000
0.533471 0.257618 0.000000
0.568994 0.260975 0.000000
0.604440 0.264378 0.000000
0.639811 0.267826 0.000000
0.671199 0.271397 0.000000
0.706477 0.274922 0.000000
0.738796 0.281682 0.000000
0.772717 0.290578 0.000000
0.804974 0.297368 0.000000
0.836103 0.305257 0.000000
0.867109 0.317357 0.000000
0.902190 0.325216 0.000000
0.929198 0.341482 0.000000
0.961181 0.352605 0.000000
0.988098 0.372976 0.000000
1.000000 0.403922 0.035294
0.000000 0.260136 0.015015
0.000000 0.260914 0.011414
0.009171 0.262013 0.000000
0.043259 0.265858 0.000000
0.082536 0.265721 0.000000
0.120958 0.269444 0.000000
0.152956 0.269200 0.000000
0.183856 0.268894 0.000000
0.218769 0.272190 0.000000
0.252033 0.271931 0.000000
0.281163 0.275425 0.000000
0.318639 0.274708 0.000000
0.351400 0.278050 0.000000
0.388281 0.277226 0.000000
0.424628 0.280461 0.000000
0.456718 0.283803 0.000000
0.496971 0.282856 0.000000
0.532769 0.286152 0.000000
0.568444 0.289494 0.000000
0.604028 0.292866 0.000000
0.640543 0.295567 0.000000
0.672023 0.299046 0.000000
0.707210 0.306691 0.000000
0.738598 0.310246 0.000000
0.773739 0.317967 0.000000
0.804913 0.325780 0.000000
0.836103 0.333608 0.000000
0.868223 0.340581 0.000000
0.899382 0.348440 0.000000
0.930282 0.364645 0.000000
0.961334 0.376654 0.000000
0.989059 0.396216 0.000000
1.000000 0.423529 0.043137
0.000000 0.291325 0.024399
0.000000 0.291997 0.017899
0.000000 0.297307 0.003769
0.028519 0.297612 0.000000
0.073426 0.297475 0.000000
0.114946 0.301183 0.000000
0.143618 0.300999 0.000000
0.179828 0.304616 0.000000
0.215015 0.304250 0.000000
0.245167 0.303883 0.000000
0.279118 0.303395 0.000000
0.316579 0.306752 0.000000
0.349767 0.306172 0.000000
0.386542 0.309483 0.000000
0.423728 0.308614 0.000000
0.456062 0.311940 0.000000
0.496315 0.315084 0.000000
0.532341 0.318349 0.000000
0.568475 0.317510 0.000000
0.604227 0.320821 0.000000
0.635889 0.324269 0.000000
0.671458 0.327642 0.000000
0.706737 0.335225 0.000000
0.738231 0.338766 0.000000
0.774350 0.345739 0.000000
0.805768 0.349294 0.000000
0.836973 0.357076 0.000000
0.868193 0.364858 0.000000
0.899229 0.376822 0.000000
0.931167 0.388037 0.000000
0.962219 0.400015 0.000000
0.989227 0.416159 0.000000
1.000000 0.443137 0.050980
0.000000 0.322560 0.032334
0.000000 0.326864 0.028031
0.000000 0.328084 0.014572
0.012055 0.329381 0.000000
0.061967 0.333150 0.000000
0.102525 0.332998 0.000000
0.137942 0.332799 0.000000
0.170825 0.336477 0.000000
0.206958 0.336156 0.000000
0.242039 0.335790 0.000000
0.276432 0.335363 0.000000
0.314305 0.338766 0.000000
0.347555 0.342199 0.000000
0.380758 0.341634 0.000000
0.421683 0.344884 0.000000
0.454398 0.344259 0.000000
0.494804 0.347494 0.000000
0.527733 0.346593 0.000000
0.567224 0.350057 0.000000
0.599786 0.353140 0.000000
0.635615 0.356451 0.000000
0.671336 0.359792 0.000000
0.706966 0.363165 0.000000
0.738552 0.366659 0.000000
0.773861 0.374243 0.000000
0.805173 0.381933 0.000000
0.837507 0.384863 0.000000
0.868772 0.392584 0.000000
0.900008 0.400336 0.000000
0.931090 0.412238 0.000000
0.963027 0.423484 0.000000
0.990005 0.439597 0.000000
1.000000 0.466667 0.054902
0.000000 0.357733 0.036683
0.000000 0.358099 0.036790
0.000000 0.363073 0.023331
0.000000 0.364477 0.005905
0.040375 0.364889 0.000000
0.093889 0.364736 0.000000
0.131365 0.368460 0.000000
0.165682 0.368261 0.000000
0.202762 0.367987 0.000000
0.233906 0.371618 0.000000
0.273198 0.371206 0.000000
0.307469 0.370779 0.000000
0.345312 0.374197 0.000000
0.378775 0.373678 0.000000
0.415885 0.377035 0.000000
0.452949 0.376364 0.000000
0.489540 0.379690 0.000000
0.526619 0.378820 0.000000
0.562921 0.382086 0.000000
0.599069 0.385367 0.000000
0.635080 0.388663 0.000000
0.670970 0.391974 0.000000
0.702754 0.395392 0.000000
0.738460 0.398764 0.000000
0.770108 0.402228 0.000000
0.806302 0.409262 0.000000
0.837018 0.413306 0.000000
0.869184 0.420417 0.000000
0.900496 0.428107 0.000000
0.931594 0.439963 0.000000
0.963546 0.451209 0.000000
0.990707 0.463142 0.000000
1.000000 0.490196 0.062745
0.000000 0.389029 0.049989
0.000000 0.393256 0.046174
0.000000 0.394232 0.033021
0.000000 0.395499 0.015503
0.021424 0.400473 0.000000
0.076814 0.400366 0.000000
0.123873 0.400198 0.000000
0.159792 0.400031 0.000000
0.197864 0.403677 0.000000
0.229877 0.403433 0.000000
0.265415 0.403113 0.000000
0.304326 0.406607 0.000000
0.342763 0.406134 0.000000
0.376532 0.405661 0.000000
0.413931 0.409049 0.000000
0.451286 0.408469 0.000000
0.488243 0.411765 0.000000
0.525231 0.411017 0.000000
0.561746 0.414282 0.000000
0.598093 0.417563 0.000000
0.634546 0.416770 0.000000
0.670588 0.420066 0.000000
0.702510 0.423453 0.000000
0.738125 0.430900 0.000000
0.770642 0.433936 0.000000
0.805585 0.437720 0.000000
0.837812 0.444862 0.000000
0.869429 0.448341 0.000000
0.900801 0.455970 0.000000
0.932143 0.463630 0.000000
0.964111 0.474891 0.000000
0.991287 0.486793 0.000000
1.000000 0.509804 0.074510
0.000000 0.424247 0.058701
0.000000 0.428290 0.057023
0.000000 0.429160 0.045884
0.000000 0.430457 0.026184
0.000778 0.432181 0.000000
0.054932 0.436316 0.000000
0.109133 0.435843 0.000000
0.147738 0.435691 0.000000
0.192538 0.435447 0.000000
0.223392 0.439429 0.000000
0.260029 0.439124 0.000000
0.300038 0.438727 0.000000
0.334890 0.438315 0.000000
0.373281 0.441733 0.000000
0.411414 0.441169 0.000000
0.448936 0.444526 0.000000
0.486397 0.443854 0.000000
0.523354 0.447166 0.000000
0.560357 0.446448 0.000000
0.597269 0.449622 0.000000
0.633722 0.452873 0.000000
0.666239 0.452125 0.000000
0.702419 0.455375 0.000000
0.738476 0.458640 0.000000
0.770397 0.462028 0.000000
0.805997 0.469459 0.000000
0.837781 0.472877 0.000000
0.869276 0.480446 0.000000
0.901747 0.483436 0.000000
0.933165 0.491035 0.000000
0.964355 0.502785 0.000000
0.992370 0.514122 0.000000
1.000000 0.537255 0.082353
0.000000 0.459464 0.071473
0.000000 0.463508 0.070024
0.000000 0.464286 0.060594
0.000000 0.465278 0.046754
0.000000 0.466804 0.021271
0.033143 0.468025 0.000000
0.085374 0.471809 0.000000
0.135744 0.471641 0.000000
0.175662 0.471794 0.000000
0.213230 0.471244 0.000000
0.248936 0.475181 0.000000
0.290211 0.474815 0.000000
0.330312 0.474372 0.000000
0.369604 0.473884 0.000000
0.408072 0.477272 0.000000
0.442084 0.476738 0.000000
0.483955 0.480003 0.000000
0.521538 0.479301 0.000000
0.558602 0.482582 0.000000
0.595727 0.481819 0.000000
0.632380 0.485084 0.000000
0.664790 0.488426 0.000000
0.701411 0.487617 0.000000
0.738201 0.490654 0.000000
0.770306 0.493980 0.000000
0.802319 0.497322 0.000000
0.838025 0.504707 0.000000
0.869886 0.508095 0.000000
0.901442 0.515618 0.000000
0.933730 0.522744 0.000000
0.965209 0.530297 0.000000
0.992676 0.537972 0.000000
1.000000 0.560784 0.094118
0.000000 0.494713 0.084031
0.000000 0.494820 0.082750
0.000000 0.499321 0.076097
0.000000 0.500359 0.062989
0.000000 0.501747 0.041184
0.000000 0.503532 0.008042
0.050263 0.504265 0.000000
0.114183 0.507637 0.000000
0.162097 0.507454 0.000000
0.201480 0.507576 0.000000
0.241398 0.507317 0.000000
0.279393 0.506996 0.000000
0.320424 0.510491 0.000000
0.360586 0.510033 0.000000
0.400000 0.509499 0.000000
0.438590 0.512871 0.000000
0.476982 0.512245 0.000000
0.515023 0.511574 0.000000
0.552483 0.514839 0.000000
0.589960 0.514076 0.000000
0.627176 0.517281 0.000000
0.663722 0.520546 0.000000
0.701030 0.519585 0.000000
0.733471 0.522866 0.000000
0.769863 0.526040 0.000000
0.802060 0.529335 0.000000
0.838209 0.532555 0.000000
0.869963 0.540002 0.000000
0.901900 0.543359 0.000000
0.934279 0.550469 0.000000
0.965850 0.557961 0.000000
0.994202 0.565148 0.000000
1.000000 0.584314 0.105882
0.000000 0.529946 0.100542
0.000000 0.529946 0.100542
0.000000 0.530602 0.093751
0.000000 0.531395 0.084733
0.000000 0.536538 0.068894
0.000000 0.538125 0.042954
0.000000 0.540093 0.003021
0.085969 0.540108 0.000000
0.137209 0.539956 0.000000
0.184726 0.543618 0.000000
0.227268 0.543374 0.000000
0.271839 0.543038 0.000000
0.314305 0.542657 0.000000
0.355398 0.542199 0.000000
0.395315 0.545617 0.000000
0.434760 0.545068 0.000000
0.473152 0.544640 0.000000
0.511559 0.547906 0.000000
0.549859 0.547158 0.000000
0.587549 0.550362 0.000000
0.625269 0.549538 0.000000
0.662455 0.552697 0.000000
0.699733 0.551812 0.000000
0.732403 0.555062 0.000000
0.769039 0.558206 0.000000
0.801434 0.561471 0.000000
0.837797 0.564645 0.000000
0.870649 0.567651 0.000000
0.902785 0.570901 0.000000
0.934554 0.578317 0.000000
0.962982 0.585504 0.000000
0.994644 0.592950 0.000000
1.000000 0.611765 0.117647
0.000000 0.565209 0.116869
0.000000 0.565209 0.116869
0.000000 0.565698 0.111986
0.000000 0.566400 0.104738
0.000000 0.567514 0.092287
0.000000 0.572824 0.073610
0.000000 0.574594 0.043122
0.036118 0.576181 0.006989
0.115694 0.576059 0.006012
0.169085 0.575906 0.004730
0.209140 0.575753 0.003433
0.255467 0.579461 0.000000
0.300221 0.579095 0.000000
0.342992 0.578653 0.000000
0.384436 0.578164 0.000000
0.424933 0.577600 0.000000
0.468833 0.580850 0.000000
0.508003 0.580179 0.000000
0.546761 0.579446 0.000000
0.584680 0.582757 0.000000
0.622919 0.581888 0.000000
0.660548 0.585000 0.000000
0.698253 0.584070 0.000000
0.731258 0.587259 0.000000
0.768231 0.590341 0.000000
0.800916 0.593530 0.000000
0.834363 0.592447 0.000000
0.866514 0.599741 0.000000
0.902983 0.602808 0.000000
0.935241 0.605997 0.000000
0.963043 0.613489 0.000000
0.995605 0.620523 0.000000
1.000000 0.635294 0.133333
0.000000 0.596551 0.133074
0.000000 0.600458 0.133074
0.000000 0.600916 0.128756
0.000000 0.601450 0.123629
0.000000 0.602426 0.113512
0.000000 0.603723 0.098802
0.000000 0.605585 0.073136
0.000000 0.607584 0.033997
0.087144 0.611765 0.023453
0.149660 0.611627 0.022171
0.193271 0.611505 0.020874
0.242908 0.611292 0.018997
0.288640 0.611032 0.016861
0.332174 0.610712 0.024491
0.378714 0.610300 0.021515
0.418921 0.613855 0.006287
0.459174 0.613352 0.012818
0.498802 0.612772 0.008728
0.541924 0.616068 0.001190
0.581048 0.615259 0.000000
0.619852 0.614359 0.000000
0.653696 0.617548 0.000000
0.691920 0.616571 0.000000
0.729503 0.619608 0.000000
0.762982 0.622705 0.000000
0.800626 0.621592 0.000000
0.833539 0.624674 0.000000
0.866300 0.627787 0.000000
0.903059 0.630762 0.000000
0.935866 0.637766 0.000000
0.964218 0.641001 0.000000
0.996216 0.648295 0.000000
1.000000 0.662745 0.152941
0.000000 0.631800 0.153185
0.000000 0.631800 0.153185
0.000000 0.632151 0.150179
0.000000 0.632731 0.144976
0.000000 0.637415 0.137774
0.000000 0.638758 0.124086
0.000000 0.640253 0.112276
0.000000 0.642069 0.081865
0.050004 0.643473 0.055879
0.128786 0.643366 0.054856
0.177157 0.643229 0.062791
0.229770 0.643046 0.061357
0.276005 0.646830 0.047669
0.320821 0.646571 0.055039
0.368322 0.646220 0.052155
0.409812 0.645838 0.049149
0.454932 0.645350 0.045304
0.494285 0.648844 0.027085
0.533944 0.648249 0.033982
0.573190 0.647578 0.029099
0.616037 0.650767 0.020447
0.650507 0.650019 0.015518
0.688716 0.653132 0.006851
0.727214 0.652110 0.000687
0.761013 0.655177 0.003601
0.799237 0.653971 0.000000
0.832563 0.656977 0.000000
0.865705 0.659983 0.000000
0.902846 0.662852 0.000000
0.936309 0.665660 0.000000
0.964920 0.668788 0.000000
0.997147 0.675975 0.000000
1.000000 0.690196 0.172549
0.000000 0.667063 0.177188
0.000000 0.667063 0.177188
0.000000 0.667308 0.175250
0.000000 0.667842 0.170962
0.000000 0.668666 0.163943
0.000000 0.669749 0.154147
0.000000 0.671122 0.140795
0.000000 0.672801 0.122576
0.000000 0.675090 0.092302
0.088212 0.679149 0.087465
0.162081 0.679026 0.086366
0.212665 0.678889 0.085222
0.262821 0.678691 0.083757
0.314076 0.678431 0.081865
0.357824 0.678157 0.079927
0.399359 0.681804 0.075822
0.445228 0.681376 0.073014
0.485801 0.680903 0.078737
0.530175 0.680308 0.075502
0.569604 0.679713 0.063066
0.608392 0.683024 0.066590
0.647364 0.682261 0.062516
0.685710 0.685451 0.055543
0.720058 0.684611 0.050889
0.758175 0.687663 0.042084
0.796597 0.686549 0.035096
0.830304 0.689555 0.025040
0.864378 0.688396 0.031205
0.902251 0.691112 0.019501
0.935851 0.693904 0.008377
0.965240 0.696803 0.011475
0.998291 0.703670 0.000000
1.000000 0.717647 0.192157
0.000000 0.698421 0.201099
0.000000 0.698421 0.201099
0.000000 0.698573 0.199954
0.000000 0.699046 0.196338
0.000000 0.703700 0.190539
0.000000 0.704692 0.182467
0.000000 0.705943 0.171633
0.000000 0.707469 0.157290
0.000000 0.709575 0.134936
0.057130 0.710948 0.117189
0.130602 0.710857 0.116533
0.194949 0.710719 0.115541
0.254063 0.710521 0.120928
0.300816 0.714290 0.118288
0.345968 0.714031 0.116869
0.393988 0.713695 0.115099
0.435889 0.713329 0.113329
0.481437 0.712871 0.111131
0.521736 0.712383 0.108949
0.565438 0.715770 0.104723
0.604913 0.715145 0.102037
0.644083 0.714443 0.099123
0.682582 0.717693 0.094224
0.717067 0.716930 0.091035
0.755291 0.720043 0.085084
0.789548 0.719142 0.081117
0.827680 0.722087 0.083436
0.861784 0.721035 0.078965
0.899733 0.723842 0.071153
0.929137 0.726879 0.063798
0.962509 0.729763 0.072602
0.995529 0.732723 0.073655
1.000000 0.745098 0.219608
0.000000 0.733700 0.228901
0.000000 0.733700 0.228901
0.000000 0.733761 0.228397
0.000000 0.734203 0.229358
0.000000 0.734874 0.224643
0.000000 0.735622 0.214954
0.000000 0.736919 0.209400
0.000000 0.738323 0.193439
0.000000 0.740276 0.181094
0.000000 0.742611 0.158206
0.100084 0.742657 0.156313
0.173037 0.746517 0.154421
0.231250 0.746349 0.153567
0.282185 0.746166 0.152575
0.334234 0.745907 0.151339
0.383429 0.745602 0.149935
0.430777 0.745235 0.148363
0.472313 0.744854 0.146792
0.516960 0.748363 0.143648
0.557153 0.747845 0.141756
0.596918 0.747280 0.139651
0.636332 0.746639 0.137316
0.674998 0.749966 0.133410
0.713970 0.749172 0.130663
0.752834 0.748287 0.134615
0.786709 0.751522 0.123369
0.825345 0.750469 0.127199
0.859144 0.753552 0.122545
0.893202 0.752499 0.121630
0.926589 0.755520 0.122210
0.959854 0.758526 0.130297
0.992859 0.761563 0.131289
1.000000 0.772549 0.247059
0.000000 0.765042 0.260594
0.000000 0.765042 0.260594
0.000000 0.765042 0.260594
0.000000 0.765393 0.262394
0.000000 0.765957 0.254658
0.000000 0.766751 0.249393
0.000000 0.767773 0.246616
0.000000 0.769238 0.231769
0.000000 0.770809 0.219791
0.000000 0.776791 0.207309
0.048478 0.778439 0.186755
0.140856 0.778332 0.191760
0.213611 0.778164 0.190982
0.267659 0.777996 0.190173
0.321798 0.777752 0.189151
0.372366 0.777478 0.188006
0.420676 0.777142 0.186694
0.462837 0.776791 0.185367
0.507988 0.780346 0.182681
0.548592 0.779889 0.181079
0.593118 0.779309 0.179141
0.632792 0.778729 0.177264
0.672160 0.778058 0.175235
0.710811 0.781353 0.171908
0.745449 0.780652 0.169833
0.783841 0.783795 0.166766
0.818341 0.782879 0.173342
