app/src/main/assets/filters/Pentax_Katen.cube
# Created from Pentax_Katen.plut
LUT_3D_SIZE 5
DOMAIN_MIN 0.0 0.0 0.0
DOMAIN_MAX 1.0 1.0 1.0
0.000000 0.000000 0.000000
0.160784 0.000000 0.000000
0.478431 0.007843 0.000000
0.807843 0.027451 0.000000
1.000000 0.187472 0.020508
0.000000 0.129412 0.011765
0.162112 0.141299 0.000000
0.485832 0.153201 0.000000
0.814496 0.189105 0.000000
1.000000 0.452888 0.073960
0.000000 0.423529 0.047059
0.118975 0.438499 0.000000
0.473777 0.451713 0.000000
0.813825 0.479332 0.000000
1.000000 0.657923 0.119020
0.000000 0.768627 0.172549
0.000000 0.775860 0.136553
0.414801 0.784176 0.030213
0.800412 0.786938 0.010636
0.988281 0.862821 0.303136
0.000000 0.988235 0.564706
0.000000 0.989059 0.561990
0.338506 0.998428 0.540520
0.773312 0.995636 0.541329
0.995483 0.993423 0.549752
0.007599 0.006561 0.146166
0.204776 0.000000 0.145800
0.508721 0.000000 0.146242
0.823011 0.000000 0.143221
1.000000 0.258824 0.308949
0.000000 0.165286 0.181613
0.189151 0.176120 0.184817
0.519493 0.176440 0.175021
0.851804 0.177127 0.150362
1.000000 0.484840 0.357076
0.000000 0.451118 0.246632
0.121096 0.468635 0.222827
0.494224 0.479835 0.217258
0.834165 0.495186 0.205875
1.000000 0.669810 0.402380
0.000000 0.776471 0.384314
0.000000 0.785229 0.363210
0.442206 0.791302 0.347295
0.806851 0.794171 0.342885
0.989548 0.866224 0.506508
0.000000 0.992157 0.666667
0.000000 0.993301 0.664073
0.370382 0.997940 0.650950
0.782330 0.995270 0.650340
0.995850 0.997147 0.653605
0.000000 0.029068 0.456748
0.235615 0.009476 0.473899
0.545510 0.000000 0.451759
0.838544 0.000000 0.447898
1.000000 0.327749 0.596414
0.000000 0.215595 0.482017
0.220005 0.223926 0.501686
0.555642 0.224826 0.491203
0.864714 0.238132 0.477852
1.000000 0.521645 0.617609
0.000000 0.494530 0.518379
0.156130 0.506996 0.525704
0.526711 0.513329 0.517800
0.842405 0.530327 0.510018
1.000000 0.689158 0.635706
0.000000 0.788357 0.599847
0.000000 0.798444 0.590661
0.484230 0.801892 0.585061
0.816602 0.804974 0.584497
0.990021 0.869566 0.684779
0.000000 0.992157 0.764706
0.000000 0.994034 0.762310
0.409644 0.997375 0.755962
0.790997 0.994873 0.758526
0.996216 0.996857 0.761151
0.000000 0.113222 0.811688
0.312291 0.096773 0.846143
0.609049 0.052323 0.837247
0.882216 0.029786 0.820920
1.000000 0.443305 0.848005
0.000000 0.332433 0.807126
0.287327 0.337957 0.844556
0.599786 0.340719 0.834287
0.872023 0.364874 0.822446
1.000000 0.592233 0.852979
0.000000 0.565606 0.811139
0.250156 0.575509 0.838132
0.579156 0.577783 0.830259
0.852750 0.593576 0.818906
1.000000 0.723690 0.858427
0.000000 0.816464 0.832471
0.167010 0.822309 0.840909
0.546761 0.823682 0.837064
0.831632 0.827344 0.831632
0.988998 0.884871 0.872404
0.000000 0.992279 0.898054
0.000000 0.996628 0.898558
0.486305 0.996567 0.897261
0.811582 0.998184 0.894865
0.996307 0.996429 0.897246
0.389944 0.493523 1.000000
0.562982 0.500633 1.000000
0.718883 0.511284 1.000000
0.890791 0.536858 1.000000
0.995697 0.676036 1.000000
0.382605 0.615793 1.000000
0.557061 0.619104 1.000000
0.713695 0.626017 1.000000
0.890318 0.643839 1.000000
0.995743 0.746899 1.000000
0.368490 0.730251 1.000000
0.549508 0.733669 1.000000
0.711498 0.736721 1.000000
0.889326 0.750668 1.000000
0.992157 0.823529 1.000000
0.337957 0.879698 1.000000
0.531197 0.883436 1.000000
0.696666 0.883055 1.000000
0.881651 0.889937 1.000000
0.992157 0.925490 1.000000
0.278431 1.000000 1.000000
0.486275 1.000000 1.000000
0.670588 1.000000 1.000000
0.870588 1.000000 1.000000
1.000000 1.000000 1.000000
