app/src/main/assets/filters/pentax.cube
# Created from pentax.plut
LUT_3D_SIZE 5
DOMAIN_MIN 0.0 0.0 0.0
DOMAIN_MAX 1.0 1.0 1.0
0.000000 0.000000 0.000000
0.241962 0.012131 0.000000
0.484459 0.050065 0.000000
0.701198 0.093828 0.000000
0.901137 0.134295 0.000000
0.000000 0.246647 0.002945
0.233509 0.241566 0.000000
0.454948 0.241230 0.000000
0.675441 0.250813 0.000000
0.914183 0.272557 0.000000
0.000000 0.465141 0.011673
0.226062 0.467948 0.000000
0.461982 0.476432 0.000000
0.698131 0.484825 0.000000
0.936187 0.496101 0.000000
0.000000 0.715297 0.029206
0.228885 0.720684 0.000000
0.470344 0.726162 0.000000
0.711284 0.732799 0.000000
0.953170 0.740978 0.000000
0.000000 0.974807 0.054994
0.239551 0.975616 0.061479
0.485466 0.980087 0.113390
0.736843 0.993225 0.210864
0.975814 1.000000 0.435889
0.000000 0.000000 0.000000
0.250141 0.000000 0.249561
0.500267 0.000000 0.248142
0.741314 0.000000 0.230579
0.953262 0.017975 0.200519
0.000000 0.243244 0.245701
0.236576 0.236576 0.236576
0.517311 0.197986 0.184466
0.784405 0.111086 0.000000
0.938781 0.238743 0.189258
0.000000 0.465873 0.230945
0.154696 0.480491 0.158053
0.466011 0.480156 0.068452
0.732555 0.472969 0.000000
0.959640 0.482826 0.153674
0.000000 0.719173 0.239948
0.000000 0.731212 0.030503
0.439643 0.734295 0.000000
0.713695 0.735271 0.000000
0.969177 0.737438 0.000000
0.000000 0.975113 0.248859
0.241276 0.975799 0.251652
0.488472 0.984131 0.269154
0.740581 0.996918 0.318791
0.977066 1.000000 0.486992
0.000000 0.000000 0.000000
0.263386 0.000000 0.482399
0.498939 0.000000 0.497887
0.732723 0.000000 0.490120
0.945480 0.005692 0.467994
0.000000 0.231495 0.526635
0.247623 0.193500 0.602457
0.565560 0.099596 0.564431
0.816037 0.000000 0.506081
0.940002 0.236530 0.463355
0.000000 0.466102 0.470405
0.119127 0.479408 0.483543
0.475120 0.475120 0.475120
0.772122 0.453864 0.444327
0.964599 0.483803 0.467094
0.000000 0.719768 0.476814
0.000000 0.727993 0.445686
0.413703 0.742596 0.415991
0.722881 0.739544 0.375097
0.975799 0.734646 0.438056
0.011658 0.975402 0.484825
0.245426 0.975998 0.486168
0.491127 0.984192 0.494926
0.745769 1.000000 0.520333
0.981064 1.000000 0.617487
0.000000 0.000000 0.000000
0.000000 0.000000 0.000000
0.505547 0.000000 0.730114
0.724407 0.000000 0.722942
0.936553 0.000000 0.705486
0.000000 0.171832 0.872450
0.279652 0.000000 0.994079
0.570977 0.000000 0.875456
0.789792 0.000000 0.788190
0.945541 0.235355 0.711788
0.000000 0.461509 0.731731
0.000000 0.463157 0.804028
0.485710 0.451087 0.814710
0.798123 0.412329 0.796887
0.965072 0.482338 0.724941
0.000000 0.719280 0.725689
0.000000 0.727810 0.734295
0.402152 0.739193 0.744045
0.731563 0.731563 0.731563
0.979919 0.735485 0.729442
0.016495 0.975616 0.729290
0.248280 0.980087 0.732570
0.497551 0.992462 0.742031
0.749645 1.000000 0.751034
0.988556 1.000000 0.796933
0.000000 0.000000 0.000000
0.000000 0.000000 0.000000
0.000000 0.000000 0.000000
0.726802 0.000000 0.946349
0.933440 0.005524 0.931579
0.232731 0.195346 0.935714
0.323537 0.196796 0.932357
0.502678 0.202716 0.929351
0.714885 0.215061 0.933333
0.946334 0.237613 0.944549
0.235492 0.457664 0.946609
0.328771 0.458976 0.947616
0.517845 0.466499 0.957778
0.734874 0.472221 0.959823
0.965362 0.483055 0.963851
0.242466 0.714717 0.965667
0.337881 0.718593 0.970214
0.527413 0.723781 0.975006
0.746578 0.727214 0.975616
0.980087 0.735195 0.979141
0.271977 0.976104 0.984131
0.360494 0.979385 0.987015
0.547967 0.990692 0.997070
0.768719 0.996124 1.000000
1.000000 1.000000 1.000000
