app/src/main/assets/filters/ricoh_positive.cube
# Created from ricoh_positive.plut
LUT_3D_SIZE 9
DOMAIN_MIN 0.0 0.0 0.0
DOMAIN_MAX 1.0 1.0 1.0
0.014755 0.012711 0.013275
0.108385 0.019165 0.013245
0.278950 0.026123 0.018448
0.451865 0.032685 0.025025
0.601877 0.027375 0.015167
0.734722 0.007095 0.011719
0.828168 0.008118 0.011551
0.889311 0.010636 0.012467
0.898085 0.011536 0.014817
0.045502 0.104128 0.062455
0.103182 0.090623 0.032044
0.264179 0.076783 0.023301
0.442741 0.061646 0.023850
0.583429 0.045563 0.013596
0.691310 0.052064 0.022354
0.824430 0.013169 0.013535
0.885969 0.009567 0.011658
0.897490 0.011734 0.014389
0.062791 0.249958 0.097017
0.128069 0.218570 0.067033
0.242817 0.204761 0.055695
0.427863 0.193973 0.053925
0.575341 0.201678 0.068132
0.680659 0.125704 0.030091
0.783383 0.176898 0.045106
0.870665 0.057389 0.024338
0.895918 0.015625 0.014511
0.080690 0.435767 0.214176
0.169207 0.411612 0.168948
0.256458 0.373159 0.097047
0.411933 0.348257 0.074876
0.575311 0.326848 0.051698
0.705318 0.333227 0.060853
0.794156 0.330358 0.079545
0.847684 0.311177 0.078309
0.888487 0.249546 0.100771
0.148028 0.551308 0.296300
0.205966 0.547051 0.273869
0.333791 0.528725 0.201495
0.386831 0.505333 0.116823
0.551553 0.490867 0.090776
0.687999 0.471153 0.055558
0.784207 0.439246 0.044388
0.866484 0.415229 0.017990
0.893050 0.445548 0.018143
0.251347 0.615518 0.348486
0.271763 0.621241 0.349050
0.340505 0.625177 0.327550
0.458381 0.611139 0.219303
0.514031 0.619226 0.141756
0.658946 0.613077 0.122072
0.787167 0.606409 0.071931
0.868910 0.570291 0.053025
0.924941 0.514641 0.019776
0.304341 0.641596 0.367697
0.323720 0.642115 0.358419
0.372183 0.648157 0.347662
0.500145 0.662440 0.284337
0.585565 0.697108 0.285344
0.611841 0.700557 0.262989
0.772107 0.740841 0.205066
0.887068 0.729580 0.099107
0.946014 0.685328 0.048753
0.375555 0.659617 0.361654
0.399161 0.665293 0.358648
0.491768 0.687785 0.341772
0.559274 0.697597 0.311604
0.601343 0.711315 0.310460
0.682643 0.750301 0.302113
0.807736 0.802167 0.283986
0.860472 0.821118 0.258793
0.958953 0.803662 0.127367
0.481407 0.687449 0.348898
0.498634 0.692042 0.347005
0.536706 0.700328 0.336797
0.583200 0.711162 0.329198
0.655711 0.741650 0.319722
0.734096 0.779477 0.310018
0.793973 0.803403 0.302831
0.856138 0.823270 0.281498
0.920943 0.824674 0.207782
0.016037 0.018906 0.065766
0.095888 0.027085 0.068757
0.248676 0.033982 0.069825
0.410483 0.035782 0.067353
0.565164 0.028046 0.059998
0.684596 0.007279 0.021332
0.790677 0.001617 0.015503
0.875105 0.005814 0.015183
0.897520 0.010849 0.016037
0.034730 0.084199 0.090913
0.082231 0.081270 0.081987
0.220050 0.074937 0.075853
0.391257 0.068666 0.070619
0.547021 0.059144 0.065614
0.678676 0.021073 0.030076
0.777768 0.009339 0.013504
0.874342 0.008652 0.010941
0.899916 0.012253 0.015763
0.046433 0.199252 0.121218
0.080552 0.199893 0.112581
0.214694 0.192752 0.092515
0.392905 0.178576 0.087907
0.532235 0.170581 0.086168
0.664179 0.133654 0.063905
0.764141 0.118914 0.040391
0.863310 0.043809 0.021637
0.897978 0.015427 0.014893
0.019577 0.375036 0.184573
0.063645 0.360143 0.173404
0.227802 0.361669 0.140108
0.385199 0.337102 0.110826
0.547387 0.323339 0.110674
0.664225 0.302388 0.103090
0.768856 0.283284 0.087465
0.836942 0.276280 0.073991
0.891234 0.216968 0.104311
0.086946 0.528099 0.288731
0.119417 0.526558 0.278187
0.235370 0.522454 0.249195
0.365118 0.491920 0.168124
0.534447 0.482765 0.139742
0.665888 0.468147 0.137575
0.772259 0.438682 0.094957
0.851637 0.411566 0.058518
0.883146 0.414817 0.085603
0.191760 0.609339 0.359869
0.219257 0.610407 0.351873
0.298817 0.627573 0.349401
0.385245 0.619471 0.300771
0.500206 0.615106 0.213336
0.650172 0.607065 0.179126
0.772808 0.596216 0.151553
0.861128 0.563317 0.088151
0.923796 0.499870 0.023438
0.271534 0.635752 0.371557
0.286381 0.639490 0.371939
0.330892 0.646723 0.366232
0.405539 0.651362 0.338338
0.571878 0.694530 0.296468
0.620935 0.717815 0.301991
0.754574 0.722850 0.237980
0.872160 0.724849 0.166186
0.944900 0.672816 0.073213
0.337881 0.655360 0.375036
0.338750 0.655467 0.374792
0.405539 0.667796 0.360632
0.524269 0.694682 0.333989
0.596674 0.713222 0.323125
0.652796 0.737804 0.318791
0.787060 0.794644 0.291035
0.850401 0.823896 0.276081
0.959945 0.809354 0.138659
0.440467 0.686000 0.371069
0.458671 0.687037 0.362295
0.513680 0.699123 0.351492
0.568856 0.709270 0.334874
0.626413 0.730114 0.330205
0.720195 0.775372 0.319005
0.788052 0.803159 0.308995
0.847593 0.823392 0.297078
0.909545 0.830014 0.232700
0.014221 0.006943 0.181781
0.070863 0.011109 0.196384
0.215778 0.031296 0.166079
0.380835 0.043168 0.171481
0.527657 0.051362 0.173754
0.681117 0.044450 0.181720
0.761028 0.036805 0.152392
0.868498 0.041306 0.170291
0.889555 0.014496 0.085985
0.035523 0.067674 0.172198
0.069917 0.065980 0.166201
0.188098 0.072206 0.157168
0.368185 0.064988 0.151492
0.527092 0.063935 0.158556
0.649012 0.057877 0.155657
0.752499 0.041764 0.137545
0.860624 0.053422 0.149142
0.890318 0.009491 0.051057
0.031342 0.191119 0.208789
0.068437 0.188830 0.213886
0.189975 0.188235 0.189715
0.370169 0.175113 0.179080
0.526574 0.159442 0.167727
0.652171 0.144869 0.162112
0.752728 0.129900 0.158938
0.849393 0.091829 0.130983
0.904952 0.017182 0.020203
0.034195 0.314946 0.214099
0.065446 0.322759 0.223575
0.168582 0.342901 0.224399
0.363104 0.337972 0.199222
0.529397 0.320836 0.196597
0.641154 0.312978 0.193423
0.746151 0.289006 0.192706
0.840787 0.256168 0.169238
0.900618 0.179568 0.114153
0.045243 0.486946 0.292683
0.060578 0.482506 0.286488
0.179767 0.494743 0.280446
0.345525 0.490135 0.250141
0.523003 0.480705 0.224201
0.652522 0.470451 0.228641
0.753368 0.462089 0.233753
0.827390 0.472084 0.233265
0.893446 0.379065 0.136873
0.113893 0.607324 0.384466
0.117571 0.608240 0.382498
0.165301 0.614771 0.376837
0.315099 0.616922 0.350851
0.495430 0.613062 0.295918
0.644038 0.603082 0.268482
0.759655 0.599817 0.279698
0.856291 0.597070 0.278828
0.910231 0.565560 0.227893
0.189197 0.633295 0.399695
0.209323 0.638819 0.400290
0.271015 0.650355 0.395605
0.350408 0.662318 0.386847
0.463035 0.677089 0.365133
0.618173 0.726085 0.363790
0.751141 0.728985 0.346258
0.863020 0.723537 0.343694
0.933227 0.679332 0.231113
0.277836 0.655970 0.403037
0.288838 0.660609 0.407050
0.313558 0.664927 0.403799
0.380560 0.675349 0.391485
0.570871 0.710735 0.340978
0.630564 0.732891 0.348165
0.733181 0.776043 0.335866
0.860105 0.850172 0.351019
0.964324 0.831205 0.272267
0.327047 0.667597 0.401114
0.341848 0.667857 0.394110
0.432166 0.689998 0.384314
0.499458 0.702251 0.368215
0.597467 0.721401 0.345693
0.666072 0.751476 0.340810
0.768978 0.798062 0.319295
0.838697 0.824674 0.317205
0.900832 0.841733 0.282643
0.008682 0.004944 0.334783
0.031739 0.004089 0.324239
0.178698 0.004288 0.304738
0.354040 0.027314 0.280720
0.524666 0.040986 0.294697
0.646021 0.029908 0.293431
0.752514 0.032029 0.286076
0.845502 0.007782 0.276555
0.868696 0.015915 0.237385
0.047669 0.045945 0.271702
0.061189 0.042267 0.288090
0.175128 0.061631 0.282002
0.333074 0.063294 0.265873
0.520256 0.054490 0.273396
0.629648 0.078004 0.279286
0.734737 0.057588 0.275853
0.839567 0.023178 0.271153
0.876204 0.029633 0.229084
0.042863 0.167086 0.316960
0.056992 0.151797 0.311025
0.157061 0.157092 0.302144
0.332082 0.171313 0.294743
0.506615 0.158389 0.292760
0.632410 0.154940 0.286610
0.739300 0.149325 0.290105
0.842069 0.135683 0.287373
0.899260 0.085130 0.223713
0.096696 0.317113 0.331365
0.108843 0.315221 0.338262
0.162203 0.329992 0.360723
0.335637 0.333898 0.335531
0.505608 0.318395 0.323507
0.635996 0.299336 0.313588
0.742916 0.279850 0.303655
0.838636 0.261616 0.304082
0.914000 0.212879 0.262989
0.140948 0.489494 0.387137
0.169146 0.492302 0.396124
0.211597 0.493111 0.400381
0.313481 0.485069 0.374395
0.499809 0.480461 0.349767
0.638560 0.468910 0.348501
0.738796 0.464027 0.346258
0.837095 0.443641 0.344976
0.906035 0.365835 0.285847
0.129885 0.624079 0.457908
0.136614 0.619852 0.459495
0.172580 0.615137 0.460304
0.292973 0.609323 0.429953
0.479347 0.610864 0.405600
0.631022 0.607202 0.382345
0.754665 0.603311 0.385031
0.836408 0.605020 0.403662
0.900282 0.594232 0.391638
0.154192 0.644205 0.434684
0.159014 0.646967 0.438529
0.176242 0.656321 0.446967
0.283909 0.680858 0.447990
0.432029 0.722683 0.476738
0.607645 0.734432 0.463645
0.747143 0.728740 0.443503
0.857816 0.721309 0.457115
0.912383 0.707408 0.451926
0.216464 0.659480 0.434470
0.232547 0.663935 0.434913
0.255512 0.666041 0.428519
0.325765 0.682841 0.430579
0.417975 0.707027 0.442542
0.584680 0.748806 0.445869
0.705806 0.784253 0.459739
0.840604 0.829267 0.476188
0.950256 0.817777 0.418479
0.269306 0.674296 0.435798
0.285344 0.674922 0.431342
0.301717 0.674662 0.424720
0.350225 0.685145 0.424567
0.473899 0.710979 0.407477
0.620050 0.741131 0.380301
0.682902 0.767269 0.384360
0.846036 0.841062 0.369741
0.898131 0.865003 0.384894
0.067308 0.000000 0.443076
0.088914 0.000000 0.438285
0.171359 0.000000 0.449775
0.296941 0.002548 0.446082
0.496437 0.024582 0.412222
0.631373 0.052811 0.416083
0.743954 0.054887 0.410010
0.830045 0.064775 0.411841
0.864393 0.047456 0.365530
0.024353 0.005829 0.415808
0.031373 0.002060 0.414740
0.135637 0.012604 0.411994
0.303029 0.041566 0.406821
0.474174 0.063737 0.394797
0.619257 0.056214 0.397513
0.732235 0.073747 0.405066
0.822995 0.083497 0.402380
0.869154 0.049058 0.354009
0.067674 0.145968 0.411093
0.081056 0.153155 0.419608
0.158755 0.146853 0.430503
0.308904 0.155734 0.424445
0.474586 0.154604 0.412222
0.620249 0.143877 0.414603
0.730739 0.168017 0.408530
0.821866 0.161929 0.420676
0.888975 0.137987 0.373007
0.023529 0.288411 0.473640
0.051377 0.293034 0.468421
0.141299 0.287816 0.454246
0.300175 0.298375 0.450462
0.471839 0.317250 0.440040
0.616312 0.301808 0.440787
0.727718 0.299794 0.435752
0.825086 0.283284 0.435691
0.891051 0.241947 0.406134
0.169131 0.484138 0.512902
0.174472 0.483665 0.514916
0.210208 0.489448 0.526040
0.306279 0.469368 0.494285
0.478782 0.477394 0.478614
0.622263 0.465003 0.469993
0.738216 0.449897 0.465522
0.839719 0.429938 0.461112
0.906767 0.377234 0.425147
0.169192 0.619577 0.560693
0.184695 0.611353 0.549279
0.222995 0.606485 0.545693
0.320150 0.604120 0.530861
0.455848 0.607980 0.520333
0.619516 0.603967 0.494331
0.742092 0.602411 0.499443
0.832288 0.602213 0.502922
0.909148 0.573739 0.483909
0.183001 0.701198 0.562737
0.186572 0.703365 0.567163
0.210086 0.712581 0.576715
0.247791 0.725872 0.592508
0.416922 0.735546 0.579248
0.594354 0.735607 0.556573
0.743862 0.729839 0.536294
0.859266 0.726589 0.539330
0.911849 0.710475 0.540566
0.226810 0.719173 0.543496
0.230655 0.724636 0.552209
0.254337 0.741741 0.571878
0.309743 0.774868 0.608484
0.416434 0.797482 0.603571
0.524468 0.803281 0.584588
0.727810 0.860914 0.615015
0.856718 0.851682 0.596017
0.944732 0.823896 0.585122
0.244709 0.709560 0.509422
0.247974 0.710155 0.508858
0.270787 0.719112 0.516152
0.333120 0.746456 0.537270
0.433753 0.784970 0.570535
0.526833 0.795941 0.560067
0.734981 0.856138 0.590265
0.803708 0.868482 0.586801
0.923156 0.899519 0.557275
0.225483 0.000519 0.583062
0.227710 0.000229 0.583719
0.245945 0.000000 0.580591
0.305058 0.000000 0.564752
0.445792 0.007874 0.570291
0.612696 0.019165 0.526802
0.723003 0.053468 0.534173
0.822232 0.040192 0.535744
0.876539 0.032349 0.511910
0.114199 0.007004 0.533959
0.125780 0.006836 0.541741
0.153368 0.006912 0.552682
0.254536 0.001083 0.535286
0.448920 0.023316 0.531685
0.598001 0.053330 0.509758
0.710277 0.062882 0.514275
0.815412 0.058167 0.522454
0.876265 0.028473 0.498497
0.095308 0.114641 0.514290
0.101518 0.118074 0.525414
0.170932 0.120684 0.539605
0.286244 0.133181 0.547784
0.445319 0.162051 0.538857
0.594995 0.151186 0.521843
0.715267 0.147677 0.527138
0.819211 0.162158 0.537911
0.870207 0.095308 0.483818
0.048493 0.275975 0.558434
0.059739 0.271153 0.558541
0.122728 0.259556 0.553445
0.271290 0.271443 0.556619
0.450340 0.289921 0.553964
0.592493 0.302083 0.542168
0.715908 0.290379 0.543893
0.809079 0.281285 0.541070
0.878035 0.247211 0.518654
0.041962 0.439887 0.622370
0.056580 0.434318 0.612268
0.121096 0.435492 0.598459
0.277150 0.441550 0.586618
0.451270 0.452018 0.579049
0.598016 0.456748 0.571313
0.719768 0.451759 0.571649
0.829725 0.443854 0.567453
0.894224 0.398215 0.555367
0.170535 0.624201 0.642054
0.190402 0.614755 0.634653
0.224903 0.590585 0.624201
0.295323 0.586328 0.624216
0.452705 0.597024 0.620294
0.605081 0.604334 0.605295
0.732937 0.596887 0.600778
0.838819 0.584970 0.599313
0.921431 0.543862 0.575998
0.125628 0.720974 0.677287
0.135225 0.718303 0.674769
0.220661 0.718700 0.663416
0.308598 0.731289 0.667033
0.434211 0.725505 0.664927
0.586130 0.731945 0.648631
0.736339 0.727382 0.628641
0.845823 0.721889 0.633906
0.929137 0.702495 0.618845
0.251453 0.785657 0.661372
0.256962 0.789487 0.664942
0.265492 0.797604 0.671946
0.285054 0.813565 0.684565
0.339300 0.845838 0.713054
0.509987 0.865293 0.717479
0.702159 0.861570 0.693599
0.869718 0.860075 0.678965
0.951980 0.834516 0.667247
0.289174 0.791394 0.644678
0.297017 0.797482 0.651575
0.304417 0.803983 0.660746
0.328283 0.815900 0.670481
0.403647 0.842832 0.683223
0.488426 0.872190 0.697368
0.622431 0.902800 0.710918
0.796414 0.927977 0.706630
0.923003 0.939773 0.704082
0.302007 0.000000 0.641169
0.315099 0.000000 0.648127
0.323247 0.000000 0.651652
0.346914 0.000000 0.658350
0.414069 0.000000 0.661326
0.618753 0.015091 0.679652
0.732555 0.054276 0.666361
0.819532 0.065339 0.644099
0.867063 0.093141 0.620752
0.246540 0.001083 0.625055
0.260899 0.000565 0.630838
0.284092 0.000000 0.640360
0.323430 0.000000 0.652049
0.392630 0.000000 0.653117
0.571603 0.011582 0.658534
0.708797 0.071656 0.640253
0.811185 0.087495 0.634379
0.870176 0.102037 0.607843
0.169009 0.076692 0.589578
0.171588 0.063981 0.584390
0.197070 0.057725 0.596963
0.275685 0.048493 0.625071
0.417807 0.080247 0.654734
0.571176 0.130953 0.642832
0.702235 0.159747 0.631037
0.807141 0.179232 0.639094
0.869047 0.130190 0.592096
0.051637 0.269459 0.678859
0.052308 0.267643 0.680888
0.087678 0.259022 0.671885
0.291981 0.263966 0.674250
0.435981 0.270008 0.675135
0.572473 0.281209 0.652964
0.706065 0.302602 0.650370
0.816220 0.315953 0.655863
0.883207 0.299092 0.630472
0.024689 0.430747 0.685542
0.047730 0.430976 0.689403
0.103166 0.427985 0.697841
0.224750 0.416663 0.678569
0.434714 0.434607 0.682109
0.580468 0.437949 0.682216
0.708202 0.455543 0.667140
0.819257 0.458473 0.675319
0.896956 0.426703 0.651560
0.117342 0.521477 0.683879
0.120562 0.524498 0.685542
0.143938 0.546715 0.700038
0.256947 0.568765 0.714199
0.429450 0.579217 0.706462
0.592905 0.593133 0.704311
0.721935 0.598520 0.701900
0.832975 0.594400 0.698405
0.910826 0.559625 0.674617
0.111971 0.708171 0.737423
0.115999 0.708736 0.739055
0.162356 0.704295 0.731319
0.300389 0.694759 0.719799
0.421973 0.706447 0.735409
0.589853 0.719768 0.741100
0.725612 0.724636 0.725856
0.852033 0.721324 0.725338
0.937407 0.693629 0.708568
0.192096 0.772213 0.719005
0.198444 0.773739 0.717739
0.231189 0.789715 0.725963
0.292439 0.813901 0.744549
0.386328 0.845304 0.774914
0.504204 0.858930 0.787625
0.709102 0.868193 0.785397
0.859724 0.851423 0.755108
0.940917 0.830335 0.745678
0.290944 0.823972 0.701793
0.292638 0.825437 0.702892
0.301991 0.831464 0.706523
0.325963 0.847166 0.720912
0.371679 0.868315 0.742321
0.443381 0.897459 0.764706
0.580133 0.945129 0.792218
0.801175 0.960891 0.801801
0.961425 0.969039 0.794690
0.365911 0.000000 0.682643
0.366079 0.000000 0.682734
0.374411 0.000000 0.685939
0.399466 0.000000 0.696422
0.443061 0.000000 0.709361
0.600824 0.006867 0.728573
0.768841 0.061677 0.727291
0.845472 0.058076 0.738125
0.879301 0.062287 0.726680
0.336217 0.000000 0.673304
0.337652 0.000000 0.672740
0.360113 0.000000 0.682048
0.386633 0.000000 0.692164
0.435737 0.000000 0.711055
0.577218 0.004150 0.735378
0.741436 0.059174 0.732708
0.835218 0.068452 0.742428
0.881178 0.066651 0.728145
0.261936 0.001740 0.640696
0.278431 0.001312 0.650126
0.309957 0.000458 0.666880
0.339559 0.000000 0.680171
0.407523 0.000000 0.712413
0.553643 0.009567 0.754788
0.707744 0.058305 0.749615
0.819150 0.132341 0.761028
0.874205 0.176059 0.723964
0.149096 0.276448 0.747936
0.165255 0.271290 0.745785
0.217853 0.253254 0.738994
0.325734 0.226139 0.733898
0.463523 0.219684 0.759533
0.586465 0.223545 0.778882
0.702449 0.269978 0.770672
0.826169 0.332906 0.767544
0.873808 0.319280 0.743053
0.005219 0.378744 0.771176
0.006210 0.379232 0.773892
0.026017 0.392096 0.786664
0.147784 0.404227 0.799496
0.424155 0.408728 0.785367
0.596704 0.418631 0.800381
0.709514 0.427863 0.789715
0.830991 0.471641 0.781872
0.889784 0.462577 0.770184
0.045518 0.495216 0.732937
0.054292 0.499550 0.736507
0.101747 0.516747 0.756985
0.192264 0.540078 0.791485
0.314260 0.559640 0.822873
0.560647 0.573892 0.814008
0.727291 0.585367 0.817975
0.830152 0.599741 0.796368
0.912734 0.587884 0.785916
0.216098 0.592950 0.739086
0.234897 0.603204 0.745998
0.248310 0.608652 0.750195
0.310246 0.636057 0.777615
0.378759 0.662364 0.802121
0.550332 0.694499 0.822629
0.714611 0.717281 0.833616
0.851301 0.731243 0.829267
0.928740 0.711391 0.812757
0.170871 0.753384 0.775113
0.175692 0.756847 0.779370
0.184131 0.761715 0.786999
0.222614 0.782376 0.808560
0.292638 0.826215 0.870741
0.520592 0.839643 0.858289
0.705119 0.847562 0.867201
0.846784 0.845579 0.846937
0.958297 0.833738 0.839887
0.268864 0.823072 0.753216
0.277363 0.828351 0.755322
0.298146 0.839277 0.760739
0.325109 0.851164 0.770886
0.398276 0.881682 0.799252
0.471412 0.902708 0.827832
0.605783 0.940688 0.861662
0.788373 0.972824 0.888457
0.974853 0.979675 0.885664
0.403357 0.000000 0.700496
0.408942 0.000000 0.703761
0.417121 0.000000 0.706462
0.429114 0.000000 0.712551
0.477028 0.000000 0.725124
0.565011 0.006134 0.744442
0.771679 0.060060 0.746639
0.845426 0.068147 0.751431
0.871061 0.061341 0.748882
0.391272 0.000000 0.700298
0.391455 0.000000 0.700374
0.407050 0.000000 0.705989
0.421927 0.000000 0.710109
0.463416 0.000000 0.724666
0.548287 0.003464 0.744976
0.746105 0.050660 0.753185
0.838621 0.071489 0.755138
0.871077 0.061311 0.751385
0.362707 0.000000 0.691157
0.371313 0.000000 0.694362
0.382147 0.000000 0.699672
0.409323 0.000000 0.709499
0.461021 0.001816 0.729610
0.531792 0.006989 0.753140
0.692164 0.036866 0.763180
0.818235 0.072801 0.766003
0.870390 0.072297 0.764675
0.350072 0.172183 0.716487
0.374289 0.171359 0.726329
0.397940 0.152590 0.728008
0.422446 0.117998 0.730404
0.471107 0.079469 0.745342
0.538384 0.037903 0.763546
0.683024 0.083909 0.793469
0.806043 0.104524 0.801907
0.867659 0.169238 0.799680
0.105272 0.342260 0.803098
0.123095 0.340108 0.806165
0.163165 0.344228 0.820951
0.232670 0.360327 0.847578
0.397742 0.353674 0.849668
0.569009 0.337423 0.844144
0.718273 0.345235 0.857832
0.819348 0.364324 0.852934
0.893309 0.401099 0.838590
0.079210 0.438834 0.788251
0.091203 0.445579 0.793133
0.137758 0.464515 0.820172
0.190341 0.476143 0.840192
0.287648 0.486290 0.883055
0.515373 0.500542 0.917403
0.718807 0.529824 0.902235
0.839139 0.536477 0.891722
0.917388 0.573083 0.870680
0.138949 0.552102 0.763272
0.142977 0.554330 0.766857
0.155215 0.560357 0.775082
0.227665 0.584161 0.816037
0.309880 0.609003 0.859754
0.412207 0.631235 0.894316
0.691417 0.682170 0.927962
0.854047 0.683986 0.928649
0.941772 0.718914 0.909651
0.297932 0.721660 0.820508
0.313237 0.722606 0.827008
0.338216 0.723537 0.833768
0.383825 0.727108 0.849104
0.419944 0.735912 0.863371
0.458564 0.772366 0.919646
0.589593 0.780285 0.936675
0.823316 0.828382 0.951736
0.952087 0.841413 0.935958
0.249348 0.802075 0.806973
0.257740 0.805859 0.810498
0.266987 0.812818 0.817716
0.310765 0.828550 0.833829
0.385077 0.859754 0.863966
0.484565 0.893706 0.899596
0.628275 0.920546 0.926421
0.787457 0.948836 0.960388
0.967712 0.971420 0.971008
