app/src/main/assets/filters/ricoh_yellow.cube
# Created from ricoh_yellow.plut
LUT_3D_SIZE 9
DOMAIN_MIN 0.0 0.0 0.0
DOMAIN_MAX 1.0 1.0 1.0
0.056367 0.056886 0.055589
0.078874 0.057237 0.056260
0.182895 0.056519 0.056931
0.356176 0.054337 0.058000
0.531441 0.053513 0.058396
0.684535 0.050385 0.057725
0.795529 0.045792 0.059083
0.865232 0.043885 0.062593
0.894865 0.046143 0.067155
0.062501 0.078370 0.061891
0.072389 0.075059 0.059876
0.167239 0.067597 0.060182
0.340352 0.061906 0.059236
0.507454 0.057877 0.058915
0.634668 0.061570 0.060960
0.791745 0.044938 0.058854
0.862196 0.040253 0.061143
0.892973 0.043153 0.065934
0.051957 0.165896 0.049439
0.072190 0.150576 0.046342
0.165911 0.150179 0.059449
0.336187 0.132357 0.062684
0.501671 0.097200 0.061448
0.642222 0.093965 0.064485
0.743999 0.122499 0.067567
0.859327 0.045411 0.062684
0.890867 0.040131 0.064714
0.083726 0.350927 0.085466
0.129335 0.324392 0.074601
0.171695 0.277394 0.060182
0.306325 0.256382 0.062577
0.491203 0.255833 0.065675
0.637797 0.254124 0.068894
0.748043 0.237552 0.073823
0.812680 0.227161 0.077974
0.864820 0.161410 0.100816
0.115465 0.498970 0.129717
0.165911 0.490120 0.120668
0.286183 0.459327 0.087022
0.316899 0.414603 0.063966
0.460227 0.407584 0.065827
0.617441 0.394095 0.069581
0.734813 0.363210 0.070619
0.828168 0.375372 0.067109
0.859983 0.398184 0.068132
0.128099 0.648722 0.230350
0.168963 0.636912 0.221561
0.317021 0.601877 0.201633
0.430320 0.572000 0.149081
0.461204 0.544671 0.073259
0.598093 0.554208 0.077348
0.733333 0.555016 0.087892
0.824796 0.514641 0.086610
0.893782 0.454139 0.080934
0.103258 0.718944 0.292409
0.108232 0.717678 0.290822
0.190509 0.716564 0.290532
0.458350 0.681056 0.272221
0.548898 0.676829 0.245136
0.598367 0.668788 0.186725
0.732372 0.703990 0.105699
0.841810 0.699367 0.116014
0.914275 0.647913 0.118990
0.120348 0.748775 0.322347
0.123659 0.749325 0.322744
0.170077 0.748379 0.321767
0.323339 0.741192 0.319493
0.555566 0.708125 0.287022
0.617472 0.715694 0.266468
0.774945 0.771008 0.183017
0.824750 0.789502 0.135363
0.920714 0.778683 0.140795
0.117998 0.751247 0.325490
0.122057 0.757427 0.331945
0.151308 0.759060 0.333608
0.216419 0.759609 0.335744
0.412802 0.736065 0.315770
0.633707 0.727123 0.262333
0.751247 0.772900 0.218463
0.809293 0.790600 0.193454
0.885054 0.796780 0.130465
0.042634 0.048875 0.057282
0.077623 0.053025 0.066941
0.173022 0.055512 0.067338
0.319326 0.055680 0.068086
0.493950 0.056764 0.070634
0.632441 0.054002 0.062028
0.753002 0.042374 0.058640
0.854139 0.049638 0.064302
0.899962 0.050156 0.069718
0.058869 0.074311 0.066590
0.070405 0.074571 0.070619
0.147402 0.070481 0.071229
0.295460 0.066438 0.070802
0.468360 0.063340 0.071717
0.626047 0.050340 0.061082
0.733501 0.051026 0.059251
0.849577 0.044038 0.060868
0.897490 0.047730 0.068208
0.066300 0.131716 0.071916
0.069566 0.134905 0.072770
0.139605 0.133913 0.075380
0.295186 0.125139 0.074983
0.451179 0.122393 0.076234
0.610239 0.096895 0.071977
0.723751 0.088289 0.067155
0.843137 0.046769 0.062318
0.891966 0.040116 0.064897
0.042603 0.280629 0.069276
0.067521 0.270710 0.071992
0.164096 0.278477 0.082963
0.288838 0.252720 0.079652
0.461326 0.246128 0.080354
0.601434 0.227054 0.080583
0.728267 0.181491 0.072496
0.805661 0.198016 0.075105
0.875593 0.122606 0.105211
0.080369 0.461753 0.119524
0.094392 0.459648 0.118074
0.191791 0.457786 0.122103
0.305699 0.413413 0.097536
0.449134 0.409873 0.098131
0.604334 0.400443 0.100633
0.723110 0.365133 0.079622
0.814405 0.374289 0.089021
0.851698 0.359548 0.108888
0.093843 0.625803 0.215061
0.131395 0.614603 0.203967
0.255238 0.594186 0.196292
0.372030 0.577813 0.179019
0.461219 0.549706 0.096529
0.593194 0.553292 0.099367
0.722530 0.546105 0.097017
0.818219 0.508293 0.086854
0.890547 0.435813 0.078676
0.089769 0.719661 0.293751
0.099626 0.717906 0.291341
0.115679 0.719875 0.292638
0.386542 0.693446 0.286488
0.536110 0.684016 0.265995
0.607523 0.686778 0.215290
0.715541 0.686107 0.117479
0.830747 0.695048 0.110765
0.915984 0.632349 0.114763
0.085451 0.749523 0.323598
0.092531 0.749981 0.323629
0.128069 0.751415 0.324804
0.235981 0.750072 0.327306
0.527932 0.711116 0.302953
0.601389 0.711254 0.280720
0.764630 0.771771 0.214176
0.812680 0.791501 0.150912
0.922774 0.784680 0.141512
0.115511 0.754742 0.329290
0.120729 0.757504 0.331991
0.126955 0.759503 0.334051
0.180056 0.759182 0.334096
0.350790 0.747692 0.328542
0.617929 0.726452 0.290806
0.744640 0.772473 0.227161
0.806958 0.793149 0.207141
0.875242 0.801297 0.133471
0.050996 0.023529 0.152621
0.084993 0.033417 0.170382
0.177752 0.055924 0.150439
0.315877 0.065309 0.137057
0.474723 0.062669 0.134783
0.625055 0.062287 0.137255
0.724605 0.063279 0.134661
0.845624 0.055207 0.159213
0.892348 0.048234 0.081224
0.063478 0.071794 0.112688
0.071260 0.069413 0.121355
0.142626 0.073564 0.128817
0.292103 0.069810 0.121904
0.459846 0.071519 0.127855
0.599207 0.063584 0.123903
0.718120 0.058518 0.124956
0.832990 0.045777 0.126757
0.897047 0.049683 0.072465
0.049866 0.146334 0.116793
0.069902 0.152911 0.134127
0.145998 0.147005 0.142885
0.298436 0.137026 0.141802
0.462348 0.126131 0.136843
0.608637 0.115724 0.137530
0.719387 0.108553 0.144930
0.820829 0.084428 0.133059
0.905119 0.052735 0.074250
0.055177 0.235309 0.095186
0.073716 0.247715 0.109895
0.131777 0.277592 0.138430
0.290867 0.277134 0.158007
0.461845 0.263111 0.161654
0.591043 0.254963 0.163287
0.710414 0.235096 0.172503
0.810056 0.206638 0.163058
0.883406 0.111559 0.108965
0.076280 0.415549 0.132036
0.082155 0.410605 0.132494
0.144747 0.432288 0.151690
0.303685 0.421378 0.171588
0.449668 0.423484 0.182132
0.600916 0.419013 0.196765
0.715862 0.412024 0.212406
0.795529 0.424247 0.221088
0.862547 0.308385 0.130541
0.092638 0.581643 0.199222
0.102235 0.572564 0.194736
0.132143 0.577661 0.199817
0.296773 0.574228 0.214115
0.465095 0.561212 0.211780
0.594965 0.564752 0.220874
0.720211 0.568139 0.244663
0.821683 0.568338 0.259678
0.882506 0.525643 0.214359
0.066178 0.710460 0.287434
0.076341 0.714763 0.288930
0.101289 0.727047 0.298634
0.224613 0.724254 0.309514
0.477455 0.685344 0.304540
0.606561 0.690547 0.275578
0.719692 0.705272 0.307179
0.828840 0.703243 0.307301
0.905150 0.645411 0.150881
0.076844 0.745418 0.320089
0.078050 0.748562 0.322911
0.093751 0.753521 0.326940
0.132448 0.760052 0.334157
0.402228 0.747585 0.342382
0.594598 0.723003 0.311284
0.693919 0.754498 0.337072
0.826658 0.817380 0.230350
0.932479 0.806561 0.148943
0.078431 0.755154 0.330526
0.081132 0.757671 0.332738
0.090272 0.760632 0.335607
0.132799 0.764935 0.340230
0.235584 0.765438 0.345571
0.588983 0.740826 0.342947
0.697917 0.760403 0.278035
0.815793 0.803357 0.232288
0.868254 0.813138 0.154406
0.067536 0.018875 0.286915
0.077333 0.019959 0.275883
0.166461 0.029786 0.266407
0.303777 0.065949 0.259007
0.478553 0.077699 0.264744
0.610361 0.070603 0.266850
0.725963 0.083818 0.278370
0.821515 0.081300 0.285878
0.850431 0.071717 0.239948
0.084047 0.074311 0.222202
0.091051 0.069566 0.232731
0.163317 0.083589 0.243275
0.286961 0.085344 0.244953
0.471641 0.079469 0.245304
0.595834 0.099413 0.259449
0.707759 0.094179 0.264469
0.814557 0.088808 0.276738
0.857954 0.074296 0.230091
0.076463 0.155489 0.233326
0.079728 0.140078 0.231357
0.148714 0.143313 0.248844
0.292912 0.160052 0.270375
0.459815 0.147982 0.263020
0.596567 0.145281 0.261357
0.712673 0.148013 0.278904
0.818235 0.143709 0.288014
0.884184 0.096056 0.229801
0.097215 0.279988 0.215030
0.107469 0.281697 0.227573
0.147524 0.302739 0.263508
0.301137 0.298009 0.294133
0.458778 0.282841 0.290410
0.602350 0.264286 0.285481
0.716167 0.247959 0.285145
0.814435 0.236652 0.298939
0.890501 0.183368 0.265324
0.154711 0.439628 0.239353
0.174258 0.447379 0.258015
0.204944 0.452415 0.279362
0.302556 0.436332 0.295674
0.450797 0.439719 0.312505
0.601251 0.432120 0.321767
0.712154 0.427253 0.328603
0.813535 0.407752 0.337102
0.882109 0.334249 0.289937
0.136950 0.590616 0.274037
0.134676 0.587701 0.276738
0.161807 0.583597 0.287709
0.294972 0.577264 0.309773
0.467597 0.571359 0.336461
0.594568 0.580148 0.350698
0.722545 0.577386 0.366171
0.811063 0.585534 0.400015
0.881376 0.570504 0.398291
0.044358 0.698558 0.293904
0.052705 0.699092 0.294652
0.103105 0.702602 0.306218
0.185733 0.712703 0.321248
0.455360 0.702281 0.367514
0.612650 0.704555 0.394842
0.722652 0.711833 0.419486
0.830686 0.709102 0.449332
0.889723 0.699367 0.462104
0.064378 0.744717 0.322972
0.067948 0.746059 0.323339
0.072343 0.756558 0.331319
0.092958 0.766339 0.340108
0.210590 0.773068 0.358251
0.592737 0.776516 0.419013
0.713558 0.792218 0.438636
0.829236 0.825956 0.479515
0.925887 0.818418 0.480095
0.071260 0.760098 0.337194
0.067781 0.764080 0.340566
0.072984 0.768032 0.344427
0.092058 0.773297 0.349340
0.112200 0.773541 0.350698
0.416953 0.776761 0.380484
0.650721 0.774670 0.406043
0.820310 0.827100 0.362783
0.870726 0.853529 0.349218
0.141024 0.016266 0.395804
0.154604 0.012634 0.393301
0.220539 0.012619 0.407385
0.308827 0.044572 0.418601
0.473610 0.081147 0.416693
0.610590 0.109178 0.403937
0.724559 0.107744 0.399847
0.817121 0.109453 0.413275
0.859693 0.118135 0.372930
0.094804 0.052384 0.367559
0.094331 0.042832 0.367102
0.169894 0.063783 0.371649
0.296956 0.090593 0.381613
0.447196 0.103120 0.397299
0.601053 0.101091 0.390021
0.713069 0.114778 0.393500
0.807813 0.119997 0.403143
0.878355 0.144778 0.358740
0.102235 0.146349 0.364446
0.107637 0.147326 0.366934
0.194247 0.166903 0.386908
0.309926 0.181720 0.393668
0.450446 0.173892 0.406943
0.602365 0.162219 0.405402
0.711223 0.191455 0.392416
0.806226 0.185016 0.422187
0.874220 0.171618 0.383764
0.089555 0.282811 0.377005
0.100191 0.290883 0.379034
0.167315 0.285267 0.387289
0.304326 0.290440 0.411444
0.454337 0.314839 0.416953
0.599054 0.299626 0.420584
0.712291 0.297673 0.421668
0.809888 0.285496 0.431540
0.874357 0.249790 0.412879
0.189242 0.469917 0.397314
0.194675 0.470497 0.402136
0.232593 0.480354 0.427497
0.324422 0.452003 0.421454
0.463050 0.458396 0.445899
0.607401 0.444862 0.447105
0.724620 0.433005 0.450217
0.823865 0.418723 0.455390
0.892149 0.365621 0.431312
0.198383 0.599573 0.400931
0.210758 0.589425 0.392508
0.243977 0.588342 0.399847
0.346349 0.589197 0.421683
0.469673 0.586435 0.457984
0.600366 0.589273 0.465629
0.725856 0.589578 0.480262
0.815198 0.591638 0.493355
0.899290 0.560204 0.484123
0.126436 0.698299 0.387198
0.131563 0.702052 0.392828
0.150134 0.707622 0.404746
0.231815 0.714214 0.426474
0.450233 0.714092 0.455543
0.613703 0.714321 0.494133
0.730053 0.719890 0.513024
0.839094 0.718837 0.521004
0.896117 0.704768 0.534356
0.065232 0.738338 0.344594
0.065187 0.743542 0.348577
0.072267 0.759823 0.365393
0.130571 0.806378 0.402747
0.244266 0.823499 0.437858
0.571344 0.826520 0.501671
0.754543 0.842664 0.543023
0.844099 0.841337 0.566232
0.922774 0.816449 0.570077
0.068055 0.768765 0.351202
0.068208 0.769909 0.351415
0.076234 0.773999 0.353964
0.091539 0.782605 0.361288
0.118257 0.793896 0.376028
0.329961 0.813504 0.419547
0.640269 0.809323 0.463981
0.792584 0.847791 0.520806
0.900130 0.890272 0.531304
0.310887 0.061143 0.535592
0.318456 0.060105 0.536843
0.328069 0.054200 0.530358
0.366842 0.039841 0.514137
0.471031 0.089784 0.538735
0.608331 0.107027 0.529168
0.720760 0.136339 0.532448
0.822492 0.123903 0.535256
0.877165 0.124407 0.516060
0.191989 0.080385 0.505104
0.205600 0.077180 0.507332
0.247318 0.071336 0.514382
0.314351 0.059739 0.491173
0.460716 0.104005 0.518639
0.593408 0.129076 0.513390
0.706264 0.140566 0.513222
0.811582 0.131975 0.518914
0.874479 0.117296 0.505959
0.179644 0.183413 0.490913
0.193927 0.177615 0.488212
0.233387 0.171878 0.499443
0.339925 0.198474 0.511208
0.463416 0.223850 0.511528
0.593439 0.206744 0.521096
0.712215 0.208606 0.521950
0.815671 0.221592 0.530266
0.863111 0.150835 0.490028
0.141543 0.294560 0.484276
0.151492 0.298116 0.490181
0.217395 0.290196 0.499672
0.335042 0.303410 0.518318
0.470298 0.328145 0.523369
0.595956 0.337148 0.526848
0.715373 0.326177 0.529793
0.805585 0.317678 0.528130
0.869032 0.288273 0.515404
0.122179 0.462303 0.535027
0.125963 0.455299 0.526619
0.180331 0.457038 0.520058
0.347860 0.453620 0.530312
0.476799 0.461265 0.540078
0.602609 0.465537 0.550027
0.725200 0.467292 0.545342
0.825391 0.459342 0.547311
0.890349 0.422614 0.546304
0.217960 0.627070 0.508232
0.234257 0.618662 0.507271
0.268635 0.598444 0.513680
0.349981 0.599054 0.534051
0.494942 0.602502 0.553368
0.614542 0.608118 0.566827
0.735363 0.602365 0.571557
0.834333 0.593759 0.575174
0.923598 0.551507 0.563592
0.168536 0.716228 0.508003
0.176822 0.714366 0.507393
0.253483 0.715236 0.508003
0.352010 0.728008 0.523949
0.504509 0.721630 0.554253
0.625895 0.724804 0.573678
0.734340 0.726772 0.587976
0.838972 0.724331 0.598901
0.922377 0.705379 0.595148
0.165942 0.775326 0.441596
0.169680 0.779370 0.449760
0.199466 0.791989 0.467597
0.221698 0.806363 0.496223
0.345129 0.835920 0.525994
0.545815 0.851438 0.571267
0.739971 0.844663 0.607691
0.862028 0.856489 0.629084
0.940581 0.833585 0.629572
0.095506 0.777722 0.385229
0.096788 0.778943 0.385473
0.119768 0.795789 0.400931
0.150576 0.811429 0.414984
0.189700 0.830655 0.438239
0.333104 0.851286 0.482231
0.583795 0.881437 0.565850
0.823209 0.903059 0.614405
0.916258 0.924422 0.643229
0.410834 0.089494 0.601617
0.413779 0.089784 0.601587
0.420890 0.089433 0.602121
0.449989 0.092302 0.608103
0.493965 0.096880 0.605203
0.648524 0.174380 0.636408
0.746380 0.192828 0.640482
0.827588 0.186404 0.619898
0.869368 0.185153 0.595438
0.347097 0.102129 0.599817
0.352773 0.098451 0.598367
0.394293 0.095171 0.605966
0.417884 0.090898 0.604105
0.475990 0.093874 0.598520
0.607706 0.152865 0.618448
0.719387 0.195056 0.620661
0.818860 0.193301 0.611780
0.873442 0.192737 0.589303
0.229282 0.165316 0.591470
0.236561 0.165789 0.595987
0.240970 0.155154 0.601266
0.356832 0.158770 0.599298
0.487114 0.201831 0.610101
0.612558 0.271763 0.610971
0.715435 0.261418 0.614069
0.809644 0.276005 0.615671
0.870726 0.215000 0.578882
0.229526 0.333562 0.594263
0.235004 0.333791 0.596078
0.274388 0.333944 0.601389
0.424277 0.357855 0.616999
0.514839 0.364706 0.627817
0.627680 0.380148 0.633417
0.723690 0.383276 0.627390
0.823713 0.396582 0.628962
0.881880 0.368505 0.603784
0.151293 0.479438 0.599252
0.178546 0.483223 0.603906
0.258350 0.488731 0.614740
0.379660 0.468635 0.607507
0.520424 0.485039 0.623590
0.624002 0.497887 0.645426
0.726802 0.506065 0.636545
0.826368 0.511223 0.635309
0.903975 0.477104 0.623392
0.177035 0.557168 0.591501
0.180163 0.560678 0.593027
0.209812 0.586633 0.605722
0.381491 0.610391 0.622690
0.528389 0.610773 0.627909
0.639933 0.622827 0.645090
0.744320 0.628779 0.658732
0.842069 0.627649 0.647120
0.922881 0.592676 0.633753
0.203662 0.720165 0.590097
0.207446 0.721172 0.592279
0.242283 0.716701 0.588830
0.378561 0.708949 0.595789
0.524331 0.721553 0.622187
0.652995 0.735470 0.650431
0.747005 0.738720 0.659480
0.860029 0.738323 0.666438
0.941039 0.712490 0.660105
0.230411 0.773480 0.547173
0.237415 0.775372 0.546975
0.274235 0.790661 0.557397
0.340047 0.809995 0.574823
0.444099 0.841413 0.609903
0.569162 0.854215 0.643702
0.748730 0.861158 0.692241
0.863706 0.856062 0.689570
0.938857 0.835035 0.684916
0.224933 0.804044 0.467796
0.234928 0.808240 0.474098
0.246082 0.813001 0.484062
0.276463 0.824887 0.501396
0.354131 0.850324 0.532601
0.465263 0.888365 0.580697
0.662806 0.927306 0.639353
0.848066 0.942657 0.696788
0.954650 0.957259 0.721645
0.454078 0.108583 0.629603
0.458488 0.109941 0.631113
0.461021 0.109957 0.630533
0.487541 0.117922 0.639200
0.537652 0.133074 0.649424
0.655009 0.191150 0.670039
0.763210 0.231464 0.681071
0.791379 0.230472 0.673228
0.843030 0.194034 0.629191
0.437003 0.109346 0.629297
0.443061 0.109239 0.630182
0.456306 0.112306 0.633997
0.477195 0.118868 0.641016
0.529183 0.135073 0.653147
0.642573 0.187213 0.672541
0.761227 0.234516 0.683528
0.790784 0.234684 0.676707
0.845350 0.193149 0.628733
0.311650 0.197894 0.651637
0.329061 0.187060 0.650385
0.372732 0.159121 0.641917
0.437949 0.124269 0.637827
0.506401 0.139574 0.657343
0.631983 0.192142 0.686488
0.743267 0.262181 0.698604
0.804532 0.262394 0.697078
0.850858 0.214878 0.632441
0.339437 0.322103 0.675105
0.351263 0.321660 0.679698
0.390585 0.333257 0.698787
0.424537 0.341665 0.714931
0.555947 0.357961 0.723796
0.659373 0.367453 0.733165
0.760204 0.396887 0.756161
0.826596 0.388540 0.704540
0.838788 0.344106 0.644633
0.278859 0.452338 0.648661
0.284688 0.451423 0.649958
0.313222 0.456489 0.658396
0.407996 0.463233 0.674510
0.560678 0.501808 0.741039
0.681270 0.533181 0.765042
0.757519 0.522560 0.766690
0.835431 0.526864 0.731380
0.877089 0.484596 0.676158
0.169863 0.546822 0.632273
0.179110 0.550011 0.634104
0.257267 0.569635 0.650050
0.458824 0.612909 0.696071
0.560357 0.639063 0.737102
0.675792 0.648341 0.748638
0.776806 0.657557 0.772839
0.860334 0.666011 0.756954
0.930556 0.644694 0.732082
0.342184 0.636805 0.638911
0.368719 0.647410 0.644404
0.387304 0.652903 0.649348
0.479286 0.681407 0.674830
0.557259 0.706783 0.698573
0.672343 0.737453 0.731014
0.778073 0.760250 0.760342
0.879103 0.772213 0.774990
0.947143 0.753017 0.751217
0.270802 0.764111 0.619928
0.275166 0.767056 0.623651
0.284840 0.774456 0.632517
0.326421 0.793622 0.653239
0.398047 0.843381 0.723568
0.618708 0.855467 0.744030
0.775982 0.863966 0.768597
0.872160 0.863371 0.774411
0.963256 0.852003 0.778958
0.291859 0.816159 0.567102
0.293751 0.817700 0.564828
0.329686 0.828382 0.574945
0.367147 0.845777 0.592432
0.448478 0.873716 0.621927
0.527840 0.895308 0.662242
0.656306 0.930800 0.717464
0.843397 0.961364 0.783734
0.970169 0.972915 0.821210
0.488182 0.122683 0.645243
0.488273 0.122713 0.645258
0.498924 0.128603 0.650004
0.519570 0.133242 0.654231
0.547951 0.142077 0.659266
0.633005 0.186313 0.679225
0.762081 0.248142 0.698238
0.783810 0.246311 0.691783
0.807767 0.233371 0.674022
0.474418 0.120928 0.643290
0.481239 0.122744 0.645228
0.492042 0.126894 0.648814
0.510521 0.134554 0.654780
0.545922 0.147005 0.663462
0.622980 0.181216 0.679561
0.756100 0.255879 0.702983
0.787655 0.253696 0.697459
0.807645 0.240528 0.680537
0.427985 0.134981 0.643778
0.437705 0.131395 0.643671
0.464210 0.128801 0.646525
0.490913 0.130602 0.651484
0.535409 0.148394 0.665904
0.615946 0.187472 0.689967
0.731487 0.254307 0.704311
0.796597 0.277104 0.715770
0.810620 0.259205 0.696651
0.369924 0.269688 0.704387
0.370352 0.269871 0.704646
0.375631 0.273091 0.706874
0.399115 0.275639 0.710796
0.567193 0.263996 0.717266
0.651865 0.262272 0.736934
0.734859 0.304021 0.749813
0.826108 0.351171 0.766094
0.838743 0.331426 0.745861
0.446876 0.439719 0.754131
0.462638 0.445930 0.765896
0.489479 0.457847 0.785519
0.509346 0.460594 0.795590
0.547570 0.465431 0.806470
0.685710 0.463569 0.811505
0.782956 0.465095 0.838773
0.872450 0.510994 0.843824
0.892958 0.516350 0.839734
0.374075 0.534966 0.690532
0.400000 0.544503 0.701381
0.445716 0.564553 0.729015
0.550988 0.605203 0.795056
0.621485 0.627146 0.849241
0.710460 0.645640 0.876493
0.806134 0.614878 0.874250
0.892714 0.649592 0.884016
0.937102 0.665537 0.875700
0.305943 0.611307 0.660075
0.307774 0.613107 0.663203
0.340139 0.623682 0.676799
0.498726 0.667597 0.735912
0.598077 0.701793 0.791257
0.665156 0.727169 0.834470
0.797269 0.762356 0.888396
0.907134 0.784024 0.903548
0.964935 0.795544 0.889677
0.441794 0.772595 0.724437
0.459464 0.777646 0.733547
0.489967 0.781796 0.745388
0.537667 0.785061 0.763149
0.558114 0.797925 0.786755
0.608560 0.827665 0.828946
0.737774 0.837812 0.879393
0.892897 0.877302 0.913283
0.968276 0.882826 0.909148
0.340810 0.807736 0.643214
0.344686 0.810147 0.644877
0.362951 0.818387 0.653651
0.404974 0.837568 0.678904
0.480446 0.872236 0.721874
0.577813 0.902296 0.766262
0.699489 0.927657 0.810605
0.854444 0.956603 0.881834
0.976776 0.974365 0.925734
