app/src/main/assets/filters/Ricoh_GR2_POSI.cube
# Created from Ricoh_GR2_POSI.plut
LUT_3D_SIZE 9
DOMAIN_MIN 0.0 0.0 0.0
DOMAIN_MAX 1.0 1.0 1.0
0.000000 0.000000 0.000000
0.112078 0.000000 0.000000
0.225879 0.000000 0.000000
0.341741 0.000000 0.000000
0.459922 0.000000 0.000000
0.580545 0.000000 0.000000
0.699641 0.000000 0.000000
0.802441 0.000000 0.000000
0.910536 0.000000 0.000000
0.009308 0.089036 0.020966
0.101793 0.090455 0.014252
0.220554 0.083696 0.000000
0.342107 0.072572 0.000000
0.461860 0.063111 0.000000
0.583993 0.052766 0.000000
0.711742 0.041840 0.000000
0.822766 0.040345 0.000000
0.923156 0.039902 0.000000
0.016419 0.179507 0.040269
0.101244 0.183001 0.034089
0.204883 0.181247 0.023224
0.320684 0.169741 0.034180
0.454337 0.165255 0.000000
0.591058 0.151446 0.000000
0.727520 0.141360 0.000000
0.848722 0.140276 0.000000
0.936751 0.142977 0.000000
0.021012 0.271641 0.057786
0.100237 0.279774 0.033707
0.203815 0.276555 0.040284
0.313954 0.276432 0.027588
0.419898 0.283513 0.007309
0.576852 0.255558 0.043717
0.730739 0.259037 0.000000
0.868727 0.253910 0.000000
0.948058 0.255634 0.000000
0.023499 0.367300 0.074174
0.097307 0.382315 0.040269
0.203876 0.380682 0.048295
0.319051 0.383261 0.043076
0.439353 0.385916 0.032410
0.543709 0.403510 0.005020
0.717525 0.370993 0.060227
0.861570 0.364721 0.066835
0.945022 0.365988 0.078767
0.025269 0.473152 0.091447
0.098329 0.486702 0.081437
0.208026 0.498238 0.048554
0.325002 0.499290 0.052857
0.450278 0.504234 0.052552
0.579080 0.508690 0.044419
0.677119 0.535958 0.012009
0.854337 0.500923 0.090700
0.927276 0.503380 0.104967
0.028092 0.588693 0.110887
0.099870 0.604486 0.104128
0.211902 0.622171 0.059586
0.332174 0.622599 0.072206
0.460853 0.628000 0.078050
0.591989 0.633158 0.075441
0.724849 0.638392 0.069108
0.811002 0.676265 0.033860
0.905333 0.678965 0.052247
0.033738 0.704738 0.143145
0.109667 0.725963 0.132189
0.218235 0.750362 0.075593
0.340795 0.749004 0.104524
0.472404 0.754803 0.117479
0.605707 0.760708 0.112734
0.740200 0.767010 0.109117
0.875486 0.773785 0.106554
0.924041 0.830747 0.071351
0.043641 0.818296 0.186221
0.135332 0.838331 0.173754
0.239933 0.866514 0.108263
0.365087 0.877409 0.113359
0.487327 0.883391 0.158190
0.621729 0.890684 0.155108
0.757305 0.897719 0.153292
0.893141 0.905074 0.151995
0.981170 0.916335 0.160220
0.004196 0.002228 0.079820
0.104906 0.001434 0.081361
0.238880 0.000000 0.105516
0.344350 0.000000 0.069551
0.462898 0.000000 0.057832
0.583825 0.000000 0.044831
0.705257 0.000000 0.031403
0.809827 0.000000 0.027008
0.917769 0.000000 0.022263
0.007233 0.093278 0.107256
0.096101 0.096101 0.096101
0.218708 0.083848 0.090562
0.343664 0.070558 0.084047
0.464256 0.060761 0.071107
0.587549 0.050477 0.056840
0.717159 0.039658 0.041825
0.831891 0.037430 0.035691
0.931487 0.037385 0.032059
0.014282 0.183230 0.129519
0.097505 0.187167 0.118975
0.198642 0.186755 0.107362
0.321721 0.178775 0.082109
0.453635 0.165377 0.073640
0.591714 0.151614 0.064714
0.733288 0.139284 0.053269
0.857877 0.137560 0.045716
0.945281 0.140734 0.044083
0.018769 0.274784 0.150256
0.096422 0.280186 0.140566
0.197482 0.283040 0.126940
0.308431 0.283177 0.115938
0.435309 0.273884 0.128969
0.582422 0.272023 0.061875
0.732204 0.260243 0.053117
0.873304 0.254292 0.051072
0.956146 0.254841 0.058274
0.021408 0.371145 0.171038
0.094789 0.380941 0.163699
0.199695 0.391135 0.128725
0.313375 0.391272 0.137774
0.434516 0.394125 0.126986
0.550713 0.404593 0.109010
0.719661 0.377600 0.152270
0.872175 0.388113 0.051667
0.959365 0.390127 0.060517
0.023651 0.477775 0.194217
0.093370 0.491402 0.189258
0.201785 0.507637 0.140536
0.319295 0.508476 0.163012
0.445212 0.513405 0.153658
0.574380 0.517815 0.144823
0.684154 0.537499 0.121508
0.858350 0.507301 0.185992
0.948577 0.509895 0.201114
0.027070 0.594079 0.219638
0.096956 0.609476 0.215335
0.210056 0.623453 0.191943
0.330114 0.636316 0.161624
0.455634 0.637537 0.185061
0.587137 0.642741 0.178531
0.720287 0.648127 0.173144
0.820844 0.677317 0.145586
0.918929 0.680186 0.164691
0.033204 0.708156 0.259098
0.110155 0.729168 0.249546
0.218738 0.747967 0.225971
0.340658 0.764630 0.183108
0.467506 0.764660 0.221653
0.601175 0.770718 0.217502
0.735958 0.777234 0.214435
0.871351 0.784131 0.212238
0.927550 0.832288 0.184482
0.044083 0.821439 0.305318
0.136767 0.841047 0.293797
0.244999 0.858228 0.274266
0.363348 0.884565 0.217700
0.485679 0.890501 0.265309
0.617594 0.901030 0.260777
0.753277 0.908171 0.259159
0.889204 0.915679 0.257939
0.983566 0.926604 0.265019
0.008347 0.004410 0.160113
0.105043 0.003540 0.159335
0.211734 0.003220 0.163958
0.320333 0.003082 0.168048
0.487709 0.000000 0.212985
0.621561 0.000000 0.230930
0.710384 0.000000 0.135439
0.817044 0.000000 0.132341
0.926238 0.000000 0.129458
0.016297 0.090166 0.201022
0.096544 0.098192 0.180346
0.206729 0.090883 0.181292
0.352773 0.059739 0.210620
0.466270 0.057862 0.175875
0.591028 0.047410 0.163104
0.722240 0.036423 0.150072
0.840436 0.033173 0.145327
0.940581 0.033127 0.143923
0.010895 0.187945 0.216770
0.098787 0.187076 0.212528
0.192218 0.192218 0.192218
0.318151 0.179828 0.185519
0.453025 0.165515 0.179187
0.592355 0.151705 0.172534
0.737957 0.137407 0.165774
0.866651 0.134173 0.160464
0.954177 0.137499 0.160784
0.014755 0.279515 0.239292
0.089494 0.285100 0.234043
0.194614 0.287770 0.215915
0.302327 0.290394 0.205402
0.437858 0.284718 0.181048
0.582864 0.273243 0.174578
0.733593 0.261509 0.168276
0.877699 0.254719 0.167590
0.964019 0.255268 0.176104
0.016968 0.377432 0.263661
0.087892 0.386877 0.262135
0.196475 0.393057 0.243839
0.307607 0.399405 0.231846
0.429603 0.402472 0.223072
0.567971 0.395392 0.240620
0.725566 0.396139 0.173281
0.875212 0.389410 0.172015
0.965942 0.391516 0.181827
0.019120 0.485420 0.291188
0.088365 0.497536 0.292027
0.200259 0.507195 0.274174
0.316075 0.520562 0.240162
0.440024 0.522560 0.253574
0.569574 0.526970 0.246189
0.691173 0.539071 0.231800
0.862348 0.513771 0.281804
0.957824 0.516533 0.297719
0.023514 0.602502 0.321538
0.093019 0.615946 0.323766
0.206317 0.628794 0.308019
0.324743 0.646296 0.260243
0.450416 0.647105 0.287724
0.582315 0.652384 0.282170
0.715740 0.657939 0.277577
0.828260 0.679561 0.258442
0.937499 0.659739 0.332341
0.030289 0.714488 0.367422
0.110140 0.733303 0.364614
0.218357 0.751522 0.347173
0.340093 0.765682 0.321355
0.466468 0.778775 0.294499
0.596719 0.780819 0.322560
0.731762 0.787518 0.319936
0.867231 0.794537 0.317998
0.931136 0.833890 0.297627
0.042237 0.827619 0.416190
0.138048 0.844434 0.411933
0.245212 0.860594 0.396948
0.367437 0.879713 0.371374
0.489204 0.903227 0.329870
0.614008 0.911055 0.366903
0.749294 0.918685 0.365042
0.885328 0.926329 0.363882
0.985946 0.936934 0.369802
0.012436 0.006500 0.240925
0.102342 0.007126 0.235904
0.212024 0.005463 0.243153
0.320867 0.005417 0.247990
0.431785 0.005570 0.252125
0.611048 0.000000 0.304021
0.748669 0.000000 0.322728
0.869444 0.000000 0.344976
0.990021 0.000000 0.368399
0.019989 0.092180 0.283360
0.096864 0.100191 0.265263
0.203449 0.096010 0.259846
0.319783 0.084123 0.267964
0.438560 0.071336 0.275593
0.617502 0.022141 0.324437
0.763699 0.000000 0.345525
0.849119 0.028855 0.256840
0.949722 0.028855 0.257649
0.047684 0.168750 0.321324
0.106218 0.183398 0.308324
0.192691 0.193790 0.279957
0.306706 0.186862 0.281178
0.463935 0.154498 0.313512
0.617746 0.127596 0.340673
0.739712 0.137484 0.277852
0.875425 0.130816 0.277058
0.963043 0.134310 0.279271
0.010590 0.284413 0.329397
0.098482 0.280995 0.334051
0.196994 0.288075 0.315755
0.297124 0.297124 0.297124
0.431220 0.289143 0.292607
0.583017 0.274632 0.289082
0.734905 0.262867 0.285161
0.881788 0.255177 0.285634
0.971572 0.255772 0.295338
0.012436 0.383886 0.357900
0.079789 0.393973 0.359594
0.189929 0.399664 0.345113
0.307469 0.404913 0.327077
0.422934 0.412055 0.319371
0.571160 0.408118 0.297505
0.725856 0.398428 0.294163
0.878096 0.390753 0.293339
0.972366 0.393011 0.304005
0.014588 0.493187 0.389883
0.081956 0.505119 0.392706
0.194171 0.514519 0.380865
0.313954 0.523384 0.364233
0.434775 0.531746 0.354482
0.564630 0.536233 0.348348
0.708797 0.530007 0.369787
0.870298 0.532555 0.304173
0.969757 0.536187 0.316274
0.019104 0.609400 0.426642
0.087007 0.624369 0.428489
0.200916 0.636164 0.419272
0.324392 0.645838 0.401755
0.447837 0.659617 0.369146
0.577523 0.662104 0.386282
0.711254 0.667842 0.382345
0.835752 0.681895 0.371542
0.958968 0.667094 0.430243
0.026764 0.721202 0.475990
0.107622 0.739895 0.474144
0.216709 0.756832 0.463783
0.337682 0.771054 0.441962
0.462135 0.789136 0.396445
0.592355 0.790997 0.427848
0.727581 0.797848 0.425559
0.863157 0.804974 0.423804
0.936858 0.835554 0.410803
0.039719 0.834257 0.526864
0.136461 0.850721 0.523156
0.244327 0.864607 0.515038
0.368215 0.882231 0.494911
0.487968 0.910613 0.435050
0.616327 0.922408 0.443549
0.745342 0.929244 0.470939
0.881483 0.937026 0.469825
0.988327 0.947326 0.474632
0.016449 0.008515 0.322332
0.099351 0.012390 0.312917
0.212238 0.007691 0.322942
0.321294 0.007782 0.328557
0.432425 0.008026 0.333471
0.545617 0.008011 0.337545
0.663096 0.006821 0.342000
0.864057 0.000000 0.421805
0.985443 0.000000 0.447028
0.023590 0.094102 0.366384
0.097078 0.102113 0.350896
0.200000 0.101091 0.339055
0.316533 0.088960 0.347906
0.436179 0.076097 0.356878
0.558297 0.064820 0.364920
0.755169 0.008133 0.424277
0.891920 0.000000 0.450492
1.000000 0.000000 0.475059
0.028092 0.181003 0.410559
0.096468 0.189487 0.397589
0.192370 0.196017 0.368475
0.304707 0.192096 0.364034
0.430411 0.180896 0.375372
0.561883 0.169329 0.387381
0.765606 0.114031 0.448798
0.920272 0.091997 0.481788
1.000000 0.087556 0.504891
0.052262 0.262455 0.439811
0.122927 0.267735 0.442054
0.203998 0.285863 0.418433
0.299870 0.299413 0.392615
0.421942 0.296681 0.397375
0.595697 0.263951 0.434424
0.762615 0.238422 0.466300
0.885588 0.255711 0.405005
0.978851 0.256367 0.415793
0.007813 0.390494 0.453803
0.099443 0.385107 0.468269
0.200580 0.396445 0.453605
0.312474 0.405447 0.436439
0.419562 0.419562 0.419562
0.561776 0.415320 0.417151
0.721996 0.402884 0.415793
0.880842 0.392187 0.415503
0.978683 0.394629 0.426917
0.010056 0.501045 0.490272
0.075547 0.512810 0.494926
0.186893 0.523049 0.486275
0.308263 0.531060 0.473075
0.436759 0.537560 0.455039
0.557153 0.547189 0.449393
0.709270 0.545235 0.428931
0.870283 0.535744 0.429252
0.975906 0.538567 0.440726
0.014862 0.616083 0.533455
0.081071 0.632700 0.534371
0.193942 0.645014 0.527672
0.319310 0.653468 0.514046
0.448249 0.661952 0.497108
0.573205 0.671839 0.489891
0.705699 0.678569 0.486580
0.854002 0.673579 0.512062
0.969757 0.674510 0.528252
0.023407 0.727840 0.585458
0.105272 0.746456 0.584421
0.213184 0.764034 0.576196
0.336370 0.776761 0.558907
0.462943 0.788998 0.541375
0.590723 0.804181 0.511269
0.723445 0.808209 0.531258
0.859113 0.815473 0.529641
0.950729 0.837278 0.523980
0.037415 0.840864 0.638071
0.135058 0.857038 0.634775
0.241337 0.870787 0.628168
0.367514 0.886809 0.612848
0.493187 0.904570 0.594553
0.615274 0.929931 0.548943
0.741787 0.939620 0.577096
0.877684 0.947784 0.575799
0.990677 0.957763 0.579492
0.020417 0.010452 0.404334
0.096254 0.017609 0.390509
0.209689 0.009308 0.401556
0.321630 0.008545 0.409751
0.432959 0.008408 0.415457
0.546517 0.007584 0.420478
0.665614 0.006256 0.426917
0.774945 0.004761 0.438407
0.879332 0.006119 0.452537
0.027100 0.095918 0.450141
0.097185 0.103960 0.437247
0.196399 0.106126 0.418921
0.313146 0.093782 0.428534
0.433982 0.080919 0.439399
0.560525 0.067552 0.451804
0.686412 0.057984 0.460243
0.805890 0.053559 0.473030
0.996841 0.000000 0.558434
0.031083 0.182742 0.496147
0.096010 0.191272 0.485801
0.192538 0.198077 0.458503
0.301747 0.197894 0.448493
0.428504 0.186786 0.461875
0.561013 0.175311 0.475914
0.699077 0.163607 0.490440
0.910460 0.105715 0.564187
1.000000 0.099184 0.591318
0.063355 0.258686 0.538476
0.113451 0.274968 0.536538
0.194369 0.293416 0.514931
0.299641 0.303578 0.488472
0.423163 0.302358 0.486992
0.560693 0.293431 0.501854
0.703304 0.284398 0.517082
0.914107 0.231952 0.584451
1.000000 0.225269 0.614221
0.059007 0.364309 0.574441
0.119615 0.376059 0.578851
0.227832 0.383398 0.570733
0.317998 0.405707 0.547906
0.424338 0.422614 0.522881
0.553719 0.423438 0.529763
0.735424 0.392432 0.569146
0.910826 0.366903 0.603357
0.984909 0.396353 0.550423
0.005554 0.508995 0.592309
0.105196 0.499321 0.613382
0.207858 0.514977 0.604578
0.320836 0.528222 0.588876
0.443778 0.537926 0.571359
0.554818 0.554818 0.554818
0.700282 0.552819 0.553491
0.861418 0.543725 0.553918
0.982040 0.541695 0.564950
0.010758 0.622690 0.641489
0.077440 0.639506 0.642908
0.187030 0.653849 0.636881
0.313054 0.662272 0.624063
0.443931 0.669642 0.610330
0.576471 0.677958 0.593545
0.699229 0.690028 0.590356
0.851560 0.691615 0.571740
0.979919 0.689631 0.582452
0.020233 0.734417 0.695689
0.103105 0.752972 0.695293
0.209812 0.771267 0.689052
0.333532 0.784070 0.672282
0.458991 0.797147 0.656046
0.594171 0.806348 0.639567
0.720226 0.818555 0.635080
0.852659 0.827634 0.633738
0.968978 0.828611 0.664240
0.035325 0.847471 0.749691
0.133806 0.863371 0.746700
0.238453 0.876997 0.741527
0.365011 0.893187 0.726513
0.492393 0.909621 0.711879
0.619562 0.927474 0.694209
0.743420 0.949905 0.663020
0.873869 0.958694 0.681422
0.993027 0.968536 0.683940
0.024308 0.012299 0.486992
0.096147 0.019928 0.473793
0.206668 0.011551 0.480537
0.321843 0.008530 0.491600
0.433341 0.008118 0.498085
0.547768 0.007111 0.504540
0.668360 0.005631 0.513130
0.780987 0.004059 0.526162
0.886107 0.005722 0.542306
0.030503 0.097658 0.534646
0.097169 0.105715 0.524331
0.192630 0.111116 0.499428
0.309895 0.098665 0.510277
0.431891 0.085817 0.523247
0.559640 0.072435 0.537789
0.689906 0.060777 0.550729
0.812345 0.055589 0.564889
0.907271 0.057465 0.581308
0.033967 0.184390 0.582483
0.095521 0.193149 0.575204
0.192737 0.200229 0.549996
0.298756 0.203830 0.534371
0.426566 0.192798 0.549828
0.560082 0.181445 0.565881
0.699046 0.169924 0.582315
0.836774 0.161303 0.601068
0.926314 0.161852 0.621653
0.035615 0.275120 0.634943
0.094743 0.286275 0.633097
0.194720 0.296574 0.611109
0.300847 0.306950 0.586450
0.421073 0.309697 0.578698
0.559609 0.300923 0.595392
0.702586 0.292103 0.612055
0.846250 0.284184 0.628794
0.939910 0.286854 0.649332
0.086656 0.351919 0.686915
0.135439 0.369558 0.688624
0.218784 0.392264 0.673213
0.308797 0.414923 0.652140
0.425208 0.427909 0.625788
0.556649 0.429633 0.625208
0.699626 0.423484 0.640787
0.848447 0.415625 0.656062
1.000000 0.378424 0.722301
0.067765 0.477775 0.723384
0.126864 0.490684 0.730175
0.229221 0.506645 0.724361
0.350683 0.515053 0.712947
0.449119 0.539239 0.688258
0.560678 0.558068 0.662257
0.693095 0.561318 0.669932
0.875654 0.533776 0.710506
1.000000 0.521706 0.744564
0.060395 0.597589 0.772519
0.122332 0.617670 0.772320
0.218952 0.639826 0.762615
0.336141 0.653864 0.746563
0.458534 0.666606 0.729854
0.585077 0.678462 0.713024
0.698131 0.698131 0.698131
0.845045 0.698833 0.698711
0.986038 0.696651 0.704616
0.017258 0.740917 0.806561
0.101122 0.759472 0.806668
0.206577 0.778515 0.802289
0.330831 0.791455 0.785931
0.456504 0.804822 0.769909
0.591424 0.814176 0.754925
0.724208 0.825101 0.740307
0.847578 0.838972 0.738811
0.983215 0.839368 0.760159
0.033433 0.854063 0.861662
0.132738 0.869734 0.858885
0.235706 0.883284 0.855055
0.362570 0.899580 0.840269
0.490120 0.916121 0.825727
0.618631 0.933028 0.810925
0.749096 0.951446 0.790188
0.871595 0.969268 0.785077
0.995422 0.980835 0.785916
0.028107 0.014054 0.570336
0.096590 0.021698 0.559670
0.203494 0.016403 0.560189
0.319402 0.010788 0.572412
0.433616 0.007752 0.581323
0.549294 0.006577 0.589853
0.671290 0.004990 0.600732
0.787167 0.003342 0.615412
0.892943 0.005341 0.633539
0.033799 0.099306 0.619913
0.097032 0.107393 0.612161
0.192035 0.113039 0.586038
0.306737 0.103624 0.593317
0.429862 0.090791 0.608530
0.558785 0.077409 0.625223
0.693416 0.063661 0.642695
0.818814 0.057725 0.658183
0.913603 0.059922 0.676127
0.036774 0.185962 0.669566
0.095033 0.195148 0.666041
0.192966 0.202441 0.643015
0.295750 0.209873 0.621714
0.424598 0.198932 0.639231
0.559091 0.187716 0.657252
0.698909 0.176425 0.675517
0.839445 0.167163 0.695247
0.932204 0.167880 0.717067
0.038315 0.277790 0.727199
0.095766 0.288808 0.727413
0.195087 0.299794 0.708858
0.302159 0.310369 0.686000
0.418921 0.317205 0.671794
0.558343 0.308644 0.690166
0.701640 0.299947 0.707897
0.847471 0.291356 0.724849
0.944610 0.294194 0.746258
0.079637 0.360555 0.785885
0.126864 0.377874 0.789334
0.198306 0.405997 0.779248
0.310399 0.419394 0.755642
0.426413 0.433005 0.729793
0.555184 0.438193 0.721096
0.700298 0.431220 0.737591
0.847105 0.424659 0.753964
0.953414 0.427420 0.774517
0.114244 0.455573 0.849866
0.161868 0.474006 0.853712
0.246952 0.500374 0.842969
0.342275 0.524926 0.820630
0.439200 0.549783 0.796765
0.562799 0.563622 0.768643
0.696986 0.568002 0.768399
0.841077 0.565255 0.784787
0.962081 0.565698 0.803967
0.086290 0.586526 0.894881
0.149325 0.606470 0.895293
0.244373 0.629603 0.887129
0.359503 0.645426 0.869749
0.487175 0.655009 0.857038
0.591211 0.680537 0.831968
0.705135 0.701976 0.807294
0.838941 0.707744 0.816571
1.000000 0.688228 0.857130
0.085451 0.705547 0.947097
0.163119 0.728344 0.944625
0.258335 0.753475 0.938277
0.371359 0.773465 0.917449
0.485603 0.793988 0.896880
0.607752 0.811185 0.876112
0.733837 0.825864 0.860838
0.847272 0.847272 0.847272
0.991958 0.849973 0.849348
0.031739 0.860685 0.973922
0.131823 0.876158 0.971267
0.234928 0.889830 0.967803
0.360189 0.906020 0.954040
0.487892 0.922652 0.939605
0.616587 0.939712 0.924941
0.748791 0.957443 0.907317
0.876204 0.975723 0.891508
0.997742 0.991531 0.890913
0.031846 0.015702 0.654398
0.096925 0.023362 0.646296
0.200168 0.021225 0.640497
0.316258 0.013291 0.653483
0.433967 0.007385 0.665522
0.551049 0.005997 0.676509
0.674357 0.004334 0.689769
0.793454 0.002640 0.706142
0.899779 0.005035 0.726223
0.037003 0.100847 0.705959
0.096773 0.108995 0.700725
0.192004 0.114488 0.675471
0.303655 0.108659 0.677760
0.427878 0.095842 0.695277
0.557931 0.082475 0.714153
0.693782 0.068696 0.733806
0.825254 0.059998 0.752865
0.919982 0.062531 0.772259
0.039521 0.187610 0.758068
0.095995 0.196765 0.756985
0.193210 0.204730 0.737636
0.296361 0.212711 0.716548
0.422583 0.205203 0.730083
0.558022 0.194156 0.749981
0.698695 0.183108 0.769986
0.841825 0.173175 0.790372
0.937804 0.174121 0.813291
0.041047 0.280552 0.821180
0.096803 0.291402 0.823316
0.195499 0.303090 0.808179
0.303502 0.313848 0.787045
0.416724 0.324865 0.766155
0.556893 0.316472 0.785916
0.700526 0.307912 0.804501
0.846509 0.299580 0.822126
0.949187 0.301717 0.843656
0.043122 0.382361 0.892058
0.098604 0.394751 0.895201
0.199023 0.410315 0.882628
0.312032 0.423865 0.860227
0.428656 0.437507 0.835065
0.553262 0.446891 0.818326
0.698695 0.440116 0.835370
0.845701 0.433845 0.852186
0.957702 0.435935 0.872694
0.107347 0.464607 0.953536
0.153689 0.483452 0.959167
0.238056 0.510185 0.950790
0.321981 0.539818 0.931121
0.441703 0.554788 0.903395
0.563836 0.569924 0.874922
0.696483 0.577371 0.865629
0.844236 0.573053 0.882780
0.966537 0.574762 0.902846
0.111025 0.576867 1.000000
0.200473 0.581506 1.000000
0.282994 0.611872 1.000000
0.379217 0.639307 0.990265
0.479683 0.665629 0.966583
0.581445 0.692210 0.942229
0.708766 0.707866 0.915206
0.843626 0.714885 0.916487
0.976440 0.716976 0.934874
0.110414 0.696925 1.000000
0.190555 0.719509 1.000000
0.284916 0.744823 1.000000
0.398734 0.764431 1.000000
0.513542 0.784573 1.000000
0.635691 0.800916 1.000000
0.731930 0.832258 0.981888
0.854917 0.851392 0.956863
0.987701 0.858869 0.967422
0.114382 0.819272 1.000000
0.207660 0.837659 1.000000
0.301884 0.856413 1.000000
0.414298 0.878859 1.000000
0.530816 0.902327 1.000000
0.648264 0.926329 1.000000
0.769390 0.951431 1.000000
0.887053 0.976120 1.000000
1.000000 1.000000 1.000000
