app/src/main/assets/filters/ricoh_positive.cube
# Created from ricoh_positive.plut
LUT_3D_SIZE 5
DOMAIN_MIN 0.0 0.0 0.0
DOMAIN_MAX 1.0 1.0 1.0
0.014755 0.012711 0.013275
0.278950 0.026123 0.018448
0.601877 0.027375 0.015167
0.828168 0.008118 0.011551
0.898085 0.011536 0.014817
0.062791 0.249958 0.097017
0.242817 0.204761 0.055695
0.575341 0.201678 0.068132
0.783383 0.176898 0.045106
0.895918 0.015625 0.014511
0.148028 0.551308 0.296300
0.333791 0.528725 0.201495
0.551553 0.490867 0.090776
0.784207 0.439246 0.044388
0.893050 0.445548 0.018143
0.304341 0.641596 0.367697
0.372183 0.648157 0.347662
0.585565 0.697108 0.285344
0.772107 0.740841 0.205066
0.946014 0.685328 0.048753
0.481407 0.687449 0.348898
0.536706 0.700328 0.336797
0.655711 0.741650 0.319722
0.793973 0.803403 0.302831
0.920943 0.824674 0.207782
0.014221 0.006943 0.181781
0.215778 0.031296 0.166079
0.527657 0.051362 0.173754
0.761028 0.036805 0.152392
0.889555 0.014496 0.085985
0.031342 0.191119 0.208789
0.189975 0.188235 0.189715
0.526574 0.159442 0.167727
0.752728 0.129900 0.158938
0.904952 0.017182 0.020203
0.045243 0.486946 0.292683
0.179767 0.494743 0.280446
0.523003 0.480705 0.224201
0.753368 0.462089 0.233753
0.893446 0.379065 0.136873
0.189197 0.633295 0.399695
0.271015 0.650355 0.395605
0.463035 0.677089 0.365133
0.751141 0.728985 0.346258
0.933227 0.679332 0.231113
0.327047 0.667597 0.401114
0.432166 0.689998 0.384314
0.597467 0.721401 0.345693
0.768978 0.798062 0.319295
0.900832 0.841733 0.282643
0.067308 0.000000 0.443076
0.171359 0.000000 0.449775
0.496437 0.024582 0.412222
0.743954 0.054887 0.410010
0.864393 0.047456 0.365530
0.067674 0.145968 0.411093
0.158755 0.146853 0.430503
0.474586 0.154604 0.412222
0.730739 0.168017 0.408530
0.888975 0.137987 0.373007
0.169131 0.484138 0.512902
0.210208 0.489448 0.526040
0.478782 0.477394 0.478614
0.738216 0.449897 0.465522
0.906767 0.377234 0.425147
0.183001 0.701198 0.562737
0.210086 0.712581 0.576715
0.416922 0.735546 0.579248
0.743862 0.729839 0.536294
0.911849 0.710475 0.540566
0.244709 0.709560 0.509422
0.270787 0.719112 0.516152
0.433753 0.784970 0.570535
0.734981 0.856138 0.590265
0.923156 0.899519 0.557275
0.302007 0.000000 0.641169
0.323247 0.000000 0.651652
0.414069 0.000000 0.661326
0.732555 0.054276 0.666361
0.867063 0.093141 0.620752
0.169009 0.076692 0.589578
0.197070 0.057725 0.596963
0.417807 0.080247 0.654734
0.702235 0.159747 0.631037
0.869047 0.130190 0.592096
0.024689 0.430747 0.685542
0.103166 0.427985 0.697841
0.434714 0.434607 0.682109
0.708202 0.455543 0.667140
0.896956 0.426703 0.651560
0.111971 0.708171 0.737423
0.162356 0.704295 0.731319
0.421973 0.706447 0.735409
0.725612 0.724636 0.725856
0.937407 0.693629 0.708568
0.290944 0.823972 0.701793
0.301991 0.831464 0.706523
0.371679 0.868315 0.742321
0.580133 0.945129 0.792218
0.961425 0.969039 0.794690
0.403357 0.000000 0.700496
0.417121 0.000000 0.706462
0.477028 0.000000 0.725124
0.771679 0.060060 0.746639
0.871061 0.061341 0.748882
0.362707 0.000000 0.691157
0.382147 0.000000 0.699672
0.461021 0.001816 0.729610
0.692164 0.036866 0.763180
0.870390 0.072297 0.764675
0.105272 0.342260 0.803098
0.163165 0.344228 0.820951
0.397742 0.353674 0.849668
0.718273 0.345235 0.857832
0.893309 0.401099 0.838590
0.138949 0.552102 0.763272
0.155215 0.560357 0.775082
0.309880 0.609003 0.859754
0.691417 0.682170 0.927962
0.941772 0.718914 0.909651
0.249348 0.802075 0.806973
0.266987 0.812818 0.817716
0.385077 0.859754 0.863966
0.628275 0.920546 0.926421
0.967712 0.971420 0.971008
