app/src/main/assets/filters/ricoh_green.cube
# Created from ricoh_green.plut
LUT_3D_SIZE 33
DOMAIN_MIN 0.0 0.0 0.0
DOMAIN_MAX 1.0 1.0 1.0
0.052811 0.063752 0.058198
0.053956 0.063462 0.057801
0.057847 0.063874 0.057282
0.063233 0.064164 0.056535
0.073091 0.065537 0.057008
0.088487 0.066880 0.057877
0.112978 0.068711 0.059464
0.140688 0.069673 0.060136
0.172198 0.071077 0.060975
0.208804 0.070603 0.060151
0.248981 0.068574 0.059846
0.291875 0.075151 0.067384
0.338445 0.080125 0.072953
0.396323 0.080049 0.074067
0.435920 0.077943 0.072648
0.466606 0.081010 0.073426
0.492378 0.088823 0.079637
0.530434 0.090532 0.085710
0.577096 0.091249 0.091875
0.602167 0.091554 0.095903
0.627008 0.097108 0.104112
0.649271 0.103853 0.113283
0.685664 0.118776 0.130541
0.707530 0.128557 0.141466
0.735943 0.144778 0.159747
0.757809 0.159716 0.176425
0.773968 0.172000 0.190921
0.797147 0.193194 0.215381
0.806500 0.199634 0.225635
0.818784 0.210925 0.240772
0.825971 0.214862 0.249683
0.832151 0.217777 0.257816
0.836454 0.219883 0.263890
0.053346 0.068788 0.059342
0.053025 0.067597 0.057984
0.056199 0.068574 0.057801
0.063584 0.069917 0.058579
0.071733 0.069261 0.056977
0.087312 0.071427 0.058564
0.107057 0.072038 0.059327
0.134752 0.073930 0.061006
0.166354 0.074571 0.061585
0.203830 0.075425 0.062272
0.242481 0.069963 0.056947
0.282689 0.075608 0.063798
0.330968 0.082063 0.070954
0.384360 0.085405 0.074388
0.431968 0.087877 0.076814
0.461753 0.089235 0.076020
0.485008 0.093339 0.080446
0.512184 0.099321 0.086763
0.566033 0.101213 0.093278
0.599634 0.096712 0.097200
0.626963 0.100404 0.105303
0.648508 0.104707 0.113008
0.684428 0.118883 0.130358
0.707256 0.129229 0.141665
0.732998 0.144274 0.158068
0.757595 0.159655 0.176287
0.773846 0.171984 0.190845
0.794980 0.191714 0.213245
0.803250 0.197955 0.222217
0.817639 0.210590 0.239460
0.824231 0.214099 0.247547
0.831632 0.219303 0.257618
0.835691 0.220813 0.262974
0.057649 0.078523 0.063294
0.057328 0.076570 0.061479
0.056672 0.076097 0.059632
0.061402 0.076677 0.058595
0.072618 0.076661 0.058274
0.088884 0.077913 0.060410
0.110094 0.078859 0.062211
0.133959 0.079652 0.063203
0.165957 0.080293 0.063966
0.201785 0.081300 0.064698
0.240940 0.080903 0.064897
0.278416 0.080903 0.065476
0.331411 0.083589 0.069627
0.379736 0.087984 0.073274
0.423072 0.090089 0.075044
0.456519 0.089799 0.074846
0.479881 0.093462 0.078752
0.510811 0.101015 0.086015
0.553765 0.107042 0.092531
0.589334 0.103624 0.096880
0.621851 0.102525 0.104463
0.643198 0.105684 0.111864
0.680491 0.119844 0.129183
0.702846 0.128817 0.140017
0.732418 0.145785 0.157885
0.755428 0.160845 0.175311
0.772229 0.172122 0.189868
0.793088 0.190524 0.211353
0.801709 0.197269 0.220600
0.817609 0.210605 0.239445
0.824201 0.214130 0.247501
0.830732 0.219135 0.256382
0.835660 0.222644 0.263188
0.058579 0.088167 0.065660
0.060334 0.087266 0.064744
0.061936 0.086824 0.063966
0.063722 0.088396 0.063691
0.073762 0.088930 0.061753
0.090806 0.087739 0.062150
0.111070 0.086809 0.063554
0.134722 0.087190 0.065034
0.168399 0.087831 0.067109
0.203998 0.088533 0.068025
0.240406 0.087922 0.068437
0.282795 0.088243 0.069734
0.331533 0.084901 0.067460
0.374685 0.088487 0.070848
0.412177 0.090562 0.073182
0.450217 0.089418 0.073335
0.474296 0.092958 0.076616
0.505623 0.101076 0.083024
0.542916 0.112032 0.091478
0.575875 0.117479 0.097185
0.609277 0.112566 0.103227
0.640955 0.108980 0.112108
0.676738 0.120867 0.128542
0.701686 0.130297 0.139696
0.733379 0.149416 0.159426
0.752026 0.159548 0.172930
0.769741 0.171588 0.188296
0.790555 0.189761 0.209216
0.801801 0.198276 0.220905
0.818830 0.212299 0.241108
0.821973 0.214145 0.244984
0.831174 0.221927 0.257511
0.835843 0.226673 0.264378
0.064042 0.111040 0.076539
0.065202 0.107607 0.073457
0.065278 0.102449 0.069230
0.066651 0.102174 0.067765
0.075486 0.104448 0.068330
0.090364 0.104448 0.067460
0.113863 0.102022 0.066789
0.139284 0.099275 0.067369
0.170550 0.097505 0.067872
0.205478 0.096544 0.068330
0.244343 0.099138 0.072450
0.282292 0.098848 0.074128
0.332204 0.097276 0.074174
0.374868 0.095964 0.073274
0.411948 0.096574 0.075227
0.445518 0.096376 0.075273
0.476570 0.096513 0.076555
0.509102 0.105272 0.082414
0.545693 0.116487 0.089921
0.565698 0.125307 0.095598
0.588586 0.130571 0.103975
0.627543 0.119814 0.111223
0.669047 0.123766 0.127169
0.701457 0.135973 0.141970
0.731518 0.153826 0.160388
0.748150 0.161990 0.171756
0.768048 0.173541 0.187671
0.788983 0.189715 0.208057
0.802625 0.200061 0.222354
0.816510 0.213657 0.239292
0.823087 0.217762 0.247181
0.830426 0.224872 0.257588
0.834241 0.228351 0.263127
0.061936 0.139437 0.081834
0.064302 0.131838 0.077821
0.067781 0.123293 0.071748
0.070359 0.118303 0.069749
0.077043 0.118318 0.071443
0.088075 0.120882 0.070970
0.110750 0.119448 0.071061
0.140917 0.117220 0.071092
0.172793 0.115999 0.071931
0.209720 0.114321 0.072053
0.246876 0.113787 0.073274
0.287709 0.114397 0.076600
0.333013 0.113024 0.077852
0.374258 0.110063 0.076570
0.411749 0.108415 0.079149
0.448447 0.107576 0.079545
0.480858 0.107561 0.080079
0.512200 0.112825 0.083711
0.543267 0.121035 0.088869
0.567864 0.128588 0.095827
0.580819 0.135241 0.101595
0.603540 0.149920 0.111620
0.658152 0.150607 0.130098
0.701366 0.151751 0.148943
0.730526 0.167056 0.165789
0.744549 0.167819 0.172381
0.769345 0.180301 0.191669
0.787366 0.193286 0.208515
0.802838 0.203250 0.223835
0.814282 0.215366 0.238148
0.822919 0.223041 0.249058
0.828870 0.227909 0.256901
0.833433 0.231769 0.263233
0.057389 0.168383 0.084123
0.057877 0.163684 0.082307
0.063539 0.154849 0.078981
0.072908 0.141451 0.074434
0.078080 0.141756 0.076509
0.087770 0.144396 0.077989
0.107942 0.143572 0.076280
0.139666 0.141421 0.075578
0.175525 0.140078 0.076173
0.213245 0.139025 0.076402
0.252201 0.136812 0.077028
0.292042 0.134966 0.078111
0.332952 0.134203 0.079728
0.381140 0.132280 0.080278
0.413993 0.127840 0.076829
0.453727 0.130434 0.082109
0.484703 0.128603 0.084688
0.513481 0.130159 0.086976
0.541878 0.130495 0.090043
0.563439 0.131960 0.094728
0.578408 0.136309 0.100465
0.597803 0.152148 0.110567
0.637659 0.183551 0.128862
0.697017 0.204913 0.162066
0.727764 0.192111 0.176715
0.742199 0.186282 0.179934
0.766949 0.194247 0.196460
0.783658 0.201892 0.210437
0.801526 0.207980 0.225208
0.816297 0.221378 0.242710
0.823911 0.227985 0.251987
0.830335 0.233478 0.260517
0.831998 0.234440 0.262654
0.056184 0.192157 0.087098
0.057694 0.191226 0.085557
0.061479 0.187442 0.083970
0.072557 0.183078 0.081636
0.086076 0.173159 0.082322
0.088334 0.170047 0.082811
0.109453 0.172686 0.082643
0.138125 0.171237 0.081041
0.173770 0.169879 0.080201
0.215885 0.171237 0.081514
0.257511 0.170138 0.081559
0.297780 0.164630 0.081636
0.341375 0.162768 0.082521
0.383719 0.160555 0.083497
0.420035 0.157809 0.083543
0.452781 0.153063 0.082002
0.490776 0.155901 0.087755
0.515038 0.154421 0.090990
0.539193 0.159487 0.096071
0.565560 0.157382 0.099367
0.588342 0.164324 0.106905
0.609369 0.175891 0.117052
0.639918 0.207294 0.132723
0.677714 0.238193 0.152178
0.716838 0.240909 0.181277
0.742153 0.225544 0.197711
0.762478 0.219608 0.206638
0.783734 0.221195 0.219989
0.802243 0.224765 0.233692
0.814130 0.227115 0.243793
0.822782 0.233738 0.253529
0.831296 0.237842 0.263096
0.831678 0.237766 0.263432
0.060502 0.233890 0.103410
0.063813 0.226749 0.098009
0.066163 0.225132 0.096193
0.070817 0.223041 0.092729
0.089357 0.209232 0.083421
0.102174 0.204135 0.086549
0.109285 0.203723 0.087160
0.136843 0.205219 0.085908
0.172122 0.203174 0.084108
0.212818 0.202075 0.083986
0.258885 0.203677 0.086076
0.303334 0.200275 0.086305
0.346792 0.196231 0.085557
0.386313 0.194003 0.086763
0.424399 0.192218 0.090196
0.457618 0.187304 0.089845
0.490944 0.185748 0.090196
0.520317 0.182788 0.093019
0.542687 0.189487 0.098894
0.573236 0.194858 0.106920
0.607065 0.208484 0.119326
0.629419 0.222034 0.130602
0.653208 0.244160 0.141573
0.681315 0.269535 0.154650
0.702495 0.286748 0.166217
0.726802 0.287495 0.187655
0.756405 0.267308 0.215900
0.778256 0.249683 0.228290
0.799893 0.245365 0.242435
0.812787 0.242603 0.250324
0.821180 0.241413 0.255604
0.827924 0.240696 0.260975
0.831708 0.240452 0.264500
0.062715 0.276783 0.133150
0.066316 0.271672 0.127245
0.072511 0.266087 0.121340
0.082795 0.256611 0.110048
0.092653 0.249531 0.098390
0.116655 0.246494 0.091829
0.120500 0.239963 0.090547
0.132189 0.237491 0.089784
0.168124 0.239307 0.089174
0.210117 0.234821 0.087297
0.254749 0.236133 0.088716
0.303334 0.237064 0.091463
0.349218 0.233295 0.090837
0.389334 0.228443 0.089509
0.426429 0.227832 0.093400
0.461006 0.225116 0.096757
0.494179 0.222049 0.096788
0.522713 0.219806 0.099947
0.547402 0.216129 0.102373
0.575875 0.224140 0.106584
0.601053 0.232975 0.114702
0.627131 0.239414 0.128008
0.653666 0.254170 0.142672
0.673899 0.275944 0.151598
0.700832 0.302556 0.164508
0.722133 0.320226 0.176928
0.735607 0.323476 0.190799
0.769360 0.305409 0.232227
0.794354 0.286839 0.256321
0.810269 0.270146 0.263020
0.817517 0.256718 0.260838
0.825162 0.253895 0.265248
0.832227 0.248249 0.268559
0.071565 0.310170 0.160082
0.075639 0.305211 0.154940
0.079759 0.303044 0.151308
0.093309 0.297856 0.142748
0.119753 0.292821 0.121660
0.134051 0.289128 0.109773
0.139803 0.281895 0.098405
0.138613 0.272114 0.094331
0.164858 0.270283 0.093462
0.206821 0.270970 0.093477
0.251881 0.268864 0.092683
0.297520 0.268757 0.093568
0.346868 0.272770 0.096544
0.391501 0.269306 0.095583
0.428717 0.265171 0.095735
0.463218 0.264912 0.099687
0.497139 0.262562 0.102983
0.524117 0.257832 0.104219
0.551766 0.253483 0.107027
0.576013 0.254612 0.110323
0.604791 0.254246 0.113680
0.617441 0.267109 0.120348
0.645289 0.279469 0.136065
0.682063 0.303227 0.157443
0.703090 0.323308 0.167330
0.725765 0.345525 0.179873
0.736629 0.352712 0.191318
0.754421 0.360037 0.213138
0.775387 0.359350 0.244068
0.805921 0.334859 0.284031
0.817350 0.304692 0.285359
0.820996 0.274525 0.273610
0.827756 0.258869 0.270237
0.092378 0.368170 0.212833
0.100359 0.365454 0.208713
0.107851 0.352132 0.194034
0.117556 0.348135 0.184787
0.135058 0.337514 0.158145
0.153277 0.324880 0.123186
0.167422 0.328511 0.115068
0.165057 0.316899 0.107378
0.170321 0.305791 0.100145
0.208057 0.303502 0.097246
0.250965 0.306401 0.097215
0.295857 0.305745 0.096681
0.342321 0.307332 0.098817
0.389227 0.310094 0.101396
0.429236 0.305699 0.100267
0.464561 0.304601 0.102266
0.499550 0.304479 0.106569
0.527611 0.302113 0.110246
0.553689 0.296208 0.111421
0.580514 0.292042 0.115541
0.605661 0.293004 0.122332
0.629587 0.291981 0.126833
0.641154 0.304143 0.130983
0.671931 0.325673 0.148211
0.702708 0.346746 0.167971
0.723659 0.361501 0.179950
0.739391 0.372854 0.193500
0.760128 0.388754 0.219776
0.778393 0.402518 0.245335
0.792187 0.407309 0.266835
0.809995 0.388022 0.293889
0.823026 0.354131 0.308324
0.828855 0.315129 0.296483
0.107591 0.419272 0.263569
0.107744 0.412390 0.255528
0.116258 0.407858 0.248920
0.123186 0.403861 0.241825
0.159380 0.394858 0.210636
0.181109 0.381109 0.169574
0.192050 0.373678 0.141085
0.192386 0.363394 0.120439
0.194171 0.356695 0.112169
0.208255 0.344778 0.104189
0.250935 0.340749 0.102770
0.298390 0.346609 0.102266
0.341970 0.343877 0.103380
0.381659 0.343313 0.104692
0.429465 0.348333 0.107546
0.467063 0.344213 0.107591
0.500237 0.342412 0.111116
0.529671 0.343069 0.116548
0.556847 0.341848 0.119097
0.582803 0.337392 0.120531
0.609216 0.332677 0.126452
0.635874 0.333852 0.133196
0.655482 0.333150 0.137621
0.666804 0.343053 0.141695
0.684733 0.353765 0.153216
0.709300 0.373526 0.169467
0.738705 0.397208 0.189837
0.760983 0.409674 0.219837
0.788357 0.427329 0.255192
0.794278 0.430014 0.264881
0.802472 0.438178 0.281270
0.813169 0.427481 0.304891
0.823377 0.396658 0.311360
0.111589 0.450721 0.295811
0.115908 0.446281 0.291035
0.126528 0.445151 0.287388
0.136889 0.445411 0.284962
0.157259 0.441672 0.274159
0.194476 0.426078 0.228595
0.217441 0.411337 0.182086
0.230564 0.407294 0.151324
0.227451 0.399069 0.130785
0.229404 0.392920 0.121813
0.251484 0.383368 0.115419
0.298100 0.385885 0.111696
0.339849 0.383581 0.110842
0.385077 0.382971 0.112291
0.422400 0.380468 0.111772
0.464363 0.383246 0.113344
0.501335 0.380835 0.115618
0.530816 0.377386 0.119982
0.558541 0.379385 0.124544
0.585183 0.379004 0.127626
0.611398 0.374563 0.132723
0.635157 0.373190 0.138338
0.659037 0.370626 0.143694
0.674037 0.364431 0.147265
0.686336 0.368658 0.150790
0.700084 0.384329 0.160662
0.724819 0.404990 0.178424
0.756786 0.435340 0.210193
0.781857 0.439246 0.243580
0.797894 0.448310 0.267201
0.804639 0.451026 0.277821
0.809293 0.449928 0.290654
0.811170 0.448768 0.297917
0.118349 0.477394 0.324819
0.120043 0.478172 0.325704
0.131350 0.478431 0.323949
0.151064 0.480781 0.323842
0.183291 0.479194 0.314275
0.205768 0.480629 0.309621
0.248264 0.472236 0.277470
0.275502 0.445380 0.205661
0.277501 0.438224 0.182361
0.279698 0.431495 0.158312
0.274952 0.424247 0.141497
0.287922 0.418173 0.128313
0.345525 0.418860 0.124010
0.380529 0.420020 0.121218
0.419669 0.417517 0.122560
0.457893 0.414969 0.119600
0.497429 0.418463 0.122499
0.532036 0.418677 0.126619
0.560723 0.412085 0.128786
0.587366 0.412909 0.132921
0.614343 0.413153 0.138399
0.639078 0.412543 0.143755
0.660426 0.409796 0.148913
0.684413 0.408087 0.157031
0.704372 0.413062 0.166140
0.716396 0.417746 0.170214
0.733089 0.432822 0.180575
0.764157 0.461250 0.204013
0.779400 0.474830 0.219211
0.800473 0.478889 0.254353
0.809537 0.478843 0.271748
0.811078 0.475532 0.276371
0.812604 0.468879 0.284428
0.139483 0.503716 0.354437
0.140948 0.504112 0.354818
0.161624 0.505669 0.352224
0.180316 0.504417 0.345571
0.193378 0.503105 0.339834
0.216419 0.502846 0.332479
0.260533 0.501381 0.317418
0.307103 0.496971 0.291310
0.330816 0.481437 0.243244
0.332418 0.473060 0.217044
0.332891 0.465126 0.187579
0.329152 0.459739 0.167864
0.347585 0.457023 0.151553
0.386221 0.453056 0.142229
0.420783 0.452979 0.139025
0.457542 0.450507 0.133883
0.490562 0.447105 0.131701
0.525795 0.451972 0.133730
0.560571 0.451041 0.137224
0.591684 0.444862 0.139513
0.616678 0.445243 0.145159
0.641413 0.445563 0.150622
0.663783 0.444648 0.155871
0.686137 0.446159 0.164111
0.708278 0.441291 0.171969
0.724651 0.442527 0.179309
0.740932 0.450813 0.184741
0.772076 0.472663 0.206195
0.781964 0.481758 0.215061
0.794369 0.494102 0.227939
0.800671 0.499092 0.235615
0.808850 0.498955 0.250095
0.815396 0.495827 0.264561
0.158740 0.522957 0.376669
0.160754 0.523903 0.377600
0.172717 0.524361 0.374945
0.192477 0.523247 0.368933
0.212665 0.520684 0.359411
0.232044 0.519799 0.352453
0.271077 0.519966 0.341222
0.309148 0.516869 0.321538
0.340200 0.508141 0.284489
0.354299 0.496361 0.243473
0.357748 0.491615 0.223468
0.358099 0.483314 0.205188
0.351843 0.481422 0.160464
0.377661 0.483772 0.155215
0.414328 0.481743 0.154299
0.451286 0.479545 0.151263
0.487587 0.478996 0.145754
0.524331 0.479759 0.151049
0.552590 0.482612 0.151125
0.591272 0.482689 0.151171
0.618128 0.479942 0.153246
0.644572 0.475593 0.158297
0.668238 0.477348 0.164569
0.689815 0.477546 0.172442
0.710521 0.478813 0.180682
0.731472 0.472679 0.188190
0.746471 0.471580 0.192737
0.768292 0.475578 0.202976
0.786084 0.486992 0.216861
0.796231 0.496666 0.226474
0.803738 0.504845 0.236378
0.811124 0.512840 0.245090
0.815061 0.516823 0.249531
0.171054 0.538170 0.394324
0.182101 0.537987 0.392279
0.193622 0.537545 0.389105
0.204746 0.534768 0.382071
0.220905 0.536172 0.380148
0.255055 0.538628 0.374884
0.290166 0.539620 0.366552
0.314244 0.535439 0.350484
0.351431 0.529015 0.319707
0.369558 0.520775 0.280644
0.381140 0.513207 0.237858
0.379644 0.508644 0.227649
0.382437 0.506676 0.198993
0.382177 0.505241 0.162051
0.414374 0.508675 0.162097
0.449989 0.514458 0.168322
0.488075 0.514260 0.168032
0.526894 0.515068 0.170672
0.554314 0.510216 0.173098
0.589624 0.518013 0.174075
0.618296 0.514397 0.168978
0.648356 0.512810 0.172030
0.672572 0.508476 0.174975
0.692607 0.505852 0.180514
0.714107 0.508034 0.189258
0.733989 0.506264 0.196612
0.751476 0.504311 0.205295
0.769223 0.503761 0.214832
0.786069 0.501335 0.220386
0.799496 0.501030 0.228931
0.808591 0.513115 0.241276
0.817929 0.522652 0.252979
0.823392 0.527352 0.259785
0.193957 0.550088 0.408240
0.201328 0.549416 0.404959
0.210758 0.552605 0.408087
0.235111 0.551217 0.399115
0.255604 0.552056 0.393729
0.271794 0.550683 0.387213
0.287388 0.550317 0.381521
0.323018 0.547082 0.365194
0.365866 0.545449 0.333700
0.393118 0.540551 0.287709
0.405478 0.537285 0.258274
0.413519 0.534737 0.234714
0.417563 0.536019 0.225254
0.418921 0.535210 0.196185
0.418738 0.532891 0.175830
0.447166 0.535149 0.172519
0.480049 0.539208 0.181628
0.523705 0.542931 0.185626
0.559045 0.545907 0.189014
0.587793 0.543984 0.194141
0.616434 0.542214 0.189227
0.650065 0.547158 0.189914
0.673518 0.543847 0.192218
0.695628 0.537118 0.194491
0.719249 0.536233 0.202243
0.738491 0.536736 0.209003
0.756085 0.535119 0.217151
0.770291 0.530373 0.224094
0.786160 0.527489 0.232410
0.805035 0.524025 0.242512
0.821805 0.532189 0.260243
0.831724 0.539330 0.272221
0.833310 0.539940 0.273625
0.217182 0.566201 0.425498
0.224063 0.565255 0.421927
0.235233 0.563684 0.417578
0.243427 0.563302 0.415000
0.269047 0.557733 0.398566
0.287221 0.558495 0.391348
0.302663 0.559289 0.387304
0.323003 0.561746 0.386130
0.368399 0.554772 0.333669
0.409262 0.555291 0.288258
0.425650 0.554665 0.257465
0.436423 0.557427 0.242008
0.445304 0.559472 0.227024
0.450172 0.561242 0.222141
0.449378 0.559396 0.207584
0.452384 0.558495 0.189761
0.479271 0.560662 0.187411
0.514961 0.569146 0.194018
0.557443 0.567697 0.195346
0.578759 0.567727 0.196735
0.611170 0.568048 0.204608
0.648325 0.574838 0.208316
0.676875 0.576883 0.211063
0.698466 0.572625 0.214389
0.721386 0.568902 0.220508
0.744594 0.568826 0.229541
0.759792 0.563165 0.231418
0.775540 0.560769 0.238315
0.791241 0.557839 0.246357
0.806317 0.554528 0.254932
0.830121 0.555444 0.275486
0.846311 0.556466 0.291646
0.845823 0.554604 0.290593
0.236179 0.572778 0.429740
0.245747 0.570642 0.421515
0.246754 0.570642 0.421195
0.259495 0.568841 0.415167
0.276265 0.568154 0.410025
0.290501 0.566690 0.403403
0.299855 0.564065 0.396735
0.331182 0.564706 0.381781
0.395392 0.565179 0.325063
0.432639 0.568338 0.285069
0.450294 0.572457 0.267613
0.453651 0.570901 0.248280
0.463432 0.573312 0.233829
0.467781 0.576455 0.231724
0.470680 0.577890 0.226352
0.476143 0.578622 0.214069
0.483009 0.581552 0.201556
0.514137 0.586511 0.203769
0.535241 0.593393 0.211719
0.584451 0.588876 0.207309
0.602716 0.591318 0.210895
0.636637 0.596704 0.219257
0.674403 0.599496 0.226276
0.706050 0.602823 0.231632
0.723217 0.600565 0.237110
0.746578 0.597787 0.244236
0.767147 0.598016 0.254276
0.781353 0.590707 0.256794
0.796765 0.590219 0.265126
0.813764 0.586572 0.276890
0.836667 0.585351 0.295552
0.855482 0.583429 0.309972
0.857465 0.574884 0.308537
0.242649 0.575143 0.428565
0.244465 0.574472 0.427314
0.252995 0.574960 0.426032
0.260075 0.575296 0.425834
0.287373 0.577203 0.420142
0.294194 0.574319 0.413169
0.305531 0.571206 0.400473
0.370047 0.572305 0.356420
0.417960 0.574228 0.311986
0.447288 0.577218 0.283970
0.461173 0.580423 0.266865
0.470420 0.584421 0.255039
0.477226 0.584848 0.240787
0.477607 0.585061 0.239826
0.486702 0.590051 0.238758
0.494133 0.594263 0.237034
0.504784 0.596674 0.224292
0.515206 0.603372 0.218479
0.543618 0.612116 0.227131
0.556268 0.615763 0.233616
0.619577 0.615000 0.228946
0.635798 0.622843 0.235401
0.672755 0.632853 0.246036
0.703685 0.632776 0.253040
0.737606 0.635508 0.258900
0.750576 0.631434 0.262013
0.770535 0.630900 0.272114
0.787442 0.625132 0.277592
0.806180 0.620966 0.286595
0.822309 0.619852 0.298482
0.841154 0.614466 0.312932
0.859541 0.610498 0.327291
0.864439 0.600031 0.325872
0.255528 0.578805 0.429435
0.260365 0.578134 0.427146
0.270054 0.579828 0.427298
0.275456 0.580789 0.427710
0.283635 0.581598 0.427604
0.305898 0.579675 0.412436
0.352209 0.580011 0.377661
0.413840 0.581689 0.323980
0.440070 0.583032 0.300267
0.470481 0.587930 0.275715
0.475242 0.590784 0.274830
0.482338 0.593103 0.261433
0.495247 0.598535 0.259663
0.501518 0.603235 0.266255
0.510750 0.609689 0.271260
0.520195 0.615732 0.274510
0.533150 0.621363 0.271061
0.546929 0.624720 0.259159
0.551217 0.623377 0.250187
0.557198 0.623194 0.244221
0.591547 0.631922 0.246708
0.656138 0.650202 0.257053
0.670710 0.654475 0.259846
0.697337 0.659236 0.267002
0.729671 0.660395 0.275654
0.753475 0.661540 0.279820
0.775418 0.661097 0.289036
0.790295 0.656992 0.295705
0.809476 0.651514 0.304631
0.829847 0.651942 0.320363
0.849393 0.647730 0.334142
0.859815 0.637629 0.338262
0.864088 0.622843 0.336126
0.274022 0.582544 0.431205
0.274556 0.582574 0.431052
0.275181 0.582605 0.430900
0.290059 0.584146 0.426673
0.315373 0.585275 0.411444
0.357244 0.585168 0.377691
0.393988 0.586664 0.348455
0.416556 0.588281 0.327596
0.461555 0.592615 0.294331
0.487358 0.599893 0.286946
0.496361 0.604395 0.279805
0.506111 0.609705 0.281880
0.515190 0.614206 0.282322
0.526528 0.622248 0.293172
0.532036 0.626062 0.295247
0.533272 0.626810 0.295827
0.550851 0.634928 0.296101
0.559335 0.636118 0.287022
0.564157 0.637797 0.285435
0.566461 0.636042 0.277729
0.579385 0.638621 0.269169
0.653254 0.664759 0.276280
0.687755 0.679759 0.288075
0.695354 0.680507 0.284306
0.721859 0.684123 0.290318
0.753964 0.688853 0.299886
0.783703 0.689998 0.308217
0.798734 0.688472 0.315358
0.814908 0.684520 0.323842
0.834363 0.684504 0.336904
0.850675 0.671458 0.345006
0.862318 0.667475 0.352758
0.867247 0.653651 0.350942
0.295506 0.593042 0.434531
0.301732 0.593683 0.430488
0.329259 0.593118 0.411704
0.346151 0.589364 0.391241
0.377783 0.589975 0.363989
0.401572 0.593179 0.351446
0.429175 0.598962 0.341558
0.456046 0.604883 0.329091
0.486610 0.610391 0.309667
0.505531 0.615274 0.301183
0.522347 0.622248 0.302922
0.526894 0.623011 0.297902
0.528847 0.624353 0.299245
0.534737 0.628122 0.299046
0.537606 0.630106 0.302998
0.548684 0.636225 0.306615
0.555566 0.638025 0.301183
0.562020 0.640589 0.301640
0.568582 0.642222 0.298085
0.570916 0.642725 0.297459
0.586084 0.648402 0.292775
0.655375 0.680171 0.306935
0.703212 0.698299 0.314214
0.712932 0.706096 0.317922
0.724208 0.713588 0.322515
0.745663 0.709590 0.315465
0.779110 0.712001 0.322591
0.805402 0.718517 0.335698
0.822827 0.715908 0.345190
0.838804 0.713054 0.354742
0.854307 0.709377 0.363119
0.861570 0.697230 0.363912
0.867948 0.682307 0.363302
0.364797 0.609079 0.410880
0.372839 0.609384 0.404974
0.386709 0.602930 0.383993
0.391516 0.604669 0.381750
0.418006 0.604135 0.360189
0.440909 0.607218 0.346944
0.451987 0.610361 0.344793
0.483574 0.617670 0.333471
0.506905 0.620859 0.315709
0.519387 0.623575 0.309499
0.524163 0.623331 0.303243
0.530343 0.625513 0.302022
0.537469 0.630030 0.303258
0.537972 0.630381 0.303731
0.544076 0.633768 0.305852
0.553262 0.638514 0.308293
0.556893 0.639887 0.306630
0.562188 0.641169 0.303609
0.567666 0.642481 0.301152
0.571359 0.644205 0.302663
0.599252 0.659510 0.307683
0.670192 0.698238 0.328267
0.715328 0.720531 0.343053
0.735882 0.732204 0.344732
0.741329 0.737240 0.344915
0.751278 0.744060 0.347341
0.769100 0.740810 0.342596
0.807156 0.736706 0.349355
0.829053 0.740215 0.359670
0.844862 0.740002 0.370275
0.857298 0.738521 0.376669
0.866682 0.731411 0.380545
0.869902 0.722652 0.380377
0.401907 0.613993 0.391775
0.412696 0.617319 0.390143
0.426383 0.617670 0.379416
0.427192 0.617762 0.378973
0.448463 0.617288 0.363668
0.471595 0.620294 0.351659
0.481300 0.623041 0.348455
0.491264 0.621759 0.334478
0.514702 0.624613 0.317266
0.522225 0.625559 0.312840
0.530404 0.627802 0.311894
0.537789 0.630228 0.303639
0.538140 0.630472 0.303990
0.544106 0.633768 0.305959
0.551843 0.638056 0.308751
0.553719 0.638788 0.308721
0.559609 0.641428 0.308431
0.562905 0.642771 0.309010
0.567361 0.643641 0.306035
0.583764 0.652888 0.308858
0.619257 0.675975 0.319448
0.684169 0.712963 0.348623
0.729793 0.737377 0.360647
0.745098 0.745052 0.359777
0.755627 0.753735 0.362264
0.761334 0.759930 0.365423
0.773541 0.766186 0.367102
