app/src/main/assets/filters/ricoh_positive.cube
# Created from ricoh_positive.plut
LUT_3D_SIZE 33
DOMAIN_MIN 0.0 0.0 0.0
DOMAIN_MAX 1.0 1.0 1.0
0.014755 0.012711 0.013275
0.025803 0.012818 0.012375
0.049821 0.014511 0.012192
0.075853 0.016129 0.012146
0.108385 0.019165 0.013245
0.145876 0.022538 0.015549
0.188525 0.026383 0.018341
0.235187 0.025391 0.018891
0.278950 0.026123 0.018448
0.323888 0.024933 0.016876
0.370336 0.022660 0.016464
0.411154 0.028229 0.021744
0.451865 0.032685 0.025025
0.508949 0.028840 0.020203
0.549447 0.021805 0.015030
0.577890 0.022538 0.012604
0.601877 0.027375 0.015167
0.639155 0.021302 0.015991
0.686610 0.012222 0.012680
0.711116 0.007385 0.010880
0.734722 0.007095 0.011719
0.755550 0.006455 0.011810
0.786969 0.007721 0.012482
0.804837 0.008072 0.012009
0.828168 0.008118 0.011551
0.846921 0.006714 0.010086
0.860594 0.006714 0.009735
0.876692 0.008194 0.010315
0.889311 0.010636 0.012467
0.893324 0.010758 0.013214
0.896208 0.011154 0.014084
0.897078 0.011017 0.014313
0.898085 0.011536 0.014817
0.017441 0.026856 0.018540
0.024277 0.023590 0.014664
0.045472 0.025299 0.014359
0.074296 0.027436 0.014252
0.104280 0.028244 0.013413
0.141451 0.032517 0.016495
0.179004 0.033997 0.017487
0.226047 0.034485 0.016693
0.271717 0.033585 0.015930
0.318608 0.032685 0.015274
0.363882 0.026505 0.012680
0.403769 0.031998 0.016571
0.445365 0.037354 0.021897
0.495827 0.037888 0.020966
0.544121 0.034943 0.018479
0.572213 0.034592 0.014664
0.593591 0.034882 0.016190
0.619303 0.035492 0.019074
0.673930 0.024079 0.016770
0.707836 0.011673 0.012741
0.734264 0.008469 0.012863
0.755154 0.007248 0.012619
0.785962 0.007797 0.012680
0.804776 0.007797 0.011948
0.825818 0.007935 0.011795
0.846769 0.006683 0.010086
0.860014 0.006775 0.009873
0.878462 0.008499 0.010758
0.886732 0.010254 0.012055
0.892409 0.011215 0.013031
0.895552 0.010971 0.013672
0.896452 0.011200 0.014160
0.898100 0.011536 0.014801
0.028412 0.048066 0.027604
0.032059 0.043229 0.020233
0.045350 0.042084 0.017624
0.073762 0.044495 0.018082
0.106142 0.045716 0.017334
0.142611 0.047196 0.017899
0.180194 0.048386 0.019440
0.220996 0.047761 0.021271
0.266300 0.045548 0.020630
0.312413 0.043809 0.019211
0.359014 0.042039 0.017716
0.400717 0.040070 0.016327
0.446387 0.040589 0.019516
0.490761 0.043183 0.019516
0.535805 0.040757 0.017029
0.568078 0.036805 0.013657
0.588067 0.037720 0.015122
0.617517 0.038849 0.018830
0.660487 0.035157 0.019211
0.696620 0.021042 0.015000
0.728969 0.011551 0.013672
0.750072 0.007721 0.012863
0.782742 0.008621 0.013001
0.801022 0.008957 0.012741
0.825437 0.008713 0.011948
0.845075 0.007004 0.010407
0.858976 0.006607 0.009873
0.876158 0.007996 0.010483
0.884840 0.009644 0.011597
0.892393 0.011200 0.013016
0.895552 0.010956 0.013642
0.896880 0.010986 0.014084
0.898100 0.011551 0.014786
0.037430 0.070100 0.038529
0.044312 0.067536 0.031189
0.052415 0.065324 0.025238
0.072892 0.065812 0.024063
0.106172 0.068238 0.024292
0.142657 0.067933 0.022156
0.181186 0.064927 0.020951
0.218997 0.063554 0.022690
0.264225 0.060670 0.025116
0.308888 0.057450 0.024323
0.352544 0.054536 0.022614
0.400717 0.052003 0.021363
0.444480 0.044038 0.017868
0.485466 0.046464 0.017288
0.525338 0.044251 0.015549
0.563363 0.037339 0.012543
0.582712 0.039506 0.013581
0.612268 0.041886 0.016907
0.648493 0.045319 0.020478
0.680766 0.042008 0.019165
0.714961 0.025452 0.016266
0.748043 0.011139 0.013886
0.779614 0.009720 0.013855
0.800229 0.009140 0.012802
0.826123 0.010132 0.012665
0.842130 0.007507 0.010956
0.857816 0.006317 0.009628
0.873121 0.007523 0.010285
0.884794 0.009598 0.011566
0.892348 0.011170 0.012985
0.895338 0.011856 0.013779
0.896651 0.011215 0.014023
0.897932 0.011948 0.014664
0.045502 0.104128 0.062455
0.056535 0.099382 0.051621
0.064790 0.091920 0.037201
0.074922 0.090059 0.032395
0.103182 0.090623 0.032044
0.138918 0.092073 0.030304
0.179095 0.089754 0.027955
0.220768 0.083314 0.025391
0.264179 0.076783 0.023301
0.308354 0.071550 0.022644
0.350240 0.070893 0.027283
0.394781 0.066850 0.027131
0.442741 0.061646 0.023850
0.481910 0.056138 0.020706
0.522072 0.053452 0.018265
0.557000 0.048859 0.014710
0.583429 0.045563 0.013596
0.614664 0.048249 0.016495
0.650660 0.052003 0.019135
0.669047 0.055985 0.020737
0.691310 0.052064 0.022354
0.732357 0.026734 0.017441
0.772900 0.013001 0.015091
0.800000 0.011521 0.013779
0.824430 0.013169 0.013535
0.839078 0.008637 0.011261
0.857099 0.007736 0.010361
0.872816 0.008270 0.010529
0.885969 0.009567 0.011658
0.891402 0.010529 0.012604
0.894865 0.011383 0.013458
0.895796 0.011933 0.013931
0.897490 0.011734 0.014389
0.047623 0.143816 0.077348
0.060700 0.134218 0.067552
0.079255 0.123125 0.051057
0.086625 0.116136 0.042481
0.101152 0.113741 0.039185
0.133059 0.115373 0.037415
0.172702 0.115984 0.035431
0.216464 0.111192 0.033112
0.259571 0.103059 0.031128
0.305470 0.095613 0.028977
0.349279 0.091402 0.028168
0.395743 0.086900 0.029953
0.439216 0.080018 0.028367
0.478477 0.074586 0.024399
0.517479 0.067521 0.022034
0.556710 0.061219 0.019608
0.585153 0.058152 0.017472
0.615778 0.058000 0.017670
0.647242 0.058686 0.018860
0.670787 0.059525 0.020859
0.682887 0.061662 0.023362
0.703914 0.068528 0.026535
0.758206 0.047898 0.021866
0.798840 0.023987 0.017899
0.823789 0.024063 0.016251
0.835813 0.015244 0.012940
0.858320 0.010544 0.011063
0.870115 0.009766 0.010758
0.881880 0.010163 0.011429
0.889433 0.011444 0.012467
0.894881 0.012512 0.013550
0.895735 0.011963 0.013825
0.896590 0.012177 0.014206
0.047044 0.180209 0.082902
0.050874 0.174563 0.079866
0.071656 0.163394 0.070451
0.099901 0.144350 0.052201
0.108202 0.143389 0.049760
0.131441 0.143069 0.048264
0.166262 0.142168 0.043839
0.209552 0.141451 0.041154
0.256229 0.134997 0.039475
0.301518 0.127001 0.036805
0.346288 0.121584 0.035691
0.388861 0.116487 0.035889
0.429572 0.113527 0.037858
0.468040 0.103349 0.036057
0.504906 0.090242 0.029526
0.544945 0.072999 0.024002
0.581292 0.066300 0.020874
0.611200 0.065278 0.019821
0.643687 0.065492 0.019745
0.665904 0.064836 0.021180
0.679774 0.064088 0.022980
0.693172 0.071641 0.026047
0.729702 0.090578 0.030823
0.787732 0.089357 0.032349
0.818723 0.054902 0.023972
0.831846 0.026429 0.017075
0.854414 0.017243 0.012955
0.868772 0.015229 0.011780
0.881727 0.012741 0.012070
0.889357 0.013657 0.012985
0.893400 0.014084 0.013642
0.895140 0.012619 0.013642
0.895979 0.013138 0.014084
0.052277 0.207126 0.085176
0.057115 0.205737 0.083207
0.069368 0.200702 0.078645
0.098817 0.192874 0.068681
0.127810 0.177447 0.059083
0.134157 0.173266 0.056840
0.165774 0.173617 0.054185
0.202838 0.172290 0.050843
0.248402 0.169375 0.046983
0.297627 0.163684 0.045899
0.344320 0.158160 0.042756
0.384192 0.154162 0.045411
0.425971 0.153475 0.048081
0.460761 0.150622 0.045274
0.500801 0.153521 0.049805
0.533883 0.142641 0.050294
0.574334 0.111925 0.038071
0.599771 0.079179 0.024842
0.634516 0.067948 0.021256
0.657832 0.072511 0.022354
0.674235 0.068574 0.022980
0.695048 0.083513 0.026917
0.723522 0.114382 0.032807
0.765408 0.139345 0.037934
0.800412 0.120638 0.038376
0.827359 0.079820 0.031785
0.849363 0.053574 0.024445
0.865293 0.029740 0.015915
0.876326 0.021561 0.013748
0.887175 0.013565 0.012879
0.891676 0.014527 0.013581
0.894530 0.014618 0.013962
0.896727 0.015351 0.014694
0.062791 0.249958 0.097017
0.068757 0.242695 0.091814
0.074479 0.240604 0.089296
0.086534 0.237369 0.083909
0.128069 0.218570 0.067033
0.152407 0.209766 0.064607
0.164950 0.207980 0.063645
0.202106 0.206882 0.059251
0.242817 0.204761 0.055695
0.288563 0.200259 0.052781
0.341146 0.196109 0.050797
0.382757 0.192050 0.049332
0.427863 0.193973 0.053925
0.461295 0.192325 0.056306
0.503700 0.195453 0.055314
0.536858 0.199527 0.060731
0.575341 0.201678 0.068132
0.612314 0.196582 0.066072
0.641306 0.179126 0.057099
0.665126 0.128344 0.031876
0.680659 0.125704 0.030091
0.703395 0.133715 0.031998
0.736385 0.150134 0.037263
0.768124 0.176425 0.043229
0.783383 0.176898 0.045106
0.807080 0.164599 0.048081
0.836042 0.120729 0.042618
0.858305 0.077546 0.031006
0.870665 0.057389 0.024338
0.884031 0.039170 0.018814
0.891264 0.019455 0.014908
0.892927 0.019348 0.015000
0.895918 0.015625 0.014511
0.059297 0.292622 0.122698
0.067765 0.287312 0.116609
0.077958 0.281621 0.110353
0.099138 0.271580 0.098619
0.123430 0.263340 0.085786
0.169345 0.256641 0.074311
0.180240 0.248371 0.072160
0.197208 0.243183 0.068132
0.239841 0.242313 0.063935
0.283391 0.237659 0.060243
0.331350 0.235126 0.058350
0.383780 0.229038 0.056764
0.426398 0.228550 0.054780
0.467735 0.229572 0.055314
0.501610 0.233799 0.061067
0.542397 0.237705 0.065888
0.568475 0.237491 0.070756
0.614069 0.244480 0.077775
0.651621 0.244511 0.079789
0.683223 0.238926 0.075013
0.705669 0.227314 0.066285
0.723995 0.212757 0.054917
0.746960 0.207904 0.048051
0.767514 0.200504 0.046265
0.786084 0.206180 0.048341
0.798734 0.208286 0.050370
0.813825 0.203952 0.055741
0.840665 0.167605 0.057542
0.865415 0.127321 0.050858
0.879438 0.096788 0.041306
0.889601 0.057588 0.026047
0.894575 0.047333 0.022980
0.895476 0.037613 0.020401
0.060578 0.326604 0.144411
0.068513 0.321508 0.139574
0.076875 0.319173 0.135378
0.098817 0.313909 0.126421
0.152590 0.308736 0.104509
0.181994 0.303914 0.091905
0.200671 0.296468 0.081971
0.204700 0.285908 0.075456
0.233417 0.280644 0.073259
0.279622 0.278248 0.068757
0.327596 0.274601 0.065675
0.373754 0.268818 0.063401
0.423423 0.264836 0.061372
0.466026 0.262776 0.056626
0.506462 0.266606 0.058579
0.540169 0.265919 0.058610
0.573861 0.271717 0.069978
0.615076 0.279454 0.077775
0.650736 0.277119 0.081788
0.677806 0.272221 0.084520
0.706676 0.265248 0.080140
0.725750 0.256214 0.074693
0.752377 0.254170 0.069291
0.765667 0.239216 0.055558
0.787457 0.235660 0.051865
0.800900 0.236194 0.054292
0.813153 0.238956 0.058106
0.827924 0.236988 0.063218
0.846448 0.227039 0.072145
0.872969 0.185031 0.072374
0.881239 0.136553 0.054414
0.894499 0.090196 0.040101
0.896773 0.069932 0.030732
0.071427 0.385107 0.180880
0.084703 0.382589 0.176394
0.099718 0.368582 0.163821
0.118074 0.364141 0.155428
0.155673 0.354376 0.133974
0.199939 0.342184 0.104814
0.223926 0.344854 0.097124
0.225284 0.333532 0.089982
0.234730 0.322606 0.082322
0.275425 0.317678 0.077668
0.321996 0.315969 0.072038
0.368734 0.311421 0.069780
0.413626 0.305653 0.069718
0.465492 0.303029 0.064378
0.506645 0.298970 0.056779
0.543526 0.298863 0.056428
0.575219 0.299138 0.058518
0.607965 0.302586 0.067506
0.641947 0.303120 0.071336
0.672923 0.303532 0.077058
0.708080 0.302373 0.080095
0.736950 0.301946 0.080903
0.754284 0.292409 0.081285
0.772457 0.287373 0.075441
0.792477 0.289479 0.067826
0.808347 0.284321 0.061662
0.814221 0.272648 0.061631
0.832105 0.274647 0.068391
0.842329 0.275792 0.073136
0.855802 0.270176 0.082490
0.877028 0.246571 0.090547
0.885374 0.212406 0.086519
0.897032 0.136751 0.058976
0.080690 0.435767 0.214176
0.084092 0.429374 0.208194
0.098268 0.424994 0.202182
0.111894 0.420752 0.195453
0.169207 0.411612 0.168948
0.213397 0.397910 0.138094
0.239750 0.390112 0.117144
0.250629 0.379538 0.102449
0.256458 0.373159 0.097047
0.273014 0.360662 0.087907
0.314336 0.353750 0.082673
0.365423 0.354284 0.076478
0.411933 0.348257 0.074876
0.452354 0.342840 0.072435
0.504189 0.344610 0.068376
0.543221 0.333364 0.057572
0.575311 0.326848 0.051698
0.608988 0.328954 0.056764
0.644511 0.332937 0.058106
0.670970 0.330846 0.059052
0.705318 0.333227 0.060853
0.732815 0.330953 0.058137
0.752331 0.330114 0.061646
0.772030 0.327749 0.073045
0.794156 0.330358 0.079545
0.807614 0.329137 0.075608
0.820218 0.322042 0.071717
0.835691 0.320150 0.073045
0.847684 0.311177 0.078309
0.859937 0.313191 0.086900
0.863996 0.312139 0.091188
0.879530 0.292088 0.103471
0.888487 0.249546 0.100771
0.088808 0.467369 0.233906
0.094072 0.462898 0.230762
0.109560 0.461662 0.226093
0.123934 0.461707 0.222278
0.153811 0.457649 0.210040
0.208972 0.442115 0.176303
0.249653 0.427924 0.142748
0.277394 0.423041 0.120500
0.283711 0.415091 0.108553
0.290196 0.409415 0.100481
0.312947 0.399054 0.089754
0.358892 0.398840 0.087205
0.404211 0.390982 0.081193
0.454124 0.389059 0.079042
0.492775 0.382483 0.077775
0.534752 0.379477 0.074281
0.575769 0.369924 0.062119
0.608286 0.361746 0.053971
0.639307 0.356298 0.050111
0.668208 0.353643 0.048966
0.696239 0.353414 0.046265
0.725246 0.350164 0.044297
0.748638 0.346441 0.041077
0.769131 0.350927 0.041215
0.791684 0.360052 0.044434
0.808408 0.361334 0.056123
0.818906 0.359335 0.062058
0.838773 0.358770 0.076539
0.855055 0.361364 0.082673
0.859251 0.348180 0.085222
0.869184 0.344594 0.092958
0.875807 0.344121 0.100114
0.881300 0.334142 0.108339
0.102876 0.498299 0.253513
0.104280 0.497276 0.252110
0.119295 0.497627 0.250019
0.141482 0.497292 0.245655
0.178668 0.494606 0.233753
0.201770 0.495842 0.227634
0.251301 0.486717 0.198749
0.296712 0.460212 0.147570
0.307591 0.452766 0.131914
0.319738 0.446845 0.116594
0.324010 0.440467 0.106828
0.343252 0.435370 0.095796
0.402060 0.431052 0.091051
0.442847 0.428717 0.083284
0.485435 0.423926 0.082841
0.523796 0.416907 0.083116
0.565270 0.415778 0.078721
0.604562 0.411292 0.068727
0.636957 0.396201 0.056519
0.664973 0.389242 0.050126
0.691463 0.381903 0.045594
0.714855 0.370947 0.042237
0.737453 0.363912 0.039078
0.764706 0.359594 0.036866
0.788647 0.365423 0.036500
0.804318 0.372107 0.035630
0.822873 0.382315 0.034943
0.847379 0.395377 0.029969
0.857023 0.402457 0.042237
0.871778 0.400015 0.062165
0.876371 0.396475 0.071489
0.878187 0.388251 0.077943
0.880095 0.374731 0.084382
0.128130 0.525216 0.273396
0.131640 0.524910 0.272007
0.146380 0.527001 0.270039
0.164187 0.524743 0.263096
0.178454 0.522789 0.256428
0.213382 0.523995 0.246845
0.259312 0.518349 0.225299
0.303975 0.511650 0.199710
0.335576 0.497017 0.163897
0.344747 0.488975 0.144976
0.355383 0.481422 0.126009
0.360235 0.476905 0.116197
0.390448 0.474632 0.107561
0.438560 0.466392 0.098222
0.479438 0.462196 0.092317
0.522362 0.459571 0.087266
0.556374 0.451774 0.086015
0.591928 0.451637 0.083940
0.630945 0.445792 0.070756
0.665324 0.431647 0.058167
0.690074 0.425406 0.051331
0.714885 0.418784 0.047425
0.738323 0.409491 0.045472
0.761547 0.400931 0.041672
0.785428 0.383474 0.036683
0.804059 0.381567 0.030655
0.820264 0.386191 0.025513
0.851118 0.402747 0.022156
0.862730 0.412421 0.021469
0.873915 0.423362 0.023499
0.879850 0.429267 0.022736
0.885344 0.429480 0.026978
0.890318 0.427146 0.034745
0.148028 0.551308 0.296300
0.160906 0.551385 0.292607
0.162890 0.551369 0.292073
0.180682 0.549981 0.284398
0.205966 0.547051 0.273869
0.229267 0.549111 0.268208
0.257374 0.543023 0.251530
0.295048 0.537499 0.231250
0.333791 0.528725 0.201495
0.357733 0.515328 0.165393
0.367193 0.511147 0.148730
0.372061 0.502480 0.131411
0.386831 0.505333 0.116823
0.419501 0.506004 0.113252
0.464134 0.498528 0.106447
0.509514 0.492348 0.096651
0.551553 0.490867 0.090776
0.587304 0.484535 0.095903
0.615625 0.482918 0.094499
0.660151 0.479332 0.068284
0.687999 0.471153 0.055558
0.715435 0.460151 0.051850
0.738842 0.455467 0.050919
0.761898 0.447074 0.049180
0.784207 0.439246 0.044388
0.806760 0.419471 0.039567
0.824033 0.409506 0.031586
0.846983 0.409339 0.021408
0.866484 0.415229 0.017990
0.876967 0.425513 0.017762
0.883345 0.433402 0.018448
0.890562 0.442176 0.018479
0.893050 0.445548 0.018143
0.169848 0.575235 0.319173
0.178820 0.577951 0.320195
0.203601 0.581491 0.317540
0.216785 0.579004 0.309865
0.238727 0.579217 0.302602
0.254139 0.578576 0.295918
0.274662 0.579431 0.289158
0.308385 0.573953 0.269871
0.331441 0.566674 0.251926
0.359487 0.553307 0.219821
0.384955 0.538872 0.172244
0.387808 0.532616 0.158770
0.402411 0.531868 0.140017
0.416785 0.533684 0.121111
0.455177 0.534707 0.115572
0.496391 0.536278 0.115785
0.544152 0.530678 0.107790
0.586923 0.527047 0.106889
0.613947 0.515862 0.108400
0.649485 0.521065 0.103166
0.683665 0.514397 0.076539
0.715663 0.507942 0.060700
0.740291 0.498207 0.056107
0.761578 0.487694 0.054353
0.783948 0.482338 0.052293
0.805737 0.470390 0.046448
0.826062 0.457740 0.041428
0.847044 0.448737 0.032410
0.866056 0.437156 0.019532
0.880903 0.428061 0.014206
0.888457 0.442054 0.016770
0.895720 0.451606 0.017365
0.899504 0.455863 0.017319
0.213642 0.599130 0.337530
0.219013 0.600412 0.337179
0.220417 0.600519 0.336889
0.228443 0.601282 0.334905
0.243214 0.600717 0.329274
0.267872 0.600381 0.320378
0.287739 0.597406 0.308492
0.304189 0.592447 0.295583
0.327428 0.590295 0.283543
0.364126 0.584329 0.259068
0.391043 0.574090 0.223957
0.416022 0.566018 0.182696
0.427161 0.565545 0.168414
0.442741 0.566094 0.148623
0.449851 0.564965 0.128023
0.486885 0.564721 0.117769
0.525170 0.563806 0.123964
0.578027 0.560616 0.118105
0.617029 0.560891 0.113298
0.644800 0.553750 0.116976
0.675486 0.547539 0.104860
0.713130 0.550652 0.083162
0.738888 0.542916 0.064378
0.762234 0.530297 0.058442
0.786236 0.522240 0.058259
0.806714 0.515999 0.055070
0.827512 0.504860 0.049928
0.845212 0.490181 0.042481
0.863828 0.478676 0.033936
0.885451 0.462119 0.021790
0.900008 0.464668 0.019974
0.906737 0.470146 0.020127
0.907759 0.470176 0.019364
0.234562 0.605951 0.339788
0.236698 0.606409 0.339544
0.237873 0.606561 0.339330
0.239673 0.606790 0.339025
0.253147 0.610636 0.340169
0.268116 0.614359 0.339712
0.284306 0.609491 0.326986
0.317250 0.610910 0.316045
0.336828 0.611170 0.309560
0.366552 0.611490 0.297826
0.403311 0.601282 0.253620
0.429496 0.595727 0.219593
0.447700 0.592462 0.194278
0.460594 0.594018 0.183078
0.459541 0.590967 0.174807
0.481895 0.593088 0.136980
0.517952 0.592493 0.125933
0.559548 0.597086 0.132876
0.612497 0.588098 0.117998
0.637491 0.587076 0.110994
0.669261 0.583124 0.117693
0.707942 0.584756 0.105699
0.738277 0.583093 0.090867
0.763165 0.574792 0.068421
0.786877 0.565759 0.063111
0.811170 0.559625 0.060243
0.827863 0.545602 0.057862
0.847517 0.534936 0.051347
0.866728 0.523186 0.041703
0.884627 0.511452 0.030701
0.906020 0.499428 0.021057
0.917342 0.489647 0.019028
0.916823 0.486625 0.019928
0.251347 0.615518 0.348486
0.254704 0.616709 0.349096
0.255604 0.616846 0.348974
0.262226 0.618891 0.349523
0.271763 0.621241 0.349050
0.280125 0.622934 0.348653
0.300649 0.623529 0.340658
0.327276 0.623346 0.329213
0.340505 0.625177 0.327550
0.370657 0.624445 0.314870
0.399237 0.621118 0.291691
0.431220 0.612467 0.247044
0.458381 0.611139 0.219303
0.469932 0.609339 0.203235
0.480995 0.611185 0.188678
0.494759 0.611994 0.170138
0.514031 0.619226 0.141756
0.551934 0.620478 0.137819
0.575097 0.624720 0.150317
0.639338 0.611795 0.118929
0.658946 0.613077 0.122072
0.693370 0.615885 0.131456
0.732296 0.612772 0.117067
0.766079 0.611582 0.094697
0.787167 0.606409 0.071931
0.812253 0.598871 0.063325
0.833997 0.593454 0.064149
0.850233 0.577173 0.060304
0.868910 0.570291 0.053025
0.888273 0.556939 0.040909
0.908278 0.543465 0.027268
0.923095 0.530190 0.020203
0.924941 0.514641 0.019776
0.265263 0.621424 0.352117
0.265843 0.621515 0.352041
0.271015 0.622751 0.351751
0.271946 0.622904 0.351629
0.277501 0.623636 0.350561
0.287419 0.627878 0.353460
0.311635 0.630625 0.346944
0.337072 0.631632 0.338659
0.347768 0.632395 0.335714
0.371252 0.632090 0.325490
0.396643 0.633753 0.313893
0.438239 0.627970 0.271046
0.467933 0.625666 0.236622
0.481621 0.625315 0.220188
0.492821 0.624201 0.204578
0.509041 0.631388 0.201160
0.528298 0.633646 0.175509
0.544991 0.639872 0.152178
0.578241 0.645701 0.163867
0.592203 0.647440 0.172610
0.672679 0.638285 0.142779
0.688624 0.646342 0.150820
0.726802 0.655314 0.151186
0.759396 0.649760 0.140337
0.796994 0.646601 0.103151
0.813581 0.639475 0.080797
0.836439 0.634379 0.068818
0.855039 0.624201 0.064668
0.875685 0.611856 0.059892
0.894316 0.603342 0.048814
0.909926 0.585977 0.037995
0.927977 0.571923 0.024125
0.929992 0.554940 0.021973
0.273899 0.628077 0.358694
0.274342 0.628138 0.358633
0.274861 0.628214 0.358556
0.279927 0.628000 0.356680
0.291707 0.629755 0.355047
0.310140 0.633860 0.352926
0.316365 0.635142 0.352438
0.343587 0.638270 0.346410
0.358114 0.637751 0.340398
0.381308 0.637675 0.326619
0.402914 0.639384 0.317144
0.452384 0.635874 0.270726
0.468452 0.636179 0.256641
0.486854 0.636210 0.238666
0.506462 0.640391 0.228046
0.526360 0.649210 0.225437
0.546181 0.657328 0.220554
0.567727 0.662684 0.203799
0.576974 0.661067 0.193469
0.588403 0.657343 0.185641
0.630793 0.661906 0.179843
0.706264 0.675563 0.167544
0.721599 0.679881 0.166537
0.751110 0.683986 0.159701
0.786038 0.680232 0.145571
0.813275 0.675532 0.107210
0.838849 0.671534 0.089876
0.857145 0.662959 0.074769
0.877180 0.651713 0.071275
0.895460 0.645899 0.063157
0.915221 0.632303 0.047761
0.929992 0.613169 0.035080
0.933486 0.590555 0.026810
0.277516 0.631891 0.363088
0.281773 0.633845 0.364904
0.296452 0.637171 0.363745
0.304860 0.639414 0.363760
0.315465 0.639002 0.358999
0.316457 0.639139 0.358785
0.337194 0.642603 0.356146
0.354284 0.645136 0.350576
0.366812 0.648325 0.350515
0.385199 0.642359 0.332250
0.411719 0.642786 0.316716
0.450217 0.641840 0.282673
0.474342 0.644892 0.270314
0.503532 0.655375 0.266651
0.535912 0.666316 0.260685
0.551308 0.672984 0.258701
0.568490 0.682887 0.265064
0.585931 0.687083 0.250889
0.590799 0.693019 0.250523
0.590097 0.691478 0.243137
0.611749 0.684688 0.229725
0.693767 0.692988 0.195972
0.735744 0.706615 0.194553
0.744854 0.707561 0.186374
0.775296 0.710430 0.174685
0.811017 0.711772 0.152316
0.843168 0.705211 0.118486
0.861418 0.700252 0.094133
0.881346 0.691920 0.080919
0.901411 0.687007 0.072099
0.917342 0.668345 0.062715
0.942031 0.667018 0.038117
0.940246 0.641718 0.038849
0.304341 0.641596 0.367697
0.304616 0.641642 0.367651
0.309087 0.642222 0.366659
0.315953 0.643565 0.364126
0.323720 0.642115 0.358419
0.337377 0.645731 0.358679
0.353353 0.646967 0.353826
0.361807 0.649531 0.354620
0.372183 0.648157 0.347662
0.385138 0.647135 0.340093
0.422477 0.649668 0.319722
0.472816 0.656077 0.291524
0.500145 0.662440 0.284337
0.528038 0.672099 0.279454
0.558556 0.683604 0.279805
0.568933 0.687907 0.278248
0.585565 0.697108 0.285344
0.596689 0.700191 0.280980
0.603067 0.699382 0.268574
0.605783 0.699413 0.265354
0.611841 0.700557 0.262989
0.678538 0.719234 0.253117
0.751522 0.729946 0.226642
0.760372 0.734905 0.216831
0.772107 0.740841 0.205066
0.798901 0.736553 0.184726
0.837873 0.735927 0.145556
0.865965 0.736675 0.126146
0.887068 0.729580 0.099107
0.906767 0.721645 0.081468
0.927245 0.714809 0.069596
0.944366 0.709056 0.057145
0.946014 0.685328 0.048753
0.316213 0.643824 0.364416
0.321447 0.644755 0.363821
0.321752 0.644800 0.363775
0.329702 0.644404 0.359243
0.339956 0.648005 0.360800
0.344091 0.647761 0.359243
0.361776 0.649790 0.355093
0.365774 0.650172 0.354040
0.374517 0.650935 0.351186
0.413306 0.657557 0.338994
0.463600 0.665766 0.318456
0.490745 0.669551 0.305180
0.527031 0.679271 0.296712
0.551324 0.686839 0.293477
0.568963 0.692226 0.290898
0.578698 0.697353 0.293599
0.590295 0.700786 0.291920
0.601694 0.705974 0.293324
0.609537 0.708553 0.291554
0.611627 0.706279 0.282506
0.623072 0.710597 0.280934
0.681224 0.732586 0.272389
0.748638 0.756405 0.261769
0.779767 0.759869 0.239918
0.789364 0.768200 0.231678
0.801129 0.775586 0.224598
0.824094 0.770947 0.204623
0.867811 0.760037 0.166613
0.892699 0.759594 0.129915
0.915618 0.757885 0.099962
0.933684 0.751797 0.087022
0.950866 0.744259 0.078325
0.953811 0.731472 0.070802
0.327520 0.645716 0.362356
0.337606 0.649287 0.364019
0.337850 0.649317 0.363943
0.342596 0.651347 0.365942
0.350301 0.652674 0.364752
0.353506 0.652171 0.362325
0.367025 0.651713 0.356146
0.382803 0.655604 0.353368
0.409934 0.663005 0.349767
0.450340 0.667964 0.334340
0.487694 0.676204 0.323201
0.524636 0.683238 0.306859
0.541527 0.687480 0.304402
0.561044 0.694469 0.302876
0.577768 0.698619 0.299290
0.579049 0.699290 0.299474
0.597269 0.706432 0.300786
0.607462 0.711482 0.304723
0.610605 0.711345 0.300282
0.614908 0.712032 0.296010
0.643763 0.724636 0.289662
0.708507 0.753674 0.283650
0.753536 0.770779 0.275822
0.785931 0.780362 0.262638
0.804044 0.786221 0.254292
0.810895 0.791684 0.246174
0.825162 0.798352 0.239292
