app/src/main/assets/filters/Ricoh_GR2_POSI.cube
# Created from Ricoh_GR2_POSI.plut
LUT_3D_SIZE 5
DOMAIN_MIN 0.0 0.0 0.0
DOMAIN_MAX 1.0 1.0 1.0
0.000000 0.000000 0.000000
0.225879 0.000000 0.000000
0.459922 0.000000 0.000000
0.699641 0.000000 0.000000
0.910536 0.000000 0.000000
0.016419 0.179507 0.040269
0.204883 0.181247 0.023224
0.454337 0.165255 0.000000
0.727520 0.141360 0.000000
0.936751 0.142977 0.000000
0.023499 0.367300 0.074174
0.203876 0.380682 0.048295
0.439353 0.385916 0.032410
0.717525 0.370993 0.060227
0.945022 0.365988 0.078767
0.028092 0.588693 0.110887
0.211902 0.622171 0.059586
0.460853 0.628000 0.078050
0.724849 0.638392 0.069108
0.905333 0.678965 0.052247
0.043641 0.818296 0.186221
0.239933 0.866514 0.108263
0.487327 0.883391 0.158190
0.757305 0.897719 0.153292
0.981170 0.916335 0.160220
0.008347 0.004410 0.160113
0.211734 0.003220 0.163958
0.487709 0.000000 0.212985
0.710384 0.000000 0.135439
0.926238 0.000000 0.129458
0.010895 0.187945 0.216770
0.192218 0.192218 0.192218
0.453025 0.165515 0.179187
0.737957 0.137407 0.165774
0.954177 0.137499 0.160784
0.016968 0.377432 0.263661
0.196475 0.393057 0.243839
0.429603 0.402472 0.223072
0.725566 0.396139 0.173281
0.965942 0.391516 0.181827
0.023514 0.602502 0.321538
0.206317 0.628794 0.308019
0.450416 0.647105 0.287724
0.715740 0.657939 0.277577
0.937499 0.659739 0.332341
0.042237 0.827619 0.416190
0.245212 0.860594 0.396948
0.489204 0.903227 0.329870
0.749294 0.918685 0.365042
0.985946 0.936934 0.369802
0.016449 0.008515 0.322332
0.212238 0.007691 0.322942
0.432425 0.008026 0.333471
0.663096 0.006821 0.342000
0.985443 0.000000 0.447028
0.028092 0.181003 0.410559
0.192370 0.196017 0.368475
0.430411 0.180896 0.375372
0.765606 0.114031 0.448798
1.000000 0.087556 0.504891
0.007813 0.390494 0.453803
0.200580 0.396445 0.453605
0.419562 0.419562 0.419562
0.721996 0.402884 0.415793
0.978683 0.394629 0.426917
0.014862 0.616083 0.533455
0.193942 0.645014 0.527672
0.448249 0.661952 0.497108
0.705699 0.678569 0.486580
0.969757 0.674510 0.528252
0.037415 0.840864 0.638071
0.241337 0.870787 0.628168
0.493187 0.904570 0.594553
0.741787 0.939620 0.577096
0.990677 0.957763 0.579492
0.024308 0.012299 0.486992
0.206668 0.011551 0.480537
0.433341 0.008118 0.498085
0.668360 0.005631 0.513130
0.886107 0.005722 0.542306
0.033967 0.184390 0.582483
0.192737 0.200229 0.549996
0.426566 0.192798 0.549828
0.699046 0.169924 0.582315
0.926314 0.161852 0.621653
0.086656 0.351919 0.686915
0.218784 0.392264 0.673213
0.425208 0.427909 0.625788
0.699626 0.423484 0.640787
1.000000 0.378424 0.722301
0.060395 0.597589 0.772519
0.218952 0.639826 0.762615
0.458534 0.666606 0.729854
0.698131 0.698131 0.698131
0.986038 0.696651 0.704616
0.033433 0.854063 0.861662
0.235706 0.883284 0.855055
0.490120 0.916121 0.825727
0.749096 0.951446 0.790188
0.995422 0.980835 0.785916
0.031846 0.015702 0.654398
0.200168 0.021225 0.640497
0.433967 0.007385 0.665522
0.674357 0.004334 0.689769
0.899779 0.005035 0.726223
0.039521 0.187610 0.758068
0.193210 0.204730 0.737636
0.422583 0.205203 0.730083
0.698695 0.183108 0.769986
0.937804 0.174121 0.813291
0.043122 0.382361 0.892058
0.199023 0.410315 0.882628
0.428656 0.437507 0.835065
0.698695 0.440116 0.835370
0.957702 0.435935 0.872694
0.111025 0.576867 1.000000
0.282994 0.611872 1.000000
0.479683 0.665629 0.966583
0.708766 0.707866 0.915206
0.976440 0.716976 0.934874
0.114382 0.819272 1.000000
0.301884 0.856413 1.000000
0.530816 0.902327 1.000000
0.769390 0.951431 1.000000
1.000000 1.000000 1.000000
