app/src/main/assets/filters/Ricoh_GR2_POSI.cube
# Created from Ricoh_GR2_POSI.plut
LUT_3D_SIZE 33
DOMAIN_MIN 0.0 0.0 0.0
DOMAIN_MAX 1.0 1.0 1.0
0.000000 0.000000 0.000000
0.027878 0.000000 0.000000
0.055848 0.000000 0.000000
0.083909 0.000000 0.000000
0.112078 0.000000 0.000000
0.140352 0.000000 0.000000
0.168750 0.000000 0.000000
0.197253 0.000000 0.000000
0.225879 0.000000 0.000000
0.254643 0.000000 0.000000
0.283543 0.000000 0.000000
0.312566 0.000000 0.000000
0.341741 0.000000 0.000000
0.371069 0.000000 0.000000
0.400534 0.000000 0.000000
0.430152 0.000000 0.000000
0.459922 0.000000 0.000000
0.489845 0.000000 0.000000
0.519921 0.000000 0.000000
0.550164 0.000000 0.000000
0.580545 0.000000 0.000000
0.611078 0.000000 0.000000
0.641749 0.000000 0.000000
0.672572 0.000000 0.000000
0.699641 0.000000 0.000000
0.725032 0.000000 0.000000
0.750515 0.000000 0.000000
0.776303 0.000000 0.000000
0.802441 0.000000 0.000000
0.828931 0.000000 0.000000
0.855787 0.000000 0.000000
0.882994 0.000000 0.000000
0.910536 0.000000 0.000000
0.002502 0.022141 0.005371
0.025360 0.022583 0.003967
0.054292 0.021164 0.000000
0.083452 0.018875 0.000000
0.111727 0.017166 0.000000
0.140124 0.015412 0.000000
0.168627 0.013596 0.000000
0.197284 0.011734 0.000000
0.226047 0.009812 0.000000
0.254948 0.007828 0.000000
0.283970 0.005798 0.000000
0.313130 0.003693 0.000000
0.342443 0.001541 0.000000
0.371893 0.000000 0.000000
0.401480 0.000000 0.000000
0.431220 0.000000 0.000000
0.461112 0.000000 0.000000
0.491142 0.000000 0.000000
0.521324 0.000000 0.000000
0.551659 0.000000 0.000000
0.582132 0.000000 0.000000
0.612757 0.000000 0.000000
0.643503 0.000000 0.000000
0.674403 0.000000 0.000000
0.702480 0.000000 0.000000
0.727855 0.000000 0.000000
0.753628 0.000000 0.000000
0.779812 0.000000 0.000000
0.806409 0.000000 0.000000
0.833433 0.000000 0.000000
0.860853 0.000000 0.000000
0.888777 0.000000 0.000000
0.913268 0.000000 0.000000
0.004883 0.044358 0.010651
0.025711 0.045335 0.009613
0.050767 0.045182 0.007691
0.078294 0.042878 0.011063
0.109087 0.042191 0.000000
0.139284 0.039307 0.000000
0.168124 0.037308 0.000000
0.196841 0.035431 0.000000
0.225681 0.033494 0.000000
0.254643 0.031510 0.000000
0.283757 0.029465 0.000000
0.312993 0.027359 0.000000
0.342382 0.025193 0.000000
0.371939 0.022950 0.000000
0.401633 0.020645 0.000000
0.431479 0.018280 0.000000
0.461463 0.015869 0.000000
0.491600 0.013382 0.000000
0.521874 0.010834 0.000000
0.552300 0.008240 0.000000
0.582864 0.005570 0.000000
0.613550 0.002853 0.000000
0.644388 0.000092 0.000000
0.675364 0.000000 0.000000
0.704845 0.000000 0.000000
0.730831 0.000000 0.000000
0.757229 0.000000 0.000000
0.784009 0.000000 0.000000
0.811185 0.000000 0.000000
0.838849 0.000000 0.000000
0.866911 0.000000 0.000000
0.895354 0.000000 0.000000
0.916365 0.000000 0.000000
0.007156 0.066651 0.015854
0.026474 0.068742 0.010819
0.051057 0.068009 0.013184
0.076249 0.067811 0.011124
0.099474 0.069123 0.007462
0.132937 0.062623 0.016297
0.164477 0.063035 0.000000
0.195041 0.060044 0.000000
0.225223 0.057252 0.000000
0.254292 0.055222 0.000000
0.283482 0.053147 0.000000
0.312825 0.051026 0.000000
0.342321 0.048829 0.000000
0.371954 0.046571 0.000000
0.401724 0.044266 0.000000
0.431632 0.041901 0.000000
0.461692 0.039475 0.000000
0.491905 0.036988 0.000000
0.522255 0.034440 0.000000
0.552758 0.031815 0.000000
0.583383 0.029129 0.000000
0.614160 0.026398 0.000000
0.645304 0.023636 0.000000
0.676890 0.020813 0.000000
0.708049 0.018326 0.000000
0.734615 0.017975 0.000000
0.761547 0.017609 0.000000
0.788952 0.017166 0.000000
0.816754 0.016693 0.000000
0.844923 0.016205 0.000000
0.873442 0.015702 0.000000
0.902327 0.015198 0.000000
0.919692 0.015518 0.000000
0.009308 0.089036 0.020966
0.026856 0.091997 0.013809
0.051194 0.090913 0.018585
0.076448 0.090700 0.016449
0.101793 0.090455 0.014252
0.122805 0.093294 0.008865
0.157671 0.085496 0.020630
0.188220 0.082170 0.020951
0.220554 0.083696 0.000000
0.251499 0.080552 0.000000
0.282567 0.077287 0.000000
0.312520 0.074784 0.000000
0.342107 0.072572 0.000000
0.371832 0.070298 0.000000
0.401694 0.067948 0.000000
0.431708 0.065553 0.000000
0.461860 0.063111 0.000000
0.492149 0.060594 0.000000
0.522560 0.058030 0.000000
0.553124 0.055421 0.000000
0.583993 0.052766 0.000000
0.615290 0.050080 0.000000
0.647013 0.047379 0.000000
0.679149 0.044633 0.000000
0.711742 0.041840 0.000000
0.739086 0.041428 0.000000
0.766613 0.041077 0.000000
0.794507 0.040711 0.000000
0.822766 0.040345 0.000000
0.851362 0.039963 0.000000
0.880293 0.039597 0.000000
0.909545 0.039216 0.000000
0.923156 0.039902 0.000000
0.011322 0.111498 0.025956
0.027970 0.113512 0.024186
0.051942 0.114763 0.017517
0.076493 0.113695 0.021653
0.101900 0.113436 0.019379
0.127428 0.113115 0.017044
0.146181 0.117525 0.009888
0.182513 0.108385 0.024643
0.213275 0.104952 0.024826
0.244205 0.101472 0.024949
0.277363 0.104143 0.000000
0.308705 0.100847 0.000000
0.340169 0.097459 0.000000
0.371542 0.094118 0.000000
0.401495 0.091752 0.000000
0.431586 0.089342 0.000000
0.461830 0.086870 0.000000
0.492180 0.084337 0.000000
0.522850 0.081788 0.000000
0.553887 0.079210 0.000000
0.585351 0.076616 0.000000
0.617212 0.074006 0.000000
0.649470 0.071351 0.000000
0.682155 0.068681 0.000000
0.715267 0.065980 0.000000
0.744137 0.065217 0.000000
0.772107 0.064973 0.000000
0.800412 0.064729 0.000000
0.829068 0.064485 0.000000
0.858030 0.064240 0.000000
0.887327 0.064012 0.000000
0.916915 0.063783 0.000000
0.926650 0.064805 0.000000
0.013169 0.134066 0.030838
0.028717 0.136141 0.029526
0.052064 0.138216 0.020157
0.076371 0.136797 0.026764
0.101854 0.136507 0.024399
0.127443 0.136187 0.021973
0.153140 0.135805 0.019471
0.169619 0.141787 0.010513
0.200656 0.138125 0.011078
0.238437 0.127764 0.028351
0.269596 0.124193 0.028351
0.300923 0.120531 0.028290
0.334905 0.124392 0.000000
0.366629 0.120943 0.000000
0.398505 0.117418 0.000000
0.430488 0.113771 0.000000
0.461707 0.110796 0.000000
0.492515 0.108324 0.000000
0.523705 0.105852 0.000000
0.555276 0.103365 0.000000
0.587259 0.100847 0.000000
0.619623 0.098314 0.000000
0.652399 0.095766 0.000000
0.685573 0.093172 0.000000
0.719142 0.090578 0.000000
0.749508 0.089464 0.000000
0.777874 0.089357 0.000000
0.806546 0.089265 0.000000
0.835538 0.089158 0.000000
0.864851 0.089082 0.000000
0.894453 0.089006 0.000000
0.924346 0.088945 0.000000
0.930114 0.090272 0.000000
0.014878 0.156741 0.035615
0.029694 0.158740 0.034409
0.052033 0.161776 0.022675
0.076097 0.160006 0.031754
0.101640 0.159701 0.029297
0.127291 0.159350 0.026780
0.153079 0.158968 0.024186
0.178973 0.158511 0.021530
0.193118 0.166110 0.010727
0.224399 0.162356 0.011154
0.263676 0.150607 0.031540
0.295079 0.146929 0.031403
0.326619 0.143175 0.031220
0.358312 0.139376 0.030991
0.393240 0.144503 0.000000
0.425635 0.141009 0.000000
0.458412 0.137514 0.000000
0.491539 0.133944 0.000000
0.525048 0.130343 0.000000
0.557122 0.127932 0.000000
0.589563 0.125521 0.000000
0.622400 0.123095 0.000000
0.655634 0.120653 0.000000
0.689250 0.118181 0.000000
0.723262 0.115679 0.000000
0.755093 0.114260 0.000000
0.783795 0.114305 0.000000
0.812802 0.114351 0.000000
0.842115 0.114412 0.000000
0.871717 0.114488 0.000000
0.901610 0.114595 0.000000
0.931777 0.114717 0.000000
0.933501 0.116320 0.000000
0.016419 0.179507 0.040269
0.030533 0.181430 0.039200
0.051820 0.185458 0.025040
0.076951 0.184771 0.025620
0.101244 0.183001 0.034089
0.126986 0.182635 0.031464
0.152834 0.182223 0.028794
0.178805 0.181765 0.026047
0.204883 0.181247 0.023224
0.216678 0.190478 0.010559
0.248188 0.186618 0.010864
0.288991 0.173465 0.034424
0.320684 0.169741 0.034180
0.352697 0.166018 0.033921
0.385061 0.162310 0.033616
0.421134 0.168627 0.000000
0.454337 0.165255 0.000000
0.487938 0.161868 0.000000
0.521935 0.158450 0.000000
0.556298 0.154971 0.000000
0.591058 0.151446 0.000000
0.625422 0.148394 0.000000
0.659083 0.146075 0.000000
0.693111 0.143725 0.000000
0.727520 0.141360 0.000000
0.760800 0.139605 0.000000
0.789807 0.139818 0.000000
0.819120 0.140032 0.000000
0.848722 0.140276 0.000000
0.878599 0.140536 0.000000
0.908736 0.140810 0.000000
0.936431 0.141253 0.000000
0.936751 0.142977 0.000000
0.017807 0.202380 0.044816
0.031189 0.204242 0.043885
0.051453 0.209247 0.027268
0.076631 0.208545 0.027771
0.100694 0.206409 0.038773
0.126497 0.206027 0.036057
0.152422 0.205585 0.033295
0.178454 0.205112 0.030457
0.204623 0.204578 0.027543
0.230900 0.203998 0.024582
0.240330 0.214939 0.010056
0.272251 0.211139 0.010239
0.304479 0.207355 0.010391
0.347372 0.193179 0.036820
0.380117 0.189593 0.036515
0.413245 0.185992 0.036179
0.446738 0.182376 0.035828
0.484489 0.190311 0.000000
0.518898 0.187030 0.000000
0.553689 0.183719 0.000000
0.588891 0.180392 0.000000
0.624475 0.177005 0.000000
0.660410 0.173541 0.000000
0.696742 0.170047 0.000000
0.731823 0.167620 0.000000
0.766552 0.165545 0.000000
0.795865 0.165927 0.000000
0.825452 0.166323 0.000000
0.855314 0.166751 0.000000
0.885420 0.167193 0.000000
0.915801 0.167681 0.000000
0.939544 0.168475 0.000000
0.939864 0.170230 0.000000
0.019028 0.225376 0.049241
0.031693 0.227146 0.048447
0.052705 0.229343 0.044907
0.076158 0.232441 0.029801
0.101534 0.231678 0.030182
0.125841 0.229526 0.040558
0.151843 0.229068 0.037690
0.177951 0.228565 0.034775
0.204227 0.228061 0.031800
0.230732 0.227604 0.028779
0.257496 0.227207 0.025696
0.264805 0.240146 0.009277
0.297383 0.236545 0.009384
0.330312 0.232914 0.009461
0.375311 0.217456 0.039414
0.408820 0.213993 0.039078
0.442710 0.210513 0.038727
0.476982 0.206989 0.038376
0.511635 0.203449 0.038010
0.551080 0.213062 0.000000
0.586648 0.209873 0.000000
0.622614 0.206653 0.000000
0.658961 0.203403 0.000000
0.695689 0.200122 0.000000
0.732753 0.196750 0.000000
0.770184 0.193362 0.000000
0.801907 0.192660 0.000000
0.831739 0.193240 0.000000
0.861830 0.193851 0.000000
0.892180 0.194507 0.000000
0.922759 0.195178 0.000000
0.942489 0.196292 0.000000
0.942794 0.198093 0.000000
0.020096 0.248447 0.053574
0.032029 0.250156 0.052918
0.052338 0.252613 0.049928
0.075502 0.256443 0.031693
0.100954 0.255650 0.031998
0.125017 0.253117 0.044953
0.151110 0.252689 0.042023
0.177417 0.252323 0.039048
0.203952 0.252018 0.036027
0.230747 0.251759 0.032959
0.257816 0.251545 0.029847
0.285176 0.251347 0.026688
0.290318 0.266361 0.008286
0.323583 0.262898 0.008347
0.357214 0.259419 0.008392
0.404425 0.242603 0.042039
0.438682 0.239261 0.041703
0.473320 0.235889 0.041382
0.508339 0.232486 0.041047
0.543740 0.229053 0.040742
0.579538 0.225589 0.040436
0.620661 0.236942 0.000000
0.657343 0.233845 0.000000
0.694423 0.230716 0.000000
0.731853 0.227588 0.000000
0.769635 0.224430 0.000000
0.803281 0.223102 0.000000
0.835340 0.222538 0.000000
0.867659 0.222019 0.000000
0.898817 0.222446 0.000000
0.929580 0.223346 0.000000
0.945235 0.224720 0.000000
0.945525 0.226566 0.000000
0.021012 0.271641 0.057786
0.032227 0.273259 0.057298
0.052491 0.275746 0.054276
0.074693 0.280537 0.033463
0.100237 0.279774 0.033707
0.125963 0.279072 0.033921
0.150454 0.276814 0.045624
0.177005 0.276661 0.043351
0.203815 0.276555 0.040284
0.230915 0.276478 0.037186
0.258289 0.276432 0.034028
0.285969 0.276417 0.030838
0.313954 0.276432 0.027588
0.316808 0.293568 0.007187
0.350790 0.290242 0.007218
0.385153 0.286900 0.007263
0.419898 0.283513 0.007309
0.469581 0.265431 0.044495
0.504967 0.262165 0.044221
0.540719 0.258869 0.043961
0.576852 0.255558 0.043717
0.613367 0.252201 0.043503
0.650233 0.248829 0.043320
0.693004 0.262013 0.000000
0.730739 0.259037 0.000000
0.768811 0.256046 0.000000
0.803876 0.254475 0.000000
0.836179 0.254185 0.000000
0.868727 0.253910 0.000000
0.901488 0.253605 0.000000
0.934478 0.253346 0.000000
0.947784 0.253742 0.000000
0.948058 0.255634 0.000000
0.021775 0.294911 0.061906
0.032273 0.296452 0.061585
0.052598 0.298970 0.058488
0.073793 0.304967 0.035157
0.099504 0.304433 0.035370
0.125444 0.303960 0.035554
0.149844 0.301549 0.047059
0.176669 0.301595 0.045838
0.203769 0.301671 0.044572
0.231159 0.301793 0.041444
0.258854 0.301930 0.038270
0.286839 0.302083 0.035050
0.315160 0.302251 0.031800
0.343786 0.302434 0.028519
0.344259 0.321752 0.006058
0.378958 0.318563 0.006119
0.414038 0.315328 0.006195
0.449516 0.312078 0.006302
0.501488 0.292515 0.047532
0.537591 0.289357 0.047333
0.574044 0.286183 0.047166
0.610880 0.282994 0.047044
0.648066 0.279774 0.046952
0.685603 0.276539 0.046906
0.723491 0.273289 0.046906
0.767803 0.288365 0.000000
0.804242 0.286488 0.000000
0.836759 0.286412 0.000000
0.869505 0.286366 0.000000
0.902403 0.286320 0.000000
0.935424 0.286275 0.000000
0.949737 0.286564 0.000000
0.950011 0.287144 0.000000
0.022431 0.318379 0.065949
0.032197 0.319951 0.065827
0.052644 0.322744 0.062715
0.072862 0.330053 0.036835
0.098787 0.329747 0.037018
0.124956 0.329488 0.037186
0.149279 0.326909 0.048402
0.176379 0.327138 0.047120
0.203769 0.327413 0.045792
0.231464 0.327687 0.044434
0.259464 0.328008 0.042603
0.287785 0.328328 0.039384
0.316411 0.328664 0.036133
0.345357 0.329000 0.032853
0.374624 0.329351 0.029557
0.372641 0.350927 0.005035
0.408057 0.347845 0.005158
0.443870 0.344732 0.005310
0.480049 0.341588 0.005493
0.534325 0.320516 0.050904
0.571115 0.317494 0.050828
0.608255 0.314443 0.050813
0.645747 0.311376 0.050828
0.683574 0.308309 0.050904
0.721721 0.305226 0.051026
0.760189 0.302129 0.051225
0.797894 0.299504 0.051865
0.837079 0.319280 0.000000
0.869841 0.319371 0.000000
0.902708 0.319478 0.000000
0.935653 0.319585 0.000000
0.951110 0.319997 0.000000
0.951339 0.320668 0.000000
0.022995 0.342504 0.070039
0.032059 0.344121 0.070130
0.052644 0.347173 0.066987
0.074708 0.349859 0.062699
0.098054 0.355703 0.038636
0.124483 0.355642 0.038788
0.151186 0.355612 0.038926
0.176120 0.353292 0.048371
0.203815 0.353735 0.047013
0.231815 0.354208 0.045640
0.260121 0.354681 0.044266
0.288746 0.355169 0.042908
0.317708 0.355657 0.040604
0.346975 0.356161 0.037354
0.376577 0.356680 0.034089
0.406500 0.357183 0.030823
0.401938 0.381048 0.004196
0.438087 0.378088 0.004425
0.474586 0.375097 0.004700
0.511467 0.372076 0.005020
0.548699 0.369024 0.005402
0.605493 0.346563 0.054826
0.643275 0.343664 0.054978
0.681376 0.340749 0.055192
0.719799 0.337819 0.055467
0.758465 0.334874 0.055818
0.797330 0.331899 0.056229
0.829923 0.331746 0.058946
0.862547 0.331640 0.061799
0.902464 0.353124 0.000000
0.935378 0.353368 0.000000
0.952010 0.353826 0.000000
0.952209 0.354513 0.000000
0.023499 0.367300 0.074174
0.031861 0.368948 0.074479
0.052628 0.372244 0.071305
0.074098 0.375448 0.067659
0.097307 0.382315 0.040269
0.124010 0.382437 0.040421
0.151003 0.382605 0.040558
0.175875 0.380072 0.049638
0.203876 0.380682 0.048295
0.232181 0.381323 0.046952
0.260807 0.381964 0.045624
0.289769 0.382605 0.044327
0.319051 0.383261 0.043076
0.348653 0.383917 0.041886
0.378561 0.384573 0.038819
0.408804 0.385245 0.035615
0.439353 0.385916 0.032410
0.432166 0.412116 0.003708
0.469001 0.409277 0.004074
0.506188 0.406394 0.004517
0.543709 0.403510 0.005020
0.581582 0.400595 0.005600
0.640650 0.376593 0.059449
0.678981 0.373816 0.059800
0.717525 0.370993 0.060227
0.756268 0.368139 0.060731
0.795193 0.365255 0.061295
0.828962 0.364706 0.063798
0.861570 0.364721 0.066835
0.894255 0.364736 0.069963
0.927031 0.364782 0.073198
0.944808 0.365194 0.076173
0.945022 0.365988 0.078767
0.023941 0.392782 0.078370
0.031632 0.394430 0.078904
0.052567 0.397971 0.075715
0.073747 0.401572 0.072480
0.096559 0.409567 0.041932
0.123537 0.409873 0.042084
0.150835 0.410208 0.042237
0.178424 0.410544 0.042405
0.203952 0.408240 0.049699
0.232593 0.409033 0.048417
0.261540 0.409827 0.047181
0.290822 0.410620 0.046006
0.320439 0.411429 0.044892
0.350362 0.412238 0.043839
0.380606 0.413046 0.042893
0.411154 0.413870 0.040665
0.442023 0.414694 0.037552
0.473182 0.415534 0.034455
0.463279 0.444114 0.003677
0.500771 0.441382 0.004242
0.538613 0.438636 0.004883
0.576730 0.435859 0.005615
0.615106 0.433005 0.006424
0.676204 0.407370 0.064729
0.714839 0.404623 0.065324
0.753643 0.401846 0.065980
0.792615 0.399054 0.066728
0.827588 0.398077 0.069001
0.860182 0.398215 0.072221
0.892866 0.398367 0.075563
0.925612 0.398535 0.078981
0.944579 0.398993 0.082124
0.944778 0.399802 0.084733
0.024384 0.418921 0.082643
0.031357 0.420569 0.083406
0.052522 0.424323 0.080201
0.073915 0.428138 0.076951
0.095796 0.437446 0.043626
0.123079 0.437934 0.043793
0.150683 0.438437 0.043977
0.178592 0.438941 0.044190
0.204074 0.436378 0.051286
0.233051 0.437324 0.050126
0.262333 0.438270 0.049027
0.291951 0.439216 0.048005
0.321874 0.440162 0.047059
0.352132 0.441123 0.046220
0.382696 0.442084 0.045487
0.413565 0.443061 0.044877
0.444739 0.444038 0.042985
0.476204 0.445029 0.040009
0.507942 0.446036 0.037079
0.495232 0.476997 0.004242
0.533272 0.474311 0.005035
0.571557 0.471580 0.005936
0.610040 0.468788 0.006928
0.648753 0.465949 0.007996
0.687633 0.463066 0.009186
0.750668 0.435966 0.071611
0.789685 0.433249 0.072526
0.825879 0.431861 0.074571
0.858473 0.432105 0.078004
0.891157 0.432364 0.081529
0.923888 0.432654 0.085161
0.943389 0.433173 0.088457
0.943786 0.433997 0.091081
0.024811 0.445716 0.086992
0.031067 0.447318 0.087999
0.052461 0.451286 0.084779
0.074098 0.455314 0.081529
0.095048 0.465965 0.045380
0.122652 0.466606 0.045594
0.150576 0.467262 0.045838
0.178820 0.467918 0.046098
0.207385 0.468559 0.046403
0.233570 0.466178 0.052155
0.263188 0.467262 0.051240
0.293141 0.468360 0.050416
0.323400 0.469459 0.049699
0.353979 0.470558 0.049104
0.384848 0.471672 0.048631
0.416037 0.472786 0.048310
0.447517 0.473915 0.048142
0.479255 0.475044 0.045930
0.511208 0.476127 0.043122
0.543359 0.477180 0.040375
0.527642 0.510369 0.005509
0.566064 0.507683 0.006592
0.604700 0.504936 0.007752
0.643503 0.502144 0.009033
0.682490 0.499336 0.010407
0.721614 0.496513 0.011887
0.786465 0.467826 0.078706
0.823896 0.465995 0.080537
0.856504 0.466346 0.084154
0.889174 0.466728 0.087877
0.921920 0.467124 0.091707
0.935119 0.467704 0.095186
0.935515 0.468544 0.097841
0.025269 0.473152 0.091447
0.030793 0.474693 0.092714
0.052445 0.478874 0.089494
0.074342 0.483085 0.086244
0.098329 0.486702 0.081437
0.122286 0.495872 0.047517
0.150546 0.496666 0.047822
0.179126 0.497459 0.048157
0.208026 0.498238 0.048554
0.234165 0.495583 0.054597
0.264134 0.496818 0.053895
0.294408 0.498054 0.053315
0.325002 0.499290 0.052857
0.355901 0.500542 0.052537
0.387106 0.501793 0.052384
0.418570 0.503044 0.052384
0.450278 0.504234 0.052552
0.482200 0.505394 0.052201
0.514321 0.506523 0.049546
0.546624 0.507622 0.046952
0.579080 0.508690 0.044419
0.560357 0.544121 0.007599
0.599115 0.541421 0.008957
0.638041 0.538705 0.010437
0.677119 0.535958 0.012009
0.716320 0.533196 0.013703
0.755657 0.530434 0.015503
0.821698 0.500465 0.086870
0.854337 0.500923 0.090700
0.887022 0.501396 0.094621
0.919783 0.501900 0.098634
0.926879 0.502541 0.102296
0.927276 0.503380 0.104967
0.025772 0.501183 0.096025
0.030579 0.502663 0.097536
0.052491 0.507027 0.094347
0.074678 0.511406 0.091142
0.098131 0.515480 0.087068
0.122011 0.525704 0.049592
0.150607 0.526635 0.049989
0.179522 0.527550 0.050431
0.208774 0.528481 0.050919
0.234882 0.525536 0.057527
0.265187 0.526894 0.057084
0.295796 0.528267 0.056779
0.326711 0.529656 0.056626
0.357931 0.531014 0.056641
0.389380 0.532341 0.056809
0.421073 0.533608 0.057160
0.452964 0.534829 0.057710
0.485054 0.536019 0.058427
0.517327 0.537179 0.056336
0.549767 0.538323 0.053910
0.582361 0.539452 0.051560
0.615106 0.540581 0.049287
0.593378 0.578225 0.010559
0.632410 0.575555 0.012238
0.671580 0.572869 0.014023
0.710872 0.570169 0.015915
0.750286 0.567483 0.017914
0.789792 0.564797 0.020020
0.823270 0.564843 0.024292
0.884764 0.536339 0.101717
0.917556 0.536950 0.105928
0.918685 0.537636 0.109773
0.919081 0.538506 0.112474
0.026383 0.529808 0.100771
0.030442 0.531197 0.102541
0.052644 0.535729 0.099382
0.075120 0.540291 0.096223
0.098039 0.544823 0.092912
0.121843 0.556069 0.051865
0.150790 0.557137 0.052354
0.180072 0.558190 0.052918
0.209659 0.559243 0.053529
0.239567 0.560281 0.054200
0.266361 0.557504 0.060883
0.297307 0.558984 0.060899
0.328511 0.560418 0.061082
0.359960 0.561791 0.061433
0.391623 0.563119 0.061982
0.423514 0.564416 0.062715
0.455589 0.565667 0.063645
0.487846 0.566888 0.064775
0.520287 0.568093 0.063539
0.552865 0.569284 0.061280
0.585580 0.570474 0.059113
0.618433 0.571649 0.057023
0.651408 0.572824 0.055009
0.626673 0.612665 0.014435
0.665949 0.610040 0.016434
0.705333 0.607416 0.018524
0.744823 0.604791 0.020737
0.784405 0.602182 0.023056
0.819165 0.601770 0.027115
0.852140 0.602213 0.031907
0.915038 0.572244 0.113573
0.910506 0.573007 0.117617
0.910918 0.573877 0.120333
0.027146 0.558984 0.105715
0.030426 0.560281 0.107744
0.052934 0.564965 0.104646
0.075715 0.569696 0.101549
0.098772 0.574441 0.098466
0.121813 0.586969 0.054368
0.151125 0.588159 0.054978
0.180758 0.589334 0.055665
0.210697 0.590509 0.056413
0.240955 0.591653 0.057237
0.267659 0.588495 0.065339
0.298863 0.589975 0.065705
0.330312 0.591409 0.066255
0.361990 0.592798 0.066987
0.393866 0.594141 0.067918
0.425956 0.595453 0.069062
0.458213 0.596735 0.070420
0.490639 0.597986 0.071977
0.523217 0.599237 0.071138
0.555932 0.600473 0.069062
0.588785 0.601709 0.067079
0.621744 0.602945 0.065171
0.654810 0.604181 0.063355
0.687968 0.605432 0.061631
0.660273 0.647456 0.019226
0.699763 0.644892 0.021546
0.739345 0.642329 0.023941
0.779004 0.639780 0.026459
0.815061 0.638911 0.030304
0.848096 0.639445 0.035279
0.881178 0.639994 0.040360
0.907683 0.640620 0.045075
0.907988 0.641367 0.048112
0.028092 0.588693 0.110887
0.030564 0.589868 0.113176
0.053391 0.594720 0.110155
0.076493 0.599588 0.107134
0.099870 0.604486 0.104128
0.121981 0.618372 0.057115
0.151644 0.619684 0.057862
0.181628 0.620966 0.058686
0.211902 0.622171 0.059586
0.242435 0.623301 0.060563
0.273228 0.624369 0.061616
0.300481 0.621164 0.071275
0.332174 0.622599 0.072206
0.364065 0.624002 0.073350
0.396155 0.625360 0.074693
0.428428 0.626688 0.076265
0.460853 0.628000 0.078050
0.493446 0.629297 0.080064
0.526177 0.630579 0.079133
0.559014 0.631876 0.077241
0.591989 0.633158 0.075441
0.625071 0.634440 0.073732
0.658244 0.635752 0.072099
0.691508 0.637064 0.070558
0.724849 0.638392 0.069108
0.694209 0.682567 0.024933
0.733898 0.680079 0.027543
0.773648 0.677607 0.030228
0.811002 0.676265 0.033860
0.844099 0.676875 0.039002
0.877256 0.677516 0.044251
0.905028 0.678202 0.049195
0.905333 0.678965 0.052247
0.029511 0.618967 0.116228
0.030915 0.619959 0.118868
0.054063 0.624949 0.115923
0.077485 0.629969 0.112993
0.101198 0.635004 0.110094
0.127550 0.639216 0.105180
0.152361 0.651575 0.061051
0.182650 0.652827 0.062028
0.213214 0.654002 0.063081
0.244038 0.655116 0.064210
0.275090 0.656168 0.065431
0.302205 0.652537 0.077623
0.334127 0.653986 0.078981
0.366232 0.655390 0.080552
0.398520 0.656764 0.082338
0.430961 0.658122 0.084352
0.463569 0.659464 0.086580
0.496315 0.660792 0.089036
0.529183 0.662119 0.087526
0.562158 0.663462 0.085832
0.595254 0.664790 0.084215
0.628443 0.666133 0.082673
0.661723 0.667506 0.081239
0.695094 0.668879 0.079881
0.728527 0.670283 0.078614
0.762036 0.671717 0.077424
0.728511 0.718013 0.031479
0.768353 0.715618 0.034363
0.807004 0.713802 0.037736
0.840192 0.714488 0.043061
0.873411 0.715221 0.048447
0.902480 0.715984 0.053605
0.902785 0.716747 0.056672
0.030900 0.648463 0.123384
0.031510 0.650492 0.124849
0.054963 0.655650 0.121981
0.078737 0.660792 0.119173
0.102754 0.665888 0.116381
0.128557 0.670375 0.112291
0.153231 0.683635 0.064546
0.183841 0.684855 0.065675
0.214694 0.686000 0.066896
0.245777 0.687083 0.068208
0.277089 0.688136 0.069596
0.304051 0.684062 0.084825
0.336187 0.685512 0.086610
0.368505 0.686931 0.088624
0.400977 0.688334 0.090852
0.433616 0.689708 0.093309
0.466377 0.691096 0.095995
0.499260 0.692454 0.097917
0.532280 0.693828 0.096315
0.565393 0.695216 0.094789
0.598611 0.696605 0.093355
0.631922 0.698009 0.092012
0.665309 0.699428 0.090745
0.698772 0.700877 0.089555
0.732296 0.702358 0.088457
0.765896 0.703868 0.087434
0.799542 0.705409 0.086503
