app/src/main/assets/filters/ricoh_negative.cube
# Created from ricoh_negative.plut
LUT_3D_SIZE 33
DOMAIN_MIN 0.0 0.0 0.0
DOMAIN_MAX 1.0 1.0 1.0
0.029313 0.024048 0.025299
0.050355 0.024506 0.024598
0.089128 0.027955 0.024933
0.132158 0.031708 0.024399
0.186007 0.038163 0.025574
0.248432 0.043351 0.029938
0.302586 0.051530 0.036484
0.355047 0.055177 0.036515
0.401801 0.061814 0.036057
0.447715 0.068482 0.035004
0.488808 0.075196 0.036194
0.525734 0.092073 0.046815
0.563684 0.108751 0.052720
0.612161 0.115435 0.043076
0.642512 0.117052 0.032929
0.665354 0.129641 0.028763
0.686687 0.147967 0.033997
0.719371 0.157458 0.038682
0.759747 0.165957 0.035111
0.780362 0.171862 0.031891
0.799847 0.185199 0.034958
0.816373 0.198154 0.038178
0.841413 0.217975 0.044007
0.855558 0.228305 0.046281
0.873579 0.244816 0.052033
0.888121 0.257420 0.054780
0.898939 0.268177 0.058839
0.914092 0.288487 0.068589
0.920577 0.293904 0.072435
0.928573 0.304479 0.077409
0.933471 0.307912 0.081346
0.937774 0.310674 0.085130
0.940581 0.311818 0.087312
0.031876 0.046113 0.032883
0.042496 0.042039 0.027619
0.075227 0.046220 0.028122
0.121248 0.049714 0.027741
0.171054 0.053040 0.026123
0.232822 0.058320 0.031998
0.283818 0.062272 0.033234
0.338582 0.067170 0.031708
0.388495 0.071794 0.031144
0.439292 0.077394 0.029984
0.480751 0.081514 0.027893
0.516518 0.095521 0.035889
0.555276 0.113924 0.046174
0.600153 0.127016 0.043778
0.637079 0.137026 0.040604
0.659495 0.144640 0.032181
0.678859 0.155627 0.035569
0.701427 0.171633 0.043366
0.748241 0.182086 0.042817
0.777356 0.179522 0.036149
0.799435 0.189425 0.037446
0.815640 0.199435 0.038758
0.840513 0.218372 0.044602
0.855329 0.229175 0.046433
0.871519 0.244587 0.052033
0.887968 0.257420 0.054795
0.898863 0.268193 0.058839
0.912673 0.287343 0.068238
0.918303 0.292821 0.071717
0.927825 0.304234 0.077134
0.932265 0.307362 0.080308
0.937331 0.312215 0.084977
0.940093 0.313436 0.087419
0.048081 0.075425 0.047166
0.050492 0.067979 0.035538
0.067689 0.069459 0.033509
0.112154 0.075792 0.035859
0.165164 0.078630 0.035584
0.223758 0.079271 0.035126
0.276051 0.083513 0.037568
0.325628 0.088930 0.041276
0.377661 0.092424 0.039963
0.428672 0.096864 0.037507
0.474540 0.100221 0.035050
0.512230 0.103700 0.033768
0.554177 0.118563 0.040726
0.595254 0.132784 0.040085
0.629770 0.140948 0.035508
0.655375 0.144717 0.029099
0.673701 0.155718 0.032547
0.699611 0.175723 0.042237
0.735729 0.193668 0.046494
0.767285 0.189807 0.040284
0.794690 0.192279 0.039307
0.811521 0.199832 0.040269
0.837476 0.219593 0.045838
0.852171 0.229511 0.048173
0.870787 0.246601 0.052766
0.886259 0.259327 0.056062
0.897749 0.268696 0.059480
0.911330 0.286458 0.067491
0.917205 0.292363 0.071031
0.927794 0.304265 0.077134
0.932219 0.307408 0.080278
0.936706 0.312062 0.084398
0.939986 0.315511 0.087602
0.065263 0.107012 0.064286
0.068940 0.101946 0.053498
0.073945 0.098863 0.044465
0.099474 0.103883 0.046036
0.152850 0.111330 0.048890
0.210407 0.110933 0.044678
0.265522 0.109773 0.041444
0.313481 0.113725 0.045075
0.368231 0.118715 0.049241
0.419364 0.122545 0.047852
0.464210 0.124468 0.045396
0.508003 0.127825 0.044114
0.548486 0.132082 0.039094
0.589090 0.136873 0.034333
0.620783 0.142550 0.031662
0.650278 0.144228 0.026734
0.668040 0.155291 0.029297
0.694163 0.176928 0.037369
0.724392 0.203479 0.048127
0.752041 0.213962 0.048554
0.781857 0.207660 0.044907
0.808972 0.204837 0.043153
0.834455 0.221515 0.047990
0.851194 0.231693 0.048859
0.870909 0.251453 0.055756
0.883848 0.258701 0.056718
0.895949 0.268788 0.059663
0.909621 0.286198 0.067689
0.917189 0.293584 0.071046
0.928603 0.306065 0.078202
0.930648 0.307836 0.079622
0.936873 0.315160 0.085191
0.939956 0.319463 0.088624
0.075746 0.154086 0.095186
0.086427 0.147082 0.081926
0.090990 0.135821 0.063142
0.099870 0.135470 0.056794
0.137301 0.142153 0.059770
0.192508 0.146502 0.058030
0.248554 0.147143 0.056123
0.302174 0.144762 0.051041
0.355932 0.143465 0.046906
0.409125 0.144610 0.045029
0.454368 0.153124 0.054215
0.497337 0.155779 0.055116
0.543191 0.156497 0.049851
0.582330 0.160266 0.042969
0.615930 0.162692 0.037644
0.642802 0.163485 0.031891
0.667048 0.166674 0.029099
0.694759 0.188022 0.036469
0.724559 0.213046 0.045274
0.740017 0.228016 0.050629
0.759533 0.234684 0.057954
0.795315 0.220447 0.050492
0.828214 0.225223 0.051759
0.850477 0.238682 0.053391
0.869276 0.256931 0.059739
0.880674 0.262943 0.059236
0.894530 0.271901 0.061585
0.908614 0.286610 0.067994
0.917571 0.295781 0.072038
0.926787 0.307912 0.078447
0.931228 0.311330 0.081056
0.936126 0.318074 0.085985
0.938643 0.321386 0.088685
0.078721 0.204334 0.118318
0.093690 0.193515 0.104860
0.111452 0.180865 0.084230
0.117037 0.172747 0.073091
0.131426 0.172107 0.069093
0.173373 0.179599 0.070390
0.228763 0.182055 0.068055
0.283848 0.182010 0.065858
0.337301 0.182238 0.061830
0.394446 0.180987 0.057023
0.443946 0.181827 0.055711
0.488533 0.185977 0.060227
0.533730 0.184848 0.056184
0.573678 0.185107 0.047837
0.609262 0.187137 0.047059
0.638788 0.191104 0.042725
0.665354 0.192691 0.037476
0.693568 0.203418 0.039246
0.720256 0.219409 0.044404
0.740887 0.232731 0.051072
0.751110 0.242191 0.057649
0.767544 0.260166 0.066896
0.814557 0.257893 0.066789
0.848203 0.257359 0.066392
0.867765 0.271855 0.070451
0.877913 0.270497 0.065293
0.894972 0.279911 0.066606
0.907210 0.291264 0.070924
0.917556 0.299245 0.073930
0.925109 0.310521 0.079438
0.930755 0.316899 0.083085
0.934905 0.321340 0.086763
0.937926 0.325017 0.089784
0.067201 0.242603 0.131182
0.073854 0.236942 0.126482
0.099001 0.225574 0.112154
0.131136 0.207187 0.088945
0.139147 0.206943 0.084840
0.164080 0.210712 0.086824
0.207782 0.213977 0.083925
0.263569 0.217075 0.081361
0.320424 0.219242 0.079225
0.375494 0.220676 0.073304
0.429313 0.220081 0.069276
0.476600 0.219562 0.069734
0.518410 0.219242 0.064698
0.567056 0.219501 0.057465
0.601709 0.215213 0.041154
0.634668 0.222263 0.049119
0.661616 0.224109 0.048432
0.689067 0.228244 0.046601
0.715557 0.232136 0.047608
0.735119 0.236927 0.051133
0.748272 0.243534 0.056489
0.762020 0.262547 0.069032
0.789624 0.298116 0.083207
0.836774 0.317266 0.097322
0.863752 0.299214 0.092042
0.875242 0.292363 0.082048
0.892714 0.297246 0.079164
0.904128 0.302358 0.078569
0.916442 0.305592 0.077607
0.926131 0.316777 0.082658
0.931334 0.322744 0.086198
0.935714 0.327550 0.089860
0.936858 0.328389 0.090730
0.061006 0.269673 0.140291
0.067094 0.268528 0.138872
0.082856 0.263859 0.132876
0.117952 0.257725 0.120546
0.152728 0.244984 0.105180
0.160067 0.241398 0.101122
0.196780 0.246983 0.103243
0.243900 0.250568 0.102068
0.299351 0.254276 0.096498
0.359365 0.258534 0.093812
0.413123 0.260410 0.087007
0.463218 0.256855 0.082567
0.510338 0.256596 0.078538
0.554665 0.255741 0.070115
0.592798 0.254841 0.061082
0.624445 0.250584 0.052277
0.657542 0.255924 0.056245
0.682795 0.256596 0.053788
0.704967 0.264530 0.061112
0.730449 0.265171 0.061067
0.750164 0.275166 0.066712
0.766796 0.288853 0.077729
0.787335 0.322942 0.094087
0.813916 0.354742 0.105150
0.848356 0.354162 0.116579
0.872984 0.334447 0.114061
0.888731 0.326024 0.103944
0.904021 0.323873 0.095338
0.916518 0.324727 0.090211
0.924514 0.324453 0.087633
0.930434 0.330068 0.090303
0.936339 0.332494 0.092226
0.936614 0.332280 0.092271
0.058015 0.312505 0.162493
0.066621 0.305333 0.156603
0.073960 0.303624 0.154726
0.088808 0.301213 0.149905
0.140703 0.286397 0.129427
0.169268 0.280842 0.120546
0.184222 0.280873 0.119249
0.230121 0.285206 0.119295
0.281636 0.289342 0.117632
0.337987 0.293050 0.113100
0.397284 0.297810 0.108263
0.448997 0.296742 0.099886
0.497993 0.295033 0.091020
0.542763 0.295094 0.083742
0.583825 0.294926 0.079377
0.617075 0.290120 0.072618
0.648493 0.290089 0.067414
0.679118 0.288945 0.058137
0.699260 0.297108 0.063691
0.727596 0.305760 0.073899
0.756359 0.323308 0.086824
0.773678 0.338674 0.099123
0.790585 0.361196 0.109010
0.811231 0.386313 0.117067
0.828061 0.401923 0.122866
0.850950 0.401526 0.132448
0.881743 0.378897 0.136629
0.899565 0.355993 0.121447
0.915068 0.347921 0.109483
0.923766 0.342458 0.101244
0.929427 0.339437 0.096910
0.933959 0.336584 0.094545
0.936584 0.335256 0.093904
0.043091 0.354147 0.194339
0.054292 0.349233 0.188937
0.067308 0.344045 0.183352
0.092760 0.335225 0.171313
0.121675 0.329397 0.158511
0.174868 0.327474 0.144564
0.188266 0.321691 0.137530
0.212039 0.319448 0.135012
0.266682 0.325017 0.135988
0.322133 0.327581 0.134768
0.376974 0.332784 0.130465
0.431388 0.335073 0.124987
0.483192 0.333928 0.113222
0.530877 0.332906 0.098268
0.572488 0.334066 0.093187
0.607614 0.331273 0.087999
0.640757 0.329122 0.083482
0.671626 0.328878 0.079103
0.696666 0.326055 0.071107
0.722469 0.335943 0.069841
0.745068 0.347005 0.079591
0.767864 0.355062 0.096925
0.789319 0.370428 0.114611
0.803769 0.391272 0.121843
0.824598 0.416312 0.128222
0.841886 0.432502 0.135683
0.857023 0.437110 0.146349
0.891722 0.422431 0.163973
0.910491 0.398932 0.154955
0.923140 0.377050 0.134417
0.927092 0.356878 0.111940
0.932250 0.351858 0.106905
0.936965 0.344106 0.099825
0.040574 0.385016 0.218265
0.050538 0.380377 0.213809
0.060105 0.378454 0.210803
0.085878 0.373938 0.203265
0.145296 0.371725 0.183917
0.178820 0.369696 0.172259
0.200198 0.365438 0.159548
0.205585 0.357397 0.149157
0.245701 0.357900 0.152529
0.304128 0.361700 0.153292
0.360418 0.364492 0.151553
0.411170 0.366613 0.144869
0.463554 0.371359 0.137377
0.516213 0.372885 0.121889
0.560235 0.371740 0.108797
0.595850 0.370703 0.100343
0.631724 0.369009 0.098741
0.663233 0.366339 0.093675
0.692256 0.363455 0.086427
0.715908 0.365667 0.080140
0.743420 0.366766 0.070100
0.752697 0.379126 0.082765
0.776745 0.392264 0.108537
0.807843 0.415442 0.135210
0.824353 0.434165 0.140383
0.842420 0.454673 0.147860
0.851713 0.461280 0.156420
0.868330 0.465675 0.167834
0.889036 0.467582 0.187930
0.916442 0.446769 0.191577
0.925628 0.408881 0.163470
0.929564 0.381933 0.138613
0.933989 0.356588 0.110277
0.048920 0.436622 0.259113
0.063905 0.434165 0.255604
0.081041 0.422171 0.244419
0.102419 0.418570 0.237751
0.143603 0.411002 0.218387
0.191852 0.403021 0.191547
0.217884 0.407630 0.186557
0.220951 0.398169 0.177173
0.233799 0.389899 0.167788
0.284352 0.391043 0.168383
0.339635 0.394980 0.167193
0.394720 0.399008 0.166339
0.445823 0.403067 0.160052
0.499413 0.409796 0.149386
0.545953 0.408637 0.131029
0.583429 0.406806 0.119951
0.621302 0.406256 0.110628
0.654124 0.405188 0.106874
0.683314 0.401602 0.101122
0.711955 0.400259 0.094453
0.736965 0.402228 0.090700
0.758373 0.402106 0.085206
0.767041 0.413001 0.090700
0.793805 0.434180 0.119326
0.820981 0.454551 0.149416
0.838727 0.468376 0.157397
0.852338 0.478920 0.165896
0.869627 0.492821 0.183658
0.884657 0.504448 0.200763
0.898085 0.507149 0.216526
0.915007 0.491005 0.221469
0.927718 0.459419 0.205646
0.934005 0.419120 0.169955
0.056321 0.480598 0.296071
0.059083 0.474815 0.289845
0.074617 0.471122 0.284932
0.089036 0.467613 0.279728
0.150164 0.460746 0.258747
0.197116 0.450752 0.231250
0.226322 0.446052 0.212833
0.239307 0.438239 0.198703
0.247150 0.433570 0.191928
0.268742 0.424582 0.182544
0.319753 0.424399 0.182254
0.378470 0.431678 0.181430
0.433463 0.435142 0.177966
0.479240 0.438514 0.169833
0.530709 0.446357 0.164767
0.571771 0.442420 0.142947
0.609659 0.440299 0.127932
0.643809 0.440711 0.123110
0.674205 0.439536 0.116793
0.703777 0.437690 0.110140
0.731960 0.435645 0.101518
0.756115 0.437247 0.096910
0.775113 0.438575 0.092699
0.785321 0.448356 0.096498
0.801755 0.459174 0.118944
0.823423 0.477592 0.148058
0.848722 0.499565 0.172869
0.867979 0.510704 0.192859
0.891096 0.525963 0.214908
0.896071 0.528115 0.220310
0.905089 0.533379 0.237415
0.914031 0.524804 0.244297
0.925734 0.502190 0.233997
0.051759 0.507744 0.318181
0.059312 0.503944 0.314870
0.076616 0.503120 0.311986
0.091646 0.503273 0.310079
0.123919 0.500130 0.302052
0.186114 0.488380 0.272908
0.229572 0.477699 0.242710
0.259190 0.475380 0.223484
0.266133 0.469078 0.209598
0.273304 0.464958 0.200549
0.301152 0.459022 0.192370
0.356893 0.465751 0.196628
0.413184 0.465843 0.195712
0.467430 0.469871 0.192706
0.511727 0.472618 0.187686
0.556207 0.475975 0.179355
0.598276 0.474968 0.156542
0.633906 0.471992 0.140688
0.663981 0.473198 0.134035
0.694652 0.473335 0.126635
0.723842 0.470329 0.117891
0.747219 0.469215 0.111910
0.771313 0.468772 0.101137
0.788205 0.466026 0.097932
0.800855 0.471168 0.097185
0.811810 0.484962 0.110063
0.833921 0.504524 0.142855
0.860487 0.531823 0.188235
0.883391 0.536004 0.208988
0.897261 0.543847 0.224170
0.903502 0.546365 0.231327
0.907622 0.544839 0.238941
0.909712 0.540078 0.244877
0.054139 0.534264 0.340414
0.055283 0.533379 0.339239
0.073548 0.533867 0.338323
0.098878 0.533944 0.336584
0.141695 0.532784 0.330602
0.166094 0.534371 0.328222
0.223056 0.528420 0.308141
0.275944 0.507622 0.262257
0.288579 0.502037 0.247684
0.300053 0.497444 0.230381
0.302983 0.492164 0.216098
0.322454 0.489220 0.204318
0.394171 0.492088 0.210880
0.440253 0.493919 0.205783
0.490043 0.497566 0.204700
0.537392 0.501762 0.201709
0.581262 0.506615 0.192721
0.620829 0.508095 0.174517
0.655146 0.502220 0.152071
0.685786 0.503868 0.143114
0.715053 0.504173 0.136568
0.741344 0.503807 0.132189
0.764752 0.502129 0.123064
0.789960 0.501686 0.112047
0.810025 0.507393 0.110475
0.822522 0.513252 0.113390
0.837003 0.527352 0.120378
0.863722 0.553491 0.134493
0.877134 0.565957 0.152224
0.895460 0.569390 0.183795
0.903639 0.569162 0.203433
0.905287 0.566308 0.211109
0.907988 0.560906 0.220706
0.062242 0.555306 0.360281
0.065797 0.555413 0.360021
0.097307 0.556405 0.357794
0.120760 0.555245 0.353079
0.132235 0.554376 0.350851
0.156619 0.553918 0.347356
0.216999 0.551629 0.336431
0.270817 0.548638 0.319570
0.311513 0.539467 0.291814
0.323308 0.532464 0.271656
0.332143 0.527687 0.254994
0.335622 0.523812 0.241245
0.366812 0.524529 0.230304
0.425528 0.522942 0.224552
0.475135 0.524895 0.222751
0.522820 0.528893 0.216129
0.564401 0.530388 0.211322
0.603174 0.535454 0.208576
0.641947 0.535912 0.185595
0.679316 0.532158 0.164401
0.706065 0.532570 0.154528
0.732937 0.533471 0.148104
0.759182 0.533776 0.143191
0.782818 0.534524 0.133379
0.808286 0.531411 0.121172
0.825635 0.533684 0.116945
0.842023 0.542580 0.119936
0.870619 0.564065 0.128344
0.879225 0.572488 0.132723
0.888640 0.582864 0.136889
0.893263 0.586877 0.140261
0.900298 0.586831 0.153246
0.905699 0.583810 0.168750
0.078553 0.574289 0.379065
0.079988 0.574197 0.378790
0.090761 0.574533 0.377996
0.111742 0.574212 0.375143
0.138491 0.571466 0.369009
0.163455 0.570581 0.364263
0.207141 0.570733 0.357931
0.259113 0.564813 0.341268
0.304448 0.558846 0.315618
0.330999 0.552941 0.289494
0.340520 0.550439 0.276188
0.346746 0.544335 0.267170
0.350149 0.546441 0.238102
0.387304 0.550317 0.237949
0.444617 0.549844 0.238575
0.500237 0.550225 0.234180
0.547173 0.554467 0.230228
0.591653 0.557931 0.232456
0.622889 0.561135 0.229038
0.665293 0.563165 0.188052
0.694133 0.562280 0.167010
0.726314 0.560342 0.165713
0.752682 0.562982 0.162890
0.777722 0.563424 0.155459
0.800778 0.564569 0.143938
0.824964 0.559838 0.134783
0.841978 0.559655 0.127550
0.865660 0.565179 0.122362
0.882078 0.576730 0.122637
0.890211 0.585153 0.125734
0.895308 0.592126 0.130282
0.899733 0.598871 0.133028
0.901900 0.602136 0.133410
0.078325 0.595682 0.402808
0.088869 0.591547 0.397391
0.097261 0.591989 0.396887
0.109194 0.590295 0.393408
0.134508 0.589944 0.390356
0.168948 0.587839 0.384283
0.204639 0.586374 0.377630
0.242802 0.584115 0.368368
0.299519 0.579034 0.342733
0.338415 0.576013 0.316320
0.357214 0.570825 0.287358
0.363638 0.568826 0.276432
0.370520 0.570291 0.265904
0.372427 0.570459 0.246769
0.419074 0.575296 0.248722
0.470802 0.581643 0.257801
0.529412 0.583169 0.256214
0.580041 0.587030 0.258427
0.615000 0.584192 0.255390
0.652079 0.593256 0.248600
0.684245 0.591867 0.211215
0.717479 0.592004 0.185916
0.746487 0.590616 0.180255
0.770733 0.588754 0.174777
0.795361 0.591287 0.166827
0.818509 0.589975 0.153628
0.839673 0.588190 0.146090
0.860441 0.588769 0.140459
0.878889 0.588083 0.125582
0.893034 0.588220 0.116640
0.898207 0.598871 0.126833
0.903532 0.606790 0.131716
0.906477 0.610605 0.133318
0.080674 0.610727 0.421256
0.097108 0.609262 0.417792
0.107683 0.608225 0.415534
0.112428 0.607828 0.414557
0.146807 0.607599 0.409995
0.158190 0.605661 0.406058
0.180346 0.604532 0.402884
0.234165 0.594797 0.383948
0.298116 0.593835 0.358022
0.359991 0.596353 0.325978
0.376425 0.595132 0.309209
0.386725 0.595605 0.297932
0.398154 0.599405 0.290043
0.400031 0.600046 0.278965
0.399634 0.597772 0.263111
0.444785 0.601053 0.257710
0.495506 0.605646 0.272770
0.560754 0.609598 0.277089
0.604318 0.614527 0.272999
0.638621 0.614466 0.273411
0.672892 0.615518 0.254810
0.708934 0.622385 0.229236
0.735729 0.620142 0.203326
0.763104 0.616419 0.191516
0.791104 0.616953 0.187091
0.813886 0.618189 0.178882
0.836118 0.617060 0.169940
0.854597 0.612879 0.158572
0.873259 0.611078 0.149401
0.893767 0.608438 0.136461
0.905623 0.614740 0.136446
0.910948 0.620645 0.140475
0.911818 0.621149 0.140169
0.079225 0.622827 0.435920
0.079789 0.622751 0.435752
0.094392 0.620722 0.432227
0.118441 0.618891 0.428016
0.134325 0.619516 0.427253
0.150881 0.616220 0.421378
0.176577 0.614130 0.415259
0.196368 0.614069 0.413550
0.308461 0.604242 0.357763
0.365164 0.609476 0.333028
0.393301 0.611322 0.317174
0.411917 0.616678 0.306386
0.419684 0.618555 0.302174
0.419577 0.618982 0.300069
0.422293 0.620203 0.290791
0.428580 0.622965 0.274540
0.472908 0.626154 0.272709
0.524926 0.634333 0.289677
0.590417 0.633158 0.283192
0.618204 0.635142 0.277012
0.656992 0.638315 0.282994
0.698573 0.646647 0.267872
0.729870 0.649882 0.248920
0.755169 0.646555 0.217380
0.782696 0.645151 0.207294
0.810559 0.646677 0.198138
0.831449 0.642374 0.193256
0.852216 0.640513 0.183047
0.871687 0.638193 0.169665
0.888563 0.635584 0.156817
0.907057 0.635355 0.147707
0.917845 0.635004 0.144930
0.917922 0.633326 0.145846
0.059297 0.631983 0.447608
0.069276 0.631846 0.446754
0.079942 0.631754 0.445777
0.095659 0.632471 0.445548
0.111055 0.627268 0.438575
0.133272 0.622736 0.431159
0.155215 0.620676 0.426871
0.191119 0.617136 0.414939
0.299321 0.615198 0.370077
0.370443 0.615412 0.334279
0.408347 0.620554 0.317983
0.423529 0.626551 0.310353
0.429664 0.628382 0.303075
0.432319 0.630014 0.303029
0.437659 0.632715 0.297581
0.446311 0.636606 0.289906
0.454765 0.644831 0.285054
0.503975 0.650568 0.291188
0.536400 0.656352 0.307164
0.613794 0.653864 0.290974
0.636942 0.657771 0.297429
0.676799 0.664790 0.309346
0.719600 0.669123 0.289250
0.754482 0.673289 0.262028
0.774685 0.672404 0.230549
0.802701 0.672053 0.214969
0.829007 0.674083 0.215534
0.849439 0.668086 0.208347
0.868437 0.667659 0.198505
0.886320 0.663767 0.183825
0.905119 0.660945 0.167895
0.919799 0.659159 0.158816
0.922774 0.651637 0.155230
0.058045 0.639658 0.456748
0.057343 0.636378 0.453285
0.069429 0.636316 0.452354
0.096010 0.634257 0.447852
0.097047 0.634134 0.447623
0.102815 0.634073 0.447059
0.143832 0.633845 0.443748
0.229374 0.629236 0.414176
0.324804 0.627802 0.368399
0.381155 0.628733 0.337575
0.411688 0.629923 0.320516
0.428428 0.630335 0.308934
0.433463 0.630762 0.303838
0.440940 0.634348 0.302373
0.448432 0.637980 0.300130
0.463035 0.644556 0.294942
0.480385 0.654673 0.295430
0.482551 0.662882 0.295872
0.522377 0.668727 0.311391
0.551354 0.672236 0.318318
0.642039 0.673762 0.315373
0.662654 0.683650 0.331334
0.703655 0.695445 0.335683
0.744457 0.698985 0.323140
0.782055 0.704326 0.281834
0.798459 0.700237 0.253605
0.823301 0.701869 0.235554
0.844938 0.698680 0.225589
0.868650 0.695048 0.218738
0.886137 0.693187 0.204273
0.902571 0.687373 0.193957
0.921126 0.684871 0.175647
0.924498 0.676066 0.169284
0.065064 0.658747 0.480613
0.065217 0.658701 0.480537
0.065385 0.658640 0.480446
0.065904 0.655344 0.475731
0.090974 0.651331 0.469139
0.101915 0.646082 0.461814
0.156497 0.645518 0.451743
0.247639 0.642329 0.418128
0.309102 0.635248 0.382345
0.382589 0.634119 0.342473
0.415091 0.631662 0.320775
0.432776 0.633021 0.311147
0.440650 0.635416 0.307012
0.451575 0.639490 0.303624
0.464164 0.645716 0.301579
0.481987 0.654322 0.301320
0.490318 0.658061 0.301549
0.498772 0.661021 0.300893
0.509575 0.665202 0.306966
0.529671 0.671748 0.315160
0.582773 0.682322 0.324819
0.658503 0.698528 0.331518
0.688838 0.707164 0.339010
0.725032 0.718517 0.343374
0.768231 0.725383 0.331594
0.793286 0.726940 0.293767
0.820539 0.728405 0.274311
0.840360 0.725444 0.252796
0.864073 0.721492 0.243824
0.883513 0.721431 0.233356
0.902815 0.717174 0.214878
0.918547 0.709880 0.201404
0.924971 0.698161 0.186313
0.065064 0.664668 0.487922
0.065187 0.664637 0.487861
0.065492 0.665858 0.489342
0.065690 0.665782 0.489235
0.065965 0.665690 0.489082
0.085893 0.664698 0.486595
0.166369 0.658900 0.462516
0.240986 0.651209 0.426963
0.290120 0.649393 0.405463
0.369818 0.639536 0.356359
0.402655 0.636378 0.333883
0.441337 0.637064 0.312551
0.457877 0.643519 0.308293
0.470085 0.649729 0.308263
0.481422 0.654856 0.308797
0.489006 0.657206 0.304997
0.492821 0.658381 0.302770
0.499458 0.660487 0.302358
0.507454 0.663050 0.305379
0.521157 0.668605 0.311360
0.555123 0.679271 0.319600
0.628580 0.696880 0.334630
0.680735 0.715297 0.344030
0.710521 0.727916 0.347829
0.750057 0.736507 0.347829
0.789654 0.748196 0.343130
0.821729 0.754131 0.318669
0.840803 0.753170 0.290471
0.860868 0.750134 0.269917
0.882719 0.750179 0.256458
0.901503 0.741405 0.242206
0.921569 0.744610 0.218647
0.923705 0.729442 0.213931
0.075456 0.680964 0.507149
0.080262 0.681926 0.507729
0.080339 0.681880 0.507668
0.080430 0.681819 0.507591
0.080583 0.681743 0.507469
0.080781 0.681636 0.507332
0.180362 0.670314 0.471366
0.250004 0.660090 0.434409
0.302052 0.655146 0.408667
0.354620 0.651957 0.381872
0.395270 0.640330 0.342290
0.451484 0.644862 0.316152
0.474266 0.651774 0.310567
0.480842 0.654490 0.309422
0.486671 0.656794 0.309209
0.491844 0.658198 0.306035
0.494957 0.658869 0.304051
0.500008 0.660166 0.302480
0.503746 0.661479 0.303899
0.523949 0.669429 0.310750
0.547234 0.677119 0.317418
0.592721 0.690425 0.326390
0.658213 0.708064 0.340017
0.707164 0.726452 0.348058
0.738430 0.738048 0.351308
0.779797 0.753964 0.349660
0.809354 0.767483 0.345876
0.837949 0.776928 0.337453
0.861769 0.776944 0.309270
0.880156 0.773907 0.283787
0.902480 0.773190 0.266346
0.919020 0.772396 0.248951
0.923201 0.757519 0.234638
0.068269 0.695888 0.526680
0.068284 0.695872 0.526650
0.068299 0.695857 0.526619
0.068315 0.695827 0.526574
0.081300 0.692119 0.521004
0.081468 0.692042 0.520897
0.204807 0.684138 0.482811
0.230213 0.678904 0.467185
0.285649 0.665553 0.427634
0.326818 0.663172 0.410315
0.404501 0.650782 0.354147
0.465843 0.650568 0.314046
0.481300 0.654566 0.309712
0.487037 0.656779 0.309560
0.489860 0.657984 0.310399
0.493248 0.658549 0.306645
0.495766 0.659266 0.305913
0.499687 0.660105 0.304295
0.506188 0.662989 0.305058
0.521828 0.668544 0.308873
0.537377 0.673823 0.314122
0.574823 0.686061 0.321843
0.620417 0.699718 0.333059
0.694270 0.722240 0.346929
0.742794 0.739620 0.352346
0.779355 0.756634 0.351247
0.811292 0.771038 0.351522
0.839094 0.784146 0.350973
0.861128 0.794049 0.343038
0.884260 0.799680 0.327794
0.902525 0.798672 0.304799
0.920928 0.797284 0.285435
0.925185 0.789807 0.271473
0.065064 0.704952 0.538033
0.066773 0.703334 0.535836
0.066789 0.703319 0.535821
0.066804 0.703304 0.535775
0.066835 0.703273 0.535744
0.102663 0.701183 0.528389
0.171283 0.693919 0.505135
0.220600 0.684154 0.477775
0.276753 0.682506 0.455222
0.312520 0.675441 0.431586
0.411383 0.666041 0.373220
0.448646 0.660075 0.339559
0.487327 0.656809 0.309743
0.487617 0.656962 0.309728
0.491981 0.658839 0.311131
0.493690 0.658625 0.306828
0.496056 0.659236 0.306065
0.503502 0.662287 0.306828
0.514336 0.666331 0.306386
0.519509 0.667781 0.307591
0.537667 0.673793 0.313802
0.568536 0.684367 0.320180
0.606027 0.696712 0.328435
0.670283 0.718090 0.342138
0.736965 0.741741 0.352926
0.778729 0.757992 0.352163
0.807279 0.770901 0.354192
