app/src/main/assets/filters/ricoh_yellow.cube
# Created from ricoh_yellow.plut
LUT_3D_SIZE 33
DOMAIN_MIN 0.0 0.0 0.0
DOMAIN_MAX 1.0 1.0 1.0
0.056367 0.056886 0.055589
0.057099 0.056535 0.055283
0.061036 0.056550 0.055055
0.067247 0.056672 0.055192
0.078874 0.057237 0.056260
0.095811 0.056825 0.056229
0.119875 0.056474 0.056489
0.149111 0.056809 0.056641
0.182895 0.056519 0.056931
0.221942 0.054566 0.055238
0.264378 0.050813 0.052735
0.308003 0.052964 0.055650
0.356176 0.054337 0.058000
0.421500 0.054002 0.058701
0.468818 0.050996 0.057145
0.503655 0.050340 0.056184
0.531441 0.053513 0.058396
0.576806 0.052125 0.058274
0.632059 0.047364 0.056519
0.659312 0.047303 0.056352
0.684535 0.050385 0.057725
0.708125 0.050080 0.057908
0.745037 0.050401 0.059068
0.766796 0.049241 0.059297
0.795529 0.045792 0.059083
0.817288 0.043931 0.059373
0.833234 0.043381 0.060044
0.856321 0.041779 0.061082
0.865232 0.043885 0.062593
0.877455 0.043275 0.063737
0.884520 0.044511 0.064973
0.890623 0.045884 0.066361
0.894865 0.046143 0.067155
0.055848 0.058076 0.056184
0.055634 0.057252 0.055390
0.058640 0.057496 0.055344
0.066346 0.058610 0.056123
0.075807 0.057572 0.055467
0.092149 0.058442 0.057038
0.112886 0.057679 0.057023
0.141405 0.058457 0.057710
0.174823 0.058076 0.057923
0.215381 0.057694 0.057771
0.257206 0.050080 0.051347
0.297490 0.052811 0.054948
0.346777 0.054963 0.057603
0.405203 0.056413 0.059083
0.459861 0.055451 0.058808
0.494072 0.054902 0.058442
0.520531 0.055894 0.059388
0.551141 0.057221 0.060380
0.615976 0.054246 0.058869
0.655421 0.050294 0.057252
0.684001 0.052674 0.058503
0.707210 0.051423 0.058427
0.743862 0.050385 0.059068
0.766751 0.048737 0.059144
0.792599 0.046235 0.059388
0.817105 0.043854 0.059342
0.833127 0.043305 0.060029
0.854261 0.041672 0.060899
0.862303 0.042710 0.061921
0.876371 0.043198 0.063584
0.882826 0.044053 0.064683
0.890196 0.044724 0.065888
0.894163 0.045823 0.066926
0.058488 0.062547 0.057908
0.057939 0.061723 0.057359
0.058122 0.060578 0.056352
0.062501 0.059892 0.055314
0.073793 0.059205 0.054749
0.092134 0.061387 0.057298
0.113237 0.061326 0.058167
0.137346 0.060960 0.058289
0.170626 0.060075 0.058610
0.209598 0.059495 0.058808
0.251530 0.058259 0.058320
0.291524 0.057237 0.057954
0.346563 0.055543 0.057664
0.398306 0.057771 0.059083
0.448341 0.057435 0.059129
0.487663 0.055741 0.058656
0.513710 0.056580 0.059373
0.548608 0.058122 0.060517
0.598962 0.057877 0.060319
0.641886 0.054627 0.058640
0.678202 0.053452 0.058671
0.701350 0.052888 0.058854
0.740154 0.050233 0.058854
0.762417 0.049226 0.059251
0.792248 0.045777 0.059205
0.815198 0.043229 0.059159
0.831601 0.042664 0.059693
0.852476 0.041077 0.060578
0.860838 0.042039 0.061570
0.876341 0.043122 0.063554
0.882780 0.043992 0.064652
0.889189 0.044694 0.065766
0.894224 0.044923 0.066682
0.059068 0.065690 0.058442
0.060914 0.066239 0.058518
0.062196 0.066712 0.058656
0.063294 0.066697 0.058152
0.072435 0.064561 0.056245
0.090486 0.064683 0.057328
0.111864 0.064210 0.058396
0.134905 0.063813 0.058976
0.168948 0.063142 0.059449
0.206821 0.062516 0.059220
0.245960 0.061295 0.058976
0.291768 0.059388 0.058930
0.343908 0.051469 0.055589
0.391699 0.058045 0.058625
0.434974 0.058274 0.058976
0.480507 0.055787 0.058396
0.506737 0.056519 0.058946
0.541970 0.058061 0.059739
0.583963 0.059770 0.060792
0.622568 0.059220 0.060258
0.662211 0.055970 0.059312
0.698466 0.053346 0.059022
0.736446 0.050645 0.059083
0.761669 0.048508 0.058946
0.793515 0.044953 0.059037
0.811902 0.043687 0.059220
0.829404 0.041657 0.059251
0.850172 0.040253 0.060151
0.861067 0.041398 0.061372
0.877607 0.043153 0.063691
0.880735 0.043275 0.064134
0.889845 0.043610 0.065568
0.894423 0.044419 0.066545
0.062501 0.078370 0.061891
0.063325 0.076814 0.060914
0.063737 0.074327 0.059571
0.064866 0.074311 0.059358
0.072389 0.075059 0.059876
0.087114 0.073930 0.059342
0.109728 0.071168 0.058991
0.135058 0.069261 0.060014
0.167239 0.067597 0.060182
0.204196 0.065675 0.059892
0.244343 0.065553 0.060243
0.285817 0.064271 0.059983
0.340352 0.061906 0.059236
0.387900 0.057618 0.058320
0.431250 0.059205 0.059327
0.471458 0.058656 0.059037
0.507454 0.057877 0.058915
0.544244 0.058961 0.059327
0.585809 0.060777 0.060105
0.607675 0.062455 0.060807
0.634668 0.061570 0.060960
0.681727 0.056291 0.059892
0.728374 0.051286 0.059190
0.761730 0.047898 0.058793
0.791745 0.044938 0.058854
0.808652 0.041779 0.058503
0.827939 0.041047 0.059052
0.848768 0.039673 0.059892
0.862196 0.040253 0.061143
0.875532 0.041794 0.062974
0.881895 0.042618 0.064103
0.889158 0.042756 0.065126
0.892973 0.043153 0.065934
0.062333 0.095705 0.062791
0.064134 0.090425 0.061311
0.065995 0.085939 0.059419
0.067857 0.082734 0.058869
0.072892 0.082933 0.060700
0.082200 0.083177 0.060472
0.103624 0.081468 0.061051
0.131731 0.078676 0.060624
0.163745 0.076753 0.060883
0.201160 0.074907 0.060807
0.240833 0.073274 0.060929
0.284596 0.071946 0.061311
0.335439 0.069520 0.061021
0.382330 0.066850 0.060075
0.426780 0.063706 0.059998
0.470420 0.061448 0.059586
0.509224 0.060151 0.059297
0.545510 0.060883 0.059358
0.581735 0.062562 0.059800
0.609628 0.063645 0.060822
0.623651 0.064637 0.061509
0.647974 0.066697 0.062287
0.712490 0.060288 0.061295
0.761349 0.049500 0.059785
0.790646 0.045975 0.059007
0.805035 0.042847 0.058457
0.829648 0.039551 0.058778
0.847593 0.038148 0.059525
0.862577 0.039353 0.060914
0.873869 0.039322 0.062135
0.881956 0.040818 0.063600
0.887633 0.041932 0.064775
0.892164 0.042451 0.065599
0.060319 0.121218 0.059724
0.060685 0.119005 0.058793
0.064698 0.110399 0.060029
0.072602 0.101091 0.060029
0.075166 0.099596 0.060517
0.083375 0.100694 0.061814
0.099077 0.099702 0.061250
0.132418 0.098161 0.060670
0.167880 0.095430 0.059373
0.203449 0.093309 0.062348
0.240711 0.086931 0.061479
0.281224 0.083360 0.061585
0.326711 0.081346 0.061479
0.382650 0.077867 0.061112
0.423453 0.074159 0.060029
0.470924 0.072221 0.060670
0.508476 0.068589 0.059968
0.543359 0.067399 0.060060
0.577935 0.066087 0.060227
0.603571 0.065354 0.060746
0.620508 0.065446 0.061463
0.640635 0.069032 0.062806
0.682063 0.075807 0.064256
0.749203 0.074159 0.064881
0.785657 0.054963 0.061616
0.802441 0.045396 0.059480
0.827405 0.040070 0.058717
0.844388 0.036210 0.058762
0.862013 0.037079 0.060273
0.876112 0.037812 0.062089
0.883299 0.039307 0.063340
0.889433 0.041047 0.064759
0.890990 0.041444 0.065110
0.054688 0.138582 0.052369
0.055695 0.135271 0.052369
0.056962 0.134173 0.051942
0.063966 0.131441 0.052171
0.080446 0.130007 0.057252
0.090379 0.126757 0.062028
0.102968 0.124208 0.061677
0.133608 0.124010 0.059754
0.172030 0.120256 0.054353
0.204654 0.116075 0.055573
0.249760 0.115862 0.060945
0.286961 0.109056 0.062135
0.332799 0.099687 0.062455
0.376883 0.095018 0.061860
0.420996 0.089799 0.061326
0.463981 0.084169 0.060349
0.509209 0.082048 0.061509
0.540566 0.078828 0.060731
0.569329 0.078813 0.061830
0.602045 0.075547 0.061875
0.627680 0.076127 0.062577
0.650294 0.077958 0.063600
0.681361 0.087892 0.065171
0.720684 0.097444 0.066651
0.766186 0.085832 0.066270
0.797879 0.066514 0.065064
0.821363 0.053071 0.062486
0.844022 0.042374 0.060594
0.862791 0.036484 0.060624
0.874449 0.035737 0.061402
0.882612 0.037110 0.062699
0.890517 0.040024 0.064607
0.890806 0.040482 0.064790
0.051957 0.165896 0.049439
0.054429 0.161318 0.049073
0.056229 0.158297 0.048676
0.058564 0.156344 0.046876
0.072190 0.150576 0.046342
0.095995 0.151995 0.057145
0.108904 0.153368 0.061692
0.126711 0.151873 0.061570
0.165911 0.150179 0.059449
0.201480 0.143130 0.058061
0.244800 0.140642 0.059831
0.292470 0.136828 0.059525
0.336187 0.132357 0.062684
0.376699 0.122271 0.063600
0.414588 0.115572 0.063386
0.460349 0.104753 0.062211
0.501671 0.097200 0.061448
0.540932 0.093629 0.061784
0.566705 0.094423 0.062333
0.603449 0.092988 0.063233
0.642222 0.093965 0.064485
0.666865 0.097322 0.065415
0.691585 0.105730 0.066300
0.721386 0.114641 0.066819
0.743999 0.122499 0.067567
0.771878 0.114076 0.068467
0.809430 0.087739 0.068315
0.835325 0.064607 0.065934
0.859327 0.045411 0.062684
0.872984 0.038743 0.062348
0.881163 0.037461 0.062654
0.887449 0.039048 0.063951
0.890867 0.040131 0.064714
0.049973 0.202121 0.053910
0.052628 0.197620 0.052644
0.057252 0.192706 0.051743
0.065797 0.185702 0.050935
0.074891 0.181216 0.048051
0.100618 0.183474 0.053544
0.117662 0.182452 0.060548
0.125978 0.177234 0.061982
0.156283 0.175036 0.061326
0.196918 0.171862 0.056519
0.245212 0.172595 0.061830
0.290501 0.168948 0.061692
0.331731 0.162921 0.061082
0.373388 0.160586 0.064118
0.414359 0.156817 0.065751
0.455406 0.147341 0.066087
0.494743 0.136202 0.064973
0.535607 0.117647 0.063554
0.567086 0.103716 0.062837
0.589075 0.105104 0.063478
0.629953 0.105867 0.064683
0.670665 0.109071 0.065766
0.690608 0.112154 0.066621
0.712215 0.123400 0.067201
0.740383 0.135286 0.067094
0.763668 0.142535 0.067689
0.782147 0.140871 0.070008
0.821485 0.112261 0.076005
0.848112 0.084047 0.075685
0.867765 0.056565 0.069368
0.876905 0.045029 0.064790
0.884443 0.043915 0.065156
0.891447 0.040558 0.065095
0.056931 0.234775 0.059876
0.059922 0.230213 0.059556
0.063035 0.228336 0.058274
0.074708 0.223880 0.058335
0.099413 0.219089 0.057618
0.116960 0.219837 0.057649
0.129000 0.214817 0.059709
0.131289 0.205921 0.060563
0.152453 0.202411 0.061707
0.191730 0.201724 0.060868
0.229892 0.198184 0.059998
0.283909 0.199268 0.062959
0.322957 0.198306 0.064836
0.368444 0.196155 0.065705
0.414710 0.194797 0.067933
0.452873 0.193729 0.066361
0.495277 0.186404 0.066423
0.534203 0.182559 0.068009
0.567407 0.165927 0.066850
0.593729 0.137118 0.065278
0.619791 0.130983 0.065858
0.663706 0.129610 0.066621
0.695995 0.132784 0.067308
0.717418 0.141634 0.067811
0.740826 0.152499 0.067643
0.763073 0.162524 0.067781
0.778042 0.168109 0.069169
0.793439 0.164691 0.071366
0.816266 0.152651 0.078645
0.854170 0.113909 0.086076
0.870863 0.078691 0.080522
0.878157 0.056947 0.072709
0.886870 0.044526 0.065995
0.072663 0.295613 0.072007
0.079316 0.293660 0.071443
0.085008 0.279591 0.068559
0.093980 0.275273 0.066896
0.112108 0.263905 0.062882
0.133257 0.252277 0.060243
0.147936 0.252567 0.059998
0.149050 0.242222 0.059236
0.153826 0.230671 0.059495
0.187747 0.227039 0.061418
0.225727 0.227970 0.061997
0.267063 0.227832 0.061143
0.317983 0.224811 0.063615
0.355886 0.225101 0.065660
0.402792 0.226001 0.065537
0.451652 0.222629 0.065217
0.489204 0.222614 0.062898
0.531090 0.223713 0.066148
0.566171 0.220478 0.069780
0.599588 0.212985 0.070192
0.644587 0.215152 0.070970
0.673610 0.200580 0.070512
0.706798 0.189090 0.069612
0.727886 0.184787 0.069734
0.740414 0.188724 0.069184
0.760327 0.188464 0.068544
0.778271 0.189456 0.069368
0.800885 0.198962 0.073899
0.810117 0.198871 0.076265
0.826841 0.187625 0.086015
0.848936 0.160723 0.092714
0.871183 0.114336 0.090700
0.881529 0.083711 0.083360
0.083726 0.350927 0.085466
0.083894 0.343877 0.083558
0.091310 0.339330 0.082094
0.097307 0.334905 0.080613
0.129335 0.324392 0.074601
0.153185 0.308278 0.068055
0.166598 0.297932 0.063859
0.168612 0.283757 0.060014
0.171695 0.277394 0.060182
0.183322 0.262654 0.059953
0.221057 0.256092 0.061860
0.263996 0.259617 0.062074
0.306325 0.256382 0.062577
0.345006 0.252644 0.063432
0.395270 0.252949 0.066270
0.438636 0.255390 0.065827
0.491203 0.255833 0.065675
0.526406 0.253742 0.067491
0.565164 0.255528 0.068589
0.599817 0.256229 0.069566
0.637797 0.254124 0.068894
0.680171 0.256184 0.069154
0.703151 0.253117 0.072114
0.726894 0.243488 0.072419
0.748043 0.237552 0.073823
0.762585 0.240940 0.071260
0.781598 0.238499 0.070710
0.801419 0.234531 0.074647
0.812680 0.227161 0.077974
0.825513 0.231785 0.084306
0.832288 0.225498 0.090654
0.850019 0.201343 0.105379
0.864820 0.161410 0.100816
0.084352 0.387961 0.093416
0.089113 0.383017 0.093065
0.098009 0.381903 0.091691
0.106462 0.381949 0.091279
0.124178 0.378119 0.087816
0.160266 0.358633 0.079271
0.184802 0.339498 0.071427
0.200092 0.331884 0.066392
0.200351 0.321370 0.064118
0.203082 0.314122 0.061875
0.222965 0.302892 0.057359
0.264134 0.301610 0.060105
0.303456 0.297032 0.062745
0.347875 0.295308 0.063462
0.387747 0.290501 0.064164
0.436118 0.290105 0.065644
0.480140 0.287068 0.066102
0.521813 0.287434 0.066835
0.565835 0.286275 0.066880
0.597101 0.283833 0.066606
0.631937 0.286915 0.067094
0.670497 0.287602 0.063142
0.698116 0.283268 0.065309
0.717815 0.283482 0.068650
0.744335 0.284901 0.074601
0.763943 0.284794 0.077165
0.779721 0.291127 0.078141
0.801205 0.286061 0.079179
0.818433 0.271717 0.081544
0.823621 0.262242 0.082307
0.834592 0.260945 0.088853
0.841016 0.252110 0.095781
0.849882 0.237903 0.105638
0.085954 0.424857 0.100465
0.086702 0.423606 0.100069
0.098268 0.424231 0.101122
0.114763 0.424704 0.102159
0.143832 0.422232 0.099580
0.163668 0.423728 0.098833
0.201602 0.411368 0.087022
0.232776 0.375692 0.069505
0.237156 0.365393 0.064454
0.242771 0.356237 0.061295
0.242161 0.347402 0.061540
0.256428 0.339727 0.060258
0.309957 0.337667 0.062028
0.344305 0.337575 0.063539
0.383902 0.333120 0.064286
0.427192 0.327306 0.064591
0.473716 0.328511 0.066300
0.515801 0.323552 0.066941
0.554559 0.314153 0.066773
0.588006 0.309606 0.066514
0.626734 0.311040 0.066682
0.659312 0.310765 0.065385
0.686244 0.308644 0.058824
0.719570 0.311360 0.064973
0.744793 0.320256 0.070359
0.762692 0.327367 0.072190
0.787289 0.337819 0.073854
0.802838 0.336294 0.078706
0.818006 0.334951 0.082506
0.828519 0.311910 0.085801
0.836973 0.305379 0.089448
0.838956 0.291447 0.090272
0.844083 0.283116 0.097658
0.100664 0.458762 0.111635
0.103075 0.459495 0.111788
0.109453 0.461433 0.112535
0.127596 0.458839 0.109743
0.142153 0.455467 0.107057
0.172396 0.457450 0.104189
0.214588 0.450507 0.096284
0.254108 0.440497 0.085939
0.279805 0.418448 0.070100
0.284092 0.406683 0.060349
0.288167 0.395056 0.054139
0.288426 0.387640 0.055482
0.311589 0.384115 0.061646
0.350408 0.378210 0.065217
0.385901 0.376730 0.067506
0.426352 0.371923 0.066560
0.464790 0.365591 0.066407
0.507134 0.368353 0.067308
0.550210 0.363897 0.067567
0.590723 0.348898 0.067430
0.622583 0.344762 0.068467
0.652598 0.338415 0.068223
0.682322 0.334859 0.068254
0.711330 0.332692 0.067964
0.741360 0.334661 0.068757
0.762875 0.341192 0.069825
0.784894 0.351598 0.068986
0.809979 0.364813 0.070680
0.826429 0.371878 0.070726
0.841367 0.382177 0.070924
0.849851 0.376898 0.071778
0.857496 0.364736 0.079194
0.859373 0.356924 0.083192
0.115465 0.498970 0.129717
0.116442 0.497826 0.128267
0.126482 0.495933 0.126680
0.137179 0.495338 0.126024
0.165911 0.490120 0.120668
0.184054 0.487755 0.117067
0.212436 0.484581 0.111818
0.249638 0.473228 0.101717
0.286183 0.459327 0.087022
0.303090 0.437964 0.068376
0.309575 0.430304 0.057557
0.310567 0.418936 0.044266
0.316899 0.414603 0.063966
0.343725 0.416785 0.067124
0.380209 0.412879 0.069123
0.419989 0.410025 0.068849
0.460227 0.407584 0.065827
0.504082 0.405615 0.071519
0.538781 0.407019 0.070161
0.585748 0.403571 0.069322
0.617441 0.394095 0.069581
0.653285 0.381949 0.070512
0.682368 0.376699 0.070481
0.708888 0.369421 0.070466
0.734813 0.363210 0.070619
0.760784 0.358587 0.071183
0.784878 0.363363 0.069322
0.807111 0.369940 0.067536
0.828168 0.375372 0.067109
0.843122 0.384558 0.066178
0.852689 0.391363 0.066972
0.855558 0.394232 0.067109
0.859983 0.398184 0.068132
0.137697 0.540963 0.154040
0.139834 0.537789 0.151934
0.146197 0.534874 0.150591
0.156283 0.533562 0.148333
0.181140 0.530083 0.143038
0.207996 0.528389 0.139300
0.230793 0.525429 0.136736
0.260639 0.520394 0.131502
0.296742 0.508934 0.120546
0.319173 0.490242 0.102663
0.333944 0.463722 0.071901
0.334340 0.454597 0.062730
0.342473 0.448814 0.062806
0.349813 0.445258 0.068635
0.382452 0.449042 0.068208
0.420310 0.455756 0.070466
0.462623 0.454429 0.072328
0.505959 0.452110 0.072480
0.539178 0.444205 0.075746
0.581567 0.453117 0.074800
0.613947 0.444556 0.072053
0.651835 0.436622 0.072541
0.682948 0.424659 0.072267
0.707759 0.413519 0.071489
0.733898 0.409537 0.071870
0.758526 0.397986 0.072404
0.780789 0.386236 0.072404
0.801968 0.381079 0.067353
0.824643 0.382269 0.065934
0.846967 0.391913 0.066621
0.858015 0.398474 0.067918
0.863981 0.404242 0.069215
0.866316 0.406577 0.070130
0.144930 0.561852 0.167071
0.148501 0.560708 0.166598
0.154147 0.558343 0.165515
0.167636 0.559213 0.165515
0.182605 0.559274 0.164599
0.213870 0.558312 0.164752
0.243320 0.556237 0.162646
0.265385 0.544305 0.150515
0.292927 0.541756 0.146304
0.328328 0.530678 0.134234
0.353918 0.513283 0.110246
0.370977 0.495567 0.083894
0.378622 0.492607 0.076188
0.386770 0.486259 0.073564
0.388678 0.481422 0.070344
0.419455 0.483558 0.069490
0.454734 0.488350 0.073106
0.504326 0.491402 0.075013
0.544717 0.492988 0.075883
0.578210 0.489464 0.080323
0.610941 0.484367 0.079301
0.649653 0.487739 0.076417
0.679240 0.478325 0.076921
0.706477 0.463157 0.076112
0.735744 0.454475 0.076326
0.759518 0.448066 0.075410
0.781628 0.437064 0.075227
0.800351 0.420127 0.074876
0.820539 0.410346 0.074662
0.848646 0.402502 0.068681
0.862654 0.404257 0.066896
0.867887 0.409140 0.070878
0.872786 0.413809 0.072343
0.147219 0.602472 0.195468
0.157076 0.598535 0.192309
0.159274 0.597223 0.191394
0.171069 0.594842 0.191211
0.198383 0.588693 0.186419
0.219028 0.586542 0.185565
0.251972 0.586191 0.187198
0.277394 0.584070 0.187320
0.304219 0.572198 0.172107
0.343481 0.568231 0.165667
0.365927 0.557321 0.151202
0.395224 0.541482 0.124147
0.406027 0.527306 0.098741
0.415167 0.523903 0.088182
0.414023 0.519112 0.077653
0.426459 0.514946 0.072877
0.456809 0.517189 0.071214
0.496422 0.527337 0.073747
0.544671 0.523476 0.076036
0.569802 0.522850 0.075120
0.605112 0.522301 0.080110
0.647700 0.527642 0.080735
0.680919 0.527184 0.080949
0.706584 0.517159 0.082292
0.733837 0.506600 0.083116
0.762188 0.499687 0.083726
0.782177 0.484306 0.080034
0.802441 0.472923 0.078981
0.822690 0.459113 0.078813
0.841367 0.443427 0.078019
0.867781 0.428519 0.077058
0.878798 0.427024 0.075776
0.880537 0.425910 0.075593
0.128099 0.648722 0.230350
0.149920 0.642664 0.225544
0.152682 0.643580 0.226535
0.161273 0.638651 0.222553
0.168963 0.636912 0.221561
0.194507 0.633280 0.219028
0.233875 0.621103 0.210101
0.267140 0.608957 0.204761
0.317021 0.601877 0.201633
0.358221 0.602411 0.200580
0.384802 0.599802 0.197055
0.419394 0.589151 0.175937
0.430320 0.572000 0.149081
0.432013 0.552071 0.116487
0.440711 0.547951 0.095628
0.448173 0.543328 0.083726
0.461204 0.544671 0.073259
0.497002 0.551095 0.073701
0.521141 0.559304 0.076936
0.577432 0.551461 0.076585
0.598093 0.554208 0.077348
0.635447 0.559670 0.079515
0.676738 0.559686 0.083345
0.713039 0.561242 0.084779
0.733333 0.555016 0.087892
0.761288 0.546075 0.089601
0.786313 0.540414 0.090364
0.805524 0.521965 0.086946
0.824796 0.514641 0.086610
0.846021 0.498207 0.086458
0.872251 0.480003 0.084718
0.894255 0.462425 0.081926
0.893782 0.454139 0.080934
0.102693 0.679194 0.256916
0.106020 0.679469 0.257099
0.111208 0.679973 0.257542
0.121706 0.677684 0.255222
0.146395 0.670558 0.248890
0.161074 0.667002 0.246799
0.197818 0.659571 0.242344
0.245960 0.648325 0.233646
0.311833 0.643290 0.233417
0.366964 0.635172 0.231952
0.406592 0.625956 0.223270
0.419715 0.617487 0.211444
0.441932 0.603555 0.189563
0.456291 0.595407 0.169238
0.466438 0.588464 0.147539
0.469337 0.578012 0.124834
0.483055 0.574655 0.106264
0.497856 0.574655 0.082536
0.531716 0.583963 0.080400
0.546014 0.588128 0.083619
0.616983 0.585016 0.080232
0.635035 0.595041 0.080018
0.675212 0.606210 0.082841
0.709422 0.603479 0.088548
0.747326 0.603021 0.090929
0.763180 0.594186 0.093080
0.786954 0.590066 0.096864
0.808408 0.577996 0.096880
0.832624 0.562646 0.094896
0.852506 0.552300 0.095644
0.874083 0.531487 0.094087
0.902647 0.513130 0.091722
0.905974 0.492958 0.087678
0.106676 0.697826 0.273106
0.107881 0.699428 0.274388
0.108080 0.699443 0.274388
0.109163 0.702052 0.276631
0.110597 0.703426 0.277760
0.112520 0.702022 0.276417
0.159731 0.699290 0.274510
0.192004 0.692103 0.268757
0.295811 0.672313 0.254765
0.334798 0.664958 0.253330
0.385412 0.650675 0.244404
0.437903 0.645090 0.244526
0.467948 0.647349 0.240970
0.484916 0.636957 0.219074
0.491630 0.630915 0.205798
0.497124 0.624002 0.187610
0.506813 0.621744 0.173602
0.527794 0.611078 0.129839
0.535241 0.603357 0.103563
0.546899 0.600275 0.091798
0.586160 0.608316 0.086076
0.658305 0.629816 0.083909
0.674281 0.634653 0.083162
0.703151 0.639353 0.086687
0.738643 0.637766 0.093980
0.765133 0.636484 0.096803
0.790478 0.633646 0.100587
0.809216 0.624369 0.102953
0.832914 0.611002 0.104723
0.856840 0.603220 0.105562
0.881254 0.586786 0.104585
0.901854 0.563378 0.101366
0.910887 0.535546 0.096071
0.107088 0.711406 0.285054
0.107485 0.710613 0.284245
0.108934 0.712367 0.285756
0.111391 0.714046 0.287175
0.111650 0.714076 0.287221
0.112444 0.713420 0.286687
0.151278 0.712093 0.286564
0.170413 0.711086 0.285771
0.231189 0.706981 0.282551
0.303471 0.689250 0.270787
0.360647 0.678187 0.266651
0.422278 0.667628 0.257542
0.469520 0.659373 0.254978
0.499001 0.659678 0.250736
0.505653 0.654170 0.237308
0.516121 0.651652 0.223911
0.531350 0.654627 0.215457
0.548058 0.657557 0.203708
0.554742 0.645197 0.164141
0.561837 0.642817 0.147936
0.580346 0.639750 0.141009
0.651560 0.647608 0.094118
0.692988 0.665522 0.095171
0.701244 0.666468 0.089815
0.729976 0.669612 0.091997
0.765011 0.672694 0.096895
0.798230 0.671580 0.102739
0.815869 0.667124 0.107286
0.835096 0.658061 0.110124
0.858640 0.652354 0.114290
0.882902 0.629007 0.112352
0.912016 0.626719 0.114275
0.913146 0.597375 0.108507
0.103258 0.718944 0.292409
0.102708 0.718990 0.292622
0.102174 0.719661 0.293080
0.105257 0.721019 0.294392
0.108232 0.717678 0.290822
0.132418 0.716976 0.289921
0.136995 0.716823 0.289769
0.170596 0.716548 0.290578
0.190509 0.716564 0.290532
0.248569 0.714046 0.289693
0.330495 0.713069 0.294850
0.391714 0.695888 0.281025
0.458350 0.681056 0.272221
0.498009 0.677790 0.274037
0.515435 0.671214 0.257191
0.536233 0.671733 0.244221
0.548898 0.676829 0.245136
0.561273 0.679637 0.239475
0.571481 0.675944 0.222385
0.583963 0.673716 0.206149
0.598367 0.668788 0.186725
0.646052 0.684062 0.169512
0.712749 0.692363 0.120455
0.721080 0.697612 0.111101
0.732372 0.703990 0.105699
0.756222 0.699107 0.099351
0.793011 0.699886 0.102327
0.822339 0.705364 0.109041
0.841810 0.699367 0.116014
0.860914 0.690700 0.120211
0.886229 0.683513 0.123552
0.908217 0.675731 0.125139
0.914275 0.647913 0.118990
0.098528 0.730800 0.304372
0.098528 0.730846 0.304417
0.097902 0.731533 0.304875
0.102235 0.732418 0.305837
0.126497 0.732464 0.305684
0.129152 0.731960 0.305364
0.130175 0.730465 0.303502
0.174472 0.735256 0.308064
0.190539 0.733776 0.307576
0.222507 0.731182 0.305898
0.274601 0.730220 0.307591
0.355367 0.718135 0.298985
0.428748 0.704707 0.291646
0.482033 0.692882 0.286870
0.519326 0.688975 0.278782
0.542885 0.685451 0.263478
0.563165 0.688762 0.257191
0.569039 0.691432 0.257343
0.580377 0.694453 0.255299
0.590616 0.691783 0.242023
0.598825 0.688441 0.228672
0.648096 0.700679 0.199359
0.714199 0.726406 0.177737
0.745769 0.728771 0.142565
0.755383 0.737133 0.132174
0.764858 0.741375 0.118517
0.784771 0.735958 0.107195
0.825589 0.727993 0.111040
0.849500 0.730785 0.115633
0.869749 0.729488 0.123079
0.891127 0.723507 0.127794
0.913191 0.716167 0.132357
0.917220 0.701976 0.131731
0.092348 0.735805 0.309300
0.092363 0.735866 0.309346
0.121004 0.736751 0.310002
0.121370 0.736812 0.310063
0.121462 0.737804 0.310842
0.126009 0.740993 0.314275
0.126955 0.741100 0.314382
0.170230 0.739422 0.312779
0.175494 0.739467 0.312688
0.194400 0.742611 0.317189
0.250706 0.742504 0.319692
0.303075 0.737652 0.316136
0.371633 0.728267 0.309667
0.452766 0.710780 0.299992
0.512490 0.699077 0.288518
0.553338 0.697078 0.278721
0.575265 0.700771 0.273777
0.577508 0.698466 0.267704
0.587182 0.700938 0.265766
0.592294 0.701656 0.263233
0.600519 0.700175 0.253834
0.657633 0.720989 0.227237
0.714580 0.738628 0.197467
0.750988 0.746746 0.162325
0.772045 0.756085 0.152026
0.777508 0.761151 0.145052
0.787457 0.763439 0.127337
