app/src/main/assets/filters/ricoh_green.cube
# Created from ricoh_green.plut
LUT_3D_SIZE 9
DOMAIN_MIN 0.0 0.0 0.0
DOMAIN_MAX 1.0 1.0 1.0
0.052811 0.063752 0.058198
0.073091 0.065537 0.057008
0.172198 0.071077 0.060975
0.338445 0.080125 0.072953
0.492378 0.088823 0.079637
0.627008 0.097108 0.104112
0.735943 0.144778 0.159747
0.806500 0.199634 0.225635
0.836454 0.219883 0.263890
0.064042 0.111040 0.076539
0.075486 0.104448 0.068330
0.170550 0.097505 0.067872
0.332204 0.097276 0.074174
0.476570 0.096513 0.076555
0.588586 0.130571 0.103975
0.731518 0.153826 0.160388
0.802625 0.200061 0.222354
0.834241 0.228351 0.263127
0.060502 0.233890 0.103410
0.089357 0.209232 0.083421
0.172122 0.203174 0.084108
0.346792 0.196231 0.085557
0.490944 0.185748 0.090196
0.607065 0.208484 0.119326
0.702495 0.286748 0.166217
0.799893 0.245365 0.242435
0.831708 0.240452 0.264500
0.107591 0.419272 0.263569
0.159380 0.394858 0.210636
0.194171 0.356695 0.112169
0.341970 0.343877 0.103380
0.500237 0.342412 0.111116
0.609216 0.332677 0.126452
0.684733 0.353765 0.153216
0.788357 0.427329 0.255192
0.823377 0.396658 0.311360
0.158740 0.522957 0.376669
0.212665 0.520684 0.359411
0.340200 0.508141 0.284489
0.351843 0.481422 0.160464
0.487587 0.478996 0.145754
0.618128 0.479942 0.153246
0.710521 0.478813 0.180682
0.786084 0.486992 0.216861
0.815061 0.516823 0.249531
0.236179 0.572778 0.429740
0.276265 0.568154 0.410025
0.395392 0.565179 0.325063
0.463432 0.573312 0.233829
0.483009 0.581552 0.201556
0.602716 0.591318 0.210895
0.723217 0.600565 0.237110
0.796765 0.590219 0.265126
0.857465 0.574884 0.308537
0.295506 0.593042 0.434531
0.377783 0.589975 0.363989
0.486610 0.610391 0.309667
0.528847 0.624353 0.299245
0.555566 0.638025 0.301183
0.586084 0.648402 0.292775
0.724208 0.713588 0.322515
0.822827 0.715908 0.345190
0.867948 0.682307 0.363302
0.469398 0.630304 0.371252
0.484123 0.634257 0.366537
0.520211 0.632425 0.331472
0.551766 0.637919 0.308553
0.559686 0.641382 0.308324
0.664546 0.708324 0.345434
0.762707 0.764630 0.381765
0.805524 0.786984 0.393530
0.880735 0.779309 0.413611
0.503563 0.662303 0.406485
0.512093 0.656718 0.386481
0.535943 0.645228 0.340917
0.596277 0.669322 0.331456
0.644862 0.701976 0.353902
0.713252 0.740429 0.376486
0.762310 0.766842 0.391653
0.795804 0.784237 0.402365
0.844877 0.801785 0.418524
0.041520 0.060914 0.067720
0.081910 0.067857 0.081987
0.175097 0.077684 0.090639
0.309560 0.086229 0.098161
0.464073 0.093843 0.115419
0.579080 0.085130 0.102449
0.692897 0.103349 0.141360
0.795499 0.169543 0.219425
0.841840 0.210163 0.272236
0.061524 0.105882 0.088655
0.077516 0.106264 0.090990
0.157473 0.104906 0.093278
0.296941 0.109728 0.103319
0.449821 0.115862 0.118425
0.572000 0.110002 0.112001
0.675090 0.114641 0.127962
0.790814 0.182986 0.208667
0.839384 0.218601 0.267597
0.073411 0.194064 0.118166
0.078843 0.198779 0.121202
0.167483 0.201648 0.113649
0.323751 0.203693 0.116808
0.456886 0.218753 0.131533
0.579065 0.207355 0.138155
0.679576 0.228153 0.155093
0.783398 0.231464 0.225620
0.832715 0.239536 0.265263
0.056321 0.358251 0.207630
0.084199 0.347585 0.200412
0.195712 0.356619 0.176623
0.332006 0.342199 0.143038
0.483879 0.349233 0.146807
0.590661 0.352956 0.161288
0.693462 0.338796 0.168612
0.764630 0.392874 0.224109
0.827420 0.359426 0.324575
0.119661 0.506188 0.363088
0.131868 0.507393 0.361746
0.240055 0.509453 0.345144
0.355550 0.481849 0.241917
0.484291 0.482170 0.216983
0.607813 0.485023 0.215717
0.702098 0.479225 0.196918
0.775753 0.480415 0.225147
0.813352 0.486061 0.280705
0.171557 0.574731 0.447044
0.201450 0.573465 0.440650
0.295995 0.571283 0.417121
0.439384 0.573617 0.320348
0.487984 0.585809 0.246006
0.601755 0.591485 0.248920
0.714565 0.593912 0.247333
0.790692 0.585107 0.261418
0.857023 0.567041 0.305669
0.228901 0.598825 0.464668
0.249775 0.601312 0.462608
0.344518 0.594263 0.418036
0.521218 0.622522 0.308568
0.546654 0.636713 0.315770
0.583688 0.654231 0.321752
0.709178 0.697002 0.319905
0.812024 0.710338 0.335271
0.876738 0.683146 0.370886
0.332570 0.654246 0.503197
0.414130 0.650004 0.450980
0.503365 0.641169 0.366949
0.545846 0.635615 0.311803
0.558618 0.641794 0.312490
0.629297 0.686381 0.336385
0.759335 0.763729 0.384115
0.799527 0.789929 0.394202
0.888365 0.788663 0.424826
0.472633 0.689372 0.477134
0.487602 0.685817 0.462272
0.518685 0.663035 0.395010
0.567559 0.648615 0.316793
0.623850 0.688197 0.348684
0.701762 0.735073 0.376837
0.758373 0.766308 0.395026
0.795743 0.784878 0.402930
0.843992 0.802960 0.420478
0.029023 0.057404 0.153155
0.070512 0.069856 0.171466
0.186099 0.089250 0.185931
0.315435 0.107958 0.200717
0.454780 0.130495 0.227741
0.582986 0.151385 0.266331
0.671901 0.173114 0.292515
0.794614 0.263645 0.398764
0.834119 0.196445 0.290059
0.067262 0.112932 0.150622
0.081590 0.114763 0.158923
0.168566 0.118044 0.174121
0.305196 0.124514 0.186572
0.448066 0.143069 0.216724
0.560845 0.158709 0.244556
0.666270 0.180987 0.278462
0.787442 0.263966 0.373297
0.838361 0.191241 0.280629
0.059693 0.228382 0.210101
0.087785 0.231495 0.222248
0.194446 0.229618 0.217716
0.339742 0.229007 0.225895
0.471275 0.236469 0.240833
0.584970 0.251499 0.268757
0.680995 0.275822 0.310964
0.771099 0.285451 0.337179
0.848219 0.229389 0.288655
0.069093 0.323033 0.230213
0.092897 0.334508 0.246677
0.174060 0.366690 0.279744
0.354360 0.372808 0.273396
0.494133 0.374624 0.284367
0.589899 0.389548 0.309880
0.686229 0.401358 0.350393
0.772686 0.404990 0.368841
0.834165 0.353079 0.340673
0.104158 0.475792 0.351919
0.110323 0.473289 0.349584
0.194247 0.491890 0.372335
0.370809 0.492088 0.347784
0.499336 0.497749 0.348318
0.614282 0.503487 0.362448
0.703197 0.517464 0.404761
0.769329 0.540688 0.434119
0.830426 0.480705 0.341009
0.151461 0.579355 0.457939
0.156222 0.581430 0.459586
0.189578 0.584817 0.465217
0.356268 0.596628 0.461738
0.513344 0.598016 0.432731
0.617746 0.604471 0.428077
0.720760 0.614328 0.440131
0.800671 0.629603 0.459861
0.847578 0.614023 0.413153
0.186435 0.615442 0.501289
0.187823 0.617090 0.503716
0.209339 0.611704 0.493050
0.359976 0.612192 0.462531
0.536004 0.633326 0.356435
0.585901 0.660700 0.385779
0.700206 0.683940 0.408804
0.809934 0.712963 0.445777
0.874723 0.691402 0.392493
0.235065 0.695338 0.599695
0.255375 0.698863 0.599313
0.271733 0.699367 0.594385
0.474464 0.671977 0.457404
0.556924 0.644022 0.335409
0.574594 0.651835 0.333394
0.733211 0.746471 0.386877
0.807980 0.812497 0.435477
0.908278 0.814496 0.456123
0.311635 0.746242 0.646296
0.340978 0.745632 0.635447
0.357549 0.745373 0.628809
0.508186 0.699229 0.474113
0.579614 0.657649 0.332677
0.655955 0.710597 0.367834
0.750958 0.763729 0.399069
0.784405 0.780606 0.401221
0.842924 0.810925 0.430442
0.079438 0.098390 0.326482
0.094789 0.098039 0.319371
0.196445 0.104768 0.317952
0.331380 0.125872 0.332448
0.472572 0.168521 0.364569
0.580041 0.192416 0.401389
0.684291 0.249317 0.443595
0.773434 0.287892 0.483864
0.798123 0.274678 0.460334
0.088502 0.129686 0.262165
0.103746 0.141466 0.284688
0.193881 0.150500 0.298741
0.319631 0.155627 0.319417
0.471015 0.177722 0.356344
0.569512 0.225284 0.387930
0.665232 0.255344 0.417166
0.766445 0.293736 0.473610
0.804227 0.277745 0.455665
0.084108 0.256260 0.328237
0.092714 0.243290 0.325917
0.193149 0.244816 0.333120
0.345480 0.260533 0.355978
0.479973 0.273396 0.378790
0.583383 0.298100 0.404791
0.680659 0.332326 0.442466
0.774716 0.363867 0.481910
0.830503 0.330571 0.464927
0.123445 0.373297 0.362753
0.138582 0.377493 0.373434
0.196002 0.403571 0.410452
0.382086 0.400626 0.411276
0.501015 0.400488 0.416678
0.602594 0.407172 0.433082
0.694575 0.418051 0.453803
0.778805 0.443275 0.493370
0.845014 0.431464 0.492119
0.193713 0.497017 0.431861
0.223453 0.506279 0.449592
0.276692 0.515740 0.471595
0.387106 0.506905 0.458366
0.510430 0.512154 0.456535
0.621393 0.518227 0.469642
0.704692 0.532341 0.494240
0.785336 0.543236 0.523064
0.851347 0.512749 0.508110
0.183307 0.615793 0.532174
0.185031 0.613977 0.533867
0.220096 0.610559 0.534890
0.370443 0.607385 0.527626
0.528313 0.608042 0.518700
0.627085 0.619257 0.522576
0.727550 0.626490 0.533883
0.795819 0.644343 0.572854
0.843870 0.636011 0.576455
0.207294 0.667033 0.571695
0.209445 0.666987 0.571389
0.225757 0.676738 0.582300
0.292363 0.687160 0.593851
0.503792 0.685588 0.575570
0.628412 0.698421 0.574212
0.724483 0.715587 0.586038
0.815656 0.722896 0.578820
0.843641 0.686488 0.513756
0.256199 0.738537 0.654963
0.259266 0.740444 0.656352
0.272419 0.749630 0.666316
0.293507 0.767498 0.683680
0.413748 0.788190 0.691508
0.584573 0.674571 0.428367
0.617441 0.679820 0.421851
0.774868 0.750393 0.457023
0.896239 0.802029 0.513817
0.285817 0.769863 0.687297
0.285908 0.770855 0.688289
0.292927 0.773861 0.690303
0.309010 0.784207 0.700572
0.426368 0.794049 0.681346
0.581949 0.714305 0.476829
0.706996 0.741588 0.402335
0.775143 0.778408 0.411551
0.848814 0.821241 0.451240
0.164294 0.149584 0.442252
0.179736 0.144717 0.439567
0.253819 0.161318 0.460197
0.347524 0.177050 0.475868
0.495018 0.204761 0.495491
0.592798 0.252842 0.503960
0.686366 0.288273 0.528130
0.774411 0.341222 0.568841
0.812818 0.341329 0.554971
0.101396 0.154803 0.412726
0.102815 0.142687 0.410330
0.198245 0.164370 0.424216
0.338170 0.193591 0.443503
0.475105 0.224216 0.477226
0.589029 0.255955 0.499397
0.680751 0.298421 0.524041
0.766430 0.343252 0.560037
0.831144 0.345953 0.551644
0.113893 0.278950 0.451316
0.120256 0.279225 0.452415
0.234272 0.291646 0.456657
0.361349 0.299260 0.465904
0.489265 0.315496 0.494850
0.598840 0.331411 0.518196
0.686336 0.363775 0.528618
0.768368 0.406958 0.573358
0.827466 0.400809 0.566735
0.100587 0.414374 0.495949
0.112459 0.411307 0.490883
0.214832 0.412634 0.496086
0.383215 0.415320 0.506569
0.504173 0.423590 0.514092
0.610086 0.438209 0.536767
0.698787 0.458930 0.557931
0.778454 0.479850 0.582528
0.833600 0.476600 0.589776
0.244144 0.541192 0.554711
0.251118 0.542351 0.557687
0.300221 0.552483 0.573434
0.409018 0.530205 0.549996
0.533700 0.534508 0.557168
0.632929 0.537102 0.565713
0.718364 0.545068 0.581674
0.796109 0.558099 0.603937
0.857435 0.552316 0.609735
0.244388 0.630777 0.600031
0.256550 0.622492 0.589502
0.301595 0.622507 0.594018
0.423621 0.622919 0.594186
0.543984 0.624384 0.599161
0.640833 0.629496 0.596612
0.734981 0.639582 0.613382
0.801389 0.653910 0.635767
0.869230 0.655497 0.649134
0.201923 0.708965 0.649104
0.205280 0.713756 0.655634
0.220386 0.715862 0.658717
0.297124 0.719966 0.664637
0.502129 0.723919 0.653391
0.654353 0.726940 0.657572
0.747982 0.735576 0.665110
0.833188 0.744579 0.675502
0.878233 0.742947 0.691707
0.264286 0.763577 0.690669
0.268971 0.765972 0.692531
0.278325 0.773388 0.699321
0.301671 0.787900 0.710887
0.359197 0.811749 0.730388
0.602716 0.830320 0.741604
0.751339 0.820111 0.720714
0.850782 0.847425 0.750134
0.903258 0.822950 0.684642
0.304921 0.791104 0.713649
0.305104 0.791241 0.713756
0.308949 0.795529 0.718273
0.324407 0.803952 0.724926
0.356008 0.815900 0.734325
0.490410 0.847761 0.762310
0.685130 0.873564 0.783215
0.859876 0.904158 0.788800
0.890242 0.853529 0.612299
0.343969 0.258289 0.603311
0.350317 0.258259 0.604913
0.362264 0.251698 0.598169
0.403571 0.238102 0.582315
0.502892 0.272862 0.609094
0.614206 0.284428 0.610727
0.694392 0.339895 0.628443
0.769528 0.369696 0.641093
0.813245 0.380957 0.625956
0.215640 0.243061 0.558663
0.231083 0.242374 0.562814
0.279240 0.238117 0.569131
0.354971 0.232105 0.553979
0.497047 0.259464 0.584283
0.602808 0.297810 0.596628
0.688838 0.344411 0.616770
0.764950 0.383185 0.633967
0.817288 0.383047 0.626856
0.188815 0.322316 0.550149
0.210117 0.317922 0.549935
0.264454 0.331670 0.565347
0.380194 0.341650 0.573632
0.498787 0.363012 0.585000
0.611078 0.379294 0.609689
0.701564 0.405936 0.630381
0.780865 0.447349 0.652491
0.813275 0.404593 0.621607
0.163882 0.444419 0.579507
0.176776 0.447898 0.584497
0.262181 0.439796 0.588754
0.401511 0.450416 0.599054
0.523323 0.457664 0.610071
0.622843 0.471977 0.626825
0.711131 0.488380 0.643992
0.780667 0.507195 0.659495
0.835218 0.508965 0.664439
0.139178 0.565057 0.649470
0.145830 0.559289 0.641413
0.219867 0.556451 0.635035
0.419455 0.549126 0.630823
0.542596 0.551797 0.636072
0.641657 0.561120 0.652583
0.728191 0.574868 0.666621
0.803326 0.587228 0.681025
0.862318 0.591745 0.697627
0.269551 0.662837 0.676478
0.289403 0.656199 0.671687
0.329900 0.642039 0.664790
0.422354 0.643656 0.671855
0.565560 0.644984 0.675029
0.662959 0.650050 0.680949
0.748241 0.655543 0.691279
0.819745 0.665400 0.708309
0.893462 0.664607 0.717967
0.232563 0.729229 0.713222
0.239521 0.727535 0.711650
0.314092 0.727932 0.707469
0.411658 0.738338 0.714290
0.570092 0.734783 0.719188
0.671778 0.739864 0.719600
0.759167 0.745983 0.724620
0.836271 0.752331 0.737743
0.900450 0.753796 0.746441
0.250584 0.777462 0.715831
0.255146 0.781598 0.720684
0.260700 0.786999 0.726055
0.280262 0.804532 0.745602
0.386587 0.832105 0.766323
0.583001 0.848737 0.779660
0.763943 0.847135 0.775418
0.864103 0.863035 0.792508
0.927977 0.850401 0.790814
0.301488 0.795605 0.720592
0.303120 0.797543 0.722316
0.316594 0.804517 0.727413
0.326452 0.812192 0.733776
0.349187 0.825055 0.744961
0.494545 0.867201 0.781949
0.658671 0.886885 0.800519
0.853895 0.919631 0.826673
0.912032 0.929183 0.834318
0.419959 0.306767 0.665553
0.433707 0.312947 0.672541
0.442451 0.315343 0.676036
0.461784 0.312337 0.673136
0.508736 0.316762 0.673747
0.582986 0.331563 0.676661
0.664515 0.329534 0.654551
0.709590 0.358145 0.652262
0.764523 0.379324 0.643732
0.381567 0.303029 0.658473
0.391028 0.305211 0.662501
0.421622 0.316838 0.677790
0.444343 0.318196 0.680064
0.507744 0.322057 0.679133
0.587152 0.330892 0.680919
0.668376 0.333761 0.658045
0.720180 0.370001 0.654734
0.769406 0.385641 0.645716
0.219074 0.323873 0.619959
0.229099 0.326894 0.624155
0.267567 0.339162 0.641718
0.379309 0.341482 0.660044
0.502281 0.371832 0.674784
0.583398 0.367987 0.656428
0.699184 0.412909 0.681544
0.747784 0.427680 0.681956
0.779049 0.409537 0.656855
0.238895 0.477287 0.669291
0.252613 0.479316 0.672831
0.301915 0.488518 0.682750
0.456992 0.491493 0.690059
0.548440 0.505379 0.709514
0.651438 0.518090 0.725368
0.730175 0.530938 0.730968
0.796292 0.541360 0.735927
0.818006 0.525322 0.703471
0.165515 0.591440 0.712825
0.199237 0.594171 0.717723
0.296117 0.598138 0.729076
0.432715 0.579461 0.716182
0.568566 0.589670 0.726101
0.658030 0.597833 0.735225
0.742306 0.604761 0.746853
0.812650 0.624933 0.762570
0.878599 0.628244 0.764157
0.202853 0.634958 0.715465
0.206836 0.637415 0.717449
0.241276 0.655833 0.733227
0.434012 0.669703 0.749020
0.581048 0.667323 0.749035
0.682002 0.676081 0.758495
0.761440 0.685512 0.767987
0.831983 0.694148 0.778485
0.896712 0.692744 0.780896
0.249363 0.743938 0.761364
0.253285 0.745022 0.762982
0.290425 0.740871 0.757977
0.434089 0.734798 0.753231
0.579721 0.747631 0.770214
0.699016 0.757778 0.785306
0.776425 0.761547 0.788693
0.857053 0.771771 0.802090
0.918654 0.768521 0.806546
0.286580 0.780621 0.756771
0.293660 0.782055 0.757031
0.328466 0.795544 0.767163
0.391836 0.813230 0.780972
0.491752 0.844648 0.808164
0.609537 0.855207 0.819303
0.773526 0.865171 0.829633
0.872282 0.864958 0.834623
0.928649 0.855085 0.832227
0.299916 0.805890 0.740841
0.303685 0.808927 0.742748
0.311559 0.813153 0.747021
0.333104 0.822629 0.755642
0.394827 0.845655 0.775845
0.500755 0.882170 0.808835
0.701686 0.921721 0.843198
0.859937 0.940719 0.866361
0.948989 0.958495 0.880369
0.449668 0.321187 0.682246
0.451774 0.321950 0.683421
0.455314 0.322972 0.684306
0.467124 0.327276 0.688579
0.506386 0.335973 0.694453
0.541238 0.343404 0.696208
0.608423 0.341894 0.683040
0.668544 0.334417 0.654658
0.710460 0.359899 0.656428
0.441398 0.326635 0.687861
0.441718 0.326741 0.687999
0.449653 0.329030 0.690822
0.469032 0.336187 0.697215
0.499351 0.342748 0.701671
0.541878 0.343984 0.696818
0.610025 0.346853 0.686839
0.670741 0.337346 0.656138
0.713252 0.364416 0.658320
0.382361 0.327398 0.675685
0.403174 0.329046 0.683482
0.416663 0.329946 0.687449
0.442908 0.337560 0.696712
0.480049 0.347082 0.706645
0.552285 0.356603 0.706981
0.611749 0.355459 0.691325
0.683467 0.357275 0.665583
0.739528 0.392569 0.666072
0.285389 0.378714 0.650813
0.298650 0.382422 0.655116
0.316655 0.388968 0.665522
0.410697 0.425681 0.703990
0.561242 0.484367 0.765606
0.621958 0.497841 0.775113
0.689036 0.503304 0.754131
0.747066 0.491661 0.726513
0.777462 0.479667 0.712535
0.323049 0.606210 0.770550
0.339223 0.607980 0.773724
0.394858 0.614237 0.783627
0.484977 0.623987 0.795941
0.595758 0.631266 0.807752
0.701381 0.648997 0.838025
0.769665 0.646448 0.832273
0.832959 0.653239 0.828626
0.869612 0.650507 0.815961
0.182834 0.641505 0.756023
0.200336 0.645396 0.759594
0.306142 0.663478 0.779919
0.481071 0.690303 0.813367
0.590204 0.714244 0.841444
0.701106 0.720989 0.842573
0.794034 0.728069 0.852445
0.859098 0.735851 0.857511
0.918349 0.740566 0.857221
0.381201 0.694423 0.768276
0.410346 0.702235 0.774945
0.430838 0.706676 0.779034
0.522377 0.729915 0.802823
0.596521 0.751308 0.824063
0.703609 0.777096 0.847807
0.800183 0.795499 0.865888
0.881987 0.809506 0.879667
0.931273 0.805020 0.873426
0.304997 0.788357 0.798047
0.313069 0.792676 0.802350
0.328954 0.800290 0.810193
0.358282 0.818173 0.826200
0.420142 0.865385 0.871855
0.608530 0.876295 0.880919
0.801877 0.875868 0.885344
0.884794 0.877134 0.887770
0.952865 0.878004 0.892271
0.340642 0.818631 0.782574
0.342992 0.819577 0.781765
0.376120 0.829328 0.789380
0.411460 0.845975 0.804288
0.484459 0.872450 0.826703
0.558328 0.891890 0.848676
0.682506 0.927108 0.881102
0.860533 0.959960 0.913344
0.969253 0.974792 0.929763
0.463264 0.331914 0.693095
0.464897 0.334051 0.694881
0.472892 0.337621 0.698085
0.483650 0.340246 0.700557
0.498405 0.343389 0.702098
0.524285 0.343023 0.698817
0.555200 0.349508 0.699428
0.618341 0.346365 0.685878
0.670909 0.335470 0.654398
0.463172 0.334081 0.695109
0.463325 0.334127 0.695155
0.468650 0.336217 0.697063
0.477211 0.339834 0.699962
0.493980 0.343923 0.702998
0.524376 0.346471 0.702312
0.555947 0.351019 0.700893
0.620645 0.348241 0.685389
0.672892 0.339910 0.656748
0.440589 0.334295 0.694026
0.444785 0.335470 0.695277
0.451225 0.337133 0.696956
0.464118 0.340444 0.700465
0.482963 0.344564 0.704341
0.523033 0.352102 0.707576
0.555566 0.353887 0.703258
0.620920 0.349462 0.686549
0.680491 0.350042 0.662333
0.362753 0.359976 0.683330
0.378546 0.358343 0.688197
0.403861 0.358038 0.695094
0.445563 0.362280 0.708766
0.472221 0.366400 0.716487
0.515572 0.370153 0.720211
0.561379 0.367773 0.713237
0.633509 0.374853 0.699107
0.712245 0.401846 0.689570
0.415686 0.569802 0.761120
0.425315 0.569863 0.763455
0.449928 0.573388 0.773251
0.525841 0.570901 0.792554
0.611704 0.576898 0.824002
0.674754 0.597177 0.844327
0.736202 0.614054 0.854368
0.789837 0.631128 0.852049
0.814160 0.597024 0.797375
0.421912 0.655970 0.810208
0.435645 0.660792 0.814740
0.487816 0.678645 0.833768
0.538140 0.698283 0.853910
0.606897 0.734234 0.897520
0.714260 0.752468 0.918120
0.809506 0.739300 0.917220
0.886290 0.756344 0.925917
0.923186 0.761456 0.909392
0.325872 0.684001 0.785946
0.336019 0.688380 0.790265
0.364752 0.695460 0.798016
0.507958 0.730251 0.838956
0.615579 0.766842 0.879423
0.679820 0.793378 0.907408
0.804608 0.826963 0.933837
0.906676 0.841901 0.943526
0.955856 0.849699 0.944732
0.466148 0.819501 0.860456
0.469001 0.820188 0.861479
0.499443 0.825086 0.869047
0.554925 0.829282 0.879530
0.576303 0.838422 0.891859
0.628153 0.866178 0.925200
0.747753 0.877348 0.942092
0.897963 0.906416 0.953994
0.965621 0.911070 0.954910
0.366751 0.826825 0.824872
0.381247 0.834012 0.830747
0.385580 0.838315 0.835096
0.431418 0.855558 0.850950
0.484779 0.883574 0.877684
0.559564 0.909331 0.900954
0.717220 0.934264 0.923705
0.873930 0.965148 0.954742
0.979263 0.979904 0.971267
