app/src/main/assets/filters/ricoh_negative.cube
# Created from ricoh_negative.plut
LUT_3D_SIZE 9
DOMAIN_MIN 0.0 0.0 0.0
DOMAIN_MAX 1.0 1.0 1.0
0.029313 0.024048 0.025299
0.186007 0.038163 0.025574
0.401801 0.061814 0.036057
0.563684 0.108751 0.052720
0.686687 0.147967 0.033997
0.799847 0.185199 0.034958
0.873579 0.244816 0.052033
0.920577 0.293904 0.072435
0.940581 0.311818 0.087312
0.075746 0.154086 0.095186
0.137301 0.142153 0.059770
0.355932 0.143465 0.046906
0.543191 0.156497 0.049851
0.667048 0.166674 0.029099
0.759533 0.234684 0.057954
0.869276 0.256931 0.059739
0.917571 0.295781 0.072038
0.938643 0.321386 0.088685
0.058015 0.312505 0.162493
0.140703 0.286397 0.129427
0.281636 0.289342 0.117632
0.497993 0.295033 0.091020
0.648493 0.290089 0.067414
0.756359 0.323308 0.086824
0.828061 0.401923 0.122866
0.915068 0.347921 0.109483
0.936584 0.335256 0.093904
0.056321 0.480598 0.296071
0.150164 0.460746 0.258747
0.247150 0.433570 0.191928
0.433463 0.435142 0.177966
0.609659 0.440299 0.127932
0.731960 0.435645 0.101518
0.801755 0.459174 0.118944
0.891096 0.525963 0.214908
0.925734 0.502190 0.233997
0.078553 0.574289 0.379065
0.138491 0.571466 0.369009
0.304448 0.558846 0.315618
0.350149 0.546441 0.238102
0.547173 0.554467 0.230228
0.694133 0.562280 0.167010
0.800778 0.564569 0.143938
0.882078 0.576730 0.122637
0.901900 0.602136 0.133410
0.059297 0.631983 0.447608
0.111055 0.627268 0.438575
0.299321 0.615198 0.370077
0.429664 0.628382 0.303075
0.454765 0.644831 0.285054
0.636942 0.657771 0.297429
0.774685 0.672404 0.230549
0.868437 0.667659 0.198505
0.922774 0.651637 0.155230
0.075456 0.680964 0.507149
0.080583 0.681743 0.507469
0.302052 0.655146 0.408667
0.474266 0.651774 0.310567
0.494957 0.658869 0.304051
0.547234 0.677119 0.317418
0.738430 0.738048 0.351308
0.861769 0.776944 0.309270
0.923201 0.757519 0.234638
0.064927 0.725261 0.564370
0.107195 0.721798 0.554818
0.240742 0.709667 0.506294
0.479698 0.667323 0.331395
0.500954 0.661402 0.306706
0.534630 0.672602 0.311696
0.704768 0.732998 0.347921
0.885939 0.817731 0.365377
0.918105 0.833219 0.361990
0.066331 0.753552 0.598962
0.107362 0.751705 0.591577
0.217212 0.739086 0.551614
0.421805 0.700114 0.417151
0.507546 0.668788 0.316548
0.535332 0.673320 0.311467
0.687007 0.733181 0.342016
0.878492 0.816342 0.367910
0.916670 0.835264 0.372900
0.066026 0.037339 0.124941
0.199344 0.057649 0.134585
0.392081 0.089326 0.136446
0.537560 0.122667 0.132189
0.666041 0.152239 0.124346
0.766812 0.141085 0.053803
0.848280 0.180087 0.049363
0.914916 0.254582 0.075166
0.944823 0.298802 0.091890
0.067140 0.140124 0.139361
0.146380 0.144533 0.145022
0.334173 0.152956 0.139284
0.507042 0.172702 0.135943
0.643397 0.199542 0.134508
0.752193 0.193057 0.080735
0.836225 0.211734 0.047211
0.910536 0.277211 0.066896
0.942763 0.309804 0.088991
0.067048 0.267659 0.179614
0.107225 0.270970 0.178332
0.276188 0.282612 0.179782
0.475669 0.296559 0.175647
0.610788 0.319234 0.176257
0.733120 0.315969 0.142641
0.816281 0.345876 0.109407
0.903792 0.335470 0.105928
0.937255 0.334249 0.093278
0.010010 0.428580 0.257359
0.046220 0.417044 0.251011
0.234257 0.426688 0.237797
0.423270 0.429191 0.227070
0.594278 0.444999 0.226749
0.713252 0.451789 0.214725
0.813397 0.446921 0.165927
0.874128 0.496849 0.191958
0.931029 0.464073 0.221118
0.028031 0.559396 0.369207
0.055665 0.558556 0.364706
0.193194 0.559121 0.354345
0.352560 0.540002 0.295781
0.541543 0.551369 0.288380
0.685710 0.564736 0.283833
0.794583 0.566201 0.232425
0.872480 0.570565 0.174441
0.905882 0.575280 0.217670
0.054459 0.632959 0.449546
0.055024 0.628214 0.443824
0.168933 0.622965 0.428519
0.393744 0.618738 0.352880
0.459098 0.641581 0.351034
0.638209 0.655085 0.357198
0.769665 0.667521 0.323095
0.865187 0.664836 0.250538
0.923262 0.644129 0.160204
0.061936 0.694133 0.525109
0.068330 0.693141 0.523140
0.081147 0.682460 0.508049
0.413077 0.640528 0.340856
0.490700 0.658732 0.310719
0.530999 0.672328 0.315328
0.717266 0.730205 0.351568
0.851423 0.773632 0.370993
0.924788 0.750286 0.262364
0.065293 0.734722 0.576074
0.065370 0.734722 0.576043
0.072129 0.731121 0.570825
0.400580 0.681086 0.400214
0.494224 0.659342 0.309926
0.527260 0.670451 0.311833
0.679927 0.724315 0.343221
0.868101 0.808179 0.365759
0.919249 0.836698 0.372808
0.066423 0.753796 0.599252
0.067216 0.758907 0.605844
0.110094 0.756771 0.598184
0.319982 0.730343 0.509163
0.494621 0.674296 0.333883
0.528054 0.671015 0.309346
0.648753 0.716854 0.335119
0.878035 0.816693 0.370504
0.916121 0.835187 0.373800
0.121172 0.053712 0.255146
0.204791 0.070848 0.269123
0.387640 0.107805 0.271489
0.527535 0.148165 0.265232
0.649622 0.199710 0.267063
0.759716 0.252781 0.283604
0.827314 0.288060 0.273396
0.909697 0.354528 0.296315
0.939315 0.270787 0.119142
0.103639 0.144610 0.261830
0.172137 0.150469 0.260639
0.344091 0.167453 0.265339
0.516991 0.187533 0.258808
0.640116 0.223285 0.263676
0.735012 0.257481 0.263249
0.819547 0.287755 0.256275
0.900557 0.327565 0.249134
0.942718 0.269169 0.103502
0.062440 0.286793 0.290166
0.116075 0.284993 0.296559
0.297597 0.297978 0.298512
0.488304 0.308629 0.292683
0.625330 0.323156 0.285939
0.732982 0.346838 0.285679
0.815167 0.375784 0.292775
0.894560 0.391592 0.265644
0.949386 0.321462 0.108141
0.020874 0.391058 0.292302
0.065904 0.399420 0.304494
0.210498 0.423011 0.328450
0.432120 0.439597 0.328664
0.597223 0.450401 0.326497
0.702586 0.468376 0.329900
0.798138 0.483497 0.337209
0.882124 0.495262 0.313176
0.937057 0.454185 0.220859
0.024155 0.529488 0.368765
0.041413 0.525948 0.366842
0.156939 0.539864 0.379995
0.364324 0.545586 0.376379
0.549905 0.557855 0.377584
0.684627 0.571374 0.378470
0.786847 0.587045 0.390539
0.856001 0.612741 0.396109
0.921065 0.569223 0.274418
0.040650 0.636790 0.458854
0.040238 0.633936 0.453925
0.056504 0.637461 0.457465
0.272724 0.638819 0.449088
0.481773 0.648814 0.436805
0.646616 0.658427 0.437232
0.769543 0.676005 0.446464
0.867475 0.694041 0.450828
0.917128 0.684596 0.398779
0.056687 0.710582 0.547448
0.056840 0.710369 0.547112
0.069139 0.705074 0.538720
0.176593 0.671077 0.489647
0.448600 0.659236 0.413977
0.533227 0.673030 0.364050
0.698741 0.700542 0.408911
0.845853 0.756847 0.438849
0.921920 0.758129 0.424186
0.066407 0.752438 0.597665
0.066560 0.752438 0.597650
0.072602 0.750439 0.594690
0.081910 0.747768 0.590524
0.449104 0.678996 0.373114
0.515892 0.667475 0.316869
0.616510 0.699077 0.334554
0.816052 0.778256 0.366857
0.922133 0.837980 0.412665
0.070832 0.762097 0.609979
0.071031 0.765881 0.614801
0.071244 0.765957 0.614862
0.082170 0.770687 0.619608
0.362936 0.738323 0.504616
0.515373 0.667247 0.311788
0.597162 0.696925 0.325719
0.862715 0.808713 0.374487
0.915694 0.835676 0.379721
0.247959 0.112718 0.423667
0.264408 0.113176 0.414496
0.396063 0.134554 0.405600
0.551217 0.175113 0.411795
0.662348 0.228794 0.409644
0.749859 0.264744 0.414191
0.830884 0.326909 0.421103
0.891066 0.373236 0.421378
0.912184 0.377584 0.366857
0.186114 0.152697 0.374990
0.223163 0.170352 0.390661
0.361395 0.187640 0.390814
0.517128 0.205112 0.391485
0.655634 0.247318 0.400031
0.733349 0.294301 0.400839
0.814603 0.337484 0.405188
0.891875 0.385382 0.419333
0.914412 0.379828 0.363989
0.106798 0.292363 0.411704
0.150256 0.285679 0.415396
0.304799 0.299016 0.418219
0.489250 0.315511 0.414542
0.633875 0.342275 0.418647
0.730327 0.373434 0.418875
0.813001 0.410208 0.428824
0.896284 0.447456 0.436347
0.932448 0.414023 0.360601
0.133333 0.419425 0.416571
0.156313 0.420905 0.425544
0.235813 0.442695 0.455634
0.454353 0.455100 0.455299
0.605173 0.462440 0.449775
0.716274 0.474647 0.446860
0.807431 0.491096 0.444190
0.888167 0.518883 0.452567
0.948119 0.514824 0.415198
0.129580 0.544915 0.452583
0.171405 0.551171 0.467506
0.240421 0.558694 0.486442
0.375128 0.557092 0.479606
0.556542 0.565881 0.478553
0.690181 0.578103 0.480140
0.785397 0.594965 0.485863
0.874998 0.609995 0.490135
0.934859 0.590097 0.434867
0.068101 0.656306 0.520989
0.066606 0.654093 0.522591
0.104036 0.648814 0.523232
0.277958 0.645853 0.516335
0.498680 0.656031 0.520317
0.651362 0.668132 0.522560
0.775280 0.683925 0.524514
0.856657 0.701762 0.545220
0.914412 0.705440 0.535973
0.049409 0.737224 0.583627
0.048661 0.737011 0.583154
0.049943 0.739803 0.586023
0.080232 0.725978 0.568643
0.386969 0.720150 0.555352
0.592218 0.743496 0.566812
0.739254 0.760662 0.577234
0.856687 0.776944 0.585168
0.914382 0.764706 0.551003
0.062181 0.768063 0.618601
0.062730 0.768780 0.619364
0.070329 0.770886 0.621485
0.076829 0.773571 0.623743
0.114794 0.781201 0.630701
0.490654 0.751080 0.581598
0.660441 0.759396 0.568170
0.837369 0.800168 0.557702
0.916533 0.837903 0.515023
0.073014 0.773983 0.624994
0.073487 0.776410 0.627588
0.075898 0.778943 0.630304
0.086320 0.783536 0.634974
0.097551 0.788266 0.639353
0.301625 0.777249 0.587121
0.556268 0.687465 0.344717
0.755734 0.756176 0.367971
0.910384 0.834607 0.409155
0.357458 0.164736 0.522530
0.376165 0.161593 0.519478
0.445838 0.175601 0.529015
0.538918 0.206806 0.539910
0.679637 0.248814 0.539071
0.753048 0.297292 0.527382
0.815976 0.340764 0.516014
0.858808 0.363851 0.483711
0.887709 0.374075 0.448035
0.258518 0.169726 0.501686
0.278691 0.163516 0.501137
0.386496 0.191714 0.508293
0.527565 0.230655 0.511879
0.655360 0.270558 0.521233
0.751095 0.313237 0.519982
0.823514 0.357458 0.517586
0.863706 0.376333 0.484443
0.891096 0.378576 0.446723
0.198688 0.300679 0.524010
0.205539 0.300603 0.524117
0.348196 0.321660 0.521965
0.497215 0.336980 0.522164
0.640940 0.365667 0.533501
0.743984 0.389502 0.535760
0.821607 0.425284 0.525887
0.881209 0.449973 0.531304
0.906722 0.419196 0.463828
0.091630 0.439338 0.551843
0.127657 0.433234 0.544472
0.282139 0.441108 0.547143
0.462501 0.457679 0.554757
0.608255 0.469688 0.546258
0.726314 0.488792 0.552438
0.811490 0.513069 0.553613
0.887678 0.537606 0.557046
0.929564 0.540108 0.539422
0.217609 0.573022 0.579660
0.226642 0.573816 0.582452
0.279652 0.583581 0.596796
0.400336 0.570077 0.578119
0.580377 0.580896 0.580865
0.702464 0.587793 0.578408
0.802976 0.600229 0.579858
0.887068 0.616800 0.581399
0.938033 0.613275 0.559976
0.137240 0.665537 0.603067
0.157794 0.657725 0.593744
0.210819 0.656077 0.596475
0.342367 0.656870 0.595224
0.515740 0.666728 0.606485
0.666377 0.673793 0.602655
0.781079 0.690379 0.610330
0.863539 0.706355 0.617105
0.927855 0.708324 0.606790
0.018128 0.739208 0.620096
0.019242 0.742260 0.624521
0.040360 0.745403 0.629511
0.111025 0.748196 0.636988
0.375250 0.753109 0.634409
0.601999 0.763073 0.644388
0.755810 0.774945 0.650965
0.865934 0.788983 0.653803
0.917845 0.788205 0.655329
0.075456 0.782422 0.635950
0.076799 0.783185 0.636484
0.086992 0.791958 0.644923
0.106218 0.803235 0.657374
0.161212 0.818555 0.677577
0.445518 0.811582 0.667552
0.691661 0.835431 0.684108
0.837919 0.860868 0.708476
0.921996 0.858503 0.679927
0.083909 0.791730 0.645624
0.084138 0.791852 0.645731
0.088045 0.792752 0.646494
0.093965 0.796094 0.650172
0.124651 0.808438 0.663737
0.176211 0.819074 0.675242
0.583658 0.838392 0.692409
0.767681 0.871107 0.725170
0.898299 0.875013 0.683330
0.529747 0.262257 0.660838
0.539666 0.265415 0.664988
0.552590 0.257832 0.654749
0.581445 0.245350 0.639368
0.654292 0.271931 0.639353
0.739437 0.292821 0.601877
0.788602 0.336538 0.591531
0.816999 0.357824 0.559533
0.854520 0.368719 0.498512
0.394598 0.244739 0.624460
0.415915 0.240726 0.625589
0.476234 0.243793 0.632334
0.541146 0.244953 0.612848
0.669993 0.282017 0.625086
0.746288 0.301549 0.606439
0.797971 0.347860 0.588312
0.824186 0.367025 0.556649
0.857603 0.373907 0.498695
0.295567 0.327977 0.611917
0.324697 0.328679 0.612451
0.397513 0.341787 0.621775
0.517540 0.359335 0.623331
0.633066 0.381689 0.622675
0.757748 0.410178 0.632929
0.816419 0.424338 0.616678
0.844511 0.424887 0.573159
0.872450 0.408667 0.515023
0.246571 0.453849 0.628077
0.260441 0.456977 0.632349
0.342855 0.453651 0.635691
0.486336 0.474968 0.642802
0.626261 0.490455 0.645258
0.735027 0.508400 0.644755
0.822583 0.530495 0.646845
0.880980 0.540505 0.633753
0.909804 0.529244 0.591943
0.137667 0.574762 0.679927
0.160021 0.569085 0.672206
0.249516 0.568627 0.664485
0.436194 0.573953 0.661204
0.591745 0.588586 0.663706
0.719051 0.600473 0.666484
0.810773 0.617029 0.666453
0.891585 0.631220 0.663935
0.942214 0.633921 0.660883
0.179278 0.688273 0.682185
0.208774 0.681559 0.677775
0.263630 0.665843 0.674342
0.364416 0.667643 0.681865
0.541726 0.678920 0.687007
0.687098 0.687724 0.687495
0.798962 0.697551 0.687892
0.885588 0.708995 0.691188
0.948699 0.708019 0.677958
0.069551 0.755184 0.702113
0.080537 0.753491 0.700633
0.157198 0.752331 0.695018
0.253483 0.762036 0.702083
0.442542 0.762448 0.710155
0.623194 0.771115 0.712825
0.770245 0.780285 0.717159
0.870649 0.791562 0.723140
0.940627 0.793469 0.714046
0.021378 0.805112 0.679927
0.020279 0.806378 0.682231
0.060060 0.815213 0.693462
0.079026 0.826535 0.713268
0.237675 0.851041 0.736355
0.431556 0.862730 0.747860
0.677989 0.865202 0.753048
0.862593 0.882933 0.769894
0.940627 0.877790 0.760861
0.086397 0.804471 0.662440
0.089143 0.805585 0.663432
0.102403 0.809934 0.668025
0.127825 0.818082 0.677012
0.149126 0.828244 0.689601
0.253269 0.851179 0.718593
0.479042 0.885084 0.762066
0.775540 0.912917 0.783490
0.902388 0.928359 0.799588
0.581933 0.301579 0.709438
0.585504 0.298833 0.706447
0.597452 0.303731 0.710933
0.610575 0.301137 0.707530
0.624643 0.298756 0.700938
0.656931 0.294408 0.676371
0.723857 0.295308 0.618357
0.786038 0.336248 0.593408
0.813382 0.361135 0.572946
0.548074 0.313405 0.719905
0.562387 0.311574 0.719081
0.583413 0.310628 0.717967
0.602914 0.308125 0.716060
0.629633 0.301030 0.701839
0.664393 0.294575 0.668620
0.728832 0.298436 0.616724
0.789105 0.340566 0.593118
0.816846 0.364416 0.569986
0.396521 0.349477 0.713878
0.406500 0.350561 0.716793
0.416846 0.344457 0.724620
0.545876 0.343008 0.711040
0.640116 0.354147 0.712123
0.695003 0.345830 0.679484
0.760967 0.343801 0.617029
0.807111 0.378286 0.601434
0.826032 0.383413 0.574670
0.339055 0.478813 0.719661
0.345144 0.482429 0.724346
0.385443 0.485039 0.725536
0.525277 0.471901 0.719753
0.634760 0.496330 0.735073
0.750637 0.514870 0.753918
0.800244 0.503944 0.692363
0.836393 0.490898 0.655680
0.861189 0.493370 0.617853
0.200443 0.592126 0.740093
0.245396 0.594034 0.744396
0.354421 0.597223 0.755016
0.466148 0.590951 0.745327
0.622507 0.610269 0.750454
0.733791 0.617929 0.759411
0.829755 0.632425 0.753552
0.894011 0.650507 0.749752
0.917556 0.635981 0.709056
0.208576 0.641657 0.735149
0.212268 0.644007 0.736614
0.243778 0.661540 0.749432
0.415320 0.681025 0.765805
0.573190 0.689097 0.765728
0.709346 0.704051 0.771618
0.817212 0.713848 0.773800
0.897612 0.728145 0.771023
0.952163 0.724269 0.754910
0.100404 0.761975 0.763790
0.106874 0.762829 0.765499
0.159945 0.759014 0.759838
0.325322 0.753506 0.756054
0.468330 0.765957 0.774197
0.659495 0.782635 0.790265
0.788983 0.789395 0.789395
0.896071 0.803494 0.793317
0.957961 0.800076 0.783001
0.093812 0.800443 0.740581
0.102296 0.801678 0.740368
0.138445 0.813474 0.749340
0.200504 0.828168 0.762844
0.300267 0.855207 0.791150
0.450324 0.865537 0.804440
0.711513 0.879332 0.820111
0.873365 0.883589 0.823850
0.943282 0.878386 0.815976
0.100603 0.827161 0.701350
0.103746 0.828962 0.703532
0.109209 0.832151 0.708873
0.148821 0.841749 0.721553
0.244999 0.861845 0.745464
0.352621 0.887144 0.773510
0.480964 0.920867 0.814801
0.770916 0.943236 0.844556
0.933547 0.962341 0.864302
0.591150 0.316457 0.724620
0.595438 0.315312 0.723232
0.602945 0.312520 0.719921
0.611765 0.311360 0.717708
0.615045 0.308553 0.714748
0.628077 0.307942 0.709728
0.650782 0.302937 0.692073
0.709438 0.301411 0.645304
0.784451 0.335836 0.594003
0.582010 0.323049 0.730938
0.583886 0.321019 0.729381
0.591089 0.319280 0.727657
0.605127 0.314427 0.721477
0.614572 0.313039 0.719036
0.629389 0.310109 0.711254
0.653895 0.305180 0.692561
0.715679 0.304143 0.640604
0.787671 0.338598 0.593469
0.501061 0.363867 0.757397
0.510063 0.361044 0.756725
0.542153 0.350713 0.751934
0.583719 0.329961 0.737591
0.612696 0.326116 0.732601
0.630716 0.321096 0.720729
0.671138 0.317800 0.690806
0.747906 0.331365 0.634577
0.796689 0.354345 0.597955
0.445029 0.417914 0.759701
0.450492 0.418997 0.762005
0.467979 0.422568 0.772457
0.500740 0.430152 0.786313
0.672511 0.466056 0.800626
0.733745 0.475563 0.800626
0.770092 0.495979 0.797726
0.811490 0.473030 0.709209
0.818021 0.417700 0.621546
0.375494 0.598322 0.800946
0.381033 0.599100 0.802853
0.399634 0.598016 0.804547
0.495491 0.604669 0.814801
0.639216 0.607263 0.857298
0.774762 0.622232 0.862760
0.855207 0.632853 0.867399
0.889754 0.643580 0.822385
0.899275 0.636027 0.768276
0.203388 0.640192 0.779217
0.221027 0.643931 0.782620
0.318685 0.662135 0.802441
0.481071 0.690578 0.836774
0.592569 0.717052 0.865843
0.732082 0.729702 0.863874
0.849729 0.740871 0.867338
0.921706 0.752834 0.859358
0.961318 0.757107 0.845609
0.344839 0.700786 0.783932
0.368856 0.709071 0.790143
0.384924 0.713832 0.794293
0.462379 0.738033 0.819150
0.533898 0.760372 0.841642
0.685954 0.787533 0.863462
0.815702 0.810193 0.878141
0.924269 0.825742 0.882521
0.968902 0.822675 0.865202
0.131533 0.800702 0.798566
0.143862 0.804471 0.803006
0.163882 0.810651 0.811337
0.196155 0.824781 0.827390
0.273365 0.864912 0.878050
0.491341 0.875364 0.884749
0.746288 0.883330 0.889494
0.889464 0.889403 0.889479
0.973175 0.892470 0.885878
0.160967 0.835050 0.762844
0.161975 0.836133 0.761151
0.204654 0.844343 0.769177
0.239414 0.858320 0.784054
0.320821 0.881071 0.806973
0.408255 0.898589 0.832319
0.564019 0.930175 0.865751
0.763058 0.960037 0.903456
0.960601 0.977676 0.925261
0.593698 0.317220 0.725048
0.595758 0.316426 0.724346
0.600946 0.316320 0.723796
0.608499 0.313024 0.719799
0.612070 0.311604 0.717815
0.620386 0.312963 0.717510
0.628367 0.309926 0.711254
0.647059 0.307118 0.699321
0.699733 0.307973 0.663310
0.584390 0.323354 0.730983
0.588693 0.321523 0.729427
0.594720 0.322087 0.729274
0.601373 0.319417 0.726802
0.610971 0.315129 0.721187
0.620401 0.313359 0.717983
0.628397 0.311238 0.712627
0.649821 0.309606 0.699947
0.703334 0.306462 0.658137
0.558465 0.345037 0.748501
0.559152 0.344747 0.748302
0.571450 0.338827 0.744289
0.585351 0.331823 0.738399
0.603906 0.325917 0.732265
0.616663 0.324010 0.727993
0.630625 0.317220 0.717403
0.656153 0.314000 0.701671
0.720562 0.320974 0.657939
0.457420 0.384833 0.763638
0.461311 0.384573 0.764782
0.478965 0.384146 0.768612
0.515831 0.381628 0.771328
0.572381 0.369482 0.764782
0.633112 0.356130 0.749676
0.667628 0.382025 0.759930
0.724392 0.422553 0.764324
0.780591 0.417548 0.702983
0.470588 0.527794 0.802869
0.491554 0.527947 0.809918
0.531701 0.532998 0.829343
0.575799 0.546960 0.852934
0.642466 0.562676 0.867765
0.763180 0.578897 0.874861
0.808423 0.585428 0.871702
0.841001 0.594461 0.858839
0.869078 0.618891 0.857023
0.441398 0.646143 0.834104
0.448081 0.649226 0.837018
0.500877 0.669978 0.856626
0.563516 0.692088 0.881468
0.638819 0.712642 0.921691
0.756374 0.726680 0.940063
0.879133 0.720760 0.938628
0.939330 0.738506 0.936522
0.955550 0.749645 0.922942
0.323293 0.683223 0.806531
0.332860 0.686107 0.810040
0.358831 0.692882 0.817807
0.493767 0.725521 0.859617
0.598016 0.759762 0.900725
0.672953 0.783886 0.928145
0.830930 0.821317 0.955612
0.947494 0.840604 0.958862
0.991638 0.849531 0.943969
0.369207 0.818204 0.872114
0.372076 0.818662 0.873259
0.404181 0.822385 0.881758
0.463859 0.825788 0.894041
0.490318 0.832898 0.907210
0.548074 0.857038 0.939864
0.727855 0.868544 0.957549
0.905104 0.904738 0.969635
0.989105 0.913176 0.961913
0.198077 0.834638 0.822919
0.208316 0.840772 0.828687
0.208530 0.844007 0.833097
0.259251 0.858534 0.849622
0.324483 0.880797 0.877562
0.415137 0.903029 0.901839
0.600793 0.927794 0.925475
0.801236 0.958419 0.959838
0.977554 0.981018 0.980591
