app/src/main/assets/filters/ricoh_green.cube
# Created from ricoh_green.plut
LUT_3D_SIZE 5
DOMAIN_MIN 0.0 0.0 0.0
DOMAIN_MAX 1.0 1.0 1.0
0.052811 0.063752 0.058198
0.172198 0.071077 0.060975
0.492378 0.088823 0.079637
0.735943 0.144778 0.159747
0.836454 0.219883 0.263890
0.060502 0.233890 0.103410
0.172122 0.203174 0.084108
0.490944 0.185748 0.090196
0.702495 0.286748 0.166217
0.831708 0.240452 0.264500
0.158740 0.522957 0.376669
0.340200 0.508141 0.284489
0.487587 0.478996 0.145754
0.710521 0.478813 0.180682
0.815061 0.516823 0.249531
0.295506 0.593042 0.434531
0.486610 0.610391 0.309667
0.555566 0.638025 0.301183
0.724208 0.713588 0.322515
0.867948 0.682307 0.363302
0.503563 0.662303 0.406485
0.535943 0.645228 0.340917
0.644862 0.701976 0.353902
0.762310 0.766842 0.391653
0.844877 0.801785 0.418524
0.029023 0.057404 0.153155
0.186099 0.089250 0.185931
0.454780 0.130495 0.227741
0.671901 0.173114 0.292515
0.834119 0.196445 0.290059
0.059693 0.228382 0.210101
0.194446 0.229618 0.217716
0.471275 0.236469 0.240833
0.680995 0.275822 0.310964
0.848219 0.229389 0.288655
0.104158 0.475792 0.351919
0.194247 0.491890 0.372335
0.499336 0.497749 0.348318
0.703197 0.517464 0.404761
0.830426 0.480705 0.341009
0.186435 0.615442 0.501289
0.209339 0.611704 0.493050
0.536004 0.633326 0.356435
0.700206 0.683940 0.408804
0.874723 0.691402 0.392493
0.311635 0.746242 0.646296
0.357549 0.745373 0.628809
0.579614 0.657649 0.332677
0.750958 0.763729 0.399069
0.842924 0.810925 0.430442
0.164294 0.149584 0.442252
0.253819 0.161318 0.460197
0.495018 0.204761 0.495491
0.686366 0.288273 0.528130
0.812818 0.341329 0.554971
0.113893 0.278950 0.451316
0.234272 0.291646 0.456657
0.489265 0.315496 0.494850
0.686336 0.363775 0.528618
0.827466 0.400809 0.566735
0.244144 0.541192 0.554711
0.300221 0.552483 0.573434
0.533700 0.534508 0.557168
0.718364 0.545068 0.581674
0.857435 0.552316 0.609735
0.201923 0.708965 0.649104
0.220386 0.715862 0.658717
0.502129 0.723919 0.653391
0.747982 0.735576 0.665110
0.878233 0.742947 0.691707
0.304921 0.791104 0.713649
0.308949 0.795529 0.718273
0.356008 0.815900 0.734325
0.685130 0.873564 0.783215
0.890242 0.853529 0.612299
0.419959 0.306767 0.665553
0.442451 0.315343 0.676036
0.508736 0.316762 0.673747
0.664515 0.329534 0.654551
0.764523 0.379324 0.643732
0.219074 0.323873 0.619959
0.267567 0.339162 0.641718
0.502281 0.371832 0.674784
0.699184 0.412909 0.681544
0.779049 0.409537 0.656855
0.165515 0.591440 0.712825
0.296117 0.598138 0.729076
0.568566 0.589670 0.726101
0.742306 0.604761 0.746853
0.878599 0.628244 0.764157
0.249363 0.743938 0.761364
0.290425 0.740871 0.757977
0.579721 0.747631 0.770214
0.776425 0.761547 0.788693
0.918654 0.768521 0.806546
0.299916 0.805890 0.740841
0.311559 0.813153 0.747021
0.394827 0.845655 0.775845
0.701686 0.921721 0.843198
0.948989 0.958495 0.880369
0.463264 0.331914 0.693095
0.472892 0.337621 0.698085
0.498405 0.343389 0.702098
0.555200 0.349508 0.699428
0.670909 0.335470 0.654398
0.440589 0.334295 0.694026
0.451225 0.337133 0.696956
0.482963 0.344564 0.704341
0.555566 0.353887 0.703258
0.680491 0.350042 0.662333
0.415686 0.569802 0.761120
0.449928 0.573388 0.773251
0.611704 0.576898 0.824002
0.736202 0.614054 0.854368
0.814160 0.597024 0.797375
0.325872 0.684001 0.785946
0.364752 0.695460 0.798016
0.615579 0.766842 0.879423
0.804608 0.826963 0.933837
0.955856 0.849699 0.944732
0.366751 0.826825 0.824872
0.385580 0.838315 0.835096
0.484779 0.883574 0.877684
0.717220 0.934264 0.923705
0.979263 0.979904 0.971267
