app/src/main/assets/filters/ricoh_yellow.cube
# Created from ricoh_yellow.plut
LUT_3D_SIZE 5
DOMAIN_MIN 0.0 0.0 0.0
DOMAIN_MAX 1.0 1.0 1.0
0.056367 0.056886 0.055589
0.182895 0.056519 0.056931
0.531441 0.053513 0.058396
0.795529 0.045792 0.059083
0.894865 0.046143 0.067155
0.051957 0.165896 0.049439
0.165911 0.150179 0.059449
0.501671 0.097200 0.061448
0.743999 0.122499 0.067567
0.890867 0.040131 0.064714
0.115465 0.498970 0.129717
0.286183 0.459327 0.087022
0.460227 0.407584 0.065827
0.734813 0.363210 0.070619
0.859983 0.398184 0.068132
0.103258 0.718944 0.292409
0.190509 0.716564 0.290532
0.548898 0.676829 0.245136
0.732372 0.703990 0.105699
0.914275 0.647913 0.118990
0.117998 0.751247 0.325490
0.151308 0.759060 0.333608
0.412802 0.736065 0.315770
0.751247 0.772900 0.218463
0.885054 0.796780 0.130465
0.050996 0.023529 0.152621
0.177752 0.055924 0.150439
0.474723 0.062669 0.134783
0.724605 0.063279 0.134661
0.892348 0.048234 0.081224
0.049866 0.146334 0.116793
0.145998 0.147005 0.142885
0.462348 0.126131 0.136843
0.719387 0.108553 0.144930
0.905119 0.052735 0.074250
0.076280 0.415549 0.132036
0.144747 0.432288 0.151690
0.449668 0.423484 0.182132
0.715862 0.412024 0.212406
0.862547 0.308385 0.130541
0.066178 0.710460 0.287434
0.101289 0.727047 0.298634
0.477455 0.685344 0.304540
0.719692 0.705272 0.307179
0.905150 0.645411 0.150881
0.078431 0.755154 0.330526
0.090272 0.760632 0.335607
0.235584 0.765438 0.345571
0.697917 0.760403 0.278035
0.868254 0.813138 0.154406
0.141024 0.016266 0.395804
0.220539 0.012619 0.407385
0.473610 0.081147 0.416693
0.724559 0.107744 0.399847
0.859693 0.118135 0.372930
0.102235 0.146349 0.364446
0.194247 0.166903 0.386908
0.450446 0.173892 0.406943
0.711223 0.191455 0.392416
0.874220 0.171618 0.383764
0.189242 0.469917 0.397314
0.232593 0.480354 0.427497
0.463050 0.458396 0.445899
0.724620 0.433005 0.450217
0.892149 0.365621 0.431312
0.126436 0.698299 0.387198
0.150134 0.707622 0.404746
0.450233 0.714092 0.455543
0.730053 0.719890 0.513024
0.896117 0.704768 0.534356
0.068055 0.768765 0.351202
0.076234 0.773999 0.353964
0.118257 0.793896 0.376028
0.640269 0.809323 0.463981
0.900130 0.890272 0.531304
0.410834 0.089494 0.601617
0.420890 0.089433 0.602121
0.493965 0.096880 0.605203
0.746380 0.192828 0.640482
0.869368 0.185153 0.595438
0.229282 0.165316 0.591470
0.240970 0.155154 0.601266
0.487114 0.201831 0.610101
0.715435 0.261418 0.614069
0.870726 0.215000 0.578882
0.151293 0.479438 0.599252
0.258350 0.488731 0.614740
0.520424 0.485039 0.623590
0.726802 0.506065 0.636545
0.903975 0.477104 0.623392
0.203662 0.720165 0.590097
0.242283 0.716701 0.588830
0.524331 0.721553 0.622187
0.747005 0.738720 0.659480
0.941039 0.712490 0.660105
0.224933 0.804044 0.467796
0.246082 0.813001 0.484062
0.354131 0.850324 0.532601
0.662806 0.927306 0.639353
0.954650 0.957259 0.721645
0.488182 0.122683 0.645243
0.498924 0.128603 0.650004
0.547951 0.142077 0.659266
0.762081 0.248142 0.698238
0.807767 0.233371 0.674022
0.427985 0.134981 0.643778
0.464210 0.128801 0.646525
0.535409 0.148394 0.665904
0.731487 0.254307 0.704311
0.810620 0.259205 0.696651
0.446876 0.439719 0.754131
0.489479 0.457847 0.785519
0.547570 0.465431 0.806470
0.782956 0.465095 0.838773
0.892958 0.516350 0.839734
0.305943 0.611307 0.660075
0.340139 0.623682 0.676799
0.598077 0.701793 0.791257
0.797269 0.762356 0.888396
0.964935 0.795544 0.889677
0.340810 0.807736 0.643214
0.362951 0.818387 0.653651
0.480446 0.872236 0.721874
0.699489 0.927657 0.810605
0.976776 0.974365 0.925734
