app/src/main/assets/filters/ricoh_negative.cube
# Created from ricoh_negative.plut
LUT_3D_SIZE 5
DOMAIN_MIN 0.0 0.0 0.0
DOMAIN_MAX 1.0 1.0 1.0
0.029313 0.024048 0.025299
0.401801 0.061814 0.036057
0.686687 0.147967 0.033997
0.873579 0.244816 0.052033
0.940581 0.311818 0.087312
0.058015 0.312505 0.162493
0.281636 0.289342 0.117632
0.648493 0.290089 0.067414
0.828061 0.401923 0.122866
0.936584 0.335256 0.093904
0.078553 0.574289 0.379065
0.304448 0.558846 0.315618
0.547173 0.554467 0.230228
0.800778 0.564569 0.143938
0.901900 0.602136 0.133410
0.075456 0.680964 0.507149
0.302052 0.655146 0.408667
0.494957 0.658869 0.304051
0.738430 0.738048 0.351308
0.923201 0.757519 0.234638
0.066331 0.753552 0.598962
0.217212 0.739086 0.551614
0.507546 0.668788 0.316548
0.687007 0.733181 0.342016
0.916670 0.835264 0.372900
0.121172 0.053712 0.255146
0.387640 0.107805 0.271489
0.649622 0.199710 0.267063
0.827314 0.288060 0.273396
0.939315 0.270787 0.119142
0.062440 0.286793 0.290166
0.297597 0.297978 0.298512
0.625330 0.323156 0.285939
0.815167 0.375784 0.292775
0.949386 0.321462 0.108141
0.024155 0.529488 0.368765
0.156939 0.539864 0.379995
0.549905 0.557855 0.377584
0.786847 0.587045 0.390539
0.921065 0.569223 0.274418
0.056687 0.710582 0.547448
0.069139 0.705074 0.538720
0.448600 0.659236 0.413977
0.698741 0.700542 0.408911
0.921920 0.758129 0.424186
0.070832 0.762097 0.609979
0.071244 0.765957 0.614862
0.362936 0.738323 0.504616
0.597162 0.696925 0.325719
0.915694 0.835676 0.379721
0.357458 0.164736 0.522530
0.445838 0.175601 0.529015
0.679637 0.248814 0.539071
0.815976 0.340764 0.516014
0.887709 0.374075 0.448035
0.198688 0.300679 0.524010
0.348196 0.321660 0.521965
0.640940 0.365667 0.533501
0.821607 0.425284 0.525887
0.906722 0.419196 0.463828
0.217609 0.573022 0.579660
0.279652 0.583581 0.596796
0.580377 0.580896 0.580865
0.802976 0.600229 0.579858
0.938033 0.613275 0.559976
0.018128 0.739208 0.620096
0.040360 0.745403 0.629511
0.375250 0.753109 0.634409
0.755810 0.774945 0.650965
0.917845 0.788205 0.655329
0.083909 0.791730 0.645624
0.088045 0.792752 0.646494
0.124651 0.808438 0.663737
0.583658 0.838392 0.692409
0.898299 0.875013 0.683330
0.581933 0.301579 0.709438
0.597452 0.303731 0.710933
0.624643 0.298756 0.700938
0.723857 0.295308 0.618357
0.813382 0.361135 0.572946
0.396521 0.349477 0.713878
0.416846 0.344457 0.724620
0.640116 0.354147 0.712123
0.760967 0.343801 0.617029
0.826032 0.383413 0.574670
0.200443 0.592126 0.740093
0.354421 0.597223 0.755016
0.622507 0.610269 0.750454
0.829755 0.632425 0.753552
0.917556 0.635981 0.709056
0.100404 0.761975 0.763790
0.159945 0.759014 0.759838
0.468330 0.765957 0.774197
0.788983 0.789395 0.789395
0.957961 0.800076 0.783001
0.100603 0.827161 0.701350
0.109209 0.832151 0.708873
0.244999 0.861845 0.745464
0.480964 0.920867 0.814801
0.933547 0.962341 0.864302
0.593698 0.317220 0.725048
0.600946 0.316320 0.723796
0.612070 0.311604 0.717815
0.628367 0.309926 0.711254
0.699733 0.307973 0.663310
0.558465 0.345037 0.748501
0.571450 0.338827 0.744289
0.603906 0.325917 0.732265
0.630625 0.317220 0.717403
0.720562 0.320974 0.657939
0.470588 0.527794 0.802869
0.531701 0.532998 0.829343
0.642466 0.562676 0.867765
0.808423 0.585428 0.871702
0.869078 0.618891 0.857023
0.323293 0.683223 0.806531
0.358831 0.692882 0.817807
0.598016 0.759762 0.900725
0.830930 0.821317 0.955612
0.991638 0.849531 0.943969
0.198077 0.834638 0.822919
0.208530 0.844007 0.833097
0.324483 0.880797 0.877562
0.600793 0.927794 0.925475
0.977554 0.981018 0.980591
