app/src/main/assets/filters/standard.cube
# Created from standard.plut
LUT_3D_SIZE 5
DOMAIN_MIN 0.0 0.0 0.0
DOMAIN_MAX 1.0 1.0 1.0
0.000000 0.000000 0.000000
0.277821 0.002319 0.003494
0.595865 0.000000 0.000305
0.868070 0.000000 0.011841
1.000000 0.000000 0.140124
0.000000 0.218280 0.000000
0.207523 0.227771 0.000000
0.579858 0.215534 0.000000
0.862516 0.205539 0.000000
1.000000 0.208011 0.071717
0.000000 0.485145 0.000000
0.011810 0.487022 0.000000
0.468956 0.489906 0.000000
0.809689 0.481056 0.000000
1.000000 0.465003 0.000000
0.000000 0.728985 0.000000
0.000000 0.729870 0.000000
0.315663 0.732799 0.000000
0.684535 0.736950 0.000000
0.986007 0.748348 0.000000
0.000000 0.979324 0.000000
0.000000 0.980560 0.000000
0.108461 0.983337 0.000000
0.570047 0.988708 0.000000
0.881392 0.999817 0.000000
0.010788 0.000000 0.242176
0.283192 0.000000 0.260761
0.598276 0.048493 0.281849
0.865309 0.000000 0.288319
1.000000 0.036027 0.321279
0.000000 0.242313 0.243809
0.246021 0.251453 0.248020
0.580682 0.251469 0.260166
0.855772 0.267033 0.296071
1.000000 0.265431 0.319158
0.000000 0.490990 0.189502
0.049653 0.493202 0.185946
0.473274 0.496117 0.178378
0.798886 0.497658 0.220157
1.000000 0.460060 0.206836
0.000000 0.729641 0.170901
0.000000 0.730495 0.169024
0.319600 0.733547 0.158999
0.684489 0.736889 0.179797
0.988556 0.748013 0.204685
0.000000 0.979538 0.153979
0.000000 0.980880 0.155123
0.101839 0.983551 0.149660
0.572488 0.989593 0.153536
0.885023 1.000000 0.151385
0.069459 0.028855 0.547112
0.303853 0.033967 0.558114
0.588983 0.000000 0.554589
0.854582 0.029435 0.552804
1.000000 0.019120 0.564721
0.028748 0.258625 0.554162
0.301061 0.280186 0.559991
0.600214 0.269261 0.562234
0.847181 0.275776 0.549981
1.000000 0.271305 0.564324
0.000000 0.514260 0.525505
0.099931 0.513787 0.512947
0.514824 0.516793 0.514595
0.808286 0.511330 0.519173
1.000000 0.507408 0.540337
0.000000 0.741894 0.479011
0.000000 0.737255 0.457862
0.374151 0.737316 0.451774
0.705928 0.739651 0.457572
0.998215 0.744854 0.511986
0.000000 0.980316 0.447929
0.000000 0.981277 0.448493
0.139040 0.984482 0.449943
0.584344 0.992401 0.454337
0.904601 1.000000 0.441703
0.133944 0.136187 0.842329
0.344869 0.136904 0.847654
0.581155 0.080674 0.829450
0.850935 0.017899 0.817624
1.000000 0.047883 0.813794
0.222858 0.326253 0.847974
0.372290 0.323369 0.848310
0.581384 0.293889 0.826673
0.850416 0.275853 0.816800
1.000000 0.270588 0.805600
0.142153 0.527474 0.817762
0.266712 0.531243 0.812757
0.553307 0.542733 0.805371
0.817517 0.527825 0.791043
1.000000 0.513085 0.791104
0.000000 0.746304 0.746197
0.000336 0.746990 0.746670
0.376730 0.748531 0.747829
0.750835 0.754345 0.751995
1.000000 0.750851 0.773663
0.000000 0.986328 0.710521
0.000000 0.986801 0.706264
0.311238 0.990021 0.706767
0.644129 0.998886 0.713848
0.962478 1.000000 0.730144
0.192462 0.208179 1.000000
0.370336 0.207813 1.000000
0.622904 0.206409 1.000000
0.846479 0.090150 1.000000
1.000000 0.067796 1.000000
0.232944 0.360067 1.000000
0.388495 0.360159 1.000000
0.622904 0.353674 1.000000
0.847395 0.296864 1.000000
1.000000 0.282734 1.000000
0.139361 0.605005 1.000000
0.335470 0.601373 1.000000
0.588571 0.574105 1.000000
0.831357 0.565743 1.000000
1.000000 0.523445 1.000000
0.000000 0.759365 1.000000
0.004685 0.759472 1.000000
0.452995 0.769574 1.000000
0.781292 0.789380 1.000000
1.000000 0.766537 1.000000
0.000000 0.995575 1.000000
0.000000 0.996521 1.000000
0.385779 1.000000 1.000000
0.706477 1.000000 1.000000
0.995743 1.000000 0.999222
