app/src/main/assets/filters/standard.cube
# Created from standard.plut
LUT_3D_SIZE 33
DOMAIN_MIN 0.0 0.0 0.0
DOMAIN_MAX 1.0 1.0 1.0
0.000000 0.000000 0.000000
0.030594 0.000336 0.000000
0.059480 0.000610 0.000015
0.088991 0.001862 0.000824
0.121386 0.005188 0.002792
0.158755 0.006973 0.003510
0.197726 0.005417 0.003128
0.237415 0.003326 0.003159
0.277821 0.002319 0.003494
0.318044 0.001038 0.004028
0.359350 0.000351 0.004517
0.399603 0.000000 0.004150
0.439353 0.000000 0.002441
0.479164 0.000000 0.000793
0.517983 0.000000 0.000412
0.556451 0.000000 0.000351
0.595865 0.000000 0.000305
0.633036 0.000000 0.000168
0.669368 0.000000 0.000351
0.704723 0.000000 0.000931
0.739239 0.000000 0.000595
0.773602 0.000000 0.000000
0.806989 0.000000 0.000000
0.838209 0.000000 0.000824
0.868070 0.000000 0.011841
0.897261 0.000000 0.033082
0.926711 0.000000 0.054719
0.955612 0.000000 0.078004
0.982422 0.000000 0.096757
0.998230 0.000000 0.116411
0.999847 0.005798 0.132631
1.000000 0.000000 0.138552
1.000000 0.000000 0.140124
0.000000 0.028977 0.000000
0.026520 0.028458 0.000000
0.054810 0.028122 0.000000
0.084321 0.028336 0.000153
0.118029 0.030381 0.001129
0.156435 0.032959 0.002228
0.196857 0.034241 0.002823
0.237613 0.034211 0.003235
0.278096 0.033661 0.003738
0.318883 0.032364 0.004395
0.360082 0.029282 0.005051
0.400336 0.027070 0.004822
0.440040 0.022766 0.002884
0.479850 0.019287 0.000748
0.518532 0.015778 0.000275
0.557229 0.013458 0.000107
0.596307 0.011994 0.000000
0.633845 0.003189 0.000000
0.669978 0.001465 0.000000
0.705074 0.001114 0.000168
0.739773 0.000549 0.000000
0.774395 0.000046 0.000000
0.807111 0.000000 0.000000
0.838224 0.000000 0.000992
0.867887 0.000000 0.013153
0.897154 0.000046 0.034043
0.926604 0.000244 0.055680
0.955566 0.001114 0.077134
0.982498 0.004135 0.096574
0.998245 0.021942 0.117937
0.999847 0.036118 0.132219
0.999939 0.016907 0.135134
1.000000 0.016266 0.140139
0.000000 0.054429 0.000000
0.021805 0.053391 0.000000
0.048829 0.052583 0.000000
0.079728 0.052979 0.000000
0.113344 0.053727 0.000000
0.152148 0.055543 0.000137
0.192584 0.056596 0.001480
0.234318 0.057771 0.002182
0.276356 0.058656 0.003418
0.317922 0.059083 0.004196
0.360128 0.058320 0.005371
0.400793 0.056977 0.005554
0.440726 0.052674 0.003662
0.480049 0.047761 0.000809
0.518639 0.041978 0.000198
0.557702 0.033875 0.000000
0.596750 0.033616 0.000000
0.634363 0.019455 0.000000
0.670176 0.007675 0.000000
0.705699 0.004807 0.000000
0.740597 0.002686 0.000000
0.774823 0.000992 0.000000
0.807385 0.000656 0.000000
0.837980 0.001434 0.001129
0.867521 0.002686 0.014160
0.896986 0.004227 0.035401
0.925902 0.006027 0.060822
0.955138 0.012467 0.078447
0.982513 0.029648 0.096986
0.998093 0.057572 0.118837
0.999893 0.068177 0.132662
1.000000 0.052140 0.135073
1.000000 0.051377 0.140200
0.000000 0.077531 0.000000
0.014130 0.077577 0.000000
0.038987 0.076875 0.000000
0.071168 0.077684 0.000000
0.105440 0.078782 0.000000
0.142931 0.079316 0.000000
0.185489 0.079057 0.000000
0.227588 0.077760 0.000031
0.269047 0.077928 0.000626
0.311559 0.079789 0.002029
0.356039 0.083848 0.004517
0.397482 0.083665 0.005417
0.439246 0.082170 0.004120
0.479789 0.077638 0.001465
0.519249 0.074617 0.000244
0.558206 0.068452 0.000000
0.597009 0.063737 0.000000
0.634257 0.056489 0.000000
0.670237 0.045197 0.000000
0.706172 0.034424 0.000000
0.741207 0.019013 0.000000
0.775097 0.008774 0.000000
0.807233 0.009033 0.000000
0.837934 0.016388 0.001190
0.867353 0.027802 0.014572
0.896483 0.038239 0.038163
0.925185 0.053895 0.064744
0.954849 0.060853 0.079469
0.982010 0.074815 0.098207
0.998001 0.095109 0.121096
0.999893 0.092210 0.129870
1.000000 0.087877 0.134920
1.000000 0.087663 0.139864
0.000000 0.102663 0.000000
0.003861 0.102724 0.000000
0.026184 0.102480 0.000000
0.057908 0.102541 0.000000
0.092927 0.103822 0.000000
0.131304 0.105562 0.000000
0.177859 0.106615 0.000000
0.223560 0.104860 0.000000
0.264454 0.102815 0.000000
0.304860 0.102419 0.000000
0.346609 0.103243 0.000336
0.390265 0.105287 0.002289
0.434318 0.105653 0.002884
0.475792 0.101778 0.000870
0.516732 0.100252 0.000107
0.558083 0.097917 0.000000
0.597101 0.099657 0.000000
0.633982 0.096971 0.000000
0.670115 0.091997 0.000000
0.706111 0.084840 0.000000
0.741375 0.076249 0.000000
0.775204 0.067018 0.000000
0.807111 0.067063 0.000000
0.837400 0.073548 0.001465
0.866545 0.083909 0.018692
0.895918 0.091554 0.041260
0.924651 0.101793 0.067109
0.953933 0.107591 0.083787
0.981628 0.115129 0.099153
0.998047 0.123995 0.119417
0.999908 0.120546 0.126589
1.000000 0.120958 0.133913
1.000000 0.118959 0.137621
0.000000 0.129030 0.000000
0.001221 0.128969 0.000000
0.012650 0.128847 0.000000
0.043931 0.129412 0.000000
0.080217 0.130495 0.000000
0.118502 0.132631 0.000000
0.160342 0.134386 0.000000
0.210651 0.135134 0.000000
0.257267 0.133410 0.000000
0.300420 0.132128 0.000000
0.342382 0.130022 0.000000
0.383856 0.128420 0.000000
0.426551 0.128069 0.000000
0.470451 0.125841 0.000000
0.511406 0.121202 0.000000
0.552712 0.120821 0.000000
0.594247 0.124071 0.000000
0.632029 0.123995 0.000000
0.669078 0.124468 0.000000
0.705623 0.123934 0.000000
0.741115 0.118853 0.000000
0.774716 0.112566 0.000000
0.806638 0.110079 0.000000
0.836759 0.118441 0.001511
0.865919 0.128878 0.020432
0.895018 0.134401 0.044511
0.924010 0.140414 0.067643
0.953246 0.148104 0.086549
0.980591 0.145815 0.096178
0.997955 0.154330 0.117708
0.999924 0.146517 0.121813
1.000000 0.139055 0.123140
1.000000 0.142458 0.130144
0.000000 0.155749 0.000000
0.000259 0.155901 0.000000
0.003311 0.156313 0.000000
0.027955 0.157321 0.000000
0.064973 0.158663 0.000000
0.104982 0.160922 0.000000
0.145632 0.163043 0.000000
0.190616 0.164797 0.000000
0.242069 0.165484 0.000000
0.290715 0.164492 0.000000
0.337530 0.162158 0.000000
0.379797 0.159030 0.000000
0.422065 0.157046 0.000000
0.464561 0.155489 0.000000
0.506859 0.153048 0.000000
0.548318 0.151293 0.000000
0.589685 0.148104 0.000000
0.628336 0.144823 0.000000
0.664851 0.144259 0.000000
0.702586 0.144030 0.000000
0.739803 0.143404 0.000000
0.773587 0.139391 0.000000
0.805707 0.142306 0.000000
0.835935 0.151308 0.000900
0.865080 0.164462 0.018372
0.893385 0.172869 0.050553
0.923003 0.174975 0.067079
0.952499 0.175341 0.078706
0.978805 0.177127 0.094163
0.997803 0.176928 0.107668
0.999832 0.175051 0.115724
1.000000 0.167880 0.116060
1.000000 0.168887 0.122225
0.000000 0.185840 0.000000
0.000000 0.186084 0.000000
0.001205 0.186679 0.000000
0.011292 0.187366 0.000000
0.045396 0.188693 0.000000
0.089006 0.190921 0.000000
0.132387 0.192996 0.000000
0.175418 0.194766 0.000000
0.222263 0.196460 0.000000
0.274311 0.197726 0.000000
0.325032 0.196765 0.000000
0.371725 0.194553 0.000000
0.416068 0.191562 0.000000
0.458457 0.188190 0.000000
0.499702 0.186923 0.000000
0.542763 0.185458 0.000000
0.586343 0.182300 0.000000
0.626551 0.176745 0.000000
0.662898 0.172457 0.000000
0.698680 0.168673 0.000000
0.736461 0.165713 0.000000
0.772580 0.161593 0.000000
0.804196 0.164645 0.000000
0.834348 0.176928 0.000000
0.863539 0.191211 0.010681
0.892378 0.196826 0.036072
0.922179 0.200748 0.054536
0.951583 0.196262 0.059419
0.977905 0.191318 0.071351
0.997528 0.190982 0.081727
0.999557 0.194659 0.097261
1.000000 0.192294 0.102632
1.000000 0.191073 0.105669
0.000000 0.218280 0.000000
0.000000 0.218479 0.000000
0.000290 0.218753 0.000000
0.003021 0.219287 0.000000
0.025208 0.220737 0.000000
0.068620 0.222644 0.000000
0.115984 0.224552 0.000000
0.162188 0.226215 0.000000
0.207523 0.227771 0.000000
0.257115 0.229541 0.000000
0.309087 0.230304 0.000000
0.359167 0.229786 0.000000
0.405005 0.227863 0.000000
0.450187 0.224765 0.000000
0.494301 0.220951 0.000000
0.536584 0.218158 0.000000
0.579858 0.215534 0.000000
0.621775 0.211078 0.000000
0.659983 0.208743 0.000000
0.696010 0.204547 0.000000
0.732021 0.200687 0.000000
0.768673 0.197101 0.000000
0.801328 0.196063 0.000000
0.831815 0.199069 0.000000
0.862516 0.205539 0.000000
0.892592 0.212589 0.003220
0.921645 0.210071 0.009995
0.950164 0.200427 0.005859
0.977508 0.192554 0.005997
0.998199 0.197009 0.023148
0.999512 0.210895 0.069398
1.000000 0.205173 0.062791
1.000000 0.208011 0.071717
0.000000 0.251637 0.000000
0.000000 0.251804 0.000000
0.000046 0.252155 0.000000
0.001099 0.252796 0.000000
0.011612 0.253819 0.000000
0.047654 0.255222 0.000000
0.095125 0.257069 0.000000
0.143725 0.258656 0.000000
0.192737 0.260182 0.000000
0.241291 0.261555 0.000000
0.290730 0.262745 0.000000
0.344091 0.263355 0.000000
0.392996 0.262699 0.000000
0.437613 0.261250 0.000000
0.482124 0.259083 0.000000
0.528145 0.255421 0.000000
0.573968 0.250294 0.000000
0.614237 0.247913 0.000000
0.653544 0.247776 0.000000
0.691279 0.243168 0.000000
0.727382 0.238331 0.000000
0.761837 0.236149 0.000000
0.795163 0.233677 0.000000
0.827344 0.230716 0.000000
0.859785 0.227298 0.000000
0.892851 0.224643 0.000000
0.921462 0.222156 0.000000
0.950317 0.213428 0.000000
0.977188 0.211627 0.000000
0.998032 0.209537 0.000000
1.000000 0.213504 0.002152
1.000000 0.212772 0.003326
1.000000 0.214511 0.003449
0.000000 0.285801 0.000000
0.000000 0.286046 0.000000
0.000015 0.286259 0.000000
0.000305 0.286564 0.000000
0.002884 0.287373 0.000000
0.024430 0.288640 0.000000
0.071946 0.290120 0.000000
0.125200 0.291417 0.000000
0.174945 0.292729 0.000000
0.224125 0.294041 0.000000
0.274144 0.295262 0.000000
0.324926 0.295903 0.000000
0.375753 0.296193 0.000000
0.427878 0.295918 0.000000
0.472587 0.294835 0.000000
0.515602 0.293278 0.000000
0.557961 0.291081 0.000000
0.599893 0.288930 0.000000
0.642725 0.286580 0.000000
0.683253 0.282292 0.000000
0.720714 0.277440 0.000000
0.756176 0.274479 0.000000
0.789899 0.271687 0.000000
0.822446 0.268193 0.000000
0.855451 0.262959 0.000000
0.888411 0.257130 0.000000
0.920195 0.250156 0.000000
0.949340 0.246098 0.000000
0.976867 0.241535 0.000000
0.997635 0.241016 0.000000
0.999924 0.239017 0.000000
1.000000 0.235859 0.000000
1.000000 0.233829 0.000000
0.000000 0.319585 0.000000
0.000000 0.320089 0.000000
0.000000 0.320409 0.000000
0.000031 0.320745 0.000000
0.000717 0.321202 0.000000
0.004974 0.321889 0.000000
0.039002 0.322957 0.000000
0.103212 0.324437 0.000000
0.157992 0.325475 0.000000
0.206622 0.326558 0.000000
0.256260 0.327626 0.000000
0.309407 0.328389 0.000000
0.357183 0.328710 0.000000
0.406561 0.329061 0.000000
0.462455 0.329671 0.000000
0.509117 0.328542 0.000000
0.550805 0.327001 0.000000
0.590112 0.325109 0.000000
0.630976 0.322148 0.000000
0.672374 0.318090 0.000000
0.711498 0.314214 0.000000
0.748501 0.311925 0.000000
0.784298 0.308751 0.000000
0.817548 0.306203 0.000000
0.851133 0.301381 0.000000
0.883986 0.296162 0.000000
0.916670 0.289372 0.000000
0.947219 0.283314 0.000000
0.975021 0.278584 0.000000
0.997345 0.276112 0.000000
0.999908 0.274342 0.000000
1.000000 0.272984 0.000000
1.000000 0.272038 0.000000
0.000000 0.353079 0.000000
0.000000 0.353750 0.000000
0.000000 0.354116 0.000000
0.000000 0.354498 0.000000
0.000061 0.355123 0.000000
0.001312 0.355932 0.000000
0.009049 0.356451 0.000000
0.073579 0.357122 0.000000
0.135073 0.358297 0.000000
0.190219 0.359365 0.000000
0.239857 0.360327 0.000000
0.291371 0.361044 0.000000
0.341772 0.361334 0.000000
0.390005 0.361440 0.000000
0.437339 0.362142 0.000000
0.491432 0.363226 0.000000
0.541665 0.362478 0.000000
0.582666 0.361242 0.000000
0.622461 0.358038 0.000000
0.663066 0.353429 0.000000
0.702922 0.348852 0.000000
0.738338 0.348699 0.000000
0.775143 0.347539 0.000000
0.810880 0.344671 0.000000
0.844800 0.340719 0.000000
0.878492 0.335943 0.000000
0.911406 0.329946 0.000000
0.941970 0.322667 0.000000
0.971038 0.317021 0.000000
0.996063 0.313176 0.000000
0.999725 0.311101 0.000000
1.000000 0.310903 0.000000
1.000000 0.310460 0.000000
0.000000 0.387030 0.000000
0.000000 0.387228 0.000000
0.000000 0.387472 0.000000
0.000000 0.387762 0.000000
0.000015 0.388281 0.000000
0.000153 0.388952 0.000000
0.004196 0.389807 0.000000
0.041505 0.390341 0.000000
0.112734 0.391058 0.000000
0.167285 0.392157 0.000000
0.221897 0.393133 0.000000
0.273259 0.393835 0.000000
0.324834 0.394034 0.000000
0.374655 0.394202 0.000000
0.423117 0.394263 0.000000
0.468574 0.394995 0.000000
0.520272 0.396246 0.000000
0.573358 0.395529 0.000000
0.613962 0.393500 0.000000
0.652598 0.390097 0.000000
0.691646 0.385977 0.000000
0.729702 0.382666 0.000000
0.763851 0.382193 0.000000
0.799863 0.381750 0.000000
0.836393 0.378973 0.000000
0.870741 0.374990 0.000000
0.904570 0.368933 0.000000
0.936309 0.361913 0.000000
0.965759 0.356176 0.000000
0.991684 0.351949 0.000000
0.999329 0.349752 0.000000
1.000000 0.349538 0.000000
1.000000 0.349310 0.000000
0.000000 0.420294 0.000000
0.000000 0.420417 0.000000
0.000000 0.420569 0.000000
0.000000 0.420798 0.000000
0.000000 0.421256 0.000000
0.000046 0.421836 0.000000
0.001389 0.422446 0.000000
0.010056 0.423117 0.000000
0.084443 0.423575 0.000000
0.145205 0.424308 0.000000
0.201266 0.425345 0.000000
0.253208 0.426184 0.000000
0.304280 0.426673 0.000000
0.356649 0.427008 0.000000
0.406912 0.426993 0.000000
0.454154 0.427207 0.000000
0.498787 0.428260 0.000000
0.551324 0.429557 0.000000
0.599954 0.428626 0.000000
0.641337 0.426444 0.000000
0.681956 0.422385 0.000000
0.721294 0.418158 0.000000
0.756573 0.415702 0.000000
0.790204 0.413840 0.000000
0.824460 0.413291 0.000000
0.860166 0.413626 0.000000
0.895109 0.408392 0.000000
0.927840 0.402411 0.000000
0.958907 0.396567 0.000000
0.985779 0.392126 0.000000
0.998627 0.389837 0.000000
1.000000 0.388144 0.000000
1.000000 0.387381 0.000000
0.000000 0.452903 0.000000
0.000000 0.452979 0.000000
0.000000 0.453101 0.000000
0.000000 0.453437 0.000000
0.000000 0.453681 0.000000
0.000015 0.454078 0.000000
0.000183 0.454414 0.000000
0.005081 0.454978 0.000000
0.052674 0.455680 0.000000
0.123064 0.455787 0.000000
0.179156 0.456687 0.000000
0.230671 0.457969 0.000000
0.282033 0.458732 0.000000
0.335744 0.459052 0.000000
0.390112 0.458900 0.000000
0.438209 0.458915 0.000000
0.483284 0.459388 0.000000
0.528099 0.460472 0.000000
0.579202 0.461692 0.000000
0.626093 0.460395 0.000000
0.668315 0.458610 0.000000
0.709163 0.455222 0.000000
0.749401 0.450477 0.000000
0.785138 0.446921 0.000000
0.817243 0.445747 0.000000
0.849165 0.447196 0.000000
0.882856 0.448219 0.000000
0.916075 0.444404 0.000000
0.948150 0.438819 0.000000
0.977035 0.433555 0.000000
0.997208 0.430762 0.000000
0.999817 0.428443 0.000000
1.000000 0.425284 0.000000
0.000000 0.485145 0.000000
0.000000 0.485130 0.000000
0.000000 0.485222 0.000000
0.000000 0.485496 0.000000
0.000000 0.485603 0.000000
0.000000 0.485756 0.000000
0.000061 0.486076 0.000000
0.001831 0.486488 0.000000
0.011810 0.487022 0.000000
0.103090 0.487480 0.000000
0.164752 0.487953 0.000000
0.213825 0.488411 0.000000
0.262440 0.489448 0.000000
0.312276 0.489754 0.000000
0.368887 0.490013 0.000000
0.423575 0.489677 0.000000
0.468956 0.489906 0.000000
0.512673 0.490593 0.000000
0.556710 0.492012 0.000000
0.605234 0.493507 0.000000
0.652552 0.492302 0.000000
0.694728 0.490715 0.000000
0.733989 0.487984 0.000000
0.773709 0.483970 0.000000
0.809689 0.481056 0.000000
0.839918 0.482155 0.000000
0.870909 0.484474 0.000000
0.902266 0.485344 0.000000
0.933944 0.482689 0.000000
0.963928 0.478080 0.000000
0.989914 0.473060 0.000000
0.999115 0.468986 0.000000
1.000000 0.465003 0.000000
0.000000 0.516823 0.000000
0.000000 0.516854 0.000000
0.000000 0.516915 0.000000
0.000000 0.516991 0.000000
0.000000 0.517098 0.000000
0.000000 0.517159 0.000000
0.000015 0.517342 0.000000
0.000229 0.517479 0.000000
0.006500 0.517800 0.000000
0.074952 0.518273 0.000000
0.145830 0.518700 0.000000
0.197040 0.518578 0.000000
0.244739 0.519554 0.000000
0.292760 0.520226 0.000000
0.341482 0.520409 0.000000
0.395590 0.520317 0.000000
0.453651 0.520241 0.000000
0.497292 0.520272 0.000000
0.539971 0.521569 0.000000
0.584848 0.523445 0.000000
0.632059 0.524407 0.000000
0.678157 0.523873 0.000000
0.720729 0.521736 0.000000
0.758083 0.520272 0.000000
0.795315 0.518578 0.000000
0.828031 0.518166 0.000000
0.857359 0.520241 0.000000
0.887358 0.522301 0.000000
0.919554 0.522774 0.000000
0.950469 0.520928 0.000000
0.978668 0.515908 0.000000
0.997604 0.509163 0.000000
1.000000 0.505608 0.000000
0.000000 0.547662 0.000000
0.000000 0.547539 0.000000
0.000000 0.547585 0.000000
0.000000 0.547524 0.000000
0.000000 0.547723 0.000000
0.000000 0.547875 0.000000
0.000000 0.548013 0.000000
0.000092 0.548165 0.000000
0.002701 0.548211 0.000000
0.016922 0.548501 0.000000
0.118791 0.549142 0.000000
0.179431 0.549493 0.000000
0.228611 0.549783 0.000000
0.274266 0.550256 0.000000
0.320150 0.550942 0.000000
0.367132 0.550408 0.000000
0.425025 0.550866 0.000000
0.482017 0.550256 0.000000
0.525414 0.550286 0.000000
0.566995 0.551934 0.000000
0.611398 0.553643 0.000000
0.658335 0.554696 0.000000
0.704204 0.554604 0.000000
0.743099 0.553948 0.000000
0.780667 0.552819 0.000000
0.816419 0.552163 0.000000
0.848081 0.553399 0.000000
0.877516 0.555093 0.000000
0.906783 0.557122 0.000000
0.937392 0.558312 0.000000
0.966888 0.555459 0.000000
0.990845 0.549187 0.000000
1.000000 0.544533 0.000000
0.000000 0.577905 0.000000
0.000000 0.577935 0.000000
0.000000 0.577981 0.000000
0.000000 0.578073 0.000000
0.000000 0.578180 0.000000
0.000000 0.578363 0.000000
0.000000 0.578393 0.000000
0.000015 0.578470 0.000000
0.000427 0.578592 0.000000
0.006867 0.578897 0.000000
0.073274 0.579324 0.000000
0.151385 0.579660 0.000000
0.203098 0.579812 0.000000
0.254185 0.580163 0.000000
0.301320 0.580758 0.000000
0.350027 0.581613 0.000000
0.396933 0.581765 0.000000
0.451133 0.581201 0.000000
0.510582 0.580362 0.000000
0.553017 0.580575 0.000000
0.593088 0.581842 0.000000
0.637034 0.583474 0.000000
0.683207 0.584833 0.000000
0.727016 0.585443 0.000000
0.766125 0.585275 0.000000
0.803769 0.584802 0.000000
0.837842 0.585458 0.000000
0.869413 0.586664 0.000000
0.898009 0.588342 0.000000
0.926909 0.589883 0.000000
0.957290 0.590173 0.000000
0.984222 0.586343 0.000000
1.000000 0.583398 0.000000
0.000000 0.608270 0.000000
0.000000 0.608316 0.000000
0.000000 0.608392 0.000000
0.000000 0.608484 0.000000
0.000000 0.608698 0.000000
0.000000 0.608789 0.000000
0.000000 0.608865 0.000000
0.000000 0.609033 0.000000
0.000092 0.609277 0.000000
0.002838 0.609552 0.000000
0.021180 0.609827 0.000000
0.123430 0.610132 0.000000
0.188800 0.610452 0.000000
0.244266 0.610956 0.000000
0.291829 0.611368 0.000000
0.334844 0.611765 0.000000
0.377798 0.612329 0.000000
0.420401 0.612451 0.000000
0.473503 0.611658 0.000000
0.535668 0.609979 0.000000
0.579095 0.610163 0.000000
0.619455 0.611627 0.000000
0.662989 0.613428 0.000000
0.707073 0.614862 0.000000
0.751217 0.616052 0.000000
0.790005 0.616678 0.000000
0.825360 0.617380 0.000000
0.859190 0.618235 0.000000
0.891417 0.619074 0.000000
0.920897 0.620188 0.000000
0.950332 0.620874 0.000000
0.978088 0.620111 0.000000
1.000000 0.618753 0.000000
0.000000 0.638758 0.000000
0.000000 0.638819 0.000000
0.000000 0.638880 0.000000
0.000000 0.638987 0.000000
0.000000 0.639094 0.000000
0.000000 0.639155 0.000000
0.000000 0.639277 0.000000
0.000000 0.639490 0.000000
0.000031 0.639734 0.000000
0.000549 0.639994 0.000000
0.007889 0.640192 0.000000
0.095827 0.640543 0.000000
0.172839 0.640879 0.000000
0.228458 0.640940 0.000000
0.277485 0.641215 0.000000
0.320531 0.641444 0.000000
0.360937 0.641733 0.000000
0.401541 0.641749 0.000000
0.445548 0.641657 0.000000
0.496086 0.641444 0.000000
0.560174 0.640070 0.000000
0.605783 0.640345 0.000000
0.645808 0.641901 0.000000
0.687327 0.643488 0.000000
0.731868 0.645426 0.000000
0.774884 0.647333 0.000000
0.812070 0.648676 0.000000
0.847715 0.649699 0.000000
0.882322 0.650599 0.000000
0.913924 0.651087 0.000000
0.944091 0.651667 0.000000
0.972625 0.652079 0.000000
1.000000 0.652461 0.000000
0.000000 0.668940 0.000000
0.000000 0.669001 0.000000
0.000000 0.669093 0.000000
0.000000 0.669184 0.000000
0.000000 0.669276 0.000000
0.000000 0.669230 0.000000
0.000000 0.669368 0.000000
0.000000 0.669444 0.000000
0.000000 0.669673 0.000000
0.000122 0.669780 0.000000
0.003433 0.669871 0.000000
0.025925 0.670054 0.000000
0.139071 0.670405 0.000000
0.203220 0.670603 0.000000
0.254093 0.670573 0.000000
0.299657 0.670771 0.000000
0.343526 0.671199 0.000000
0.384741 0.671672 0.000000
0.425254 0.672145 0.000000
0.468101 0.672190 0.000000
0.519020 0.672358 0.000000
0.582589 0.671427 0.000000
0.630381 0.671946 0.000000
0.670451 0.673350 0.000000
0.712840 0.675059 0.000000
0.756268 0.676768 0.000000
0.797406 0.678569 0.000000
0.835203 0.680186 0.000000
0.871046 0.681910 0.000000
0.905028 0.683131 0.000000
0.936339 0.683665 0.000000
0.967208 0.683894 0.000000
0.996979 0.684016 0.000000
0.000000 0.698939 0.000000
0.000000 0.698985 0.000000
0.000000 0.699031 0.000000
0.000000 0.699107 0.000000
0.000000 0.699199 0.000000
0.000000 0.699351 0.000000
0.000000 0.699504 0.000000
0.000000 0.699611 0.000000
0.000000 0.699641 0.000000
0.000031 0.699840 0.000000
0.000717 0.699916 0.000000
0.007858 0.700114 0.000000
0.102098 0.700343 0.000000
0.180148 0.700603 0.000000
0.233875 0.700832 0.000000
0.284947 0.701274 0.000000
0.329061 0.701717 0.000000
0.372061 0.702373 0.000000
0.412802 0.702968 0.000000
0.452567 0.703456 0.000000
0.493919 0.703975 0.000000
0.539117 0.704173 0.000000
0.605753 0.704082 0.000000
0.657389 0.704799 0.000000
0.698009 0.705669 0.000000
0.737896 0.706523 0.000000
0.778424 0.707729 0.000000
0.817639 0.709392 0.000000
0.857145 0.712108 0.000000
0.893980 0.714580 0.000000
0.928252 0.715511 0.000000
0.960433 0.716167 0.000000
0.991791 0.716442 0.000000
0.000000 0.728985 0.000000
0.000000 0.729030 0.000000
0.000000 0.729091 0.000000
0.000000 0.729152 0.000000
0.000000 0.729137 0.000000
0.000000 0.729274 0.000000
0.000000 0.729442 0.000000
0.000000 0.729656 0.000000
0.000000 0.729870 0.000000
0.000000 0.730083 0.000000
0.000107 0.730358 0.000000
0.002960 0.730587 0.000000
0.017197 0.730800 0.000000
0.140734 0.731289 0.000000
0.210147 0.731716 0.000000
0.266148 0.732189 0.000000
0.315663 0.732799 0.000000
0.357641 0.733379 0.000000
0.398062 0.733867 0.000000
0.436744 0.734447 0.000000
0.477211 0.735225 0.000000
0.518898 0.735821 0.000000
0.563851 0.736248 0.000000
0.631510 0.736522 0.000000
0.684535 0.736950 0.000000
0.723217 0.737697 0.000000
0.762158 0.738415 0.000000
0.800626 0.739544 0.000000
0.837140 0.741085 0.000000
0.876417 0.743420 0.000000
0.916243 0.746166 0.000000
0.953109 0.747799 0.000000
0.986007 0.748348 0.000000
0.000000 0.759747 0.000000
0.000000 0.759777 0.000000
0.000000 0.759838 0.000000
0.000000 0.759915 0.000000
0.000000 0.760067 0.000000
0.000000 0.760113 0.000000
0.000000 0.760327 0.000000
0.000000 0.760525 0.000000
0.000000 0.760693 0.000000
0.000000 0.760922 0.000000
0.000031 0.761212 0.000000
0.000412 0.761501 0.000000
0.006989 0.761883 0.000000
0.093874 0.762280 0.000000
0.185977 0.762814 0.000000
0.248295 0.763363 0.000000
0.298665 0.763851 0.000000
0.343969 0.764416 0.000000
0.386145 0.764965 0.000000
0.426841 0.765530 0.000000
0.465888 0.766247 0.000000
0.504692 0.766918 0.000000
0.545434 0.767651 0.000000
0.588052 0.768429 0.000000
0.656214 0.768841 0.000000
0.710460 0.769238 0.000000
0.750118 0.769924 0.000000
0.787121 0.770687 0.000000
0.823545 0.771588 0.000000
0.858473 0.772915 0.000000
0.898421 0.774670 0.000000
0.940902 0.777600 0.000000
0.976516 0.778790 0.000000
0.000000 0.790723 0.000000
0.000000 0.790768 0.000000
0.000000 0.790814 0.000000
0.000000 0.790906 0.000000
0.000000 0.791089 0.000000
0.000000 0.791211 0.000000
0.000000 0.791363 0.000000
0.000000 0.791592 0.000000
0.000000 0.791806 0.000000
0.000000 0.792081 0.000000
0.000000 0.792355 0.000000
0.000092 0.792660 0.000000
0.002655 0.793088 0.000000
0.012192 0.793408 0.000000
0.151797 0.793912 0.000000
0.221302 0.794385 0.000000
0.276310 0.794873 0.000000
0.324376 0.795422 0.000000
0.372702 0.796017 0.000000
0.412879 0.796628 0.000000
0.454826 0.797284 0.000000
0.493645 0.797986 0.000000
0.531731 0.798749 0.000000
0.571206 0.799634 0.000000
0.614771 0.800534 0.000000
0.673655 0.801251 0.000000
0.733593 0.801831 0.000000
