app/src/main/assets/filters/standard.cube
# Created from standard.plut
LUT_3D_SIZE 9
DOMAIN_MIN 0.0 0.0 0.0
DOMAIN_MAX 1.0 1.0 1.0
0.000000 0.000000 0.000000
0.121386 0.005188 0.002792
0.277821 0.002319 0.003494
0.439353 0.000000 0.002441
0.595865 0.000000 0.000305
0.739239 0.000000 0.000595
0.868070 0.000000 0.011841
0.982422 0.000000 0.096757
1.000000 0.000000 0.140124
0.000000 0.102663 0.000000
0.092927 0.103822 0.000000
0.264454 0.102815 0.000000
0.434318 0.105653 0.002884
0.597101 0.099657 0.000000
0.741375 0.076249 0.000000
0.866545 0.083909 0.018692
0.981628 0.115129 0.099153
1.000000 0.118959 0.137621
0.000000 0.218280 0.000000
0.025208 0.220737 0.000000
0.207523 0.227771 0.000000
0.405005 0.227863 0.000000
0.579858 0.215534 0.000000
0.732021 0.200687 0.000000
0.862516 0.205539 0.000000
0.977508 0.192554 0.005997
1.000000 0.208011 0.071717
0.000000 0.353079 0.000000
0.000061 0.355123 0.000000
0.135073 0.358297 0.000000
0.341772 0.361334 0.000000
0.541665 0.362478 0.000000
0.702922 0.348852 0.000000
0.844800 0.340719 0.000000
0.971038 0.317021 0.000000
1.000000 0.310460 0.000000
0.000000 0.485145 0.000000
0.000000 0.485603 0.000000
0.011810 0.487022 0.000000
0.262440 0.489448 0.000000
0.468956 0.489906 0.000000
0.652552 0.492302 0.000000
0.809689 0.481056 0.000000
0.933944 0.482689 0.000000
1.000000 0.465003 0.000000
0.000000 0.608270 0.000000
0.000000 0.608698 0.000000
0.000092 0.609277 0.000000
0.188800 0.610452 0.000000
0.377798 0.612329 0.000000
0.579095 0.610163 0.000000
0.751217 0.616052 0.000000
0.891417 0.619074 0.000000
1.000000 0.618753 0.000000
0.000000 0.728985 0.000000
0.000000 0.729137 0.000000
0.000000 0.729870 0.000000
0.017197 0.730800 0.000000
0.315663 0.732799 0.000000
0.477211 0.735225 0.000000
0.684535 0.736950 0.000000
0.837140 0.741085 0.000000
0.986007 0.748348 0.000000
0.000000 0.853300 0.000000
0.000000 0.853590 0.000000
0.000000 0.854231 0.000000
0.000076 0.855451 0.000000
0.233753 0.857298 0.000000
0.433021 0.859648 0.000000
0.587228 0.863233 0.000000
0.767880 0.866972 0.000000
0.921691 0.869337 0.000000
0.000000 0.979324 0.000000
0.000000 0.979767 0.000000
0.000000 0.980560 0.000000
0.000000 0.981659 0.000000
0.108461 0.983337 0.000000
0.394781 0.985733 0.000000
0.570047 0.988708 0.000000
0.727626 0.993576 0.000000
0.881392 0.999817 0.000000
0.000351 0.001587 0.119951
0.127794 0.002808 0.124056
0.279988 0.005905 0.132830
0.441093 0.026444 0.140444
0.595926 0.059236 0.147387
0.737804 0.038895 0.152087
0.867689 0.000000 0.147204
0.982452 0.000000 0.184573
1.000000 0.003723 0.211933
0.000000 0.109697 0.108492
0.110613 0.114992 0.111910
0.266636 0.115175 0.115160
0.434272 0.123049 0.129717
0.597436 0.120073 0.134615
0.742031 0.097673 0.131106
0.866041 0.097261 0.150942
0.982422 0.120699 0.185321
1.000000 0.131838 0.211978
0.000000 0.223346 0.094591
0.028290 0.228641 0.088273
0.220188 0.235325 0.083619
0.408499 0.234424 0.092790
0.578424 0.230167 0.110674
0.733928 0.213733 0.113390
0.861921 0.228794 0.139254
0.975357 0.235004 0.168582
1.000000 0.231113 0.184405
0.000000 0.354879 0.069596
0.000061 0.357183 0.063279
0.142153 0.360891 0.049928
0.346151 0.364309 0.047333
0.544167 0.366629 0.077195
0.703136 0.356237 0.083833
0.846418 0.341848 0.070375
0.972152 0.317632 0.045899
1.000000 0.312551 0.031724
0.000000 0.485756 0.066590
0.000000 0.486122 0.067811
0.013321 0.487846 0.050935
0.266178 0.490715 0.011398
0.473579 0.490517 0.023407
0.656748 0.494011 0.043473
0.810254 0.482963 0.049485
0.935012 0.482170 0.027131
1.000000 0.463233 0.005570
0.000000 0.608652 0.039322
0.000000 0.608927 0.033677
0.000107 0.609583 0.021805
0.193973 0.610895 0.011215
0.380758 0.612573 0.002182
0.580911 0.610040 0.006226
0.755322 0.616983 0.017227
0.892210 0.619425 0.004730
1.000000 0.619013 0.112078
0.000000 0.729229 0.002213
0.000000 0.729351 0.001740
0.000000 0.730037 0.001007
0.016983 0.730999 0.000305
0.315541 0.732967 0.000198
0.476097 0.735424 0.000183
0.683482 0.736843 0.004242
0.843397 0.742229 0.003494
0.986770 0.748394 0.001938
0.000000 0.853407 0.000107
0.000000 0.853635 0.000107
0.000000 0.854322 0.000107
0.000076 0.855543 0.000107
0.233082 0.857343 0.000122
0.432929 0.859663 0.000137
0.586801 0.863355 0.000122
0.770382 0.867079 0.000595
0.921111 0.869749 0.004288
0.000000 0.979416 0.000061
0.000000 0.979843 0.000061
0.000000 0.980652 0.000061
0.000000 0.981735 0.000046
0.110674 0.983337 0.000015
0.394430 0.985901 0.000015
0.571099 0.988937 0.000015
0.727764 0.993713 0.000015
0.881315 0.999939 0.000015
0.010788 0.000000 0.242176
0.143069 0.000000 0.260182
0.283192 0.000000 0.260761
0.438544 0.000000 0.269657
0.598276 0.048493 0.281849
0.736049 0.058274 0.287449
0.865309 0.000000 0.288319
0.978912 0.002045 0.306920
1.000000 0.036027 0.321279
0.015717 0.114168 0.249485
0.128954 0.119142 0.256535
0.288045 0.125597 0.263508
0.442237 0.123842 0.271534
0.602197 0.141741 0.278126
0.736278 0.160067 0.286351
0.863401 0.137972 0.294011
0.979126 0.134707 0.307301
1.000000 0.145495 0.321660
0.000000 0.242313 0.243809
0.081590 0.245090 0.246174
0.246021 0.251453 0.248020
0.414343 0.248814 0.247410
0.580682 0.251469 0.260166
0.725628 0.258350 0.275044
0.855772 0.267033 0.296071
0.969696 0.275441 0.317464
1.000000 0.265431 0.319158
0.000000 0.365148 0.208026
0.000504 0.367056 0.209049
0.167712 0.371252 0.212024
0.360082 0.375433 0.211994
0.545129 0.375662 0.218662
0.696223 0.371359 0.234699
0.838392 0.368200 0.254337
0.964355 0.353674 0.259770
1.000000 0.324025 0.228000
0.000000 0.490990 0.189502
0.000000 0.491691 0.188434
0.049653 0.493202 0.185946
0.281178 0.495995 0.182208
0.473274 0.496117 0.178378
0.650980 0.498955 0.193713
0.798886 0.497658 0.220157
0.933791 0.486015 0.224628
1.000000 0.460060 0.206836
0.000000 0.610269 0.188312
0.000000 0.610361 0.187579
0.000198 0.610758 0.184588
0.208743 0.612482 0.169924
0.391196 0.613855 0.158923
0.578470 0.612406 0.159640
0.754147 0.620478 0.189319
0.888258 0.625116 0.225513
1.000000 0.618158 0.242588
0.000000 0.729641 0.170901
0.000000 0.729885 0.170565
0.000000 0.730495 0.169024
0.026398 0.731518 0.164782
0.319600 0.733547 0.158999
0.485161 0.736065 0.151827
0.684489 0.736889 0.179797
0.847745 0.745205 0.192416
0.988556 0.748013 0.204685
0.000000 0.853544 0.155550
0.000000 0.853864 0.155093
0.000000 0.854658 0.155261
0.000092 0.855741 0.155047
0.234302 0.857435 0.158968
0.433890 0.859724 0.162783
0.586175 0.863203 0.161624
0.778988 0.867216 0.175906
0.926360 0.870512 0.194171
0.000000 0.979538 0.153979
0.000000 0.979934 0.155062
0.000000 0.980880 0.155123
0.000000 0.981903 0.153109
0.101839 0.983551 0.149660
0.393179 0.986069 0.150591
0.572488 0.989593 0.153536
0.729625 0.995087 0.152682
0.885023 1.000000 0.151385
0.033463 0.000000 0.394263
0.163195 0.003265 0.406027
0.284932 0.000168 0.402808
0.440589 0.000000 0.408209
0.598352 0.000000 0.413046
0.735470 0.055924 0.418738
0.860197 0.034638 0.425895
0.976272 0.027787 0.434470
1.000000 0.033936 0.441077
0.057176 0.124453 0.404486
0.169574 0.138796 0.413214
0.285573 0.132128 0.408850
0.444617 0.123140 0.411612
0.597345 0.118669 0.417853
0.732509 0.150332 0.415564
0.858976 0.153384 0.425345
0.972030 0.147463 0.436637
1.000000 0.148775 0.441978
0.000000 0.250553 0.405814
0.108019 0.252750 0.407630
0.255924 0.256306 0.404089
0.441352 0.261860 0.416403
0.592081 0.260990 0.413107
0.719173 0.263600 0.408530
0.854520 0.280873 0.422324
0.967025 0.275731 0.439796
1.000000 0.274083 0.443717
0.000000 0.383322 0.392645
0.055375 0.383917 0.390677
0.207401 0.386069 0.386969
0.388067 0.391363 0.388083
0.549020 0.387839 0.386542
0.700908 0.386831 0.395193
0.836179 0.389120 0.409308
0.955642 0.388540 0.420356
1.000000 0.368811 0.406348
0.000000 0.499657 0.341970
0.000000 0.500359 0.343389
0.117571 0.501472 0.344305
0.306432 0.503166 0.348623
0.491783 0.504402 0.345968
0.656001 0.503929 0.351690
0.800168 0.502998 0.364462
0.926162 0.508003 0.393347
1.000000 0.468559 0.363729
0.000000 0.615137 0.319417
0.000000 0.614847 0.317540
0.002396 0.615045 0.315557
0.236744 0.615839 0.317403
0.408942 0.616587 0.319219
0.590631 0.616464 0.317922
0.755108 0.623743 0.336461
0.889281 0.628748 0.368170
1.000000 0.625711 0.398215
0.000000 0.730755 0.309361
0.000000 0.730999 0.309117
0.000000 0.731548 0.307210
0.088792 0.732677 0.305898
0.340414 0.734508 0.304311
0.508370 0.736278 0.308324
0.684413 0.737407 0.314626
0.853971 0.746807 0.342718
0.993423 0.746883 0.382528
0.000000 0.853986 0.307408
0.000000 0.854292 0.307317
0.000000 0.854932 0.308064
0.000153 0.856016 0.308659
0.239216 0.857572 0.311284
0.441047 0.859739 0.314534
0.600549 0.862730 0.318898
0.774624 0.867674 0.323201
0.947372 0.872129 0.343084
0.000000 0.979889 0.313619
0.000000 0.980362 0.313619
0.000000 0.981033 0.314015
0.000000 0.982177 0.312764
0.104372 0.983886 0.313375
0.396338 0.986679 0.315038
0.575341 0.990555 0.316777
0.735607 0.997436 0.319509
0.889815 1.000000 0.312718
0.069459 0.028855 0.547112
0.178759 0.036164 0.553857
0.303853 0.033967 0.558114
0.436896 0.000000 0.549737
0.588983 0.000000 0.554589
0.731594 0.000000 0.559838
0.854582 0.029435 0.552804
0.974472 0.053864 0.561532
1.000000 0.019120 0.564721
0.071809 0.137179 0.551156
0.189090 0.157519 0.561364
0.307652 0.156268 0.562081
0.438743 0.132265 0.553399
0.594354 0.122927 0.556710
0.731228 0.118730 0.561242
0.853590 0.150134 0.552712
0.971923 0.157183 0.562173
1.000000 0.144198 0.565316
0.028748 0.258625 0.554162
0.150881 0.264897 0.557153
0.301061 0.280186 0.559991
0.438392 0.273304 0.559228
0.600214 0.269261 0.562234
0.730526 0.267338 0.561715
0.847181 0.275776 0.549981
0.965713 0.271595 0.558633
1.000000 0.271305 0.564324
0.000000 0.385428 0.532097
0.086320 0.386770 0.538705
0.230854 0.388510 0.541161
0.400397 0.393698 0.539101
0.566064 0.394720 0.541955
0.707027 0.396536 0.540734
0.832441 0.397574 0.542535
0.954543 0.395315 0.550042
1.000000 0.392233 0.554009
0.000000 0.514260 0.525505
0.004410 0.514183 0.523659
0.099931 0.513787 0.512947
0.342519 0.512963 0.511925
0.514824 0.516793 0.514595
0.664332 0.511589 0.511681
0.808286 0.511330 0.519173
0.936797 0.514900 0.535988
1.000000 0.507408 0.540337
0.000000 0.622339 0.486412
0.000000 0.622553 0.486091
0.002838 0.622644 0.483986
0.242222 0.621637 0.479438
0.433783 0.621073 0.476905
0.608835 0.622385 0.475593
0.764965 0.628199 0.485557
0.902449 0.629541 0.503059
1.000000 0.629664 0.524224
0.000000 0.741894 0.479011
0.000000 0.741176 0.475425
0.000000 0.737255 0.457862
0.172839 0.736049 0.450446
0.374151 0.737316 0.451774
0.530449 0.738735 0.454429
0.705928 0.739651 0.457572
0.863005 0.748379 0.482033
0.998215 0.744854 0.511986
0.000000 0.854856 0.439841
0.000000 0.855085 0.439780
0.000000 0.855695 0.440513
0.002197 0.856794 0.441169
0.277592 0.858595 0.443244
0.467720 0.860761 0.445487
0.625696 0.863752 0.447715
0.802182 0.866804 0.454353
0.984100 0.870085 0.496345
0.000000 0.980316 0.447929
0.000000 0.980713 0.448463
0.000000 0.981277 0.448493
0.000000 0.982589 0.448997
0.139040 0.984482 0.449943
0.410803 0.987915 0.451682
0.584344 0.992401 0.454337
0.741115 0.999649 0.459113
0.904601 1.000000 0.441703
0.093568 0.083299 0.698314
0.194949 0.086427 0.702525
0.323552 0.087358 0.706340
0.449683 0.073915 0.703166
0.581109 0.019501 0.694575
0.728222 0.000000 0.692363
0.852750 0.001144 0.689845
0.975128 0.040986 0.687175
1.000000 0.024018 0.690013
0.125261 0.183413 0.707256
0.213535 0.183932 0.708827
0.330098 0.182589 0.709636
0.453086 0.176226 0.706020
0.581720 0.147127 0.694911
0.727749 0.133059 0.692439
0.852094 0.138872 0.689464
0.974380 0.151736 0.686519
1.000000 0.142153 0.688014
0.140810 0.292149 0.702129
0.235019 0.304021 0.710124
0.340948 0.311223 0.713725
0.456062 0.297185 0.704906
0.582895 0.280522 0.695735
0.727169 0.272328 0.690944
0.851087 0.273869 0.688838
0.969619 0.275059 0.682963
1.000000 0.269444 0.685496
0.076829 0.395804 0.686946
0.153964 0.396567 0.687022
0.270237 0.400687 0.683452
0.431556 0.413840 0.687098
0.573831 0.412879 0.689830
0.724346 0.407950 0.689281
0.847257 0.407202 0.685557
0.951720 0.398398 0.674205
1.000000 0.390509 0.673167
0.000000 0.513725 0.656550
0.046281 0.513725 0.657557
0.195377 0.513802 0.663066
0.361517 0.517372 0.661387
0.521126 0.519722 0.656580
0.677379 0.518807 0.656107
0.815045 0.521660 0.658000
0.937087 0.520195 0.666682
1.000000 0.510903 0.666941
0.000000 0.631464 0.643519
0.000107 0.631159 0.642496
0.006607 0.627985 0.628305
0.246006 0.629419 0.627634
0.467124 0.630259 0.630701
0.631800 0.632654 0.632074
0.778851 0.633234 0.633997
0.918166 0.633524 0.645289
1.000000 0.624826 0.664973
0.000000 0.745159 0.616953
0.000000 0.745449 0.617594
0.000000 0.746136 0.618738
0.082460 0.747082 0.619806
0.399496 0.743404 0.604929
0.557656 0.742977 0.600671
0.729183 0.745251 0.603693
0.875685 0.750393 0.613840
1.000000 0.747326 0.629221
0.000000 0.865049 0.607691
0.000000 0.864622 0.605188
0.000000 0.862287 0.593988
0.068147 0.860899 0.584939
0.347723 0.861021 0.579675
0.510719 0.862654 0.580102
0.658137 0.865339 0.581491
0.824582 0.867567 0.586496
0.995346 0.864256 0.626627
0.000000 0.981582 0.574777
0.000000 0.981827 0.574762
0.000000 0.983047 0.575448
0.000076 0.984314 0.575647
0.212894 0.987030 0.577096
0.436225 0.990631 0.580285
0.606088 0.996689 0.585122
0.758846 1.000000 0.591211
0.921141 1.000000 0.599649
0.133944 0.136187 0.842329
0.224933 0.138384 0.845380
0.344869 0.136904 0.847654
0.470115 0.133471 0.846876
0.581155 0.080674 0.829450
0.719829 0.035035 0.822385
0.850935 0.017899 0.817624
0.976135 0.026474 0.815686
1.000000 0.047883 0.813794
0.171054 0.214557 0.846738
0.244678 0.211688 0.846677
0.355077 0.212528 0.849393
0.471504 0.208774 0.845411
0.582483 0.175006 0.830076
0.719707 0.152789 0.821668
0.850858 0.144823 0.817380
0.975723 0.147433 0.815290
1.000000 0.152331 0.812543
0.222858 0.326253 0.847974
0.281147 0.324392 0.847837
0.372290 0.323369 0.848310
0.477897 0.321706 0.841794
0.581384 0.293889 0.826673
0.720912 0.280171 0.818814
0.850416 0.275853 0.816800
0.973770 0.275639 0.813687
1.000000 0.270588 0.805600
0.213138 0.443534 0.837354
0.283818 0.443244 0.836149
0.379919 0.448722 0.835950
0.477989 0.448402 0.838437
0.578759 0.425925 0.824216
0.718105 0.412131 0.816205
0.847700 0.407950 0.814176
0.964797 0.405539 0.807935
1.000000 0.390936 0.796124
0.142153 0.527474 0.817762
0.197833 0.527611 0.817441
0.266712 0.531243 0.812757
0.414328 0.541070 0.812039
0.553307 0.542733 0.805371
0.687388 0.540780 0.803159
0.817517 0.527825 0.791043
0.935760 0.523751 0.789242
1.000000 0.513085 0.791104
0.000000 0.633585 0.781369
0.000656 0.633585 0.782742
0.154040 0.634913 0.788418
0.340444 0.639017 0.788830
0.494041 0.643107 0.784634
0.644266 0.644129 0.776791
0.788754 0.643076 0.773236
0.922057 0.643580 0.777920
1.000000 0.631083 0.783886
0.000000 0.746304 0.746197
0.000000 0.746426 0.746242
0.000336 0.746990 0.746670
0.039506 0.747402 0.746120
0.376730 0.748531 0.747829
0.581643 0.751690 0.751324
0.750835 0.754345 0.751995
0.895232 0.754421 0.754726
1.000000 0.750851 0.773663
0.000000 0.868177 0.747311
0.000000 0.868254 0.747372
0.000000 0.868513 0.747280
0.000916 0.868925 0.746899
0.309026 0.869383 0.742702
0.529091 0.868070 0.729564
0.689204 0.868757 0.724208
0.848951 0.872633 0.728450
0.999985 0.873060 0.747555
0.000000 0.986328 0.710521
0.000000 0.986328 0.708614
0.000000 0.986801 0.706264
0.006332 0.987579 0.705196
0.311238 0.990021 0.706767
0.492042 0.993881 0.710002
0.644129 0.998886 0.713848
0.791516 1.000000 0.720241
0.962478 1.000000 0.730144
0.173541 0.180133 0.977218
0.248493 0.175616 0.976730
0.365545 0.172808 0.980255
0.490639 0.172930 0.977783
0.611078 0.165637 0.970748
0.715023 0.086885 0.951186
0.848600 0.052354 0.945266
0.975372 0.041764 0.943648
1.000000 0.051011 0.939727
0.195895 0.239445 0.977295
0.263310 0.236927 0.977325
0.373007 0.236835 0.980514
0.493690 0.234043 0.976165
0.613703 0.229984 0.968933
0.715694 0.173465 0.949844
0.848631 0.156680 0.944991
0.974960 0.152834 0.943267
1.000000 0.155077 0.938811
0.237613 0.342550 0.978424
0.293172 0.341375 0.978500
0.388449 0.340307 0.977829
0.499840 0.340749 0.971389
0.620630 0.337789 0.968505
0.716014 0.294530 0.948135
0.847745 0.281514 0.944060
0.973724 0.278264 0.941726
1.000000 0.276371 0.935409
0.261723 0.460777 0.973938
0.310750 0.461601 0.973327
0.399283 0.462882 0.970504
0.508125 0.463767 0.965026
0.619547 0.460304 0.961929
0.715587 0.426261 0.945495
0.844465 0.412009 0.941939
0.965530 0.406973 0.934936
1.000000 0.396109 0.922927
0.202625 0.560159 0.955337
0.258640 0.565347 0.955474
0.358175 0.573632 0.955337
0.486244 0.580896 0.949630
0.596170 0.574044 0.943420
0.703655 0.559823 0.936812
0.816999 0.539300 0.925383
0.937881 0.527642 0.914717
1.000000 0.518700 0.915770
0.000000 0.650828 0.945205
0.057069 0.650477 0.943984
0.223194 0.654582 0.940322
0.369146 0.658686 0.938750
0.510201 0.661372 0.932555
0.677974 0.672343 0.927596
0.820966 0.671305 0.924407
0.926421 0.649378 0.906691
1.000000 0.638590 0.906416
0.000000 0.754879 0.921096
0.000000 0.754711 0.921050
0.001785 0.753964 0.919600
0.222049 0.753399 0.918547
0.412131 0.754772 0.914549
0.597391 0.766674 0.914702
0.756558 0.766018 0.900282
0.903731 0.765621 0.893416
1.000000 0.758907 0.895903
0.000000 0.868162 0.876066
0.000000 0.868330 0.877195
0.000000 0.868528 0.876448
0.001297 0.869337 0.876234
0.297597 0.870741 0.876799
0.510246 0.873625 0.880873
0.714366 0.880156 0.883909
0.877836 0.883131 0.883162
1.000000 0.880964 0.881590
0.000000 0.992355 0.870344
0.000000 0.992477 0.869886
0.000000 0.992706 0.866728
0.007584 0.993271 0.861936
0.382910 0.995087 0.852659
0.544869 0.998123 0.851637
0.690074 1.000000 0.852659
0.833768 1.000000 0.852781
0.989273 1.000000 0.854566
0.192462 0.208179 1.000000
0.261036 0.212009 1.000000
0.370336 0.207813 1.000000
0.498085 0.206287 1.000000
0.622904 0.206409 1.000000
0.741405 0.192462 1.000000
0.846479 0.090150 1.000000
0.973785 0.068009 1.000000
1.000000 0.067796 1.000000
0.209628 0.265599 1.000000
0.271214 0.263325 1.000000
0.376822 0.262348 1.000000
0.500099 0.262669 1.000000
0.621775 0.260395 1.000000
0.742763 0.252873 1.000000
0.846784 0.175692 1.000000
0.972778 0.164553 1.000000
1.000000 0.162966 1.000000
0.232944 0.360067 1.000000
0.289952 0.360662 1.000000
0.388495 0.360159 1.000000
0.500221 0.356268 1.000000
0.622904 0.353674 1.000000
0.740475 0.347723 1.000000
0.847395 0.296864 1.000000
0.971511 0.284565 1.000000
1.000000 0.282734 1.000000
0.243961 0.474510 1.000000
0.291981 0.475929 1.000000
0.382254 0.475959 1.000000
0.497841 0.472847 1.000000
0.617029 0.466621 1.000000
0.726726 0.456489 1.000000
0.841535 0.431373 1.000000
0.964462 0.413611 1.000000
1.000000 0.402838 1.000000
0.139361 0.605005 1.000000
0.201053 0.608423 1.000000
0.335470 0.601373 1.000000
0.467231 0.584207 1.000000
0.588571 0.574105 1.000000
0.710384 0.571557 1.000000
0.831357 0.565743 1.000000
0.949096 0.548257 1.000000
1.000000 0.523445 1.000000
0.002274 0.655619 1.000000
0.119493 0.661860 1.000000
0.278370 0.674983 1.000000
0.423758 0.684276 1.000000
0.557671 0.690745 1.000000
0.697536 0.692485 1.000000
0.818509 0.685008 1.000000
0.937774 0.670985 1.000000
1.000000 0.645045 1.000000
0.000000 0.759365 1.000000
0.000000 0.759426 1.000000
0.004685 0.759472 1.000000
0.267292 0.764126 1.000000
0.452995 0.769574 1.000000
0.603891 0.775311 1.000000
0.781292 0.789380 1.000000
0.907927 0.782727 1.000000
1.000000 0.766537 1.000000
0.000000 0.871763 1.000000
0.000000 0.871885 1.000000
0.000000 0.872282 1.000000
0.029618 0.872923 1.000000
0.360998 0.876982 1.000000
0.556374 0.884215 1.000000
0.710811 0.887343 1.000000
0.871336 0.890257 1.000000
1.000000 0.886427 1.000000
0.000000 0.995575 1.000000
0.000000 0.996078 1.000000
0.000000 0.996521 1.000000
0.051164 0.999100 1.000000
0.385779 1.000000 1.000000
0.549355 1.000000 1.000000
0.706477 1.000000 1.000000
0.856306 1.000000 1.000000
0.995743 1.000000 0.999222
