app/src/main/assets/filters/superia1600.cube
# Created from superia1600.plut
LUT_3D_SIZE 5
DOMAIN_MIN 0.0 0.0 0.0
DOMAIN_MAX 1.0 1.0 1.0
0.023529 0.027451 0.027451
0.121569 0.046082 0.027451
0.343130 0.013718 0.000000
0.600000 0.055879 0.004898
0.749020 0.172549 0.098039
0.000000 0.149996 0.043137
0.213977 0.202945 0.000244
0.510780 0.252445 0.000000
0.718624 0.270588 0.013474
0.813718 0.310780 0.147066
0.154910 0.429419 0.090196
0.382361 0.465690 0.066667
0.634318 0.505882 0.056855
0.831861 0.510292 0.118624
0.907836 0.531380 0.272541
0.465690 0.669612 0.284321
0.541176 0.681376 0.277455
0.697063 0.700984 0.265202
0.882109 0.708827 0.260792
0.977447 0.723537 0.357839
0.592157 0.788235 0.435294
0.630396 0.796078 0.431373
0.729412 0.811765 0.423529
0.884321 0.835294 0.415686
0.996078 0.866667 0.498039
0.000000 0.016663 0.168627
0.142397 0.046326 0.199023
0.424506 0.081376 0.240192
0.677455 0.200000 0.305882
0.802945 0.300008 0.364706
0.000000 0.217899 0.279408
0.208148 0.271565 0.293935
0.531365 0.320714 0.318990
0.750729 0.356863 0.351965
0.845090 0.402945 0.399023
0.056367 0.512749 0.400977
0.358816 0.543877 0.397055
0.633326 0.576959 0.400977
0.836271 0.577447 0.407843
0.919615 0.597055 0.472541
0.446326 0.712505 0.467643
0.522545 0.722545 0.461341
0.685664 0.740688 0.452323
0.873716 0.749996 0.444114
0.973526 0.763485 0.518868
0.584314 0.810788 0.535286
0.619608 0.815686 0.534310
0.720104 0.832837 0.527459
0.877455 0.855634 0.519615
0.996078 0.882353 0.578424
0.000000 0.000000 0.378439
0.119112 0.097063 0.425986
0.456870 0.186282 0.491173
0.711269 0.301472 0.541665
0.835294 0.405890 0.590188
0.000000 0.267643 0.512749
0.126467 0.337255 0.533089
0.526955 0.392157 0.564706
0.761883 0.443137 0.587381
0.873533 0.508827 0.624506
0.000000 0.584314 0.643137
0.288731 0.616663 0.636759
0.607843 0.648524 0.647059
0.828428 0.662989 0.652201
0.935286 0.683330 0.684321
0.398032 0.762249 0.665202
0.486275 0.772549 0.665202
0.659312 0.792889 0.664714
0.857481 0.811765 0.662745
0.973526 0.823529 0.700008
0.562737 0.845090 0.692164
0.600977 0.850492 0.692164
0.702937 0.866667 0.691173
0.861280 0.890684 0.688243
0.992157 0.917647 0.729412
0.000000 0.072541 0.558831
0.025742 0.210788 0.615930
0.445090 0.309804 0.674510
0.701961 0.398291 0.725490
0.839216 0.483330 0.766674
0.000000 0.340444 0.681376
0.068879 0.403922 0.697490
0.488731 0.462379 0.728435
0.740200 0.517403 0.765682
0.873533 0.575494 0.794858
0.009812 0.629908 0.784314
0.233326 0.656870 0.786526
0.565682 0.693385 0.803922
0.800122 0.717037 0.819974
0.932845 0.735790 0.837263
0.275242 0.790188 0.812741
0.402701 0.804532 0.816846
0.609430 0.832471 0.825483
0.822553 0.857603 0.833341
0.969360 0.875731 0.855879
0.508827 0.863722 0.821576
0.554910 0.871321 0.825483
0.667643 0.892164 0.829419
0.833341 0.921813 0.837263
0.983337 0.949996 0.857847
0.000000 0.227451 0.682353
0.035294 0.315679 0.716670
0.429419 0.398032 0.760784
0.677455 0.479408 0.808820
0.839216 0.556863 0.847059
0.000000 0.423529 0.767651
0.087251 0.465690 0.771572
0.463722 0.524514 0.804898
0.705638 0.582361 0.842161
0.869612 0.637263 0.866667
0.017639 0.664714 0.837263
0.202457 0.681865 0.840681
0.520592 0.716670 0.859800
0.754406 0.749020 0.882841
0.915679 0.768627 0.901961
0.206867 0.800977 0.866667
0.344854 0.813474 0.871321
0.557351 0.842649 0.888731
0.771572 0.877211 0.909804
0.949996 0.900008 0.925490
0.443137 0.866667 0.886275
0.489220 0.874510 0.886275
0.611765 0.900008 0.898039
0.791180 0.933333 0.917647
0.960784 0.960784 0.933333
