app/src/main/assets/filters/superia1600.cube
# Created from superia1600.plut
LUT_3D_SIZE 9
DOMAIN_MIN 0.0 0.0 0.0
DOMAIN_MAX 1.0 1.0 1.0
0.023529 0.027451 0.027451
0.045594 0.031373 0.027451
0.121569 0.046082 0.027451
0.237263 0.043137 0.000000
0.343130 0.013718 0.000000
0.462257 0.009308 0.000000
0.600000 0.055879 0.004898
0.715679 0.115190 0.036759
0.749020 0.172549 0.098039
0.000000 0.073533 0.035294
0.041672 0.080446 0.039216
0.159319 0.099504 0.024506
0.295094 0.114397 0.000000
0.422553 0.127459 0.000000
0.541665 0.143328 0.000000
0.653925 0.156252 0.009674
0.746075 0.187747 0.048463
0.772061 0.225986 0.113237
0.000000 0.149996 0.043137
0.025864 0.165194 0.029282
0.213977 0.202945 0.000244
0.376104 0.234928 0.000000
0.510780 0.252445 0.000000
0.622065 0.262745 0.000000
0.718624 0.270588 0.013474
0.798535 0.291539 0.093629
0.813718 0.310780 0.147066
0.000000 0.259312 0.022065
0.084810 0.286275 0.000305
0.290196 0.330022 0.000000
0.448524 0.365194 0.000000
0.577447 0.378424 0.002457
0.687739 0.382361 0.015686
0.779782 0.386282 0.065690
0.849821 0.405875 0.150973
0.859800 0.415198 0.197055
0.154910 0.429419 0.090196
0.255146 0.442893 0.082353
0.382361 0.465690 0.066667
0.511772 0.488731 0.060777
0.634318 0.505882 0.056855
0.741665 0.509804 0.085786
0.831861 0.510292 0.118624
0.900496 0.525490 0.219608
0.907836 0.531380 0.272541
0.354910 0.566674 0.196567
0.393439 0.574319 0.192645
0.472053 0.588113 0.186893
0.569604 0.602945 0.179355
0.674022 0.614221 0.176959
0.777508 0.620096 0.176959
0.867155 0.616175 0.196078
0.935790 0.628244 0.274022
0.948043 0.631861 0.315190
0.465690 0.669612 0.284321
0.488609 0.673533 0.281376
0.541176 0.681376 0.277455
0.614343 0.691051 0.272541
0.697063 0.700984 0.265202
0.792645 0.707836 0.260792
0.882109 0.708827 0.260792
0.954910 0.716670 0.307836
0.977447 0.723537 0.357839
0.546075 0.746075 0.362249
0.561273 0.749996 0.361761
0.595956 0.753918 0.357961
0.648524 0.761761 0.353918
0.715938 0.771328 0.346563
0.800488 0.781369 0.338720
0.889220 0.786282 0.338231
0.965682 0.793622 0.350484
0.992645 0.808820 0.421073
0.592157 0.788235 0.435294
0.603433 0.792157 0.431861
0.630396 0.796078 0.431373
0.671565 0.803922 0.427451
0.729412 0.811765 0.423529
0.802945 0.823529 0.419608
0.884321 0.835294 0.415686
0.961761 0.847547 0.424018
0.996078 0.866667 0.498039
0.015686 0.027451 0.069123
0.037751 0.031800 0.073045
0.132357 0.049638 0.083452
0.254231 0.037064 0.088228
0.381369 0.022553 0.101717
0.515190 0.060288 0.121080
0.641306 0.122057 0.147189
0.746075 0.180392 0.190692
0.775982 0.226474 0.217151
0.000000 0.088228 0.088670
0.025544 0.092592 0.091722
0.170047 0.118624 0.099504
0.318135 0.133989 0.106920
0.449027 0.146777 0.118868
0.567651 0.166064 0.136095
0.680018 0.194614 0.159808
0.772488 0.237324 0.201968
0.795102 0.268620 0.228489
0.000000 0.180758 0.130266
0.001282 0.199023 0.132860
0.221912 0.233524 0.133333
0.387655 0.257755 0.133944
0.519478 0.272862 0.145098
0.633524 0.286992 0.160967
0.734310 0.302052 0.186267
0.814008 0.326452 0.231601
0.829038 0.345586 0.255879
0.000000 0.309316 0.186770
0.035172 0.332357 0.179080
0.284398 0.363424 0.174563
0.448524 0.390860 0.175311
0.581369 0.404410 0.182040
0.692958 0.412741 0.197055
0.787350 0.417472 0.223056
0.859724 0.434455 0.267948
0.868940 0.444602 0.287251
0.099260 0.464210 0.236759
0.221820 0.477455 0.233310
0.375738 0.500053 0.229343
0.510292 0.520256 0.228428
0.635294 0.533700 0.230640
0.745586 0.536767 0.239216
0.835782 0.536767 0.255573
0.902693 0.543130 0.297795
0.911757 0.550484 0.329168
0.345098 0.592157 0.295094
0.385290 0.597360 0.295094
0.467170 0.611688 0.291173
0.567346 0.623529 0.287251
0.673381 0.635294 0.284413
0.776959 0.639216 0.283223
0.867155 0.639216 0.290150
0.935607 0.640131 0.326772
0.950484 0.650980 0.377447
0.458335 0.685176 0.353429
0.483604 0.688731 0.349508
0.533822 0.696361 0.348470
0.610422 0.706386 0.341665
0.693324 0.715251 0.337011
0.788769 0.720470 0.329900
0.881376 0.723156 0.329900
0.954025 0.724941 0.351202
0.973526 0.738842 0.427451
0.538293 0.757839 0.415198
0.554345 0.757839 0.411765
0.590967 0.764340 0.407843
0.644892 0.772885 0.403922
0.712474 0.780880 0.398001
0.796872 0.789212 0.391730
0.885298 0.797055 0.388235
0.961883 0.804532 0.400549
0.992157 0.820096 0.478431
0.588724 0.799512 0.469612
0.600000 0.799939 0.469612
0.626474 0.803922 0.467033
0.669123 0.809995 0.463539
0.725490 0.819608 0.460044
0.800488 0.831067 0.454414
0.881376 0.842771 0.453925
0.958328 0.855329 0.462745
0.996078 0.870588 0.528923
0.000000 0.016663 0.168627
0.011154 0.027939 0.175982
0.142397 0.046326 0.199023
0.283330 0.046082 0.213230
0.424506 0.081376 0.240192
0.557839 0.142153 0.271077
0.677455 0.200000 0.305882
0.777447 0.261646 0.342153
0.802945 0.300008 0.364706
0.000000 0.100496 0.213352
0.000107 0.111589 0.217319
0.173037 0.141207 0.236271
0.337865 0.164218 0.252934
0.472541 0.187259 0.272358
0.596429 0.221332 0.295949
0.707561 0.260380 0.321202
0.795270 0.303426 0.357229
0.818143 0.334310 0.376349
0.000000 0.217899 0.279408
0.000000 0.237537 0.289464
0.208148 0.271565 0.293935
0.394614 0.300191 0.305882
0.531365 0.320714 0.318990
0.649516 0.339498 0.335134
0.750729 0.356863 0.351965
0.827329 0.384680 0.383825
0.845090 0.402945 0.399023
0.000000 0.359319 0.351965
0.006744 0.382727 0.350347
0.266270 0.413596 0.352239
0.448524 0.437980 0.357961
0.586770 0.452689 0.365499
0.699916 0.462058 0.374716
0.795010 0.466758 0.382849
0.867781 0.484718 0.414710
0.880888 0.496208 0.432349
0.056367 0.512749 0.400977
0.171572 0.523156 0.398535
0.358816 0.543877 0.397055
0.501717 0.562799 0.400305
0.633326 0.576959 0.400977
0.744854 0.579232 0.404898
0.836271 0.577447 0.407843
0.904906 0.589212 0.446082
0.919615 0.597055 0.472541
0.315679 0.626963 0.436759
0.363897 0.634684 0.435828
0.452903 0.646204 0.432837
0.556924 0.657786 0.431174
0.664515 0.668315 0.428244
0.771511 0.672541 0.424628
0.863691 0.670100 0.424628
0.934005 0.676661 0.460731
0.950484 0.685786 0.500496
0.446326 0.712505 0.467643
0.470069 0.715557 0.465080
0.522545 0.722545 0.461341
0.599115 0.730541 0.456870
0.685664 0.740688 0.452323
0.781674 0.746075 0.447303
0.873716 0.749996 0.444114
0.949996 0.754345 0.468757
0.973526 0.763485 0.518868
0.530510 0.773404 0.499504
0.545815 0.776471 0.499504
0.583276 0.781033 0.495583
0.636805 0.788769 0.491661
0.706188 0.798291 0.487312
0.792645 0.807614 0.480201
0.878492 0.815686 0.475975
0.957839 0.823651 0.488365
0.992157 0.832715 0.543633
0.584314 0.810788 0.535286
0.595712 0.811765 0.535286
0.619608 0.815686 0.534310
0.663722 0.823529 0.530388
0.720104 0.832837 0.527459
0.795468 0.843137 0.522545
0.877455 0.855634 0.519615
0.954040 0.867033 0.524025
0.996078 0.882353 0.578424
0.000000 0.000000 0.280385
0.000000 0.000000 0.285298
0.139223 0.052445 0.318624
0.303365 0.080385 0.345586
0.446326 0.126467 0.372549
0.581430 0.188785 0.399512
0.700496 0.253925 0.430396
0.795773 0.319615 0.466667
0.823529 0.361761 0.485786
0.000000 0.106371 0.330083
0.000000 0.119051 0.341360
0.153292 0.164218 0.363104
0.341176 0.191287 0.384802
0.486763 0.222065 0.403433
0.613169 0.265080 0.425483
0.722911 0.309270 0.447288
0.811124 0.359152 0.481865
0.837263 0.393927 0.499687
0.000000 0.242771 0.410788
0.000000 0.267567 0.418952
0.171450 0.306371 0.426291
0.388205 0.334249 0.440513
0.535607 0.359747 0.453132
0.655512 0.384314 0.467033
0.758831 0.407080 0.480385
0.839216 0.439216 0.508827
0.861769 0.462257 0.522545
0.000000 0.397543 0.489220
0.000000 0.422065 0.489220
0.226307 0.452934 0.488838
0.437888 0.478370 0.496483
0.581369 0.495827 0.502449
0.700053 0.509163 0.510292
0.797543 0.517678 0.514351
0.874022 0.537118 0.539712
0.895094 0.553429 0.555886
0.023041 0.552697 0.533333
0.113725 0.563241 0.529412
0.333211 0.584314 0.529412
0.489921 0.602487 0.533333
0.621942 0.615808 0.537255
0.739712 0.620554 0.537255
0.836271 0.622736 0.539223
0.908492 0.632166 0.563149
0.927459 0.642161 0.588235
0.279347 0.661769 0.553918
0.336950 0.667826 0.553368
0.434318 0.679286 0.554910
0.541924 0.690745 0.554910
0.651225 0.700252 0.554131
0.761822 0.707698 0.550973
0.858259 0.708278 0.550973
0.931685 0.712459 0.571450
0.955947 0.723033 0.607355
0.427939 0.738109 0.570962
0.454719 0.741665 0.570962
0.509346 0.749508 0.568750
0.585809 0.757351 0.567041
0.673533 0.767712 0.563119
0.773037 0.775433 0.558831
0.865965 0.780880 0.556832
0.943130 0.784802 0.571084
0.973526 0.796567 0.617639
0.516487 0.795102 0.589517
0.531945 0.796674 0.588235
0.569726 0.800793 0.588235
0.625177 0.808042 0.584314
0.695247 0.817548 0.581460
0.781064 0.827436 0.576471
0.870939 0.836622 0.572549
0.950057 0.846143 0.580880
0.988418 0.858030 0.627451
0.576471 0.827451 0.612741
0.587747 0.829908 0.612741
0.614099 0.833829 0.611643
0.654353 0.839216 0.611276
0.712505 0.850248 0.608087
0.787808 0.861280 0.604349
0.870710 0.873411 0.600977
0.949996 0.886580 0.607843
0.996078 0.900496 0.646571
0.000000 0.000000 0.378439
0.000000 0.001709 0.386023
0.119112 0.097063 0.425986
0.310292 0.143633 0.461280
0.456870 0.186282 0.491173
0.594125 0.238239 0.517159
0.711269 0.301472 0.541665
0.804898 0.363729 0.573037
0.835294 0.405890 0.590188
0.000000 0.115190 0.428428
0.000000 0.133577 0.443137
0.114885 0.196811 0.470588
0.336522 0.233173 0.496483
0.485664 0.266789 0.518990
0.617151 0.306615 0.539467
0.728496 0.349325 0.555581
0.820127 0.401526 0.586496
0.846815 0.440192 0.601709
0.000000 0.267643 0.512749
0.000000 0.294606 0.524514
0.126467 0.337255 0.533089
0.373831 0.368139 0.549020
0.526955 0.392157 0.564706
0.653803 0.418387 0.576837
0.761883 0.443137 0.587381
0.847059 0.481865 0.613230
0.873533 0.508827 0.624506
0.000000 0.431128 0.593622
0.000000 0.454322 0.595102
0.188846 0.483818 0.594491
0.421347 0.513176 0.603861
0.571328 0.530632 0.612253
0.694331 0.546014 0.618631
0.797543 0.560967 0.624018
0.877943 0.582361 0.644114
0.904417 0.599512 0.657359
0.000000 0.584314 0.643137
0.046204 0.594125 0.639216
0.288731 0.616663 0.636759
0.469734 0.635294 0.643137
0.607843 0.648524 0.647059
0.727703 0.658824 0.650980
0.828428 0.662989 0.652201
0.904906 0.671809 0.666178
0.935286 0.683330 0.684321
0.207355 0.688731 0.654414
0.281559 0.696391 0.654414
0.402457 0.707408 0.657969
0.523033 0.720592 0.660777
0.636393 0.731746 0.661158
0.749020 0.742153 0.663203
0.850004 0.746075 0.662745
0.926467 0.747066 0.672145
0.958328 0.757839 0.696086
0.398032 0.762249 0.665202
0.426291 0.764706 0.665202
0.486275 0.772549 0.665202
0.568688 0.783093 0.668635
0.659312 0.792889 0.664714
0.759503 0.803922 0.664714
0.857481 0.811765 0.662745
0.938231 0.814221 0.666911
0.973526 0.823529 0.700008
0.497551 0.812497 0.676722
0.514672 0.814466 0.676463
0.553918 0.819852 0.676722
0.611429 0.827451 0.674754
0.681865 0.837873 0.673045
0.769268 0.849516 0.670832
0.861280 0.859983 0.669123
0.942397 0.866117 0.671077
0.988235 0.880888 0.710048
0.562737 0.845090 0.692164
0.574258 0.846815 0.692164
0.600977 0.850492 0.692164
0.642893 0.856870 0.692164
0.702937 0.866667 0.691173
0.778180 0.877211 0.688243
0.861280 0.890684 0.688243
0.942397 0.904173 0.692653
0.992157 0.917647 0.729412
0.000000 0.010788 0.474998
0.000000 0.029725 0.478920
0.067155 0.156863 0.525002
0.304906 0.205386 0.563729
0.456123 0.251225 0.591913
0.592645 0.300008 0.621576
0.713359 0.347921 0.644602
0.809308 0.406073 0.674022
0.839216 0.444602 0.685298
0.000000 0.144121 0.520897
0.000000 0.166659 0.536217
0.063127 0.240818 0.564263
0.323095 0.280766 0.590692
0.475334 0.317159 0.614954
0.609308 0.353140 0.637064
0.728023 0.391791 0.658900
0.822950 0.440681 0.685725
0.850980 0.478920 0.696757
0.000000 0.301839 0.603922
0.000000 0.329290 0.613779
0.093629 0.372061 0.622065
0.355367 0.402945 0.639506
0.509010 0.426963 0.655146
0.641352 0.453925 0.671427
0.757259 0.481254 0.686763
0.847547 0.519615 0.709621
0.877455 0.546441 0.717159
0.000000 0.468635 0.679347
0.000000 0.487739 0.680827
0.161151 0.514702 0.679667
0.399420 0.541085 0.691325
0.550454 0.561517 0.701472
0.679881 0.577447 0.712398
0.792386 0.595590 0.720592
0.877943 0.616861 0.738903
0.908339 0.632349 0.746563
0.001968 0.609308 0.726467
0.042741 0.618875 0.722728
0.255879 0.639460 0.723842
0.446815 0.658824 0.731304
0.588724 0.675242 0.738598
0.711788 0.686702 0.744854
0.819852 0.694423 0.747555
0.900984 0.703029 0.757595
0.935286 0.715190 0.770336
0.117586 0.709377 0.744121
0.203540 0.715618 0.744121
0.354910 0.730358 0.746273
0.489708 0.745037 0.749508
0.614496 0.758846 0.753429
0.730251 0.770031 0.757351
0.835004 0.776959 0.757351
0.916365 0.780880 0.761654
0.958328 0.789639 0.783337
0.339223 0.779904 0.748043
0.376516 0.783780 0.748043
0.447578 0.792950 0.749508
0.540810 0.804440 0.751965
0.638239 0.815930 0.753429
0.740337 0.829206 0.757122
0.841337 0.838361 0.757351
0.926543 0.842649 0.757534
0.973159 0.853437 0.787259
0.465385 0.825803 0.752453
0.484321 0.828122 0.752453
0.526955 0.835782 0.753735
0.588617 0.844541 0.755886
0.663569 0.855482 0.756069
0.752148 0.867826 0.757351
0.846082 0.880476 0.757656
0.933028 0.888991 0.760189
0.984314 0.902632 0.791180
0.543633 0.856367 0.763729
0.554910 0.858824 0.763729
0.581857 0.863844 0.763729
0.626963 0.870588 0.766735
0.687495 0.881132 0.767651
0.763729 0.894667 0.767651
0.850004 0.906249 0.768017
0.933028 0.921752 0.775494
0.988235 0.934798 0.804410
0.000000 0.072541 0.558831
0.000000 0.095094 0.571084
0.025742 0.210788 0.615930
0.288228 0.265690 0.647547
0.445090 0.309804 0.674510
0.582361 0.355764 0.702083
0.701961 0.398291 0.725490
0.807965 0.448524 0.759319
0.839216 0.483330 0.766674
0.000000 0.188235 0.601968
0.000000 0.214282 0.621073
0.037034 0.284810 0.647486
0.303502 0.328115 0.670588
0.460044 0.363180 0.693629
0.595605 0.398459 0.716747
0.713390 0.434073 0.739712
0.817029 0.479835 0.767117
0.850980 0.513725 0.775372
0.000000 0.340444 0.681376
0.000000 0.364858 0.690105
0.068879 0.403922 0.697490
0.334310 0.435325 0.710872
0.488731 0.462379 0.728435
0.622431 0.489708 0.747280
0.740200 0.517403 0.765682
0.840345 0.551507 0.789242
0.873533 0.575494 0.794858
0.000000 0.499504 0.747433
0.002152 0.514885 0.747433
0.136889 0.539681 0.746960
0.375494 0.566171 0.758495
0.528374 0.586770 0.770336
0.657923 0.606897 0.783886
0.774014 0.623743 0.796567
0.869245 0.643626 0.810697
0.904417 0.658701 0.817639
0.009812 0.629908 0.784314
0.051652 0.639460 0.783825
0.233326 0.656870 0.786526
0.423346 0.675975 0.795712
0.565682 0.693385 0.803922
0.688670 0.708034 0.812314
0.800122 0.717037 0.819974
0.890929 0.724758 0.827939
0.932845 0.735790 0.837263
0.074510 0.724880 0.803067
0.158587 0.730297 0.805264
0.322820 0.743664 0.806989
0.464500 0.759350 0.814420
0.592096 0.775982 0.820951
0.707774 0.790021 0.825910
0.816266 0.799542 0.833341
0.906462 0.803922 0.835416
0.954406 0.812863 0.848402
0.275242 0.790188 0.812741
0.319265 0.794125 0.813642
0.402701 0.804532 0.816846
0.504570 0.817838 0.820737
0.609430 0.832471 0.825483
0.717525 0.846754 0.829419
0.822553 0.857603 0.833341
0.913848 0.865476 0.837385
0.969360 0.875731 0.855879
0.416541 0.835782 0.816785
0.438361 0.836225 0.817639
0.487373 0.843717 0.820584
0.557336 0.855390 0.821576
0.636759 0.867643 0.825483
0.730694 0.882841 0.829419
0.829419 0.895033 0.833341
0.918135 0.908064 0.837858
0.976959 0.919112 0.853925
0.508827 0.863722 0.821576
0.524025 0.866667 0.824506
0.554910 0.871321 0.825483
0.603922 0.881254 0.827329
0.667643 0.892164 0.829419
0.747433 0.907347 0.833341
0.833341 0.921813 0.837263
0.918990 0.937377 0.845090
0.983337 0.949996 0.857847
0.000000 0.157839 0.632349
0.000000 0.184314 0.647974
0.009430 0.268620 0.686275
0.259617 0.323217 0.709316
0.428916 0.365438 0.737987
0.566674 0.407660 0.766674
0.685786 0.448646 0.788846
0.793194 0.495583 0.817151
0.839216 0.526467 0.828428
0.000000 0.242649 0.674510
0.000000 0.272541 0.690578
0.022187 0.330556 0.710292
0.271382 0.374350 0.728435
0.440894 0.409308 0.753399
0.578363 0.444770 0.777996
0.697108 0.480598 0.798032
0.804578 0.522972 0.824949
0.850065 0.553429 0.836271
0.000000 0.383948 0.740200
0.000000 0.404288 0.747341
0.055634 0.438727 0.751598
0.305882 0.469734 0.764202
0.469368 0.497551 0.783642
0.601511 0.528435 0.803082
0.720104 0.555795 0.820462
0.825193 0.587961 0.842939
0.869612 0.610666 0.854414
0.000000 0.530388 0.791485
0.004028 0.543130 0.791180
0.117250 0.563119 0.791485
0.346075 0.589029 0.804593
0.501961 0.609812 0.818631
0.631678 0.632059 0.834318
0.750118 0.650980 0.847196
0.850935 0.670603 0.862440
0.896574 0.683818 0.871382
0.003922 0.649271 0.822065
0.028214 0.656428 0.822065
0.191485 0.671687 0.825986
0.394018 0.690684 0.836271
0.536522 0.708095 0.847669
0.659556 0.723873 0.858091
0.774014 0.736278 0.869184
0.873320 0.747799 0.878950
0.923537 0.757107 0.886763
0.078248 0.736278 0.841184
0.148913 0.740352 0.843320
0.291905 0.752102 0.846708
0.436576 0.768765 0.854475
0.563912 0.786191 0.863233
0.679789 0.802945 0.872663
0.791058 0.814832 0.881239
0.887434 0.822766 0.890684
0.946380 0.828244 0.896391
0.231373 0.797055 0.851469
0.276478 0.801083 0.851469
0.369848 0.809873 0.855390
0.475120 0.825116 0.863233
0.583642 0.842222 0.871077
0.692287 0.858198 0.878920
0.799603 0.871595 0.886763
0.895583 0.881102 0.891600
0.961639 0.888609 0.902449
0.369665 0.839704 0.859312
0.395697 0.843626 0.859312
0.449088 0.848234 0.863233
0.521263 0.861769 0.867155
0.605875 0.874998 0.873045
0.702449 0.890867 0.878920
0.803799 0.907347 0.886763
0.899504 0.922118 0.894606
0.972061 0.930816 0.902937
0.474022 0.866667 0.863233
0.488792 0.870588 0.867094
0.520104 0.874510 0.867155
0.573037 0.886275 0.871077
0.638972 0.898039 0.874998
0.721569 0.913725 0.882841
0.814710 0.930388 0.888106
0.903426 0.945586 0.898528
0.972549 0.960784 0.906859
0.000000 0.227451 0.682353
0.000000 0.257847 0.697551
0.035294 0.315679 0.716670
0.265690 0.359319 0.735790
0.429419 0.398032 0.760784
0.561273 0.438239 0.785779
0.677455 0.479408 0.808820
0.785779 0.525978 0.835294
0.839216 0.556863 0.847059
0.000000 0.300496 0.716670
0.000000 0.327459 0.728862
0.045716 0.366537 0.736767
0.283330 0.403922 0.752758
0.440925 0.438239 0.774258
0.572732 0.474998 0.797360
0.685786 0.513725 0.820462
0.793622 0.556374 0.842710
0.847059 0.583337 0.854902
0.000000 0.423529 0.767651
0.000000 0.438727 0.770581
0.087251 0.465690 0.771572
0.311772 0.493629 0.785779
0.463722 0.524514 0.804898
0.593133 0.553307 0.822919
0.705638 0.582361 0.842161
0.813230 0.614221 0.857969
0.869612 0.637263 0.866667
0.000000 0.558831 0.810300
0.016663 0.566674 0.810300
0.134310 0.583459 0.810300
0.341726 0.604959 0.822065
0.492653 0.628183 0.835782
0.617090 0.650492 0.849516
0.732967 0.668254 0.863355
0.835294 0.687556 0.877150
0.888731 0.702937 0.884810
0.017639 0.664714 0.837263
0.051469 0.668635 0.837263
0.202457 0.681865 0.840681
0.382849 0.698528 0.849027
0.520592 0.716670 0.859800
0.641672 0.734066 0.872541
0.754406 0.749020 0.882841
0.854414 0.762997 0.894362
0.915679 0.768627 0.901961
0.110292 0.744121 0.852445
0.167651 0.748043 0.854902
0.281376 0.759808 0.858213
0.419120 0.774014 0.865751
0.541909 0.792401 0.875242
0.655940 0.808331 0.886824
0.765805 0.822919 0.898405
0.865690 0.834501 0.909804
0.934798 0.842161 0.915190
0.206867 0.800977 0.866667
0.250004 0.804898 0.866667
0.344854 0.813474 0.871321
0.451469 0.829038 0.878431
0.557351 0.842649 0.888731
0.665324 0.861280 0.898405
0.771572 0.877211 0.909804
0.872923 0.892531 0.917769
0.949996 0.900008 0.925490
0.331380 0.839704 0.874998
0.358328 0.843626 0.878431
0.414710 0.850614 0.878920
0.490379 0.861952 0.886275
0.578927 0.878676 0.894362
0.672862 0.894606 0.905882
0.779416 0.911269 0.913848
0.879896 0.930327 0.925490
0.956863 0.941665 0.933333
0.443137 0.866667 0.886275
0.458335 0.870588 0.886275
0.489220 0.874510 0.886275
0.542153 0.884810 0.892653
0.611765 0.900008 0.898039
0.694606 0.915190 0.905882
0.791180 0.933333 0.917647
0.883818 0.952941 0.925490
0.960784 0.960784 0.933333
