app/src/main/assets/filters/superia1600.cube
# Created from superia1600.plut
LUT_3D_SIZE 33
DOMAIN_MIN 0.0 0.0 0.0
DOMAIN_MAX 1.0 1.0 1.0
0.023529 0.027451 0.027451
0.023529 0.027451 0.027451
0.019608 0.027451 0.027451
0.027085 0.031006 0.027451
0.045594 0.031373 0.027451
0.061524 0.034684 0.027451
0.073045 0.039216 0.030640
0.095460 0.043137 0.028305
0.121569 0.046082 0.027451
0.152453 0.047059 0.020706
0.180636 0.047059 0.012985
0.207721 0.044480 0.005264
0.237263 0.043137 0.000000
0.261891 0.039216 0.000000
0.288975 0.033082 0.000000
0.314214 0.025360 0.000000
0.343130 0.013718 0.000000
0.372061 0.002090 0.000000
0.399023 0.000000 0.000000
0.429908 0.003922 0.000000
0.462257 0.009308 0.000000
0.496941 0.022309 0.000000
0.534310 0.032593 0.000000
0.569116 0.044236 0.000000
0.600000 0.055879 0.004898
0.630884 0.068376 0.012619
0.661036 0.083818 0.023529
0.688106 0.099260 0.028061
0.715679 0.115190 0.036759
0.733700 0.133700 0.055634
0.737499 0.145586 0.071077
0.745098 0.160906 0.086519
0.749020 0.172549 0.098039
0.023529 0.031250 0.027451
0.023529 0.031250 0.027451
0.019852 0.031250 0.027451
0.026719 0.031373 0.027451
0.045609 0.034699 0.027451
0.061524 0.038483 0.027451
0.076127 0.042298 0.031357
0.095460 0.046098 0.027451
0.122515 0.047028 0.027451
0.156252 0.047059 0.020706
0.183246 0.047059 0.014176
0.210208 0.046983 0.005264
0.237263 0.043137 0.000000
0.264149 0.040757 0.000000
0.294911 0.036957 0.000000
0.321935 0.029160 0.000000
0.352697 0.021317 0.000000
0.385367 0.021027 0.000000
0.418265 0.028504 0.000000
0.453071 0.037812 0.000000
0.483986 0.047959 0.000000
0.518791 0.055756 0.000000
0.549752 0.063478 0.000000
0.580667 0.071321 0.000000
0.611643 0.079988 0.004898
0.641566 0.090715 0.016541
0.668757 0.102358 0.023529
0.695827 0.114702 0.028061
0.722911 0.130632 0.040681
0.737606 0.145586 0.059541
0.744976 0.160784 0.071077
0.749020 0.168750 0.086519
0.752941 0.180270 0.101839
0.019852 0.046571 0.031128
0.019852 0.046571 0.031128
0.019608 0.042878 0.031373
0.026734 0.045975 0.031373
0.046052 0.046784 0.031830
0.065202 0.050492 0.031373
0.080644 0.054612 0.031373
0.103059 0.058335 0.031174
0.133089 0.058335 0.027451
0.167651 0.062257 0.020706
0.198367 0.062089 0.012985
0.225330 0.062013 0.001343
0.252201 0.061769 0.000000
0.282948 0.061769 0.000000
0.313725 0.061769 0.000000
0.344732 0.061524 0.000000
0.375738 0.061524 0.000000
0.410407 0.065309 0.000000
0.441428 0.071077 0.000000
0.472541 0.075120 0.000000
0.503426 0.082750 0.000000
0.534310 0.089052 0.000000
0.561273 0.093141 0.000000
0.592157 0.098161 0.000000
0.623041 0.105943 0.005814
0.650187 0.113848 0.016541
0.677165 0.121614 0.024216
0.703548 0.133242 0.028061
0.726741 0.146044 0.040681
0.744869 0.160678 0.059556
0.749020 0.172305 0.074998
0.753063 0.183948 0.090440
0.760540 0.191913 0.101961
0.008576 0.058457 0.034928
0.008576 0.058457 0.034928
0.012161 0.058106 0.034699
0.022827 0.058091 0.035264
0.049012 0.062013 0.035294
0.069306 0.065370 0.035294
0.087617 0.069856 0.032410
0.113848 0.073777 0.031373
0.147402 0.077607 0.028336
0.182086 0.080247 0.018158
0.213977 0.081498 0.009430
0.244846 0.085176 0.001343
0.275364 0.085176 0.000000
0.306249 0.088731 0.000000
0.337133 0.089097 0.000000
0.369909 0.092653 0.000000
0.402823 0.096391 0.000000
0.433707 0.100298 0.000000
0.464591 0.104417 0.000000
0.491905 0.109926 0.000000
0.522423 0.113725 0.000000
0.549752 0.117525 0.000000
0.579156 0.120211 0.000000
0.607599 0.125383 0.000000
0.637507 0.129290 0.005890
0.664576 0.137011 0.019318
0.688777 0.144732 0.023529
0.714824 0.153063 0.028061
0.734432 0.164950 0.044602
0.752575 0.179690 0.063478
0.756741 0.187747 0.078920
0.760540 0.199023 0.094347
0.764340 0.207111 0.105882
0.000000 0.073533 0.035294
0.000488 0.073533 0.035294
0.000488 0.076753 0.035294
0.008087 0.076967 0.038407
0.041672 0.080446 0.039216
0.071717 0.084276 0.035294
0.095338 0.089128 0.035294
0.121569 0.095811 0.031373
0.159319 0.099504 0.024506
0.197421 0.103304 0.014328
0.229419 0.106767 0.005295
0.263722 0.110582 0.000000
0.295094 0.114397 0.000000
0.325978 0.115984 0.000000
0.360296 0.119615 0.000000
0.391180 0.123522 0.000000
0.422553 0.127459 0.000000
0.456870 0.131365 0.000000
0.484092 0.136797 0.000000
0.513313 0.140810 0.000000
0.541665 0.143328 0.000000
0.568948 0.147066 0.000000
0.596078 0.147555 0.000000
0.626825 0.152087 0.000961
0.653925 0.156252 0.009674
0.680018 0.160174 0.019608
0.703182 0.167895 0.023529
0.726345 0.176150 0.028672
0.746075 0.187747 0.048463
0.760616 0.198901 0.070832
0.764462 0.207111 0.086275
0.768261 0.214939 0.101610
0.772061 0.225986 0.113237
0.000000 0.088975 0.039216
0.000000 0.088975 0.039216
0.000000 0.092287 0.039216
0.003555 0.092897 0.039216
0.033463 0.099626 0.039216
0.071550 0.104555 0.035294
0.098528 0.108461 0.032105
0.132357 0.115084 0.028305
0.170962 0.120195 0.020584
0.209125 0.126467 0.009552
0.247135 0.130266 0.001221
0.281834 0.137377 0.000000
0.314458 0.141405 0.000000
0.348653 0.145220 0.000000
0.379873 0.149050 0.000000
0.414343 0.152865 0.000000
0.445228 0.156680 0.000000
0.476097 0.162249 0.000000
0.506981 0.166171 0.000000
0.534310 0.170092 0.000000
0.561288 0.170718 0.000000
0.590448 0.174014 0.000000
0.617716 0.175662 0.000000
0.644785 0.179049 0.004578
0.669368 0.183307 0.012741
0.695460 0.186648 0.019745
0.718624 0.194369 0.020844
0.741787 0.202182 0.032593
0.760540 0.213809 0.055756
0.771374 0.222065 0.078553
0.775280 0.229786 0.093996
0.779187 0.237507 0.106111
0.779782 0.241917 0.117647
0.000000 0.107591 0.042405
0.000000 0.108309 0.042405
0.000000 0.111315 0.042405
0.003555 0.112184 0.042176
0.029664 0.118868 0.039216
0.071443 0.123400 0.035416
0.105531 0.130526 0.031510
0.140078 0.138109 0.021897
0.184802 0.145830 0.013474
0.224384 0.149630 0.005020
0.262989 0.156847 0.000000
0.301106 0.164340 0.000000
0.335821 0.169604 0.000000
0.368322 0.173968 0.000000
0.402701 0.177859 0.000000
0.433967 0.181765 0.000000
0.468376 0.187259 0.000000
0.499260 0.191058 0.000000
0.528756 0.195270 0.000000
0.557107 0.197055 0.000000
0.584070 0.198993 0.000000
0.609934 0.201236 0.000000
0.636988 0.204898 0.000992
0.661555 0.208820 0.008942
0.687739 0.210361 0.015686
0.710903 0.214176 0.019608
0.734066 0.221317 0.021683
0.756619 0.229786 0.040314
0.772061 0.237507 0.063874
0.782910 0.245228 0.089464
0.783780 0.252735 0.104707
0.787503 0.256748 0.116320
0.791424 0.264454 0.124758
0.000000 0.126833 0.043137
0.000000 0.126833 0.043137
0.000000 0.130510 0.043137
0.000778 0.134600 0.039292
0.028916 0.138109 0.036530
0.071443 0.145830 0.032227
0.109346 0.153552 0.025116
0.150851 0.164340 0.016739
0.196323 0.172061 0.005753
0.242023 0.179782 0.000244
0.282353 0.187503 0.000000
0.320394 0.195224 0.000000
0.356252 0.200168 0.000000
0.391058 0.206226 0.000000
0.422416 0.210544 0.000000
0.456733 0.214343 0.000000
0.488045 0.218143 0.000000
0.519356 0.221942 0.000000
0.549386 0.225742 0.000000
0.576852 0.227939 0.000000
0.603845 0.229419 0.000000
0.629221 0.231861 0.000000
0.656275 0.233082 0.005142
0.680018 0.236027 0.008942
0.703182 0.239704 0.015686
0.726345 0.243809 0.017212
0.748775 0.248280 0.028794
0.768750 0.256870 0.055024
0.784329 0.264591 0.078187
0.794369 0.271153 0.100694
0.795407 0.276097 0.113115
0.799145 0.279896 0.124758
0.802213 0.287617 0.135546
0.000000 0.149996 0.043137
0.000000 0.149996 0.043137
0.000000 0.153857 0.039216
0.000000 0.160510 0.036545
0.025864 0.165194 0.029282
0.070832 0.172915 0.021347
0.116365 0.183581 0.013474
0.161517 0.191302 0.005753
0.213977 0.202945 0.000244
0.258091 0.212772 0.000000
0.300740 0.221317 0.000000
0.339345 0.229038 0.000000
0.376104 0.234928 0.000000
0.410880 0.240955 0.000000
0.445090 0.244785 0.000000
0.478065 0.250004 0.000000
0.510780 0.252445 0.000000
0.541665 0.256275 0.000000
0.569177 0.258274 0.000000
0.596170 0.260014 0.000000
0.622065 0.262745 0.000000
0.648157 0.262745 0.004288
0.672297 0.265995 0.009064
0.695460 0.266667 0.011765
0.718624 0.270588 0.013474
0.741787 0.274723 0.023285
0.764218 0.279164 0.039460
0.783581 0.286427 0.067155
0.798535 0.291539 0.093629
0.805982 0.298131 0.112230
0.809812 0.302022 0.123842
0.810788 0.306950 0.135454
0.813718 0.310780 0.147066
0.000000 0.173159 0.039216
0.000000 0.175891 0.039216
0.000000 0.180758 0.036393
0.003555 0.184817 0.028916
0.028779 0.192279 0.018738
0.077134 0.200000 0.009735
0.126192 0.213733 0.001831
0.176349 0.222187 0.000244
0.227207 0.233829 0.000000
0.277455 0.245151 0.000000
0.319097 0.255131 0.000000
0.358572 0.264454 0.000000
0.394369 0.269688 0.000000
0.430182 0.275700 0.000000
0.464958 0.280140 0.000000
0.497826 0.283940 0.000000
0.530571 0.285786 0.000000
0.560174 0.289708 0.000000
0.588495 0.289708 0.000000
0.614343 0.291951 0.000000
0.640726 0.293629 0.003235
0.664576 0.293629 0.007126
0.687739 0.294728 0.011765
0.714031 0.297551 0.012558
0.737011 0.299351 0.019364
0.757229 0.303197 0.034806
0.777371 0.307027 0.050980
0.796643 0.313848 0.082597
0.811154 0.318746 0.108721
0.818509 0.325109 0.124758
0.821317 0.328985 0.135363
0.822431 0.332876 0.146975
0.825238 0.337865 0.155764
0.000000 0.196323 0.035294
0.000000 0.200122 0.029984
0.000000 0.206622 0.024994
0.005997 0.211643 0.017273
0.037751 0.219364 0.007202
0.091295 0.229786 0.001831
0.144350 0.241428 0.000000
0.194507 0.253071 0.000000
0.245594 0.264714 0.000000
0.292897 0.276341 0.000000
0.336522 0.286763 0.000000
0.375128 0.295705 0.000000
0.413718 0.303426 0.000000
0.449500 0.308324 0.000000
0.484276 0.311025 0.000000
0.515679 0.314824 0.000000
0.546563 0.316670 0.000000
0.577447 0.318502 0.000000
0.604410 0.320592 0.000000
0.629786 0.320592 0.004288
0.656870 0.321813 0.007843
0.680018 0.322744 0.010956
0.703182 0.324514 0.012604
0.726696 0.324514 0.020249
0.750423 0.328435 0.032898
0.771817 0.330251 0.048142
0.791409 0.334081 0.066423
0.810544 0.340810 0.094316
0.822797 0.348196 0.120256
0.830396 0.352071 0.136645
0.832837 0.355962 0.147066
0.834073 0.359838 0.158495
0.834073 0.363729 0.170092
0.000000 0.222065 0.026230
0.000000 0.229786 0.018509
0.002411 0.233585 0.013352
0.018265 0.241306 0.005631
0.059190 0.249027 0.001663
0.113024 0.260655 0.000000
0.163836 0.272297 0.000000
0.217395 0.283940 0.000000
0.267521 0.295583 0.000000
0.312978 0.307225 0.000000
0.355459 0.318868 0.000000
0.394491 0.326589 0.000000
0.432242 0.334310 0.000000
0.466972 0.338659 0.000000
0.500252 0.343633 0.000000
0.531121 0.344350 0.000000
0.562005 0.347555 0.000000
0.592889 0.349386 0.001205
0.619852 0.351476 0.004288
0.645212 0.351476 0.007843
0.672297 0.351476 0.011765
0.695460 0.351476 0.014343
0.718624 0.352697 0.020294
0.741787 0.355398 0.034806
0.764950 0.355734 0.050248
0.784192 0.359319 0.062058
0.803433 0.361151 0.079042
0.822263 0.367987 0.107393
0.837003 0.375174 0.135546
0.844358 0.379049 0.150607
0.844358 0.382925 0.162249
0.845716 0.386801 0.171405
0.848280 0.388113 0.181613
0.000000 0.259312 0.022065
0.000000 0.265614 0.015686
0.009964 0.270832 0.010391
0.037263 0.278553 0.004288
0.084810 0.286275 0.000305
0.138842 0.297917 0.000000
0.192889 0.308827 0.000000
0.241093 0.320348 0.000000
0.290196 0.330022 0.000000
0.334478 0.340566 0.000000
0.374792 0.349752 0.000000
0.412375 0.357473 0.000000
0.448524 0.365194 0.000000
0.483207 0.369986 0.000000
0.515679 0.374517 0.000000
0.546563 0.376593 0.000000
0.577447 0.378424 0.002457
0.607187 0.380270 0.007065
0.635294 0.382361 0.010300
0.660655 0.382361 0.011765
0.687739 0.382361 0.015686
0.710903 0.382361 0.023285
0.734066 0.382818 0.034806
0.757229 0.386282 0.050248
0.779782 0.386282 0.065690
0.798779 0.390188 0.077211
0.818143 0.390936 0.096574
0.835431 0.398657 0.121080
0.849821 0.405875 0.150973
0.856016 0.409812 0.166415
0.857359 0.410056 0.177691
0.859800 0.413733 0.185534
0.859800 0.415198 0.197055
0.004654 0.301839 0.021942
0.016907 0.307973 0.018021
0.034287 0.311864 0.014099
0.070741 0.319478 0.010178
0.120348 0.328603 0.006546
0.174014 0.336522 0.002686
0.222324 0.345541 0.002335
0.268498 0.355886 0.002335
0.313085 0.365194 0.002335
0.354406 0.375250 0.002335
0.393011 0.384558 0.002335
0.429297 0.392279 0.002335
0.463966 0.396078 0.002335
0.499306 0.401465 0.002335
0.531121 0.405386 0.005554
0.562753 0.409308 0.008331
0.592889 0.409308 0.010178
0.621942 0.413230 0.010925
0.649027 0.413230 0.014099
0.676097 0.413230 0.018967
0.700740 0.413230 0.027207
0.726345 0.413230 0.040253
0.749508 0.413962 0.053666
0.772671 0.417151 0.065690
0.793103 0.417151 0.078798
0.812390 0.421073 0.092134
0.831693 0.424994 0.112749
0.849012 0.429175 0.136889
0.863966 0.434730 0.168750
0.869215 0.438575 0.185412
0.871321 0.440681 0.193286
0.871321 0.444602 0.204776
0.871321 0.444602 0.212497
0.030640 0.346563 0.037995
0.052079 0.350423 0.035859
0.081132 0.354269 0.031998
0.119112 0.359686 0.030152
0.164736 0.367407 0.026719
0.211612 0.375128 0.022309
0.255802 0.382849 0.022309
0.294728 0.390570 0.018753
0.335042 0.400000 0.016724
0.374136 0.407721 0.016175
0.410056 0.415442 0.016175
0.446082 0.423163 0.014466
0.480888 0.427787 0.016175
0.514092 0.432349 0.016175
0.546563 0.436271 0.017136
0.577447 0.440192 0.017899
0.607233 0.443259 0.017899
0.635294 0.444114 0.020096
0.664454 0.445090 0.024765
0.690242 0.448035 0.035050
0.715343 0.448035 0.047944
0.741787 0.448035 0.059541
0.764950 0.448035 0.068376
0.785428 0.448035 0.078431
0.806806 0.449027 0.090440
0.825742 0.451957 0.104173
0.843305 0.455879 0.126390
0.860807 0.460075 0.154437
0.876997 0.464210 0.186053
0.882841 0.468009 0.203067
0.882841 0.471565 0.214710
0.884565 0.471626 0.222431
0.884565 0.475486 0.234073
0.081498 0.388968 0.063233
0.108461 0.390814 0.057359
0.137255 0.394614 0.055512
0.171695 0.398657 0.053498
0.210056 0.406012 0.051469
0.248737 0.411643 0.047547
0.287007 0.419364 0.043977
0.322087 0.425650 0.040101
0.358206 0.434348 0.036240
0.393988 0.441199 0.033707
0.428153 0.446326 0.033707
0.462882 0.454047 0.033707
0.496330 0.459312 0.033707
0.527199 0.464469 0.033707
0.562005 0.468330 0.033707
0.592889 0.471077 0.029786
0.619852 0.474998 0.032654
0.649760 0.477943 0.039460
0.677699 0.478920 0.047181
0.704662 0.478920 0.056489
0.730144 0.478920 0.066545
0.753307 0.478920 0.076097
0.777737 0.478920 0.084398
0.799634 0.478920 0.093385
0.818875 0.482841 0.103182
0.837659 0.482841 0.115679
0.856611 0.483574 0.138750
0.873899 0.488930 0.171328
0.888853 0.494835 0.201968
0.894530 0.498528 0.224750
0.896208 0.500496 0.236149
0.896208 0.502449 0.247669
0.896208 0.504295 0.255146
0.154910 0.429419 0.090196
0.176165 0.433204 0.086397
0.199268 0.433326 0.086275
0.226169 0.437263 0.082536
0.255146 0.442893 0.082353
0.284123 0.448402 0.078737
0.314702 0.454170 0.075242
0.349081 0.459922 0.071015
0.382361 0.465690 0.066667
0.415198 0.473411 0.062745
0.446082 0.478431 0.062745
0.480201 0.484932 0.062745
0.511772 0.488731 0.060777
0.542641 0.494118 0.056855
0.574640 0.499138 0.056855
0.604410 0.501961 0.054902
0.634318 0.505882 0.056855
0.662257 0.508766 0.062623
0.690318 0.509804 0.072297
0.717342 0.509804 0.080018
0.741665 0.509804 0.085786
0.766796 0.509804 0.093507
0.789944 0.509804 0.099260
0.811154 0.509804 0.106981
0.831861 0.510292 0.118624
0.851164 0.512200 0.131121
0.868498 0.514092 0.152697
0.885542 0.518257 0.187076
0.900496 0.525490 0.219608
0.906065 0.527642 0.247974
0.907836 0.529412 0.262989
0.907836 0.531380 0.266789
0.907836 0.531380 0.272541
0.220706 0.468009 0.121080
0.236149 0.468009 0.119295
0.249744 0.471824 0.117281
0.271000 0.475486 0.115496
0.293996 0.479286 0.113237
0.318914 0.483085 0.109636
0.345586 0.488975 0.105776
0.375036 0.493172 0.101472
0.405509 0.498924 0.097551
0.436393 0.504295 0.096056
0.465446 0.509316 0.093629
0.496330 0.515816 0.090333
0.527199 0.519615 0.087251
0.558083 0.524254 0.083452
0.588968 0.528923 0.081865
0.618021 0.532845 0.085786
0.645899 0.535851 0.086702
0.673777 0.537743 0.091539
0.701900 0.540688 0.098466
0.728191 0.540688 0.102312
0.753185 0.540688 0.107469
0.778424 0.540688 0.112108
0.801587 0.538842 0.117983
0.822156 0.540688 0.126345
0.841459 0.540688 0.136431
0.862379 0.540688 0.150484
0.880049 0.543114 0.171328
0.897185 0.546975 0.203113
0.910307 0.552712 0.240940
0.917601 0.556573 0.265492
0.919478 0.558450 0.276463
0.919478 0.558450 0.280323
0.919478 0.558450 0.284184
0.274754 0.502693 0.148043
0.284688 0.504906 0.146319
0.298390 0.506615 0.146319
0.313512 0.510384 0.142565
0.332601 0.512749 0.140200
0.354040 0.516670 0.138476
0.376791 0.520592 0.134874
0.402090 0.525856 0.132357
0.432593 0.531365 0.129412
0.456733 0.535164 0.128435
0.485344 0.540200 0.125734
0.512352 0.545571 0.123064
0.542641 0.549416 0.120592
0.572519 0.554284 0.118257
0.600488 0.558083 0.116670
0.629664 0.560983 0.118379
0.657481 0.563729 0.120592
0.683574 0.566735 0.121614
0.711498 0.567651 0.125475
0.738521 0.569848 0.125399
0.762997 0.567651 0.127550
0.786145 0.567651 0.131395
0.809308 0.567651 0.135790
0.831861 0.567651 0.145708
0.851713 0.567651 0.155703
0.870954 0.568124 0.168124
0.889464 0.570169 0.187091
0.908476 0.574380 0.221912
0.920073 0.579690 0.258579
0.927367 0.581781 0.278523
0.928923 0.583337 0.288106
0.928923 0.583337 0.291905
0.928923 0.583337 0.295827
0.319356 0.535790 0.173404
0.327077 0.539635 0.173404
0.337133 0.539712 0.171221
0.350729 0.543267 0.169482
0.366171 0.547066 0.167453
0.383581 0.547555 0.165805
0.402869 0.551476 0.165560
0.426978 0.555398 0.161990
0.452811 0.561059 0.159899
0.477653 0.564904 0.158175
0.503059 0.568765 0.156115
0.528557 0.572610 0.154345
0.558083 0.576455 0.152346
0.585046 0.580301 0.151476
0.613031 0.584146 0.150576
0.639216 0.588006 0.149874
0.666300 0.589883 0.149874
0.693385 0.591775 0.149874
0.719158 0.593011 0.149874
0.745220 0.595560 0.149874
0.770718 0.594614 0.149874
0.796750 0.594614 0.154345
0.818128 0.593011 0.158953
0.840192 0.593011 0.166674
0.862379 0.593011 0.175372
0.881743 0.593362 0.187396
0.897185 0.596933 0.205097
0.916548 0.600855 0.233082
0.928069 0.604974 0.265400
0.936736 0.608698 0.290043
0.938842 0.608698 0.299626
0.938842 0.608698 0.301305
0.938842 0.608698 0.305150
0.354910 0.566674 0.196567
0.362615 0.569116 0.196567
0.370336 0.570581 0.196567
0.381613 0.572808 0.194354
0.393439 0.574319 0.192645
0.410651 0.576577 0.192645
0.429664 0.580423 0.190661
0.448890 0.584268 0.188724
0.472053 0.588113 0.186893
0.494163 0.591958 0.184802
0.520836 0.595346 0.183124
0.543999 0.599145 0.181384
0.569604 0.602945 0.179355
0.596689 0.605280 0.178424
0.622705 0.608331 0.177600
0.649027 0.612253 0.176959
0.674022 0.614221 0.176959
0.700328 0.616175 0.176959
0.725338 0.616175 0.175891
0.752346 0.620096 0.174517
0.777508 0.620096 0.176959
0.801587 0.620096 0.178302
0.826444 0.620096 0.182101
0.847501 0.619409 0.188357
0.867155 0.616175 0.196078
0.888319 0.620096 0.204334
0.904906 0.620096 0.218906
0.920729 0.624018 0.243137
0.935790 0.628244 0.274022
0.946563 0.631861 0.300008
0.950484 0.631861 0.311269
0.948043 0.631861 0.312825
0.948043 0.631861 0.315190
0.385779 0.596201 0.219730
0.393500 0.597513 0.219730
0.399954 0.597543 0.219730
0.408942 0.600122 0.219730
0.420417 0.601297 0.218555
0.434195 0.604044 0.215808
0.452811 0.607477 0.215808
0.471000 0.609018 0.212741
0.490288 0.611887 0.211887
0.513115 0.615808 0.211887
0.535348 0.619730 0.207965
0.558968 0.622766 0.207965
0.582605 0.626108 0.205509
0.607294 0.629908 0.204044
0.631495 0.631495 0.204044
0.656031 0.635416 0.203326
0.681743 0.637385 0.200122
0.706111 0.639338 0.200122
0.731228 0.639338 0.200122
0.756191 0.642466 0.199573
0.782223 0.643259 0.198779
0.806271 0.642802 0.200122
0.831128 0.643259 0.202701
0.853559 0.643259 0.206622
0.872892 0.643259 0.211521
0.893263 0.643259 0.219242
0.911528 0.643259 0.232105
0.928069 0.647578 0.258305
0.943008 0.651102 0.285496
0.953063 0.655024 0.307958
0.958206 0.655024 0.318990
0.958206 0.655024 0.322911
0.958206 0.655024 0.322911
0.415442 0.623285 0.242893
0.420554 0.623285 0.242893
0.426963 0.623285 0.242893
0.434684 0.626947 0.241672
0.446174 0.627207 0.238972
0.457771 0.630518 0.238972
0.472801 0.631128 0.237980
0.490929 0.634455 0.235050
0.509316 0.637995 0.235050
0.528557 0.638972 0.235050
0.547799 0.642893 0.231128
0.570962 0.646815 0.231128
0.593347 0.649271 0.228672
0.616052 0.652338 0.227207
0.639216 0.654658 0.227207
0.662379 0.656733 0.224552
0.686885 0.658579 0.223285
0.711391 0.661845 0.223285
0.735088 0.662501 0.222751
0.761639 0.662501 0.219364
0.786023 0.663508 0.219364
0.809186 0.664271 0.219364
0.835050 0.663340 0.220203
0.857450 0.665537 0.223163
0.876783 0.664515 0.226963
0.897642 0.663096 0.231357
0.916930 0.666423 0.245838
0.934554 0.669306 0.265385
0.947158 0.673198 0.292744
0.958450 0.674632 0.314214
0.964782 0.678187 0.326955
0.965927 0.678187 0.330632
0.964706 0.676967 0.330632
0.442527 0.646448 0.262135
0.446357 0.646448 0.262135
0.450370 0.650126 0.262135
0.457847 0.650370 0.262135
0.468025 0.650370 0.262135
0.479591 0.654292 0.261036
0.492561 0.654292 0.258213
0.510292 0.658213 0.257343
0.525734 0.660319 0.257115
0.543206 0.662135 0.254292
0.562478 0.665705 0.254292
0.581750 0.668635 0.253193
0.604532 0.669978 0.250370
0.623774 0.673442 0.250370
0.646937 0.676097 0.247684
0.670100 0.677821 0.246448
0.692714 0.681193 0.245899
0.715312 0.681743 0.244022
0.738964 0.685039 0.242527
0.765560 0.685664 0.242084
0.788724 0.685664 0.241428
0.812985 0.685664 0.240452
0.836149 0.685664 0.238605
0.859007 0.685664 0.241428
0.880674 0.685664 0.242405
0.899992 0.685664 0.247059
0.919860 0.688685 0.258579
0.938476 0.690028 0.274464
0.953567 0.693858 0.300114
0.964813 0.697429 0.318379
0.969909 0.700313 0.333654
0.969726 0.701259 0.339467
0.969726 0.697429 0.343389
0.465690 0.669612 0.284321
0.469490 0.669612 0.284321
0.473289 0.669612 0.284321
0.481010 0.673442 0.281651
0.488609 0.673533 0.281376
0.498924 0.676005 0.281376
0.510475 0.677455 0.278004
0.525734 0.679744 0.277455
0.541176 0.681376 0.277455
0.556619 0.683482 0.276478
0.574075 0.685298 0.273533
0.593347 0.688884 0.272892
0.614343 0.691051 0.272541
0.633677 0.693141 0.269612
0.654658 0.696635 0.269062
0.677302 0.698619 0.265690
0.697063 0.700984 0.265202
0.719234 0.702358 0.264714
0.742824 0.704906 0.261769
0.767742 0.706096 0.260792
0.792645 0.707836 0.260792
0.815808 0.708186 0.259770
0.838972 0.708827 0.257847
0.862135 0.708827 0.258671
0.882109 0.708827 0.260792
0.903670 0.708827 0.264927
0.923033 0.709377 0.274022
0.942397 0.712749 0.290074
0.954910 0.716670 0.307836
0.968994 0.717037 0.323278
0.976532 0.720836 0.342641
0.977447 0.724483 0.353948
0.977447 0.723537 0.357839
0.487984 0.692775 0.304540
0.488853 0.692775 0.304540
0.495583 0.692775 0.303731
0.500252 0.692775 0.303670
0.507958 0.695445 0.300999
0.518273 0.696559 0.300618
0.529656 0.696696 0.299916
0.541176 0.699748 0.297368
0.556619 0.700618 0.296696
0.571435 0.704295 0.296696
0.587228 0.706645 0.295827
0.604959 0.708156 0.292775
0.624216 0.711513 0.292226
0.643137 0.714199 0.290089
0.662379 0.715923 0.288853
0.681621 0.719356 0.286366
0.702388 0.720226 0.284932
0.724025 0.721660 0.284062
0.746807 0.724147 0.281010
0.770336 0.727199 0.280659
0.793500 0.727520 0.278996
0.816663 0.728069 0.280140
0.841932 0.728069 0.277089
0.862745 0.728923 0.277089
0.885298 0.731334 0.280140
0.905211 0.731991 0.281010
0.923781 0.731991 0.285542
0.943130 0.735180 0.300847
0.958587 0.739071 0.315557
0.972992 0.740124 0.330999
0.980453 0.743755 0.350423
0.981247 0.743755 0.362600
0.981247 0.743755 0.366415
0.507347 0.711269 0.323781
0.511177 0.712016 0.323781
0.514946 0.712016 0.323079
0.518822 0.714900 0.323033
0.526467 0.715190 0.320256
0.534188 0.715190 0.319860
0.545830 0.715938 0.319860
0.556619 0.719112 0.319112
0.568933 0.719677 0.319112
0.583581 0.723033 0.315938
0.599023 0.725734 0.315190
0.616556 0.726955 0.313100
0.633082 0.729686 0.312016
0.650858 0.730877 0.311269
0.667887 0.734798 0.308095
0.687251 0.736889 0.307698
0.707836 0.738720 0.304173
0.727825 0.740948 0.303822
0.750240 0.742641 0.302037
0.773404 0.746563 0.300252
0.796567 0.746563 0.298314
0.819730 0.746822 0.296330
0.842893 0.748302 0.296330
0.866056 0.750484 0.296330
0.885847 0.750668 0.296330
0.907759 0.751919 0.299504
0.926955 0.754406 0.300847
