app/src/main/assets/filters/ultramax400.cube
# Created from ultramax400.plut
LUT_3D_SIZE 9
DOMAIN_MIN 0.0 0.0 0.0
DOMAIN_MAX 1.0 1.0 1.0
0.066667 0.050980 0.035294
0.085786 0.047547 0.031861
0.144121 0.032349 0.027451
0.208820 0.017151 0.023529
0.270588 0.011765 0.023529
0.334798 0.015686 0.023529
0.393133 0.015686 0.023529
0.427939 0.011765 0.023529
0.431373 0.015686 0.023529
0.108339 0.126955 0.054414
0.134798 0.123033 0.050492
0.214710 0.104906 0.040070
0.284810 0.071565 0.024811
0.336767 0.035782 0.023529
0.364218 0.015503 0.023529
0.392767 0.015320 0.023529
0.427939 0.015198 0.023529
0.431373 0.015198 0.023529
0.227451 0.319615 0.096071
0.227451 0.319615 0.096071
0.330388 0.292164 0.078187
0.442283 0.257847 0.058946
0.512261 0.213718 0.043626
0.539223 0.161761 0.030396
0.538476 0.095094 0.023529
0.524392 0.046693 0.023529
0.507836 0.036271 0.023529
0.348531 0.514214 0.131868
0.348531 0.514214 0.134310
0.397543 0.501961 0.121080
0.551965 0.486213 0.099565
0.641917 0.476478 0.088731
0.687251 0.456870 0.067643
0.696086 0.366049 0.045594
0.692164 0.274510 0.041672
0.682841 0.240192 0.039216
0.419608 0.645090 0.168627
0.419608 0.645090 0.168627
0.419608 0.645090 0.168627
0.582605 0.639216 0.119860
0.710780 0.660777 0.107836
0.764950 0.665934 0.088731
0.792645 0.621576 0.061769
0.796323 0.549996 0.047059
0.794125 0.515679 0.045090
0.437751 0.733822 0.163241
0.437751 0.733822 0.163241
0.437751 0.733822 0.163241
0.470527 0.735348 0.151904
0.728679 0.764462 0.113725
0.812253 0.773037 0.093202
0.853437 0.757473 0.069612
0.865690 0.720104 0.047059
0.863233 0.691173 0.047059
0.414710 0.799023 0.124514
0.410788 0.799023 0.123522
0.410788 0.799023 0.123522
0.410788 0.801968 0.123522
0.667155 0.821073 0.115679
0.824018 0.841184 0.121447
0.876478 0.837995 0.086275
0.900374 0.825116 0.059800
0.902937 0.804898 0.051957
0.396078 0.839704 0.094118
0.396078 0.839704 0.094118
0.396078 0.839704 0.094118
0.396078 0.839704 0.094118
0.413474 0.839704 0.095827
0.805386 0.880385 0.166674
0.876341 0.882841 0.131868
0.910292 0.878859 0.090196
0.917647 0.871077 0.087251
0.396078 0.847059 0.094118
0.396078 0.847059 0.094118
0.396078 0.847059 0.094118
0.396078 0.847059 0.094118
0.396078 0.847059 0.094118
0.745098 0.883818 0.154910
0.859800 0.886275 0.159808
0.902449 0.885786 0.105394
0.917647 0.878431 0.101961
0.066667 0.066178 0.088731
0.092714 0.054902 0.077943
0.150484 0.036271 0.062623
0.212741 0.017151 0.040009
0.277943 0.013718 0.030396
0.339712 0.011948 0.023529
0.393256 0.013107 0.023529
0.427939 0.015686 0.023529
0.431373 0.015686 0.023529
0.112261 0.138720 0.115190
0.139208 0.127459 0.103990
0.204303 0.093614 0.077028
0.265690 0.056031 0.047395
0.313237 0.021042 0.028885
0.342275 0.015351 0.023529
0.393256 0.015579 0.023529
0.427939 0.015564 0.023529
0.431373 0.011826 0.023529
0.235294 0.349508 0.168261
0.235996 0.348333 0.164446
0.330938 0.306401 0.134218
0.438636 0.261402 0.103914
0.502266 0.202945 0.069245
0.523949 0.139345 0.039170
0.519677 0.076631 0.023529
0.506661 0.036378 0.023529
0.492531 0.029419 0.023529
0.352453 0.534310 0.188418
0.352270 0.532540 0.182361
0.397543 0.514214 0.157488
0.550484 0.499687 0.132784
0.638727 0.476219 0.114458
0.682048 0.443809 0.070970
0.690867 0.347555 0.044602
0.683314 0.256672 0.039216
0.673533 0.226963 0.037751
0.419608 0.643137 0.168627
0.419608 0.643381 0.168627
0.419608 0.643381 0.168627
0.582605 0.638575 0.119860
0.711635 0.660777 0.107836
0.764950 0.663233 0.088731
0.790692 0.615442 0.059800
0.794125 0.540688 0.047059
0.790188 0.508095 0.045090
0.437751 0.733822 0.163241
0.437751 0.733822 0.163241
0.437751 0.733822 0.163241
0.470527 0.733822 0.153735
0.728679 0.763729 0.113725
0.813794 0.773037 0.093202
0.852811 0.754757 0.067765
0.865690 0.716365 0.047059
0.863233 0.689036 0.047059
0.414588 0.799023 0.124392
0.411643 0.799023 0.124285
0.410788 0.799023 0.123522
0.410788 0.801968 0.123522
0.670039 0.821073 0.115679
0.824994 0.841184 0.121447
0.876478 0.837995 0.086275
0.900374 0.822232 0.059800
0.902937 0.804898 0.051957
0.396078 0.839704 0.094118
0.396078 0.839704 0.094118
0.396078 0.839704 0.094118
0.396078 0.839704 0.094118
0.426719 0.839704 0.095827
0.808026 0.880385 0.166674
0.876341 0.882841 0.128435
0.910292 0.878431 0.087190
0.917647 0.871077 0.087251
0.396078 0.847059 0.094118
0.396078 0.847059 0.094118
0.396078 0.847059 0.094118
0.396078 0.847059 0.094118
0.396078 0.847059 0.094118
0.755093 0.883818 0.158633
0.860792 0.886275 0.158816
0.902449 0.885786 0.105394
0.917647 0.878431 0.101961
0.081376 0.062745 0.192157
0.111757 0.052323 0.176959
0.171817 0.039216 0.157839
0.260288 0.022919 0.134798
0.346075 0.014221 0.115190
0.409308 0.015686 0.098039
0.440436 0.014954 0.078431
0.456870 0.015320 0.068498
0.456870 0.015686 0.067643
0.090074 0.120104 0.234318
0.127230 0.101946 0.210895
0.203067 0.074723 0.177356
0.280018 0.035843 0.139528
0.342336 0.013977 0.111269
0.405432 0.015640 0.093156
0.437263 0.015595 0.075242
0.456764 0.015366 0.067643
0.455512 0.012253 0.067155
0.221317 0.375494 0.333333
0.231861 0.360906 0.322423
0.324086 0.303670 0.269184
0.430152 0.245380 0.219089
0.491173 0.173892 0.164828
0.517617 0.099260 0.112139
0.512688 0.045350 0.078187
0.500557 0.022553 0.069764
0.494118 0.021561 0.065690
0.339208 0.579904 0.395468
0.339208 0.579904 0.392645
0.398657 0.553399 0.361486
0.530510 0.519478 0.318883
0.623835 0.482109 0.280140
0.665309 0.415854 0.213397
0.671443 0.323033 0.144121
0.666590 0.232715 0.098970
0.657359 0.200855 0.093629
0.374517 0.688731 0.406867
0.374517 0.687434 0.402701
0.378302 0.687251 0.395346
0.551293 0.669612 0.340871
0.694850 0.670588 0.323781
0.753674 0.655695 0.285786
0.781247 0.608331 0.209934
0.784558 0.538231 0.149569
0.780880 0.503426 0.131380
0.364340 0.762737 0.356497
0.366537 0.761883 0.352575
0.367987 0.761761 0.345006
0.422705 0.758389 0.318532
0.711452 0.764279 0.284443
0.807843 0.770657 0.265614
0.847395 0.753094 0.216175
0.859922 0.713146 0.146822
0.858213 0.689464 0.118257
0.353918 0.818875 0.261280
0.350973 0.819608 0.263264
0.353613 0.819364 0.260655
0.354162 0.818906 0.255390
0.661280 0.822553 0.231861
0.824720 0.841184 0.262623
0.875914 0.836515 0.186465
0.899138 0.822095 0.109407
0.900008 0.800977 0.067399
0.385779 0.845960 0.114702
0.377691 0.848524 0.133455
0.371725 0.848890 0.143389
0.362280 0.852613 0.168826
0.419364 0.855451 0.195834
0.806912 0.882765 0.333379
0.876341 0.883207 0.280491
0.909926 0.878431 0.139254
0.917647 0.871077 0.089097
0.396078 0.847059 0.094118
0.396078 0.847059 0.094118
0.396078 0.847059 0.094118
0.380636 0.854780 0.123903
0.333822 0.869123 0.256367
0.757229 0.889586 0.485664
0.857603 0.894118 0.564462
0.898528 0.893141 0.425986
0.917647 0.885298 0.274510
0.120104 0.050980 0.311772
0.152941 0.047059 0.301778
0.226108 0.043137 0.290684
0.336278 0.035294 0.281926
0.440192 0.024750 0.265202
0.500496 0.015686 0.236698
0.521447 0.015686 0.204898
0.526467 0.015686 0.188418
0.524025 0.015686 0.182361
0.081376 0.061097 0.336278
0.124651 0.052155 0.317128
0.217105 0.044419 0.295933
0.334798 0.035294 0.282841
0.439460 0.024750 0.265202
0.498161 0.014221 0.234318
0.519234 0.015686 0.201053
0.526436 0.015518 0.186053
0.523842 0.015381 0.181857
0.166674 0.329778 0.470100
0.188724 0.296498 0.442573
0.295583 0.253315 0.393805
0.426474 0.217639 0.355917
0.508095 0.154589 0.311269
0.540078 0.078141 0.258335
0.542519 0.028550 0.212161
0.542153 0.018631 0.190066
0.541665 0.018631 0.188113
0.298039 0.595102 0.551034
0.298039 0.595102 0.551965
0.378927 0.540688 0.514153
0.505791 0.497063 0.462898
0.601740 0.453437 0.414191
0.641108 0.369467 0.350576
0.651408 0.280385 0.288609
0.649943 0.209140 0.252140
0.650553 0.197482 0.247486
0.318624 0.716915 0.586770
0.318624 0.717983 0.585534
0.318624 0.718135 0.583032
0.528405 0.677943 0.537987
0.667399 0.664454 0.507713
0.727977 0.636057 0.467643
0.753857 0.577264 0.399084
0.756374 0.505303 0.331716
0.754406 0.477943 0.318624
0.268132 0.798474 0.598093
0.269612 0.798474 0.595209
0.272053 0.797543 0.592096
0.381643 0.788663 0.582361
0.677943 0.769116 0.559289
0.779919 0.767071 0.537743
0.823529 0.743404 0.483680
0.836774 0.702388 0.404608
0.833326 0.679957 0.371084
0.239704 0.859312 0.609812
0.239704 0.859312 0.612970
0.239704 0.859312 0.616663
0.239704 0.859312 0.616541
0.649760 0.837568 0.620890
0.794125 0.837263 0.607843
0.851102 0.837263 0.547097
0.883589 0.816526 0.457298
0.887251 0.796445 0.395590
0.262257 0.893141 0.613535
0.261830 0.893141 0.623194
0.260807 0.894911 0.628916
0.257847 0.894911 0.641291
0.501442 0.891997 0.681224
0.790509 0.886763 0.691539
0.861891 0.890684 0.634485
0.902632 0.885191 0.527459
0.917647 0.877638 0.432044
0.287739 0.896574 0.537743
0.283818 0.898039 0.562737
0.279896 0.900496 0.594614
0.272602 0.904417 0.640192
0.264958 0.908339 0.681865
0.773037 0.898039 0.736767
0.849027 0.898039 0.703426
0.890684 0.898039 0.630396
0.917647 0.894118 0.550484
0.164706 0.047059 0.421576
0.202945 0.047059 0.417639
0.288731 0.047059 0.417639
0.401968 0.047059 0.416419
0.494118 0.039216 0.398032
0.541421 0.023529 0.372549
0.567651 0.019120 0.342153
0.574517 0.019608 0.325490
0.570581 0.017639 0.315679
0.113481 0.047059 0.430884
0.150973 0.047059 0.425025
0.255329 0.047059 0.421576
0.393622 0.047059 0.417639
0.493141 0.039094 0.398901
0.541421 0.023529 0.371084
0.567163 0.018143 0.340261
0.574228 0.019120 0.323247
0.570581 0.015686 0.314946
0.108339 0.212253 0.517159
0.143130 0.178988 0.484932
0.254414 0.165682 0.464210
0.409873 0.159136 0.459983
0.515679 0.126955 0.436027
0.553002 0.055818 0.388785
0.567773 0.019608 0.337865
0.572061 0.017456 0.320592
0.572061 0.016175 0.315679
0.232105 0.565927 0.644602
0.230793 0.564065 0.644602
0.328923 0.474205 0.581979
0.470100 0.441947 0.550454
0.578058 0.415198 0.525002
0.623743 0.343908 0.482841
0.642649 0.264454 0.430823
0.646723 0.213230 0.392309
0.652934 0.215930 0.393622
0.265690 0.721569 0.696086
0.265690 0.722545 0.696086
0.299260 0.716426 0.693141
0.512261 0.664210 0.645960
0.640192 0.643626 0.616175
0.703182 0.607233 0.580758
0.731365 0.545098 0.530877
0.736278 0.477699 0.483818
0.737255 0.463722 0.478431
0.194369 0.814710 0.730877
0.194369 0.814710 0.729808
0.194369 0.814710 0.728923
0.393652 0.797055 0.716915
0.664088 0.767773 0.683940
0.758846 0.759045 0.666178
0.801404 0.728679 0.624933
0.810300 0.677546 0.567163
0.809064 0.652689 0.548531
0.166659 0.876478 0.752941
0.166659 0.876478 0.755886
0.166171 0.876478 0.755886
0.165682 0.875975 0.756863
0.670832 0.843137 0.739712
0.781857 0.837263 0.719173
0.836149 0.832593 0.689708
0.870222 0.809812 0.639399
0.870100 0.790692 0.608331
0.220340 0.908339 0.771572
0.218631 0.908339 0.775219
0.218387 0.908339 0.779355
0.216419 0.910292 0.785290
0.618021 0.896696 0.789212
0.802365 0.890684 0.772061
0.853437 0.890684 0.739467
0.893141 0.885267 0.698833
0.912261 0.879408 0.656611
0.249027 0.913725 0.756863
0.247059 0.913725 0.762737
0.247059 0.913725 0.774014
0.247059 0.915679 0.787503
0.389212 0.914702 0.801968
0.798535 0.901961 0.795346
0.852445 0.903929 0.775494
0.890929 0.903929 0.744366
0.921569 0.901961 0.707836
0.220096 0.043137 0.498528
0.253132 0.043137 0.498528
0.325490 0.043137 0.497063
0.428428 0.043137 0.493141
0.512505 0.037995 0.484062
0.567651 0.030457 0.468696
0.593622 0.023529 0.452934
0.592157 0.023529 0.439521
0.592157 0.023529 0.431861
0.184314 0.043137 0.500984
0.220371 0.043137 0.500984
0.290654 0.043137 0.498024
0.406073 0.043137 0.497063
0.509316 0.039216 0.485298
0.567651 0.030457 0.468696
0.593622 0.023529 0.451102
0.592157 0.023529 0.439048
0.592157 0.023529 0.430091
0.085176 0.062867 0.518379
0.127092 0.060487 0.509682
0.233371 0.056367 0.506737
0.381857 0.051591 0.502815
0.502998 0.041047 0.489830
0.566308 0.030457 0.469612
0.593622 0.023529 0.450950
0.592157 0.023529 0.435737
0.592157 0.023529 0.428794
0.163729 0.463294 0.663722
0.186572 0.424521 0.641672
0.285420 0.361166 0.594965
0.430793 0.352850 0.583825
0.550484 0.347555 0.579416
0.610300 0.300633 0.553582
0.637263 0.226535 0.514183
0.642649 0.177096 0.474708
0.647547 0.190188 0.474998
0.231861 0.682597 0.741909
0.231861 0.681376 0.741909
0.308278 0.659373 0.723522
0.483330 0.610788 0.674479
0.611276 0.598032 0.662867
0.683543 0.568139 0.645563
0.715435 0.510780 0.607721
0.724910 0.460044 0.570336
0.729412 0.459312 0.564950
0.164218 0.806500 0.792645
0.163302 0.807416 0.794186
0.163302 0.807416 0.794186
0.429908 0.783825 0.774273
0.655909 0.756435 0.747829
0.743542 0.740749 0.732555
0.782849 0.710780 0.696345
0.796567 0.668513 0.656672
0.799023 0.649516 0.646509
0.129900 0.881376 0.828428
0.129900 0.884321 0.831373
0.129442 0.882475 0.829541
0.138247 0.881376 0.828840
0.683330 0.844114 0.801709
0.779980 0.832456 0.784512
0.824537 0.825483 0.763973
0.853025 0.799588 0.727947
0.852934 0.784924 0.710292
0.223224 0.918135 0.844114
0.224506 0.918135 0.846571
0.223224 0.918135 0.846571
0.223224 0.918135 0.850492
0.680110 0.905241 0.836912
0.811643 0.895094 0.820874
0.856962 0.887739 0.806867
0.891173 0.883818 0.785870
0.909010 0.879896 0.770581
0.248524 0.921569 0.834318
0.249821 0.921569 0.834318
0.252445 0.921569 0.838239
0.259373 0.921569 0.844602
0.534554 0.921569 0.848524
0.813794 0.913725 0.835843
0.859800 0.913725 0.828916
0.894606 0.913725 0.818143
0.925490 0.913725 0.802945
0.271565 0.043137 0.562737
0.305882 0.043137 0.561761
0.378424 0.043137 0.558831
0.464210 0.043137 0.554284
0.541176 0.039216 0.542641
0.586770 0.031983 0.530388
0.616907 0.031373 0.515435
0.620584 0.031373 0.506493
0.619608 0.031373 0.500008
0.266545 0.043137 0.562737
0.295750 0.043137 0.562737
0.360296 0.043137 0.561975
0.452354 0.043137 0.555871
0.530571 0.037934 0.546502
0.586770 0.033600 0.530388
0.617517 0.031373 0.515251
0.620584 0.031373 0.506172
0.619242 0.031373 0.499504
0.139956 0.043137 0.566674
0.180392 0.043137 0.566674
0.273777 0.043137 0.565682
0.400000 0.043137 0.562585
0.519738 0.039216 0.550118
0.583948 0.034195 0.532845
0.617212 0.031373 0.515251
0.620584 0.031373 0.503929
0.616663 0.031373 0.499016
0.120104 0.269490 0.633829
0.158328 0.246403 0.611765
0.257725 0.233555 0.593744
0.399191 0.228840 0.592035
0.528679 0.220035 0.589517
0.601465 0.184436 0.572427
0.627695 0.119829 0.539712
0.633829 0.081788 0.514076
0.632349 0.075731 0.508217
0.198535 0.600977 0.744610
0.198535 0.600977 0.744610
0.326955 0.559930 0.703304
0.459800 0.527199 0.680385
0.581613 0.522545 0.676463
0.662745 0.502693 0.667338
0.697551 0.444114 0.634318
0.705638 0.398657 0.606134
0.712749 0.407843 0.604898
0.171572 0.767163 0.811154
0.170962 0.768994 0.811154
0.170962 0.768994 0.811154
0.470603 0.737057 0.778042
0.635050 0.715999 0.761273
0.722683 0.707973 0.754040
0.768017 0.678767 0.731365
0.787869 0.640757 0.703899
0.792645 0.632227 0.697063
0.111025 0.874266 0.863966
0.111772 0.876478 0.863966
0.111772 0.876478 0.863966
0.295430 0.870100 0.862593
0.680262 0.835782 0.834318
0.771878 0.824384 0.821820
0.818082 0.813230 0.810056
0.845594 0.788113 0.783856
0.849027 0.780392 0.776471
0.278553 0.925978 0.891661
0.278538 0.925978 0.891661
0.278065 0.925978 0.891661
0.274144 0.925978 0.891661
0.705638 0.912505 0.874022
0.815549 0.899626 0.863111
0.860792 0.891661 0.856764
0.891173 0.886931 0.845960
0.902937 0.879896 0.838239
0.341176 0.930388 0.887251
0.344121 0.930388 0.887251
0.345098 0.930388 0.887251
0.348653 0.933333 0.890074
0.446571 0.931365 0.889220
0.815808 0.921569 0.871565
0.870832 0.922545 0.873289
0.899504 0.918624 0.872541
0.925490 0.918624 0.868635
0.286275 0.043137 0.604410
0.317098 0.043137 0.604410
0.389212 0.043137 0.600488
0.485786 0.043137 0.594125
0.564462 0.039216 0.578927
0.605386 0.035294 0.561273
0.632349 0.035294 0.549508
0.643137 0.035294 0.545586
0.643137 0.035294 0.541665
0.297551 0.043137 0.604410
0.328374 0.043137 0.604410
0.396994 0.043137 0.604410
0.489708 0.043137 0.594125
0.562997 0.039216 0.580423
0.605386 0.035294 0.563684
0.632349 0.035294 0.549508
0.643137 0.035294 0.545586
0.643137 0.035294 0.541665
0.272435 0.043137 0.604410
0.301961 0.043137 0.606668
0.369055 0.043137 0.604410
0.448936 0.043137 0.599603
0.536828 0.039399 0.586282
0.597543 0.035294 0.567575
0.628428 0.035294 0.549508
0.643137 0.035294 0.545586
0.643137 0.035294 0.541665
0.105577 0.060594 0.600488
0.147555 0.056306 0.600488
0.242649 0.052247 0.603876
0.379095 0.045289 0.604410
0.512505 0.043137 0.590692
0.593622 0.035492 0.569116
0.628428 0.035294 0.551354
0.643137 0.035294 0.545586
0.643137 0.035294 0.541665
0.146319 0.481621 0.726955
0.203494 0.456123 0.701503
0.302998 0.420035 0.670771
0.426474 0.407202 0.664057
0.546319 0.399145 0.660655
0.632929 0.382010 0.657694
0.669123 0.324453 0.629908
0.681621 0.273045 0.603433
0.687739 0.297063 0.607599
0.193439 0.709499 0.800488
0.193133 0.711955 0.802640
0.304967 0.700008 0.790555
0.496010 0.664714 0.762249
0.615198 0.652140 0.758816
0.696254 0.645594 0.758328
0.752087 0.617639 0.742153
0.768627 0.576165 0.715190
0.776471 0.580880 0.715679
0.109316 0.846571 0.871565
0.109316 0.849516 0.871565
0.109316 0.849516 0.872419
0.448997 0.826474 0.861143
0.669245 0.797848 0.842161
0.751843 0.790570 0.834318
0.808484 0.787015 0.830671
0.845548 0.769223 0.818753
0.850004 0.769238 0.816175
0.234806 0.925551 0.914214
0.234852 0.925551 0.914214
0.234806 0.925551 0.914214
0.234745 0.925551 0.914214
0.711055 0.904692 0.898589
0.814130 0.895583 0.895521
0.858213 0.891554 0.895140
0.895155 0.887312 0.891783
0.906859 0.883818 0.891661
0.368139 0.937255 0.917647
0.368139 0.937255 0.917647
0.368139 0.937255 0.917647
0.368139 0.937255 0.917647
0.586526 0.933333 0.913725
0.823041 0.933333 0.906554
0.875608 0.933333 0.911635
0.910780 0.933333 0.918135
0.925978 0.933333 0.918624
0.250980 0.043137 0.619608
0.285298 0.043137 0.619608
0.357839 0.043137 0.619608
0.458335 0.043137 0.615686
0.549020 0.043137 0.600000
0.605386 0.037751 0.584314
0.636271 0.035294 0.564706
0.643137 0.035294 0.564706
0.643137 0.035294 0.564706
0.254414 0.043137 0.619608
0.284871 0.043137 0.619608
0.357351 0.043137 0.619608
0.458152 0.043137 0.615686
0.547066 0.043137 0.600000
0.605386 0.037751 0.584314
0.636271 0.035294 0.564706
0.643137 0.035294 0.564706
0.643137 0.035294 0.564706
0.250980 0.043137 0.619608
0.281376 0.043137 0.619608
0.353918 0.043137 0.619608
0.454414 0.043137 0.615686
0.545098 0.043137 0.600000
0.605386 0.037751 0.584314
0.636271 0.035294 0.564706
0.643137 0.035294 0.564706
0.643137 0.035294 0.564706
0.225483 0.043137 0.619608
0.258640 0.043137 0.619608
0.333333 0.043137 0.619608
0.438727 0.043137 0.617151
0.533089 0.043137 0.603189
0.596567 0.038666 0.586770
0.632349 0.035294 0.567651
0.643137 0.035294 0.564706
0.643137 0.035294 0.564706
0.062745 0.209812 0.670588
0.095094 0.179171 0.641672
0.175494 0.152453 0.623529
0.318135 0.114702 0.622797
0.469612 0.071565 0.616663
0.574258 0.039216 0.594614
0.624506 0.035294 0.571572
0.643137 0.035294 0.564706
0.643137 0.035294 0.564706
0.195102 0.624018 0.774517
0.195102 0.622553 0.774517
0.323522 0.586770 0.746197
0.452934 0.554910 0.725002
0.563729 0.538476 0.719860
0.651957 0.521141 0.713237
0.700984 0.477455 0.698039
0.717159 0.413535 0.667643
0.721080 0.414221 0.671565
0.133333 0.805875 0.857847
0.133333 0.805875 0.857847
0.148775 0.805875 0.860792
0.522057 0.767163 0.832471
0.661769 0.757839 0.830396
0.732967 0.750973 0.827451
0.788235 0.742153 0.823529
0.823041 0.716182 0.812741
0.834318 0.708827 0.812741
0.177447 0.907347 0.906859
0.180880 0.907347 0.906859
0.180880 0.907347 0.906859
0.299687 0.902449 0.906554
0.713725 0.880140 0.900496
0.800488 0.876478 0.902937
0.850370 0.875120 0.906981
0.891661 0.868635 0.910780
0.914214 0.868635 0.914702
0.376471 0.937255 0.921569
0.376471 0.937255 0.921569
0.376471 0.937255 0.921569
0.376471 0.937255 0.921569
0.550973 0.937255 0.921569
0.826474 0.933333 0.929412
0.883330 0.937255 0.938231
0.922057 0.933333 0.941176
0.929412 0.933333 0.941176
