app/src/main/assets/filters/ultramax400.cube
# Created from ultramax400.plut
LUT_3D_SIZE 5
DOMAIN_MIN 0.0 0.0 0.0
DOMAIN_MAX 1.0 1.0 1.0
0.066667 0.050980 0.035294
0.144121 0.032349 0.027451
0.270588 0.011765 0.023529
0.393133 0.015686 0.023529
0.431373 0.015686 0.023529
0.227451 0.319615 0.096071
0.330388 0.292164 0.078187
0.512261 0.213718 0.043626
0.538476 0.095094 0.023529
0.507836 0.036271 0.023529
0.419608 0.645090 0.168627
0.419608 0.645090 0.168627
0.710780 0.660777 0.107836
0.792645 0.621576 0.061769
0.794125 0.515679 0.045090
0.414710 0.799023 0.124514
0.410788 0.799023 0.123522
0.667155 0.821073 0.115679
0.876478 0.837995 0.086275
0.902937 0.804898 0.051957
0.396078 0.847059 0.094118
0.396078 0.847059 0.094118
0.396078 0.847059 0.094118
0.859800 0.886275 0.159808
0.917647 0.878431 0.101961
0.081376 0.062745 0.192157
0.171817 0.039216 0.157839
0.346075 0.014221 0.115190
0.440436 0.014954 0.078431
0.456870 0.015686 0.067643
0.221317 0.375494 0.333333
0.324086 0.303670 0.269184
0.491173 0.173892 0.164828
0.512688 0.045350 0.078187
0.494118 0.021561 0.065690
0.374517 0.688731 0.406867
0.378302 0.687251 0.395346
0.694850 0.670588 0.323781
0.781247 0.608331 0.209934
0.780880 0.503426 0.131380
0.353918 0.818875 0.261280
0.353613 0.819364 0.260655
0.661280 0.822553 0.231861
0.875914 0.836515 0.186465
0.900008 0.800977 0.067399
0.396078 0.847059 0.094118
0.396078 0.847059 0.094118
0.333822 0.869123 0.256367
0.857603 0.894118 0.564462
0.917647 0.885298 0.274510
0.164706 0.047059 0.421576
0.288731 0.047059 0.417639
0.494118 0.039216 0.398032
0.567651 0.019120 0.342153
0.570581 0.017639 0.315679
0.108339 0.212253 0.517159
0.254414 0.165682 0.464210
0.515679 0.126955 0.436027
0.567773 0.019608 0.337865
0.572061 0.016175 0.315679
0.265690 0.721569 0.696086
0.299260 0.716426 0.693141
0.640192 0.643626 0.616175
0.731365 0.545098 0.530877
0.737255 0.463722 0.478431
0.166659 0.876478 0.752941
0.166171 0.876478 0.755886
0.670832 0.843137 0.739712
0.836149 0.832593 0.689708
0.870100 0.790692 0.608331
0.249027 0.913725 0.756863
0.247059 0.913725 0.774014
0.389212 0.914702 0.801968
0.852445 0.903929 0.775494
0.921569 0.901961 0.707836
0.271565 0.043137 0.562737
0.378424 0.043137 0.558831
0.541176 0.039216 0.542641
0.616907 0.031373 0.515435
0.619608 0.031373 0.500008
0.139956 0.043137 0.566674
0.273777 0.043137 0.565682
0.519738 0.039216 0.550118
0.617212 0.031373 0.515251
0.616663 0.031373 0.499016
0.198535 0.600977 0.744610
0.326955 0.559930 0.703304
0.581613 0.522545 0.676463
0.697551 0.444114 0.634318
0.712749 0.407843 0.604898
0.111025 0.874266 0.863966
0.111772 0.876478 0.863966
0.680262 0.835782 0.834318
0.818082 0.813230 0.810056
0.849027 0.780392 0.776471
0.341176 0.930388 0.887251
0.345098 0.930388 0.887251
0.446571 0.931365 0.889220
0.870832 0.922545 0.873289
0.925490 0.918624 0.868635
0.250980 0.043137 0.619608
0.357839 0.043137 0.619608
0.549020 0.043137 0.600000
0.636271 0.035294 0.564706
0.643137 0.035294 0.564706
0.250980 0.043137 0.619608
0.353918 0.043137 0.619608
0.545098 0.043137 0.600000
0.636271 0.035294 0.564706
0.643137 0.035294 0.564706
0.062745 0.209812 0.670588
0.175494 0.152453 0.623529
0.469612 0.071565 0.616663
0.624506 0.035294 0.571572
0.643137 0.035294 0.564706
0.133333 0.805875 0.857847
0.148775 0.805875 0.860792
0.661769 0.757839 0.830396
0.788235 0.742153 0.823529
0.834318 0.708827 0.812741
0.376471 0.937255 0.921569
0.376471 0.937255 0.921569
0.550973 0.937255 0.921569
0.883330 0.937255 0.938231
0.929412 0.933333 0.941176
