app/src/main/assets/filters/ultramax400.cube
# Created from ultramax400.plut
LUT_3D_SIZE 33
DOMAIN_MIN 0.0 0.0 0.0
DOMAIN_MAX 1.0 1.0 1.0
0.066667 0.050980 0.035294
0.066667 0.050980 0.035294
0.070588 0.050980 0.035294
0.078065 0.050980 0.035294
0.085786 0.047547 0.031861
0.100740 0.047059 0.031373
0.116182 0.043870 0.028183
0.131624 0.040070 0.027451
0.144121 0.032349 0.027451
0.158572 0.028550 0.023529
0.177935 0.024750 0.023529
0.193378 0.020951 0.023529
0.208820 0.017151 0.023529
0.224262 0.013352 0.023529
0.239704 0.011765 0.023529
0.255146 0.013855 0.023529
0.270588 0.011765 0.023529
0.286030 0.015686 0.023529
0.301472 0.015686 0.023529
0.316915 0.014099 0.023529
0.334798 0.015686 0.023529
0.347799 0.011765 0.023529
0.367163 0.012985 0.023529
0.378683 0.015686 0.023529
0.393133 0.015686 0.023529
0.401709 0.015686 0.023529
0.413230 0.014954 0.023529
0.424140 0.015686 0.023529
0.427939 0.011765 0.023529
0.431373 0.011765 0.023529
0.431373 0.012009 0.023529
0.431373 0.011765 0.023529
0.431373 0.015686 0.023529
0.070466 0.058701 0.035294
0.070588 0.058701 0.035294
0.074495 0.058701 0.035294
0.081987 0.058701 0.035294
0.093507 0.058701 0.035187
0.108553 0.055375 0.031373
0.123903 0.051575 0.031373
0.139345 0.047791 0.027451
0.151843 0.042924 0.027451
0.166293 0.036271 0.023529
0.181735 0.028641 0.023529
0.197177 0.024750 0.023529
0.212619 0.019532 0.023529
0.224262 0.015686 0.023529
0.239704 0.015686 0.023529
0.255146 0.013672 0.023529
0.270588 0.011887 0.023529
0.286030 0.015564 0.023529
0.301472 0.015564 0.023529
0.316915 0.014069 0.023529
0.332357 0.013260 0.023529
0.347799 0.013199 0.023529
0.367163 0.013031 0.023529
0.378683 0.015595 0.023529
0.393133 0.014649 0.023529
0.401709 0.014862 0.023529
0.413230 0.015656 0.023529
0.424140 0.011780 0.023529
0.427939 0.011765 0.023529
0.431373 0.011765 0.023529
0.431373 0.015442 0.023529
0.431373 0.011887 0.023529
0.431373 0.011765 0.023529
0.078187 0.074022 0.039216
0.078187 0.070207 0.038972
0.082094 0.070100 0.035523
0.089586 0.070100 0.035294
0.104448 0.070100 0.038972
0.120058 0.070100 0.035050
0.135546 0.066178 0.031373
0.150973 0.062058 0.031128
0.166171 0.055390 0.027451
0.181613 0.047669 0.024567
0.196887 0.039948 0.023529
0.212253 0.036149 0.023529
0.224018 0.028428 0.023529
0.235538 0.020859 0.023529
0.248905 0.015549 0.023529
0.262501 0.015564 0.023529
0.276097 0.013855 0.023529
0.287984 0.015442 0.023529
0.301472 0.015442 0.023529
0.316915 0.014054 0.023529
0.332357 0.013382 0.023529
0.347799 0.015686 0.023529
0.364630 0.014542 0.023529
0.378683 0.015686 0.023529
0.393133 0.015686 0.023529
0.401709 0.012818 0.023529
0.413230 0.012497 0.023529
0.424140 0.015076 0.023529
0.427939 0.015656 0.023529
0.431373 0.011795 0.023529
0.431373 0.015671 0.023529
0.431373 0.012116 0.023529
0.431373 0.012009 0.023529
0.089464 0.093019 0.046693
0.093263 0.093019 0.046693
0.093721 0.092653 0.043015
0.100862 0.092653 0.042771
0.115938 0.092653 0.042771
0.131365 0.089097 0.042771
0.150729 0.085908 0.038849
0.169726 0.082109 0.035294
0.187839 0.077943 0.034928
0.204166 0.070588 0.031006
0.219974 0.062867 0.024643
0.235172 0.055146 0.023529
0.250492 0.045212 0.023529
0.265934 0.036149 0.023529
0.277455 0.028428 0.023529
0.290639 0.021073 0.023529
0.298711 0.017456 0.023529
0.310170 0.015488 0.023529
0.318257 0.015686 0.023529
0.326345 0.014237 0.023529
0.338125 0.014221 0.023529
0.350134 0.015686 0.023529
0.364462 0.012985 0.023529
0.378683 0.015686 0.023529
0.393133 0.014801 0.023529
0.401709 0.012833 0.023529
0.412573 0.015610 0.023529
0.424140 0.012696 0.023529
0.427939 0.015686 0.023529
0.431373 0.012100 0.023529
0.431373 0.015335 0.023529
0.431373 0.011887 0.023529
0.431373 0.012131 0.023529
0.108339 0.126955 0.054414
0.108339 0.126955 0.054414
0.112505 0.126955 0.050706
0.120226 0.123522 0.050492
0.134798 0.123033 0.050492
0.150240 0.119738 0.050492
0.168963 0.115282 0.046571
0.192035 0.111757 0.042649
0.214710 0.104906 0.040070
0.233951 0.097185 0.035904
0.250492 0.089464 0.032105
0.268177 0.081743 0.028305
0.284810 0.071565 0.024811
0.300252 0.062379 0.023529
0.315679 0.054871 0.023529
0.327199 0.045106 0.023529
0.336767 0.035782 0.023529
0.344488 0.028550 0.023529
0.352209 0.022553 0.023529
0.359930 0.019120 0.023529
0.364218 0.015503 0.023529
0.372107 0.015518 0.023529
0.380148 0.015351 0.023529
0.384924 0.015549 0.023529
0.392767 0.015320 0.023529
0.404395 0.012894 0.023529
0.412497 0.014649 0.023529
0.424140 0.015610 0.023529
0.427939 0.015198 0.023529
0.431373 0.012573 0.023529
0.431373 0.014984 0.023529
0.431373 0.015106 0.023529
0.431373 0.015198 0.023529
0.135424 0.168872 0.062135
0.135424 0.168872 0.062135
0.135424 0.168872 0.062135
0.142885 0.168872 0.061524
0.154574 0.164950 0.061524
0.176196 0.158328 0.058213
0.195453 0.153307 0.054292
0.218509 0.146807 0.050370
0.241672 0.139086 0.047883
0.264836 0.134676 0.043626
0.287373 0.126955 0.039826
0.306218 0.115938 0.036027
0.323400 0.108217 0.032227
0.342153 0.096818 0.028428
0.357595 0.088853 0.024979
0.369406 0.077501 0.023529
0.378988 0.067826 0.023529
0.386725 0.058457 0.023529
0.394110 0.049287 0.023529
0.400488 0.039704 0.023529
0.402335 0.032212 0.023529
0.406134 0.024872 0.023529
0.410346 0.021271 0.023529
0.413413 0.018067 0.023529
0.417304 0.015686 0.023529
0.418631 0.015686 0.023529
0.423041 0.012879 0.023529
0.427451 0.012375 0.023529
0.431785 0.015686 0.023529
0.434684 0.015625 0.023529
0.434684 0.015106 0.023529
0.434577 0.015671 0.023529
0.431373 0.015686 0.023529
0.165682 0.215198 0.073045
0.165682 0.215198 0.073045
0.165682 0.218387 0.073045
0.169238 0.218387 0.073045
0.177203 0.214466 0.073045
0.197192 0.207858 0.069856
0.223041 0.200244 0.065339
0.248112 0.192523 0.061433
0.269184 0.184802 0.057542
0.295705 0.177081 0.053635
0.322057 0.169360 0.049744
0.345220 0.161639 0.043748
0.365652 0.151476 0.039948
0.384558 0.139956 0.036149
0.400732 0.127459 0.032349
0.413352 0.118990 0.028550
0.423407 0.108095 0.026719
0.432715 0.098146 0.023529
0.440436 0.086595 0.023529
0.444236 0.075486 0.023529
0.446571 0.064240 0.023529
0.449393 0.054536 0.023529
0.448524 0.043626 0.023529
0.451225 0.035904 0.023529
0.451225 0.028367 0.023529
0.451392 0.021363 0.023529
0.451957 0.018280 0.023529
0.451957 0.015686 0.023529
0.448768 0.015595 0.023529
0.448478 0.015686 0.023529
0.445548 0.015640 0.023529
0.441672 0.015686 0.023529
0.441672 0.015686 0.023529
0.196567 0.268498 0.084565
0.196567 0.268498 0.084565
0.196567 0.268498 0.084565
0.196567 0.268498 0.084565
0.200855 0.268498 0.084565
0.219120 0.261280 0.081254
0.246204 0.253559 0.076875
0.273091 0.245838 0.070405
0.302663 0.238117 0.066575
0.328801 0.230396 0.062745
0.353674 0.222675 0.058930
0.380758 0.212375 0.053483
0.406455 0.200855 0.049592
0.425711 0.189334 0.045686
0.444984 0.177813 0.042283
0.458244 0.166293 0.038361
0.469368 0.156741 0.034440
0.479042 0.145098 0.032593
0.486763 0.132113 0.028794
0.492378 0.120562 0.026596
0.494041 0.107103 0.023529
0.496818 0.094118 0.023529
0.494118 0.080491 0.023529
0.492897 0.068009 0.023529
0.492897 0.056703 0.023529
0.489830 0.046021 0.023529
0.488396 0.035904 0.023529
0.485771 0.029175 0.023529
0.481605 0.025742 0.023529
0.478843 0.025452 0.023529
0.474952 0.022614 0.023529
0.471046 0.021820 0.023529
0.467155 0.021820 0.023529
0.227451 0.319615 0.096071
0.227451 0.319615 0.096071
0.227451 0.319615 0.096071
0.227451 0.319615 0.096071
0.227451 0.319615 0.096071
0.239796 0.315312 0.093599
0.268635 0.307591 0.088426
0.299504 0.299870 0.082231
0.330388 0.292164 0.078187
0.360571 0.283726 0.073533
0.388174 0.273472 0.068940
0.415229 0.267979 0.062776
0.442283 0.257847 0.058946
0.466423 0.246326 0.055116
0.485786 0.234806 0.051286
0.501228 0.223285 0.046082
0.512261 0.213718 0.043626
0.522423 0.203647 0.040314
0.533089 0.190448 0.037812
0.537469 0.177203 0.034318
0.539223 0.161761 0.030396
0.541207 0.146319 0.029374
0.541909 0.129961 0.027146
0.539223 0.112505 0.025650
0.538476 0.095094 0.023529
0.535286 0.082811 0.023529
0.532174 0.068879 0.023529
0.528283 0.057603 0.023529
0.524392 0.046693 0.023529
0.519615 0.044022 0.023529
0.515679 0.040192 0.023529
0.511772 0.040070 0.023529
0.507836 0.036271 0.023529
0.259434 0.372671 0.104784
0.259403 0.372671 0.104784
0.259434 0.372671 0.104784
0.259434 0.372671 0.104784
0.259434 0.372671 0.104784
0.262745 0.372671 0.104784
0.285054 0.362173 0.100496
0.322057 0.353918 0.093629
0.356497 0.349020 0.088273
0.390387 0.339269 0.082353
0.422065 0.330755 0.078553
0.450370 0.323033 0.074754
0.477455 0.315312 0.070542
0.501762 0.306493 0.066712
0.521569 0.296574 0.062882
0.539834 0.287129 0.057130
0.551904 0.278859 0.053254
0.561547 0.270588 0.049882
0.572671 0.258946 0.045960
0.580392 0.245716 0.043702
0.585534 0.229862 0.039872
0.585534 0.210910 0.036759
0.585534 0.191547 0.034195
0.585534 0.171389 0.030274
0.584558 0.149996 0.027451
0.581613 0.130266 0.027451
0.577691 0.113481 0.027451
0.577081 0.098650 0.027451
0.573632 0.086656 0.030274
0.569757 0.079393 0.030274
0.565866 0.076600 0.029160
0.560906 0.072801 0.029084
0.556985 0.069001 0.026352
0.291905 0.424018 0.116426
0.291905 0.424018 0.116426
0.291905 0.424018 0.116426
0.291905 0.424018 0.116426
0.291905 0.424018 0.116426
0.291905 0.424018 0.116426
0.304921 0.418616 0.112016
0.338354 0.407965 0.104295
0.373953 0.403189 0.097795
0.412406 0.396445 0.092897
0.446326 0.388724 0.088975
0.479393 0.381003 0.084245
0.507317 0.373281 0.080369
0.531991 0.364843 0.076478
0.552453 0.358129 0.072602
0.571817 0.352819 0.068711
0.585290 0.345098 0.064836
0.596933 0.340078 0.060945
0.607889 0.331823 0.056367
0.618997 0.321813 0.053178
0.625238 0.304906 0.048280
0.625238 0.285664 0.044480
0.626474 0.263722 0.040681
0.628061 0.240558 0.036881
0.625238 0.217395 0.034073
0.624659 0.194247 0.031373
0.621317 0.171313 0.031373
0.620706 0.153674 0.031373
0.617243 0.138384 0.031373
0.613367 0.128557 0.031373
0.609552 0.124681 0.031373
0.608255 0.120714 0.031373
0.604410 0.116915 0.031373
0.321447 0.474266 0.124147
0.321447 0.474266 0.124147
0.321447 0.474266 0.124147
0.321447 0.474266 0.124147
0.321447 0.474266 0.124147
0.321447 0.474266 0.124147
0.324636 0.473167 0.124147
0.351232 0.459998 0.115816
0.388479 0.451713 0.109102
0.427085 0.447913 0.101717
0.465690 0.442771 0.097917
0.500374 0.438972 0.093660
0.531243 0.431250 0.089815
0.559808 0.426108 0.088045
0.580163 0.420584 0.084169
0.600122 0.416663 0.080293
0.614893 0.413352 0.077089
0.626444 0.409552 0.073899
0.638010 0.404410 0.068650
0.649577 0.395651 0.063722
0.658824 0.382101 0.059083
0.661280 0.362860 0.053086
0.663844 0.339712 0.048402
0.663844 0.315435 0.044602
0.663844 0.290806 0.040803
0.660975 0.266300 0.037873
0.659922 0.240558 0.035294
0.659312 0.221317 0.035294
0.656001 0.202747 0.035294
0.652079 0.191424 0.035294
0.651835 0.185214 0.035203
0.648035 0.181247 0.035248
0.644236 0.176104 0.033951
0.348531 0.514214 0.131868
0.348531 0.514214 0.131868
0.348531 0.514214 0.134310
0.348531 0.514214 0.134310
0.348531 0.514214 0.134310
0.348531 0.514214 0.132250
0.348531 0.514214 0.131868
0.360342 0.511925 0.130709
0.397543 0.501961 0.121080
0.438972 0.494240 0.113359
0.478676 0.490440 0.108339
0.516320 0.489220 0.103441
0.551965 0.486213 0.099565
0.580514 0.483818 0.096574
0.603922 0.479072 0.093721
0.623285 0.478431 0.089876
0.641917 0.476478 0.088731
0.653483 0.474510 0.084108
0.665049 0.473869 0.079164
0.676616 0.467521 0.073045
0.687251 0.456870 0.067643
0.692164 0.438468 0.059922
0.694392 0.416907 0.056123
0.696086 0.390890 0.049516
0.696086 0.366049 0.045594
0.696086 0.339590 0.041672
0.696086 0.316426 0.041672
0.694606 0.293492 0.041672
0.692164 0.274510 0.041672
0.690684 0.260761 0.041444
0.689067 0.251713 0.039216
0.685222 0.245548 0.039216
0.682841 0.240192 0.039216
0.373281 0.552819 0.143511
0.373281 0.552819 0.143511
0.373281 0.552819 0.143511
0.373281 0.552819 0.143511
0.373281 0.552819 0.143511
0.373281 0.552819 0.143511
0.373281 0.552819 0.143511
0.373281 0.552819 0.143511
0.400763 0.545342 0.135637
0.441550 0.538231 0.123400
0.485664 0.536034 0.114961
0.527565 0.535546 0.112139
0.564477 0.535546 0.108217
0.595010 0.533944 0.105241
0.623041 0.533944 0.102083
0.642283 0.533944 0.100374
0.660716 0.533944 0.097612
0.677333 0.533944 0.094606
0.688853 0.533944 0.089906
0.700374 0.530755 0.083085
0.710414 0.522438 0.076844
0.718135 0.507652 0.071565
0.721431 0.487861 0.063844
0.723491 0.464714 0.056580
0.726955 0.439948 0.050584
0.726955 0.414466 0.046708
0.724636 0.391730 0.043137
0.723293 0.370459 0.043137
0.726757 0.349187 0.043137
0.723033 0.332723 0.043137
0.723033 0.325093 0.043137
0.719112 0.321202 0.043137
0.719112 0.313481 0.043137
0.392645 0.585290 0.151232
0.392645 0.585290 0.151232
0.392645 0.585290 0.151232
0.392645 0.585290 0.151232
0.392645 0.585290 0.151232
0.392645 0.585290 0.151232
0.392645 0.585290 0.151232
0.392645 0.585290 0.151232
0.399451 0.584009 0.149935
0.440925 0.576837 0.136034
0.486763 0.575738 0.125002
0.531960 0.575738 0.117281
0.575250 0.575738 0.114549
0.607599 0.575738 0.112016
0.637522 0.577935 0.112016
0.659556 0.581857 0.108095
0.678920 0.581857 0.106126
0.695537 0.582895 0.102327
0.707118 0.585779 0.098528
0.718715 0.585092 0.090806
0.728923 0.579324 0.084810
0.739849 0.569604 0.077836
0.746273 0.551766 0.069368
0.748898 0.531991 0.062257
0.751720 0.511025 0.056123
0.753918 0.487861 0.050126
0.753918 0.464714 0.044923
0.751720 0.443748 0.043137
0.753643 0.422797 0.043137
0.751720 0.407553 0.043137
0.749996 0.396078 0.043137
0.747799 0.392279 0.043137
0.746075 0.384558 0.043137
0.408087 0.616175 0.162875
0.408087 0.616175 0.162875
0.408087 0.616175 0.162875
0.408087 0.616175 0.162875
0.408087 0.616175 0.162875
0.408087 0.616175 0.162875
0.408087 0.616175 0.162875
0.408087 0.616175 0.162875
0.408087 0.616175 0.162875
0.429023 0.610025 0.152056
0.482811 0.608331 0.133944
0.533089 0.608331 0.123629
0.581491 0.608331 0.118425
0.619242 0.611505 0.113725
0.652201 0.616541 0.113725
0.674998 0.620340 0.109804
0.696330 0.626108 0.107836
0.713725 0.629053 0.105882
0.724437 0.630030 0.101152
0.736019 0.630030 0.095354
0.747601 0.628550 0.088731
0.758450 0.618280 0.081010
0.766171 0.606134 0.073289
0.771466 0.588846 0.065568
0.773312 0.569482 0.057847
0.777173 0.553185 0.050980
0.778805 0.532448 0.047059
0.778805 0.512871 0.044892
0.776486 0.492058 0.043137
0.774884 0.475120 0.043137
0.774884 0.465568 0.043137
0.774762 0.459739 0.043137
0.770962 0.455879 0.043137
0.419608 0.645090 0.168627
0.419608 0.645090 0.168627
0.419608 0.645090 0.168627
0.421378 0.645090 0.168627
0.419608 0.645090 0.168627
0.419608 0.645090 0.168627
0.419608 0.645090 0.168627
0.420035 0.645090 0.168627
0.419608 0.645090 0.168627
0.421012 0.645090 0.167224
0.469978 0.639826 0.148165
0.529778 0.639216 0.130144
0.582605 0.639216 0.119860
0.626169 0.642344 0.115679
0.660914 0.649271 0.113725
0.689525 0.656992 0.110719
0.710780 0.660777 0.107836
0.731121 0.666667 0.105882
0.743755 0.666667 0.101961
0.754528 0.666667 0.096452
0.764950 0.665934 0.088731
0.776532 0.659434 0.081010
0.784924 0.650492 0.073289
0.788785 0.637003 0.066117
0.792645 0.621576 0.061769
0.796506 0.605264 0.054047
0.798047 0.586404 0.047059
0.798047 0.569055 0.047059
0.796323 0.549996 0.047059
0.798047 0.534920 0.047059
0.795956 0.525368 0.047059
0.794125 0.521447 0.046998
0.794125 0.515679 0.045090
0.429282 0.672175 0.172549
0.429282 0.672175 0.172549
0.429282 0.672175 0.172549
0.429282 0.672175 0.172549
0.429282 0.672175 0.172549
0.429282 0.672175 0.172549
0.429282 0.672175 0.172549
0.429282 0.672175 0.172549
0.429282 0.672175 0.172549
0.429282 0.672175 0.172549
0.443275 0.670756 0.165560
0.514321 0.670100 0.138506
0.575418 0.670100 0.124880
0.622660 0.671336 0.118395
0.662013 0.678309 0.114534
0.695583 0.686030 0.113725
0.721447 0.691661 0.109804
0.740688 0.696574 0.105882
0.760052 0.697551 0.102998
0.772656 0.697551 0.096452
0.783093 0.697551 0.090196
0.793256 0.692912 0.084932
0.802243 0.685817 0.077211
0.808118 0.676249 0.069490
0.809964 0.663111 0.061769
0.813809 0.648524 0.056336
0.815442 0.633082 0.048554
0.815442 0.617639 0.047059
0.815442 0.600381 0.047059
0.817273 0.587137 0.047059
0.815442 0.579416 0.047059
0.815442 0.573831 0.047059
0.813352 0.569970 0.047059
0.437003 0.695338 0.172549
0.437003 0.695338 0.172549
0.437003 0.695338 0.172549
0.437003 0.695338 0.172549
0.437003 0.695338 0.172549
0.437003 0.695338 0.172549
0.437003 0.695338 0.172549
0.437003 0.695338 0.172549
0.437003 0.695338 0.172549
0.437003 0.695338 0.172549
0.437003 0.695338 0.172549
0.481132 0.695338 0.154513
0.555642 0.695338 0.130144
0.614786 0.698375 0.119234
0.660288 0.705394 0.115435
0.699443 0.713115 0.113725
0.727459 0.719738 0.111757
0.749584 0.724636 0.105882
0.771572 0.726711 0.101961
0.786313 0.726711 0.096452
0.797055 0.726711 0.091264
0.807568 0.723156 0.084932
0.816419 0.715435 0.077211
0.824140 0.707713 0.071824
0.827390 0.696071 0.065690
0.831739 0.687495 0.057969
0.834806 0.673777 0.052369
0.834806 0.658335 0.047059
0.834806 0.644877 0.047059
0.834806 0.631739 0.047059
0.834806 0.624018 0.047059
0.832547 0.618021 0.047059
0.830884 0.614221 0.047059
0.439216 0.716915 0.170962
0.439216 0.716915 0.170962
0.439216 0.716915 0.170962
0.439216 0.716915 0.170962
0.439216 0.716915 0.170962
0.439216 0.716915 0.170962
0.439216 0.716915 0.170962
0.439216 0.716915 0.170962
0.439216 0.716915 0.170962
0.439216 0.716915 0.170962
0.439216 0.716915 0.170962
0.445335 0.716915 0.167895
0.524559 0.716915 0.140932
0.597513 0.723156 0.123812
0.651881 0.728557 0.117647
0.695094 0.736278 0.113725
0.729412 0.743999 0.112566
0.754528 0.749035 0.107973
0.776684 0.750896 0.104173
0.794400 0.752850 0.097093
0.806989 0.752209 0.092653
0.817105 0.749874 0.087327
0.826352 0.746319 0.081132
0.835660 0.738155 0.073411
0.842191 0.726955 0.066087
0.848997 0.718379 0.058320
0.850248 0.707591 0.054170
0.853803 0.695598 0.048402
0.850248 0.681987 0.047059
0.850248 0.670192 0.047059
0.850248 0.662623 0.047059
0.850126 0.658824 0.047059
0.846326 0.655024 0.047059
0.437751 0.733822 0.163241
0.437751 0.733822 0.163241
0.437751 0.733822 0.163241
0.437751 0.733822 0.163241
0.437751 0.733822 0.163241
0.437751 0.733822 0.163241
0.437751 0.733822 0.163241
0.437751 0.733822 0.163241
0.437751 0.733822 0.163241
0.437751 0.733822 0.163241
0.437751 0.733822 0.163241
0.437751 0.733822 0.163241
0.470527 0.735348 0.151904
0.569146 0.738598 0.129274
0.637598 0.750240 0.119356
0.686687 0.757961 0.115557
0.728679 0.764462 0.113725
0.758450 0.768338 0.108659
0.781613 0.771572 0.104814
0.800732 0.772168 0.100374
0.812253 0.773037 0.093202
0.823774 0.772534 0.088853
0.834073 0.770809 0.081132
0.845716 0.765560 0.074464
0.853437 0.757473 0.069612
0.857237 0.750118 0.061891
0.862226 0.738476 0.055634
0.865690 0.727062 0.050370
0.865690 0.720104 0.047059
0.867018 0.708721 0.047059
0.865690 0.698924 0.047059
0.865614 0.695048 0.047059
0.863233 0.691173 0.047059
0.431373 0.751720 0.155520
0.431373 0.751720 0.155520
0.431373 0.751720 0.155520
0.431373 0.751720 0.155520
0.431373 0.751720 0.155520
0.431373 0.751720 0.155520
0.431373 0.751720 0.155520
0.431373 0.751720 0.155520
0.431373 0.751720 0.155520
0.431373 0.751720 0.155520
0.431373 0.751720 0.155520
0.431373 0.751720 0.155520
0.431373 0.751720 0.155520
0.518456 0.754040 0.134737
0.612161 0.763973 0.119356
0.675837 0.773404 0.115557
0.721508 0.781125 0.113725
0.757733 0.784924 0.111894
0.783337 0.789487 0.106645
0.807660 0.790936 0.101717
0.819974 0.792279 0.097078
0.831495 0.792279 0.090196
0.841794 0.791058 0.085054
0.851575 0.787976 0.077333
0.861158 0.783795 0.069612
0.864958 0.775738 0.065812
0.872663 0.768017 0.058335
0.875853 0.757717 0.051713
0.879774 0.749996 0.047059
0.879774 0.740932 0.047059
0.879622 0.733288 0.047059
0.877165 0.730846 0.047059
0.875853 0.726955 0.047059
0.426230 0.771084 0.146563
0.426230 0.771084 0.146563
0.426230 0.771084 0.146563
0.426230 0.771084 0.146563
0.426230 0.771084 0.146563
0.426230 0.771084 0.146151
0.426230 0.771084 0.144381
0.426230 0.771084 0.143877
0.426230 0.771084 0.143877
0.426230 0.771084 0.143877
0.426230 0.771084 0.143877
0.426230 0.771084 0.143877
0.426230 0.771084 0.143877
0.451698 0.771084 0.138338
0.569268 0.776669 0.119905
0.653712 0.788266 0.117647
0.711269 0.796567 0.114336
0.753063 0.800366 0.113725
0.782803 0.806378 0.111025
0.807599 0.807965 0.109438
0.825452 0.810300 0.102480
0.836637 0.810300 0.095338
0.848280 0.810300 0.087114
0.859922 0.807248 0.081254
0.867643 0.805692 0.073533
0.872663 0.801862 0.067033
0.880385 0.792905 0.062013
0.883574 0.786954 0.054475
0.887495 0.775738 0.048127
0.887495 0.768017 0.047059
0.887495 0.760296 0.047059
0.887495 0.756619 0.047059
0.884810 0.753918 0.047059
0.418509 0.782605 0.136156
0.418509 0.785412 0.136156
0.418509 0.785412 0.135119
0.418509 0.785412 0.136156
0.418509 0.785412 0.136156
0.418509 0.785412 0.136156
0.418509 0.785412 0.136156
0.418509 0.785412 0.136156
0.418509 0.785412 0.136156
0.418509 0.785412 0.135042
0.418509 0.785412 0.135042
0.418509 0.785412 0.135042
0.418509 0.786526 0.135042
0.418509 0.786526 0.135042
0.502235 0.788098 0.121569
0.620813 0.799847 0.113725
0.693324 0.810910 0.117098
0.742153 0.815808 0.117647
0.778302 0.819608 0.117647
0.804120 0.823407 0.114824
0.826474 0.825742 0.113359
0.838712 0.825742 0.103792
0.850263 0.825742 0.095094
0.861036 0.824949 0.086275
0.871839 0.821820 0.078553
0.880156 0.818753 0.070832
0.884184 0.817151 0.063645
0.891295 0.810544 0.059312
0.894255 0.802823 0.054551
0.895216 0.792279 0.048157
0.895216 0.787381 0.047059
0.895216 0.780850 0.047059
0.895216 0.779782 0.047059
0.414710 0.799023 0.124514
0.411856 0.799023 0.123568
0.411765 0.799023 0.124453
0.410788 0.799023 0.123522
0.410788 0.799023 0.123522
0.410788 0.799023 0.123522
0.410788 0.799023 0.123522
0.410788 0.799023 0.123522
0.410788 0.799023 0.123522
0.410788 0.799023 0.123522
0.410788 0.799023 0.123522
0.410788 0.800946 0.123522
0.410788 0.801968 0.123522
0.410788 0.801968 0.123522
0.430640 0.801968 0.121874
0.570184 0.807691 0.113207
0.667155 0.821073 0.115679
0.727169 0.829877 0.120470
0.771023 0.833768 0.122545
0.800855 0.837263 0.122545
0.824018 0.841184 0.121447
0.842557 0.841184 0.114336
0.854414 0.841184 0.105638
0.864836 0.841184 0.097093
0.876478 0.837995 0.086275
0.884184 0.836606 0.078553
0.891905 0.833341 0.068437
0.895705 0.829786 0.063722
0.900374 0.825116 0.059800
0.903929 0.818357 0.056764
0.902937 0.811521 0.052934
0.902937 0.807843 0.052903
0.902937 0.804898 0.051957
0.406989 0.816541 0.112871
0.406989 0.816541 0.112871
0.406989 0.816541 0.112871
0.406989 0.816541 0.112871
0.406989 0.816541 0.112871
0.406989 0.816541 0.112871
0.406989 0.816541 0.112871
0.406989 0.816541 0.112871
0.406989 0.816541 0.112871
0.406989 0.816541 0.112871
0.406989 0.816541 0.112871
0.406989 0.816541 0.112871
0.406989 0.816541 0.112016
0.406989 0.817060 0.112016
0.406989 0.817395 0.112016
0.491600 0.819028 0.108751
0.632105 0.831800 0.112871
0.712200 0.842313 0.123812
0.762371 0.848295 0.131991
0.798184 0.853941 0.134539
0.824018 0.855756 0.134722
0.844968 0.856611 0.125856
0.857359 0.856611 0.116320
0.868879 0.856611 0.108690
0.879408 0.855848 0.097154
0.891051 0.852689 0.086946
0.895552 0.851957 0.078553
0.902098 0.848157 0.071305
0.906371 0.844358 0.067521
0.910658 0.840650 0.066377
0.910658 0.836820 0.063600
0.910658 0.833951 0.063569
0.910658 0.833082 0.059678
0.403189 0.824262 0.105150
0.403189 0.824262 0.105150
0.403189 0.827451 0.105150
0.403189 0.824262 0.105150
0.403189 0.824262 0.105150
0.403189 0.824262 0.105150
0.403189 0.824262 0.105150
0.403189 0.824262 0.105150
0.403189 0.824262 0.105150
0.403189 0.824262 0.105150
0.403189 0.826459 0.105150
0.400000 0.827939 0.105150
0.400000 0.828183 0.105150
0.400000 0.828183 0.105150
0.400000 0.828183 0.105150
0.419928 0.828183 0.103456
0.575372 0.836027 0.107103
0.685985 0.851133 0.124514
0.749584 0.859556 0.136767
0.789944 0.863783 0.145830
0.819364 0.867399 0.146563
0.841917 0.867399 0.141299
0.857359 0.867399 0.129656
0.868879 0.870420 0.117815
0.879591 0.867399 0.108583
0.891051 0.867399 0.097917
0.898772 0.864073 0.086870
