app/src/main/assets/filters/velvia50.33.cube
# Created from velvia50.33.plut
LUT_3D_SIZE 33
DOMAIN_MIN 0.0 0.0 0.0
DOMAIN_MAX 1.0 1.0 1.0
0.000000 0.000000 0.000000
0.011398 0.000000 0.000000
0.034562 0.000000 0.000000
0.050248 0.000000 0.000000
0.065690 0.000000 0.000000
0.081132 0.000000 0.000000
0.096574 0.000000 0.000000
0.112016 0.000000 0.000000
0.131365 0.000000 0.000000
0.150729 0.000000 0.000000
0.172793 0.000000 0.000000
0.199878 0.000000 0.000000
0.223041 0.000000 0.000000
0.248524 0.000000 0.000000
0.277211 0.000000 0.000000
0.306371 0.000000 0.000000
0.339223 0.000000 0.000000
0.369970 0.000000 0.000000
0.406867 0.000000 0.000000
0.441672 0.000000 0.000000
0.477943 0.000000 0.000000
0.519234 0.000000 0.000000
0.562997 0.000000 0.000000
0.605509 0.000000 0.000000
0.648035 0.000000 0.000000
0.691417 0.000000 0.000000
0.733822 0.000000 0.000000
0.780148 0.000000 0.000000
0.826474 0.000000 0.000000
0.872419 0.000000 0.000000
0.911269 0.000000 0.000000
0.957595 0.000000 0.000000
0.988235 0.000000 0.000000
0.000000 0.000000 0.000000
0.015198 0.000000 0.000000
0.034562 0.000000 0.000000
0.054047 0.000000 0.000000
0.069490 0.000000 0.000000
0.084932 0.000000 0.000000
0.100374 0.000000 0.000000
0.115816 0.000000 0.000000
0.134218 0.000000 0.000000
0.153552 0.000000 0.000000
0.176593 0.000000 0.000000
0.199878 0.000000 0.000000
0.225422 0.000000 0.000000
0.253925 0.000000 0.000000
0.279347 0.000000 0.000000
0.310170 0.000000 0.000000
0.341115 0.000000 0.000000
0.374075 0.000000 0.000000
0.408530 0.000000 0.000000
0.443214 0.000000 0.000000
0.481743 0.000000 0.000000
0.519234 0.000000 0.000000
0.562997 0.000000 0.000000
0.605509 0.000000 0.000000
0.648035 0.000000 0.000000
0.691417 0.000000 0.000000
0.733822 0.000000 0.000000
0.780148 0.000000 0.000000
0.826474 0.000000 0.000000
0.872786 0.000000 0.000000
0.915435 0.000000 0.000000
0.961395 0.000000 0.000000
0.988235 0.000000 0.000000
0.007599 0.030396 0.000000
0.019120 0.026825 0.000000
0.038712 0.026474 0.000000
0.057847 0.022797 0.000000
0.073289 0.022553 0.000000
0.092653 0.022553 0.000000
0.104173 0.018875 0.000000
0.123522 0.018631 0.000000
0.139147 0.014710 0.000000
0.161151 0.012070 0.000000
0.183169 0.011032 0.000000
0.207477 0.008621 0.000000
0.234470 0.005051 0.000000
0.260044 0.003677 0.000000
0.287114 0.000000 0.000000
0.317891 0.000000 0.000000
0.348775 0.000000 0.000000
0.381384 0.000000 0.000000
0.414572 0.000000 0.000000
0.450858 0.000000 0.000000
0.489220 0.000000 0.000000
0.525734 0.000000 0.000000
0.568063 0.000000 0.000000
0.610300 0.000000 0.000000
0.652689 0.000000 0.000000
0.695094 0.000000 0.000000
0.741421 0.000000 0.000000
0.783825 0.000000 0.000000
0.830152 0.000000 0.000000
0.872801 0.000000 0.000000
0.918883 0.000000 0.000000
0.961517 0.000000 0.000000
0.988235 0.000000 0.000000
0.015320 0.053803 0.000000
0.026841 0.053803 0.000000
0.045975 0.050095 0.000000
0.065202 0.049546 0.000000
0.081010 0.046403 0.000000
0.096498 0.045960 0.000000
0.111894 0.042695 0.000000
0.131243 0.042039 0.000000
0.146685 0.039368 0.000000
0.168872 0.038117 0.000000
0.188113 0.035416 0.000000
0.215198 0.034195 0.000000
0.238361 0.033829 0.000000
0.267765 0.030045 0.000000
0.294728 0.026139 0.000000
0.323720 0.023896 0.000000
0.354528 0.020279 0.000000
0.387381 0.017960 0.000000
0.419974 0.012665 0.000000
0.457130 0.009216 0.000000
0.493263 0.005768 0.000000
0.534432 0.002335 0.000000
0.577203 0.000000 0.000000
0.617273 0.000000 0.000000
0.656764 0.000000 0.000000
0.701961 0.000000 0.000000
0.745220 0.000000 0.000000
0.791180 0.000000 0.000000
0.830396 0.000000 0.000000
0.876722 0.000000 0.000000
0.923018 0.000000 0.000000
0.968887 0.000000 0.000000
0.988235 0.000000 0.000000
0.019120 0.076967 0.000000
0.030640 0.076967 0.000000
0.050248 0.073045 0.000000
0.069368 0.069932 0.000000
0.088228 0.069123 0.000000
0.104173 0.069123 0.000000
0.116182 0.065934 0.000000
0.135439 0.065202 0.000000
0.153552 0.065202 0.000000
0.173159 0.061280 0.000000
0.195834 0.061280 0.000000
0.222919 0.057359 0.000000
0.246082 0.055207 0.000000
0.273167 0.053437 0.000000
0.302449 0.051011 0.000000
0.329641 0.047425 0.000000
0.362249 0.045594 0.000000
0.393271 0.041672 0.000000
0.427695 0.039948 0.000000
0.462669 0.035859 0.000000
0.500984 0.032349 0.000000
0.541100 0.028061 0.000000
0.582101 0.024262 0.000000
0.622171 0.016541 0.000000
0.664210 0.009430 0.000000
0.706996 0.002686 0.000000
0.752209 0.000000 0.000000
0.791913 0.000000 0.000000
0.837751 0.000000 0.000000
0.883742 0.000000 0.000000
0.926467 0.000000 0.000000
0.969238 0.000000 0.000000
0.988235 0.000000 0.000000
0.026841 0.100130 0.000000
0.034440 0.096330 0.000000
0.054368 0.096208 0.000000
0.073167 0.092287 0.000000
0.092531 0.092287 0.000000
0.107973 0.092287 0.000000
0.123400 0.088365 0.000000
0.142046 0.088365 0.000000
0.161151 0.085878 0.000000
0.180392 0.084443 0.000000
0.202518 0.082155 0.000000
0.227115 0.080522 0.000000
0.253803 0.078065 0.000000
0.279545 0.074632 0.000000
0.306249 0.072679 0.000000
0.337133 0.070588 0.000000
0.368322 0.066789 0.000000
0.398901 0.064836 0.000000
0.435416 0.063386 0.000000
0.468757 0.059312 0.000000
0.506630 0.056992 0.000000
0.545342 0.051713 0.000000
0.587137 0.047913 0.000000
0.629541 0.041123 0.000000
0.671107 0.036393 0.000000
0.710903 0.031983 0.000000
0.756115 0.023529 0.000000
0.799145 0.013230 0.000000
0.845045 0.005783 0.000000
0.887556 0.000000 0.000000
0.930266 0.000000 0.000000
0.973037 0.000000 0.000000
0.988235 0.000000 0.000000
0.030640 0.119356 0.000000
0.042161 0.119356 0.000000
0.061524 0.115480 0.000000
0.080888 0.112551 0.000000
0.096971 0.111604 0.000000
0.112505 0.111513 0.000000
0.130526 0.110918 0.000000
0.146563 0.107591 0.000000
0.165133 0.107591 0.000000
0.185824 0.104784 0.000000
0.208347 0.103670 0.000000
0.234440 0.101106 0.000000
0.260044 0.099748 0.000000
0.287007 0.097429 0.000000
0.313970 0.094041 0.000000
0.344854 0.091905 0.000000
0.375738 0.089952 0.000000
0.408316 0.087984 0.000000
0.441749 0.084062 0.000000
0.476219 0.080583 0.000000
0.512505 0.078676 0.000000
0.552453 0.074876 0.000000
0.593622 0.071077 0.000000
0.636362 0.066758 0.000000
0.675486 0.060533 0.000000
0.718135 0.055756 0.000000
0.761135 0.048631 0.000000
0.806867 0.043503 0.000000
0.845991 0.035294 0.000000
0.891661 0.024140 0.000000
0.934798 0.016419 0.000000
0.976837 0.006180 0.000000
0.988235 0.000000 0.000000
0.034440 0.142519 0.000000
0.045960 0.142519 0.000000
0.069001 0.141726 0.000000
0.085466 0.138598 0.000000
0.104051 0.135164 0.000000
0.119478 0.134676 0.000000
0.135622 0.134676 0.000000
0.154284 0.130755 0.000000
0.173648 0.130755 0.000000
0.191913 0.126833 0.000000
0.215076 0.126833 0.000000
0.242161 0.122911 0.000000
0.267765 0.122911 0.000000
0.292912 0.118990 0.000000
0.321691 0.116793 0.000000
0.352575 0.115068 0.000000
0.383032 0.113115 0.000000
0.414343 0.109316 0.000000
0.449149 0.107225 0.000000
0.483940 0.105135 0.000000
0.520226 0.101839 0.000000
0.560174 0.098039 0.000000
0.601343 0.094240 0.000000
0.643870 0.090440 0.000000
0.682475 0.086641 0.000000
0.725185 0.079591 0.000000
0.768261 0.075120 0.000000
0.813489 0.070466 0.000000
0.853071 0.062745 0.000000
0.899107 0.055024 0.000000
0.941543 0.047303 0.000000
0.983612 0.038636 0.000000
0.988235 0.027085 0.000000
0.045090 0.169604 0.000000
0.053681 0.165805 0.000000
0.072984 0.165682 0.000000
0.092409 0.162127 0.000000
0.111757 0.160906 0.000000
0.127199 0.160784 0.000000
0.142641 0.157839 0.000000
0.162005 0.157076 0.000000
0.180392 0.154650 0.000000
0.200458 0.153216 0.000000
0.222797 0.150912 0.000000
0.249882 0.149020 0.000000
0.273411 0.147189 0.000000
0.300130 0.145098 0.000000
0.329412 0.141604 0.000000
0.360296 0.139620 0.000000
0.391180 0.137255 0.000000
0.423896 0.134310 0.000000
0.456870 0.133883 0.000000
0.492866 0.130388 0.000000
0.527947 0.128313 0.000000
0.568902 0.124483 0.000000
0.609064 0.118624 0.000000
0.651591 0.114702 0.000000
0.693874 0.110536 0.000000
0.732723 0.106004 0.000000
0.775982 0.101411 0.000000
0.818601 0.094942 0.000000
0.860792 0.089708 0.000000
0.906737 0.082078 0.000000
0.945586 0.078187 0.000000
0.988235 0.070466 0.000000
0.988235 0.059800 0.000000
0.049882 0.196689 0.000000
0.061402 0.195590 0.000000
0.080766 0.192950 0.000000
0.100130 0.191669 0.000000
0.119127 0.191669 0.000000
0.134920 0.188357 0.000000
0.150362 0.187747 0.000000
0.168872 0.185550 0.000000
0.188815 0.183825 0.000000
0.207660 0.181796 0.000000
0.230518 0.179904 0.000000
0.257603 0.177081 0.000000
0.284276 0.175982 0.000000
0.310170 0.172503 0.000000
0.338369 0.170474 0.000000
0.369512 0.166644 0.000000
0.400305 0.165316 0.000000
0.431617 0.162890 0.000000
0.465812 0.159060 0.000000
0.500984 0.157031 0.000000
0.539178 0.153140 0.000000
0.576959 0.149630 0.000000
0.620371 0.147646 0.000000
0.659312 0.143816 0.000000
0.701839 0.139986 0.000000
0.740444 0.135912 0.000000
0.783703 0.129824 0.000000
0.827863 0.124559 0.000000
0.868498 0.118120 0.000000
0.914199 0.112871 0.000000
0.953307 0.106432 0.000000
0.988235 0.101350 0.000000
0.988235 0.093629 0.000000
0.061524 0.226474 0.000000
0.072999 0.223865 0.000000
0.092164 0.222553 0.000000
0.109209 0.220111 0.000000
0.127199 0.218784 0.000000
0.145342 0.218631 0.000000
0.160784 0.216434 0.000000
0.177447 0.214710 0.000000
0.195834 0.212680 0.000000
0.218997 0.210788 0.000000
0.241779 0.208927 0.000000
0.267887 0.206867 0.000000
0.292409 0.204410 0.000000
0.321080 0.202213 0.000000
0.348775 0.199023 0.000000
0.379080 0.196368 0.000000
0.409934 0.193133 0.000000
0.442679 0.191180 0.000000
0.475532 0.187945 0.000000
0.511025 0.185657 0.000000
0.547311 0.182315 0.000000
0.587259 0.179416 0.000000
0.628428 0.175494 0.000000
0.669734 0.171572 0.000000
0.709560 0.166674 0.000000
0.750851 0.162860 0.000000
0.791424 0.159075 0.000000
0.836515 0.155276 0.000000
0.876219 0.148043 0.000000
0.922072 0.143755 0.000000
0.961028 0.137255 0.000000
0.988235 0.132189 0.000000
0.988235 0.123278 0.000000
0.073167 0.261280 0.000000
0.083330 0.261280 0.000000
0.102541 0.257603 0.000000
0.121813 0.257359 0.000000
0.138674 0.257359 0.000000
0.154284 0.253437 0.000000
0.169726 0.252338 0.000000
0.188800 0.252079 0.000000
0.207477 0.249516 0.000000
0.230640 0.248157 0.000000
0.249882 0.244663 0.000000
0.278645 0.242557 0.000000
0.303532 0.239216 0.000000
0.330587 0.237751 0.000000
0.359655 0.234943 0.000000
0.391302 0.231739 0.000000
0.421500 0.229908 0.000000
0.454276 0.225986 0.000000
0.487861 0.224262 0.000000
0.523720 0.220462 0.000000
0.561517 0.217624 0.000000
0.599786 0.213336 0.000000
0.641840 0.209873 0.000000
0.681636 0.205997 0.000000
0.721202 0.202457 0.000000
0.762676 0.197665 0.000000
0.804898 0.193866 0.000000
0.845472 0.186770 0.000000
0.887373 0.182528 0.000000
0.930266 0.178561 0.000000
0.972259 0.173251 0.000000
0.988235 0.167041 0.000000
0.988235 0.159319 0.000000
0.084810 0.293629 0.000000
0.094850 0.292210 0.000000
0.114061 0.292164 0.000000
0.133349 0.288609 0.000000
0.146563 0.288228 0.000000
0.165927 0.288228 0.000000
0.183368 0.284779 0.000000
0.199268 0.284321 0.000000
0.218021 0.282841 0.000000
0.240803 0.280385 0.000000
0.261524 0.278920 0.000000
0.288609 0.275502 0.000000
0.315129 0.274998 0.000000
0.342168 0.271672 0.000000
0.371237 0.269703 0.000000
0.402258 0.264714 0.000000
0.435050 0.262745 0.000000
0.465858 0.258946 0.000000
0.500587 0.256214 0.000000
0.535912 0.252934 0.000000
0.572122 0.249027 0.000000
0.610544 0.246204 0.000000
0.651713 0.242863 0.000000
0.692775 0.237263 0.000000
0.732845 0.233326 0.000000
0.771984 0.229419 0.000000
0.814435 0.224750 0.000000
0.855253 0.220951 0.000000
0.898833 0.215686 0.000000
0.937987 0.211658 0.000000
0.979507 0.205631 0.000000
0.988235 0.197986 0.000000
0.988235 0.192645 0.000000
0.096452 0.330877 0.000000
0.106371 0.330877 0.000000
0.125734 0.325612 0.000000
0.142763 0.323262 0.000000
0.160540 0.323033 0.000000
0.175982 0.321691 0.000000
0.191424 0.321447 0.000000
0.210269 0.319112 0.000000
0.230762 0.317922 0.000000
0.250660 0.317525 0.000000
0.272663 0.314107 0.000000
0.300252 0.312078 0.000000
0.326726 0.308232 0.000000
0.355795 0.307347 0.000000
0.382803 0.302541 0.000000
0.413840 0.300603 0.000000
0.446632 0.296757 0.000000
0.477440 0.293996 0.000000
0.512169 0.290974 0.000000
0.546899 0.287098 0.000000
0.584558 0.283818 0.000000
0.622187 0.279362 0.000000
0.664088 0.275486 0.000000
0.704738 0.271611 0.000000
0.743297 0.267735 0.000000
0.783597 0.263874 0.000000
0.824323 0.259556 0.000000
0.867887 0.255756 0.000000
0.907225 0.246937 0.000000
0.949264 0.242802 0.000000
0.988235 0.236759 0.000000
0.988235 0.232715 0.000000
0.988235 0.224994 0.000000
0.110292 0.365682 0.000000
0.121813 0.364019 0.000000
0.137255 0.363973 0.000000
0.156252 0.360418 0.000000
0.173556 0.360052 0.000000
0.189212 0.358190 0.000000
0.204654 0.357839 0.000000
0.222309 0.356130 0.000000
0.241108 0.353185 0.000000
0.262257 0.352209 0.000000
0.286320 0.349508 0.000000
0.313329 0.348287 0.000000
0.338323 0.345006 0.000000
0.366674 0.342031 0.000000
0.395346 0.339208 0.000000
0.425315 0.336522 0.000000
0.457359 0.332601 0.000000
0.490196 0.330755 0.000000
0.524514 0.326955 0.000000
0.560494 0.323857 0.000000
0.596078 0.320012 0.000000
0.636027 0.315557 0.000000
0.677211 0.310246 0.000000
0.717037 0.308446 0.000000
0.756130 0.302510 0.000000
0.796933 0.298650 0.000000
0.837263 0.292973 0.000000
0.876478 0.289113 0.000000
0.918379 0.283116 0.000000
0.960906 0.279255 0.000000
0.988235 0.273533 0.000000
0.988235 0.267521 0.000000
0.988235 0.259800 0.000000
0.125734 0.400488 0.000000
0.135241 0.400488 0.000000
0.152697 0.400488 0.000000
0.170001 0.398825 0.000000
0.187503 0.398657 0.000000
0.202609 0.394736 0.000000
0.218387 0.394736 0.000000
0.233829 0.391669 0.000000
0.254566 0.390814 0.000000
0.275883 0.390814 0.000000
0.298528 0.387533 0.000000
0.324895 0.383597 0.000000
0.351919 0.381659 0.000000
0.379782 0.379797 0.000000
0.409064 0.375128 0.000000
0.438972 0.374151 0.000000
0.470710 0.370153 0.000000
0.502571 0.367285 0.000000
0.537331 0.363363 0.000000
0.572915 0.360525 0.000000
0.609430 0.356664 0.000000
0.648753 0.351598 0.000000
0.689982 0.347021 0.000000
0.727840 0.343755 0.000000
0.767773 0.339315 0.000000
0.808453 0.335042 0.000000
0.848890 0.331243 0.000000
0.889586 0.323812 0.000000
0.930282 0.319966 0.000000
0.970687 0.315938 0.000000
0.988235 0.308324 0.000000
0.988235 0.302388 0.000000
0.988235 0.296696 0.000000
0.143145 0.441169 0.000000
0.150790 0.441169 0.000000
0.168139 0.437385 0.000000
0.183764 0.435294 0.000000
0.202945 0.435294 0.000000
0.216114 0.433326 0.000000
0.233829 0.431373 0.000000
0.249271 0.429419 0.000000
0.268635 0.429419 0.000000
0.287984 0.428000 0.000000
0.311391 0.425483 0.000000
0.338415 0.424201 0.000000
0.365438 0.420340 0.000000
0.392462 0.418448 0.000000
0.420584 0.414588 0.000000
0.451469 0.412680 0.000000
0.482353 0.408820 0.000000
0.518074 0.406928 0.000000
0.551965 0.401968 0.000000
0.586404 0.399207 0.000000
0.623041 0.396567 0.000000
0.662989 0.389517 0.000000
0.704173 0.385657 0.000000
0.742763 0.381796 0.000000
0.781369 0.377447 0.000000
0.819974 0.373648 0.000000
0.860914 0.368261 0.000000
0.901411 0.362432 0.000000
0.943389 0.358328 0.000000
0.981125 0.352758 0.000000
0.988235 0.346807 0.000000
0.988235 0.339162 0.000000
0.988235 0.335286 0.000000
0.160540 0.475853 0.000000
0.168200 0.475853 0.000000
0.183581 0.475853 0.000000
0.199023 0.475853 0.000000
0.218387 0.472160 0.000000
0.231449 0.471931 0.000000
0.249271 0.471931 0.000000
0.264714 0.468879 0.000000
0.283085 0.466636 0.000000
0.304417 0.464683 0.000000
0.325490 0.464088 0.000000
0.352575 0.460166 0.000000
0.378973 0.460166 0.000000
0.405142 0.456992 0.000000
0.436027 0.454047 0.000000
0.464836 0.451347 0.000000
0.496880 0.447364 0.000000
0.529656 0.444480 0.000000
0.564385 0.440558 0.000000
0.599878 0.437736 0.000000
0.635859 0.431937 0.000000
0.675227 0.428794 0.000000
0.715679 0.424231 0.000000
0.755795 0.419852 0.000000
0.792889 0.416052 0.000000
0.833585 0.408728 0.000000
0.874022 0.405264 0.000000
0.914702 0.400732 0.000000
0.955154 0.395071 0.000000
0.988235 0.389212 0.000000
0.988235 0.385412 0.000000
0.988235 0.377691 0.000000
0.988235 0.372061 0.000000
0.177691 0.516182 0.000000
0.187549 0.514458 0.000000
0.202808 0.514458 0.000000
0.218387 0.514458 0.000000
0.233829 0.514458 0.000000
0.249271 0.510811 0.000000
0.264714 0.506935 0.000000
0.280140 0.506615 0.000000
0.298528 0.506615 0.000000
0.317769 0.505028 0.000000
0.340932 0.502693 0.000000
0.368017 0.501244 0.000000
0.394278 0.498772 0.000000
0.421485 0.496452 0.000000
0.448295 0.491676 0.000000
0.478431 0.490929 0.000000
0.510414 0.487007 0.000000
0.544121 0.484001 0.000000
0.577951 0.481376 0.000000
0.613733 0.476265 0.000000
0.650004 0.473777 0.000000
0.688823 0.469978 0.000000
0.729412 0.463478 0.000000
0.769726 0.458457 0.000000
0.806622 0.454658 0.000000
0.846937 0.450858 0.000000
0.885954 0.446738 0.000000
0.926619 0.439338 0.000000
0.965164 0.435538 0.000000
0.988235 0.428031 0.000000
0.988235 0.424018 0.000000
0.988235 0.416297 0.000000
0.988235 0.412497 0.000000
0.196933 0.556985 0.000000
0.206912 0.554726 0.000000
0.222156 0.553063 0.000000
0.237751 0.553063 0.000000
0.250858 0.553063 0.000000
0.266300 0.553063 0.000000
0.281437 0.547555 0.000000
0.295583 0.545571 0.000000
0.314366 0.545220 0.000000
0.335454 0.545220 0.000000
0.356374 0.541802 0.000000
0.383459 0.541299 0.000000
0.406622 0.538842 0.000000
0.436027 0.537377 0.000000
0.462989 0.534157 0.000000
0.493874 0.529534 0.000000
0.524758 0.527581 0.000000
0.557473 0.525612 0.000000
0.591455 0.521691 0.000000
0.626841 0.516182 0.000000
0.663966 0.512978 0.000000
0.701472 0.508583 0.000000
0.742641 0.504784 0.000000
0.781247 0.498161 0.000000
0.819852 0.494240 0.000000
0.858961 0.489815 0.000000
0.897490 0.485664 0.000000
0.939330 0.478553 0.000000
0.977295 0.474342 0.000000
0.988235 0.466575 0.000000
0.988235 0.462623 0.000000
0.988235 0.455024 0.000000
0.988235 0.451102 0.001587
0.218631 0.595590 0.000000
0.227695 0.595590 0.000000
0.241672 0.591669 0.000000
0.254887 0.591669 0.000000
0.270100 0.591669 0.000000
0.284062 0.591669 0.000000
0.299504 0.591669 0.000000
0.314946 0.585824 0.000000
0.333333 0.585290 0.000000
0.352575 0.585290 0.000000
0.371817 0.582605 0.000000
0.398901 0.579904 0.000000
0.424506 0.579904 0.000000
0.451469 0.575982 0.000000
0.478431 0.573770 0.000000
0.509316 0.569604 0.000000
0.540200 0.566918 0.000000
0.572229 0.564218 0.000000
0.605875 0.560296 0.000000
0.640681 0.557244 0.000000
0.676967 0.553368 0.000000
0.715953 0.547692 0.000000
0.756619 0.543847 0.000000
0.792767 0.540002 0.000000
0.831373 0.535790 0.000000
0.869978 0.528923 0.000000
0.910567 0.524544 0.000000
0.949630 0.518395 0.000000
0.986084 0.513237 0.000000
0.988235 0.506722 0.000000
0.988235 0.501472 0.000000
0.988235 0.497429 0.001541
0.988235 0.491173 0.003922
0.240681 0.639460 0.005264
0.248371 0.635615 0.003922
0.263645 0.632959 0.001511
0.277821 0.632959 0.000122
0.289342 0.632959 0.000000
0.304784 0.632959 0.000000
0.320226 0.631876 0.000000
0.331746 0.629038 0.000000
0.351110 0.629038 0.000000
0.370092 0.629038 0.000000
0.389822 0.625925 0.000000
0.415686 0.623774 0.000000
0.439689 0.623774 0.000000
0.465934 0.618326 0.000000
0.494469 0.617273 0.000000
0.524758 0.613352 0.000000
0.555642 0.610727 0.000000
0.586526 0.608087 0.000000
0.621317 0.603037 0.000000
0.656123 0.601053 0.000000
0.691432 0.596201 0.000000
0.728435 0.592401 0.000000
0.769604 0.587671 0.000000
0.807828 0.581979 0.000000
0.845151 0.577722 0.000000
0.884367 0.572229 0.000000
0.922927 0.566049 0.000000
0.961486 0.561028 0.000000
0.988235 0.554528 0.000000
0.988235 0.549264 0.000000
0.988235 0.545190 0.000092
0.988235 0.538720 0.003967
0.988235 0.533577 0.007843
0.266423 0.677943 0.007843
0.272831 0.677943 0.007843
0.285542 0.677943 0.005310
0.299748 0.677943 0.004044
0.312505 0.676875 0.003922
0.326909 0.676722 0.001221
0.338460 0.672801 0.000229
0.353674 0.672801 0.000000
0.369421 0.672801 0.000000
0.388602 0.672801 0.000000
0.410544 0.668879 0.000000
0.433707 0.668879 0.000000
0.456870 0.666423 0.000000
0.482856 0.662257 0.000000
0.511025 0.661036 0.000000
0.540200 0.657115 0.000000
0.569726 0.655146 0.000000
0.601312 0.653193 0.000000
0.635538 0.648081 0.000000
0.669245 0.645350 0.000000
0.703456 0.640406 0.000000
0.742641 0.636149 0.000000
0.781125 0.629664 0.000000
0.819730 0.626612 0.000000
0.857420 0.621134 0.000000
0.895705 0.617029 0.000000
0.934310 0.610056 0.000000
0.972732 0.605707 0.000000
0.988235 0.598291 0.000000
0.988235 0.594110 0.000000
0.988235 0.587671 0.001389
0.988235 0.582483 0.005234
0.988235 0.578683 0.011765
0.285664 0.720348 0.011765
0.293385 0.720348 0.011765
0.307668 0.719234 0.008942
0.319219 0.719234 0.007843
0.334554 0.716777 0.007843
0.346258 0.716426 0.005020
0.357809 0.716426 0.004135
0.373037 0.715557 0.003922
0.388479 0.714488 0.000275
0.407843 0.711391 0.000000
0.425986 0.711391 0.000000
0.453071 0.708827 0.000000
0.476219 0.705715 0.000000
0.499382 0.704005 0.000000
0.526467 0.701976 0.000000
0.555047 0.699626 0.000000
0.584009 0.695705 0.000000
0.614801 0.693874 0.000000
0.648280 0.688975 0.000000
0.682429 0.686717 0.000000
0.717205 0.682475 0.000000
0.755398 0.676829 0.000000
0.794247 0.672938 0.000000
0.830152 0.668254 0.000000
0.868757 0.663630 0.000000
0.907347 0.659800 0.000000
0.945953 0.652567 0.000000
0.980163 0.648219 0.000000
0.988235 0.641779 0.000000
0.988235 0.636622 0.000000
0.988235 0.630076 0.003998
0.988235 0.624994 0.007965
0.988235 0.618387 0.011765
0.308827 0.761761 0.012741
0.315557 0.761761 0.012741
0.327016 0.758816 0.011765
0.339742 0.758816 0.011765
0.351354 0.757839 0.009186
0.365591 0.757839 0.007996
0.377935 0.755459 0.007843
0.390097 0.754910 0.005539
0.407111 0.754910 0.004166
0.423987 0.753918 0.003922
0.443320 0.751232 0.000305
0.468498 0.749996 0.000000
0.491661 0.747555 0.000000
0.514824 0.744335 0.000000
0.540200 0.742580 0.000000
0.567163 0.740078 0.000000
0.598032 0.738231 0.000000
0.628397 0.732937 0.000000
0.661097 0.730938 0.000000
0.694026 0.727047 0.000000
0.728801 0.722545 0.000000
0.764920 0.718257 0.000000
0.803189 0.713787 0.000000
0.840955 0.710658 0.000000
0.877211 0.705882 0.000000
0.915068 0.699779 0.000000
0.953124 0.695094 0.000000
0.988235 0.690562 0.000000
0.988235 0.684321 0.000000
0.988235 0.679133 0.000000
0.988235 0.672496 0.004105
0.988235 0.668498 0.007935
0.988235 0.663722 0.011765
0.331121 0.800366 0.015686
0.335790 0.800366 0.015686
0.347372 0.800366 0.015686
0.359075 0.800366 0.011841
0.373388 0.797299 0.011765
0.385657 0.797299 0.011765
0.397055 0.796445 0.011765
0.411765 0.796445 0.008698
0.424140 0.793378 0.007843
0.441779 0.793378 0.005646
0.461051 0.792798 0.003922
0.483940 0.789944 0.000855
0.505196 0.786694 0.000000
0.530266 0.785031 0.000000
0.555154 0.782956 0.000000
0.582147 0.781155 0.000000
0.609552 0.778805 0.000000
0.640436 0.776837 0.000000
0.673045 0.771572 0.000000
0.703456 0.769512 0.000000
0.738155 0.764462 0.000000
0.774212 0.760098 0.000000
0.813596 0.756268 0.000000
0.849516 0.752453 0.000000
0.884184 0.748409 0.000000
0.922789 0.740871 0.000000
0.960662 0.737743 0.000000
0.988235 0.732616 0.000000
0.988235 0.726223 0.000000
0.988235 0.721569 0.000000
0.988235 0.714702 0.003113
0.988235 0.710079 0.007843
0.988235 0.702327 0.010910
0.354406 0.842161 0.019608
0.355154 0.842161 0.019608
0.370535 0.842161 0.015732
0.378302 0.838972 0.015686
0.392737 0.838972 0.015686
0.404669 0.838972 0.012497
0.413092 0.836378 0.011765
0.427359 0.835050 0.011765
0.442649 0.835050 0.009369
0.458091 0.832761 0.008057
0.476448 0.831861 0.005646
0.499641 0.830640 0.003922
0.520562 0.828397 0.000275
0.544976 0.827207 0.000000
0.570672 0.823606 0.000000
0.597650 0.820096 0.000000
0.624994 0.819730 0.000000
0.655146 0.816175 0.000000
0.682841 0.813733 0.000000
0.715023 0.810224 0.000000
0.748531 0.806409 0.000000
0.785290 0.802579 0.000000
0.821317 0.798535 0.000000
0.857237 0.792447 0.000000
0.891905 0.790936 0.000000
0.930358 0.783368 0.000000
0.965194 0.779553 0.000000
