app/src/main/assets/filters/velvia50.33.cube
# Created from velvia50.33.plut
LUT_3D_SIZE 9
DOMAIN_MIN 0.0 0.0 0.0
DOMAIN_MAX 1.0 1.0 1.0
0.000000 0.000000 0.000000
0.065690 0.000000 0.000000
0.131365 0.000000 0.000000
0.223041 0.000000 0.000000
0.339223 0.000000 0.000000
0.477943 0.000000 0.000000
0.648035 0.000000 0.000000
0.826474 0.000000 0.000000
0.988235 0.000000 0.000000
0.019120 0.076967 0.000000
0.088228 0.069123 0.000000
0.153552 0.065202 0.000000
0.246082 0.055207 0.000000
0.362249 0.045594 0.000000
0.500984 0.032349 0.000000
0.664210 0.009430 0.000000
0.837751 0.000000 0.000000
0.988235 0.000000 0.000000
0.045090 0.169604 0.000000
0.111757 0.160906 0.000000
0.180392 0.154650 0.000000
0.273411 0.147189 0.000000
0.391180 0.137255 0.000000
0.527947 0.128313 0.000000
0.693874 0.110536 0.000000
0.860792 0.089708 0.000000
0.988235 0.059800 0.000000
0.084810 0.293629 0.000000
0.146563 0.288228 0.000000
0.218021 0.282841 0.000000
0.315129 0.274998 0.000000
0.435050 0.262745 0.000000
0.572122 0.249027 0.000000
0.732845 0.233326 0.000000
0.898833 0.215686 0.000000
0.988235 0.192645 0.000000
0.143145 0.441169 0.000000
0.202945 0.435294 0.000000
0.268635 0.429419 0.000000
0.365438 0.420340 0.000000
0.482353 0.408820 0.000000
0.623041 0.396567 0.000000
0.781369 0.377447 0.000000
0.943389 0.358328 0.000000
0.988235 0.335286 0.000000
0.218631 0.595590 0.000000
0.270100 0.591669 0.000000
0.333333 0.585290 0.000000
0.424506 0.579904 0.000000
0.540200 0.566918 0.000000
0.676967 0.553368 0.000000
0.831373 0.535790 0.000000
0.986084 0.513237 0.000000
0.988235 0.491173 0.003922
0.308827 0.761761 0.012741
0.351354 0.757839 0.009186
0.407111 0.754910 0.004166
0.491661 0.747555 0.000000
0.598032 0.738231 0.000000
0.728801 0.722545 0.000000
0.877211 0.705882 0.000000
0.988235 0.684321 0.000000
0.988235 0.663722 0.011765
0.397055 0.919615 0.019608
0.431434 0.916182 0.015686
0.477455 0.915679 0.011765
0.551843 0.908339 0.003922
0.647791 0.900496 0.000000
0.767163 0.889036 0.000000
0.906371 0.873411 0.000000
0.988235 0.856001 0.000000
0.988235 0.833829 0.000000
0.474510 0.996078 0.015686
0.505394 0.996078 0.011765
0.544121 0.996078 0.007843
0.608820 0.996078 0.000000
0.698039 0.996078 0.000000
0.804410 0.996078 0.000000
0.933333 0.996078 0.000000
0.988235 0.996078 0.000000
0.988235 0.996078 0.000000
0.000000 0.000000 0.069612
0.061769 0.000000 0.061280
0.127459 0.000000 0.053925
0.219120 0.000000 0.046082
0.335286 0.000000 0.041917
0.470100 0.000000 0.038056
0.637263 0.000000 0.030396
0.814710 0.000000 0.025986
0.988235 0.000000 0.034318
0.012192 0.073045 0.077394
0.084321 0.065202 0.069169
0.149676 0.061280 0.061387
0.242725 0.051560 0.053880
0.358328 0.041672 0.047578
0.493141 0.028595 0.041672
0.659327 0.009430 0.034302
0.830823 0.000000 0.026413
0.988235 0.000000 0.033829
0.038239 0.162127 0.084810
0.107347 0.157092 0.077668
0.173526 0.151019 0.070161
0.269123 0.145098 0.061646
0.384863 0.135790 0.053620
0.523476 0.126467 0.045823
0.683604 0.110780 0.038025
0.856535 0.093736 0.032578
0.988235 0.066667 0.037751
0.075669 0.292164 0.092653
0.141070 0.288228 0.088731
0.211276 0.281010 0.081498
0.307362 0.274998 0.073960
0.425483 0.262745 0.064454
0.563851 0.250553 0.055879
0.724041 0.236805 0.047425
0.890364 0.220737 0.037583
0.988235 0.197848 0.041672
0.129900 0.441169 0.100496
0.191180 0.435538 0.096574
0.258518 0.429419 0.088731
0.355734 0.424109 0.083330
0.475486 0.410788 0.075608
0.614557 0.398032 0.066270
0.773526 0.381369 0.056870
0.934310 0.362036 0.047303
0.988235 0.338964 0.053193
0.204715 0.595590 0.104417
0.257053 0.592126 0.100496
0.318883 0.591440 0.096574
0.412924 0.581186 0.091005
0.528588 0.572396 0.084657
0.668635 0.558633 0.076844
0.824369 0.540032 0.066163
0.980789 0.516823 0.054719
0.988235 0.493629 0.060975
0.296208 0.765560 0.112261
0.339284 0.761440 0.109209
0.396078 0.757839 0.104662
0.479896 0.749996 0.100496
0.587930 0.740200 0.092653
0.719020 0.727077 0.083650
0.869673 0.709804 0.072267
0.988235 0.687633 0.060349
0.988235 0.663722 0.061280
0.381857 0.920592 0.116182
0.419776 0.919661 0.112261
0.466712 0.916182 0.108339
0.541405 0.908827 0.104417
0.638453 0.903929 0.094606
0.759533 0.891356 0.084779
0.899886 0.875776 0.072053
0.988235 0.857237 0.056046
0.988235 0.834318 0.053376
0.463233 0.996078 0.108339
0.497551 0.996078 0.108339
0.536645 0.996078 0.104417
0.603433 0.996078 0.096574
0.690196 0.996078 0.088731
0.798032 0.996078 0.076967
0.926833 0.996078 0.061158
0.988235 0.996078 0.041169
0.988235 0.996078 0.033326
0.000000 0.000000 0.146075
0.057359 0.000000 0.138231
0.126467 0.000000 0.130388
0.219120 0.000000 0.122911
0.333333 0.000000 0.118624
0.470100 0.000000 0.113237
0.633326 0.000000 0.106859
0.810300 0.000000 0.102937
0.988235 0.000000 0.113725
0.004410 0.065690 0.157839
0.077073 0.061295 0.149996
0.147616 0.057359 0.141878
0.242161 0.047669 0.134081
0.355154 0.039460 0.126284
0.492164 0.025803 0.118624
0.655390 0.006867 0.111421
0.825986 0.000000 0.106798
0.988235 0.000000 0.113725
0.029664 0.157839 0.169604
0.100008 0.153063 0.162127
0.169421 0.149020 0.154650
0.265202 0.141176 0.145464
0.381735 0.133333 0.136645
0.516793 0.126101 0.128313
0.678431 0.112993 0.118624
0.848646 0.094972 0.113359
0.988235 0.074510 0.118379
0.064088 0.288228 0.183215
0.130877 0.283024 0.177447
0.203586 0.278920 0.171603
0.301762 0.271626 0.161532
0.419364 0.262745 0.152697
0.556893 0.251469 0.142016
0.717159 0.239094 0.132692
0.883818 0.221576 0.122362
0.988235 0.203799 0.127947
0.117647 0.441169 0.192645
0.179232 0.437507 0.188785
0.246693 0.431373 0.183337
0.346319 0.425483 0.176654
0.465446 0.413718 0.168139
0.604837 0.401770 0.156619
0.765682 0.385290 0.145953
0.928435 0.365927 0.134310
0.988235 0.343130 0.139208
0.187625 0.602823 0.198169
0.242161 0.595590 0.196078
0.306126 0.591669 0.192157
0.399283 0.585290 0.185290
0.517159 0.575982 0.177142
0.656245 0.563989 0.168551
0.814588 0.545556 0.157839
0.972366 0.522545 0.146075
0.988235 0.498650 0.149020
0.278431 0.765682 0.201709
0.323659 0.765469 0.200336
0.379660 0.759380 0.197055
0.465202 0.754742 0.192248
0.575372 0.744610 0.184802
0.707530 0.732662 0.175372
0.858762 0.713970 0.164157
0.988235 0.694240 0.150637
0.988235 0.668620 0.152941
0.367163 0.924025 0.200977
0.405264 0.920592 0.199680
0.453956 0.919615 0.197055
0.528298 0.915679 0.192248
0.627024 0.904906 0.184802
0.751476 0.893141 0.175677
0.891020 0.879896 0.163973
0.988235 0.860349 0.149828
0.988235 0.841550 0.149020
0.454902 0.996078 0.193133
0.485420 0.996078 0.192279
0.525246 0.996078 0.189212
0.590188 0.996078 0.184680
0.680385 0.996078 0.177447
0.787259 0.996078 0.168139
0.921569 0.996078 0.153674
0.988235 0.996078 0.138109
0.988235 0.996078 0.136278
0.000000 0.000000 0.249027
0.043137 0.000000 0.242954
0.118990 0.000000 0.237263
0.217639 0.000000 0.228428
0.331365 0.000000 0.223041
0.468620 0.000000 0.217639
0.632349 0.000000 0.209812
0.802945 0.000000 0.205386
0.984314 0.000000 0.202457
0.000000 0.061280 0.264714
0.066484 0.057374 0.260288
0.139528 0.051591 0.252445
0.237430 0.043137 0.243275
0.352453 0.034470 0.235050
0.489220 0.024018 0.226291
0.648524 0.006012 0.217563
0.818326 0.000000 0.209812
0.988235 0.000000 0.206378
0.008331 0.152941 0.283696
0.087922 0.149020 0.275486
0.161151 0.145098 0.268818
0.259800 0.137392 0.257969
0.375494 0.131868 0.248524
0.512261 0.124392 0.239094
0.671565 0.112993 0.228244
0.841047 0.098894 0.217563
0.988235 0.082353 0.214221
0.046509 0.282841 0.302449
0.116594 0.279469 0.297612
0.191669 0.275135 0.290684
0.289708 0.271077 0.279469
0.409064 0.260777 0.269123
0.547631 0.251469 0.256306
0.707240 0.240574 0.244343
0.872053 0.225483 0.232471
0.988235 0.209247 0.225986
0.094850 0.441169 0.318868
0.157351 0.437354 0.314305
0.229908 0.431373 0.307591
0.330877 0.426230 0.299260
0.451713 0.417639 0.290440
0.591669 0.404410 0.276188
0.753002 0.389700 0.262562
0.915740 0.372305 0.246815
0.988235 0.350973 0.237751
0.162737 0.603433 0.324453
0.219120 0.601175 0.322057
0.284672 0.595590 0.318135
0.381353 0.591669 0.311772
0.499290 0.580819 0.301961
0.640543 0.569406 0.290455
0.799084 0.552911 0.276234
0.958633 0.532357 0.261402
0.988235 0.508400 0.253437
0.251469 0.770581 0.327459
0.297551 0.769604 0.323522
0.355398 0.765682 0.319615
0.442390 0.758587 0.315679
0.553979 0.751232 0.305882
0.688212 0.738231 0.296086
0.842802 0.722179 0.283330
0.988235 0.699947 0.268635
0.988235 0.679042 0.261280
0.343633 0.926650 0.321752
0.381918 0.924025 0.319615
0.430579 0.922728 0.315679
0.507836 0.917464 0.310124
0.606683 0.908583 0.303670
0.732158 0.900420 0.292164
0.876112 0.884764 0.280018
0.988235 0.864775 0.266850
0.988235 0.845594 0.257053
0.431373 0.996078 0.309316
0.463722 0.996078 0.307836
0.505394 0.996078 0.303929
0.573526 0.996078 0.300008
0.663478 0.996078 0.292164
0.774517 0.996078 0.283391
0.907347 0.996078 0.269734
0.988235 0.996078 0.256367
0.988235 0.996078 0.241672
0.000000 0.000000 0.380392
0.012497 0.000000 0.372549
0.102449 0.000000 0.366674
0.207355 0.000000 0.362737
0.325490 0.000000 0.353918
0.464714 0.000000 0.347066
0.625483 0.000000 0.339223
0.796323 0.000000 0.333089
0.972549 0.000000 0.343130
0.001968 0.055634 0.397787
0.043137 0.053437 0.390631
0.124331 0.048219 0.384558
0.226627 0.041520 0.378027
0.343999 0.033326 0.367529
0.480888 0.020829 0.358740
0.641917 0.006439 0.350057
0.810513 0.000000 0.338750
0.984070 0.000000 0.347066
0.000000 0.145586 0.419120
0.066178 0.145098 0.412802
0.147066 0.140078 0.405020
0.246082 0.134249 0.396017
0.365927 0.130388 0.385534
0.503670 0.122545 0.375250
0.663233 0.114458 0.361761
0.829847 0.102815 0.349630
0.988235 0.088731 0.356374
0.009552 0.278920 0.443626
0.093141 0.274998 0.438636
0.170092 0.271565 0.432349
0.276493 0.264714 0.421576
0.396567 0.260777 0.410666
0.536522 0.251469 0.395834
0.696071 0.243626 0.380575
0.862196 0.229419 0.364889
0.988235 0.216907 0.369116
0.057847 0.436271 0.465690
0.131243 0.431495 0.460914
0.206622 0.429664 0.455879
0.309560 0.426230 0.445838
0.433829 0.417639 0.435294
0.574640 0.407477 0.419608
0.736522 0.393622 0.402213
0.900496 0.376226 0.383948
0.988235 0.358816 0.384314
0.125246 0.603433 0.474510
0.187839 0.603433 0.472541
0.255024 0.597543 0.467399
0.353429 0.593133 0.460014
0.475486 0.585290 0.451347
0.617395 0.575982 0.436332
0.779049 0.559686 0.418753
0.941115 0.538231 0.399176
0.988235 0.517159 0.400732
0.212741 0.773526 0.474022
0.261463 0.773526 0.472541
0.321935 0.770214 0.468132
0.414099 0.765377 0.461524
0.527947 0.757107 0.453681
0.662989 0.746746 0.440986
0.819608 0.730022 0.424506
0.977081 0.710292 0.405875
0.988235 0.685786 0.407843
0.305882 0.931380 0.462501
0.347768 0.931380 0.462257
0.399695 0.924331 0.456870
0.477913 0.920592 0.452934
0.581979 0.915801 0.444724
0.709224 0.904570 0.432593
0.854414 0.889158 0.418936
0.988235 0.873411 0.401968
0.988235 0.851713 0.403677
0.401968 0.996078 0.447059
0.436515 0.996078 0.445090
0.478431 0.996078 0.441169
0.548043 0.996078 0.437263
0.638239 0.996078 0.429419
0.754910 0.996078 0.420096
0.888731 0.996078 0.405875
0.988235 0.996078 0.391913
0.988235 0.996078 0.394125
0.017151 0.000000 0.528923
0.015686 0.000000 0.525002
0.064714 0.000000 0.518624
0.182361 0.000000 0.513237
0.311025 0.000000 0.509316
0.452018 0.000000 0.501472
0.615198 0.000000 0.493629
0.785473 0.000000 0.481865
0.960784 0.000000 0.493629
0.021073 0.049516 0.551965
0.019608 0.049516 0.544335
0.091798 0.045594 0.538628
0.204120 0.037751 0.532418
0.328344 0.031617 0.523629
0.469123 0.021561 0.514046
0.628824 0.009751 0.504509
0.798642 0.000000 0.492866
0.970779 0.000000 0.497551
0.016052 0.141176 0.575006
0.023880 0.138460 0.565591
0.114244 0.137255 0.561486
0.224094 0.133333 0.554238
0.348104 0.127398 0.543633
0.488319 0.122545 0.531167
0.649607 0.114702 0.517830
0.817136 0.106783 0.502632
0.986770 0.098039 0.508705
0.000000 0.271077 0.601968
0.050629 0.271077 0.598032
0.141665 0.264714 0.591669
0.251469 0.261357 0.582910
0.376226 0.255390 0.571328
0.518135 0.251469 0.556954
0.678553 0.243626 0.539239
0.844419 0.233326 0.519905
0.988235 0.222492 0.521996
0.000000 0.431373 0.631617
0.086671 0.428672 0.627695
0.171328 0.427451 0.621820
0.282353 0.423529 0.611978
0.408942 0.417639 0.601221
0.552941 0.407843 0.584863
0.715373 0.397055 0.563241
0.877943 0.382101 0.541085
0.988235 0.366674 0.539467
0.063661 0.603433 0.644114
0.136278 0.602518 0.640314
0.213657 0.597055 0.637324
0.318074 0.593133 0.630137
0.445563 0.588479 0.619089
0.587747 0.578988 0.603204
0.751705 0.564248 0.582055
0.916243 0.545892 0.558526
0.988235 0.525002 0.556374
0.156863 0.777447 0.644114
0.210788 0.774502 0.640192
0.277150 0.773526 0.636271
0.372000 0.769741 0.632120
0.489769 0.762310 0.622065
0.629984 0.753002 0.608042
0.787900 0.737621 0.588846
0.948089 0.716655 0.565682
0.988235 0.695460 0.562737
0.257359 0.935286 0.624506
0.300160 0.931868 0.624079
0.353750 0.931380 0.620401
0.438346 0.924086 0.616297
0.544121 0.919615 0.608240
0.673457 0.908446 0.595209
0.823529 0.896040 0.579019
0.977081 0.877394 0.559701
0.988235 0.858824 0.560296
0.361761 0.996078 0.603433
0.396262 0.996078 0.601282
0.439704 0.996078 0.599512
0.512688 0.996078 0.594049
0.608331 0.996078 0.586526
0.722606 0.996078 0.576898
0.862257 0.996078 0.561761
0.988235 0.996078 0.544610
0.988235 0.996078 0.548531
0.031373 0.000000 0.702937
0.031373 0.000000 0.700008
0.031373 0.000000 0.696071
0.139712 0.000000 0.691173
0.280888 0.000000 0.684321
0.426963 0.000000 0.678920
0.596323 0.000000 0.668620
0.767529 0.000000 0.659434
0.944121 0.000000 0.664714
0.034928 0.049516 0.725978
0.032349 0.049516 0.719112
0.034562 0.047578 0.715068
0.160601 0.041672 0.707713
0.296147 0.036027 0.701289
0.444236 0.028519 0.691890
0.609339 0.018387 0.680369
0.779187 0.009979 0.668025
0.951965 0.000000 0.675120
0.031373 0.137255 0.749020
0.029160 0.137255 0.742153
0.052018 0.134310 0.737987
0.181949 0.130663 0.728557
0.315679 0.128313 0.721569
0.461738 0.124544 0.709682
0.626902 0.118624 0.695827
0.796994 0.114611 0.680140
0.966918 0.106859 0.683330
0.010300 0.264714 0.776593
0.010300 0.262623 0.773480
0.083299 0.260777 0.766171
0.208453 0.255802 0.760296
0.340200 0.253864 0.749508
0.487251 0.250553 0.736278
0.653437 0.244724 0.718807
0.821927 0.237263 0.699184
0.987869 0.229419 0.698528
0.000000 0.423529 0.811765
0.005142 0.422614 0.807355
0.114092 0.417639 0.801465
0.237263 0.416846 0.795773
0.371817 0.411521 0.782361
0.521508 0.403799 0.766857
0.684321 0.394125 0.745953
0.851347 0.384070 0.720836
0.988235 0.370581 0.717647
0.000000 0.597055 0.830518
0.059922 0.595727 0.825635
0.153277 0.593133 0.823041
0.268925 0.589899 0.814282
0.401770 0.585290 0.804166
0.549432 0.576898 0.788754
0.717006 0.565316 0.767163
0.884764 0.548226 0.740200
0.988235 0.530388 0.734676
0.062745 0.774502 0.831617
0.134920 0.774502 0.829404
0.210178 0.773526 0.825483
0.315526 0.770581 0.820127
0.441169 0.765682 0.809812
0.585657 0.756741 0.795956
0.749020 0.741787 0.774640
0.912627 0.725338 0.750454
0.988235 0.702937 0.743130
0.180392 0.935286 0.813230
0.230610 0.935286 0.809476
0.291936 0.931868 0.809186
0.381872 0.931380 0.801465
0.493202 0.922301 0.793561
0.628519 0.914717 0.780392
0.783276 0.900496 0.761364
0.939605 0.884749 0.739132
0.988235 0.865202 0.738720
0.300008 0.996078 0.782361
0.338720 0.996078 0.782361
0.388235 0.996078 0.778424
0.464210 0.996078 0.773892
0.562737 0.996078 0.766659
0.683330 0.996078 0.754910
0.826719 0.996078 0.739223
0.974517 0.996078 0.723033
0.988235 0.996078 0.723522
0.039216 0.000000 0.880888
0.039216 0.000000 0.880888
0.039216 0.000000 0.873533
0.058213 0.000000 0.869612
0.226474 0.000000 0.861769
0.390692 0.000000 0.857847
0.566049 0.000000 0.846082
0.743191 0.000000 0.837751
0.920592 0.000000 0.842161
0.039216 0.057847 0.897002
0.039216 0.057420 0.896147
0.039216 0.054368 0.889967
0.083497 0.053498 0.884932
0.245563 0.047791 0.878706
0.404028 0.041703 0.871458
0.577768 0.034302 0.860090
0.754788 0.028977 0.846021
0.928923 0.021637 0.853437
0.035294 0.141299 0.919615
0.035294 0.138231 0.915679
0.035294 0.138231 0.908705
0.111498 0.134722 0.903929
0.264897 0.133455 0.898283
0.422431 0.130388 0.888106
0.593866 0.126467 0.875425
0.769604 0.122545 0.857832
0.941054 0.118746 0.860792
0.019608 0.260777 0.946563
0.019608 0.259174 0.946075
0.019608 0.255436 0.942275
0.142641 0.255390 0.932174
0.291661 0.251560 0.924758
0.448112 0.249027 0.913420
0.619028 0.247547 0.896559
0.792218 0.243320 0.878843
0.962432 0.235111 0.879103
0.000000 0.411765 0.982849
0.000000 0.411551 0.977447
0.012863 0.408270 0.973281
0.173526 0.407843 0.967407
0.318624 0.401968 0.957595
0.474998 0.397299 0.942061
0.647181 0.392157 0.923339
0.816144 0.384070 0.900740
0.985779 0.372793 0.896574
0.000000 0.587442 1.000000
0.000000 0.585290 1.000000
0.061204 0.585290 0.997848
0.204410 0.581262 0.990188
0.348623 0.577447 0.982422
0.504967 0.570947 0.966461
0.676326 0.561181 0.947799
0.846571 0.547951 0.920256
0.988235 0.532845 0.914031
0.000000 0.770581 1.000000
0.012329 0.770581 1.000000
0.121691 0.769329 1.000000
0.244724 0.765682 1.000000
0.383886 0.758816 0.989700
0.533104 0.753307 0.977630
0.703990 0.740902 0.955856
0.873640 0.726726 0.931868
0.988235 0.706859 0.924025
0.066728 0.935286 0.993133
0.136278 0.931868 0.992706
0.208835 0.931502 0.989380
0.309316 0.925643 0.985580
0.433326 0.922301 0.977203
0.572488 0.915999 0.963500
0.734096 0.903059 0.943999
0.899626 0.887800 0.920150
0.988235 0.869123 0.916670
0.218143 0.996078 0.967163
0.264271 0.996078 0.963729
0.318257 0.996078 0.959808
0.400305 0.996078 0.955886
0.506859 0.996078 0.948043
0.632532 0.996078 0.938415
0.780880 0.996078 0.923156
0.935729 0.996078 0.900984
0.988235 0.996078 0.904417
0.035294 0.000000 1.000000
0.035294 0.000000 1.000000
0.035294 0.000000 1.000000
0.035294 0.000000 1.000000
0.141176 0.000000 1.000000
0.330388 0.000000 1.000000
0.519600 0.000000 1.000000
0.700984 0.000000 1.000000
0.886275 0.000000 1.000000
0.035294 0.073045 1.000000
0.035294 0.073045 1.000000
0.035294 0.073045 1.000000
0.035294 0.069306 1.000000
0.162493 0.065446 1.000000
0.345586 0.061280 1.000000
0.531243 0.053925 1.000000
0.716182 0.049516 1.000000
0.894118 0.045594 1.000000
0.031373 0.149996 1.000000
0.031373 0.146197 1.000000
0.031373 0.146075 1.000000
0.031373 0.146075 1.000000
0.185290 0.142153 1.000000
0.363607 0.141176 1.000000
0.547066 0.138231 1.000000
0.728435 0.134310 1.000000
0.908827 0.130388 1.000000
0.017151 0.260777 1.000000
0.017151 0.260777 1.000000
0.017151 0.256870 1.000000
0.024506 0.255940 1.000000
0.214221 0.252934 1.000000
0.387747 0.252934 1.000000
0.568505 0.249027 1.000000
0.750484 0.247242 1.000000
0.924025 0.245090 1.000000
0.000000 0.403922 1.000000
0.000000 0.401968 1.000000
0.000000 0.401968 1.000000
0.061524 0.400000 1.000000
0.244114 0.396078 1.000000
0.415930 0.393378 1.000000
0.596078 0.390188 1.000000
0.777203 0.384070 1.000000
0.949020 0.374517 1.000000
0.000000 0.573526 1.000000
0.000000 0.573526 1.000000
0.000000 0.572061 1.000000
0.102449 0.569604 1.000000
0.274022 0.565682 1.000000
0.444114 0.561212 1.000000
0.624872 0.553918 1.000000
0.803922 0.544305 1.000000
0.974014 0.530388 1.000000
0.000000 0.758816 1.000000
0.000000 0.758816 1.000000
0.000000 0.754910 1.000000
0.149386 0.754910 1.000000
0.308827 0.749996 1.000000
0.472541 0.743130 1.000000
0.652201 0.731365 1.000000
0.827451 0.722057 1.000000
0.988235 0.706859 1.000000
0.000000 0.927947 1.000000
0.000000 0.924514 1.000000
0.088365 0.924147 1.000000
0.218936 0.920592 1.000000
0.358083 0.917891 1.000000
0.510292 0.908827 1.000000
0.681254 0.900496 1.000000
0.854353 0.887800 1.000000
0.988235 0.869123 1.000000
0.098039 0.996078 1.000000
0.155886 0.996078 1.000000
0.224506 0.996078 1.000000
0.317159 0.996078 1.000000
0.435294 0.996078 1.000000
0.572061 0.996078 1.000000
0.730388 0.996078 1.000000
0.889220 0.996078 1.000000
0.988235 0.996078 1.000000
