app/src/main/assets/filters/velvia50.33.cube
# Created from velvia50.33.plut
LUT_3D_SIZE 5
DOMAIN_MIN 0.0 0.0 0.0
DOMAIN_MAX 1.0 1.0 1.0
0.000000 0.000000 0.000000
0.131365 0.000000 0.000000
0.339223 0.000000 0.000000
0.648035 0.000000 0.000000
0.988235 0.000000 0.000000
0.045090 0.169604 0.000000
0.180392 0.154650 0.000000
0.391180 0.137255 0.000000
0.693874 0.110536 0.000000
0.988235 0.059800 0.000000
0.143145 0.441169 0.000000
0.268635 0.429419 0.000000
0.482353 0.408820 0.000000
0.781369 0.377447 0.000000
0.988235 0.335286 0.000000
0.308827 0.761761 0.012741
0.407111 0.754910 0.004166
0.598032 0.738231 0.000000
0.877211 0.705882 0.000000
0.988235 0.663722 0.011765
0.474510 0.996078 0.015686
0.544121 0.996078 0.007843
0.698039 0.996078 0.000000
0.933333 0.996078 0.000000
0.988235 0.996078 0.000000
0.000000 0.000000 0.146075
0.126467 0.000000 0.130388
0.333333 0.000000 0.118624
0.633326 0.000000 0.106859
0.988235 0.000000 0.113725
0.029664 0.157839 0.169604
0.169421 0.149020 0.154650
0.381735 0.133333 0.136645
0.678431 0.112993 0.118624
0.988235 0.074510 0.118379
0.117647 0.441169 0.192645
0.246693 0.431373 0.183337
0.465446 0.413718 0.168139
0.765682 0.385290 0.145953
0.988235 0.343130 0.139208
0.278431 0.765682 0.201709
0.379660 0.759380 0.197055
0.575372 0.744610 0.184802
0.858762 0.713970 0.164157
0.988235 0.668620 0.152941
0.454902 0.996078 0.193133
0.525246 0.996078 0.189212
0.680385 0.996078 0.177447
0.921569 0.996078 0.153674
0.988235 0.996078 0.136278
0.000000 0.000000 0.380392
0.102449 0.000000 0.366674
0.325490 0.000000 0.353918
0.625483 0.000000 0.339223
0.972549 0.000000 0.343130
0.000000 0.145586 0.419120
0.147066 0.140078 0.405020
0.365927 0.130388 0.385534
0.663233 0.114458 0.361761
0.988235 0.088731 0.356374
0.057847 0.436271 0.465690
0.206622 0.429664 0.455879
0.433829 0.417639 0.435294
0.736522 0.393622 0.402213
0.988235 0.358816 0.384314
0.212741 0.773526 0.474022
0.321935 0.770214 0.468132
0.527947 0.757107 0.453681
0.819608 0.730022 0.424506
0.988235 0.685786 0.407843
0.401968 0.996078 0.447059
0.478431 0.996078 0.441169
0.638239 0.996078 0.429419
0.888731 0.996078 0.405875
0.988235 0.996078 0.394125
0.031373 0.000000 0.702937
0.031373 0.000000 0.696071
0.280888 0.000000 0.684321
0.596323 0.000000 0.668620
0.944121 0.000000 0.664714
0.031373 0.137255 0.749020
0.052018 0.134310 0.737987
0.315679 0.128313 0.721569
0.626902 0.118624 0.695827
0.966918 0.106859 0.683330
0.000000 0.423529 0.811765
0.114092 0.417639 0.801465
0.371817 0.411521 0.782361
0.684321 0.394125 0.745953
0.988235 0.370581 0.717647
0.062745 0.774502 0.831617
0.210178 0.773526 0.825483
0.441169 0.765682 0.809812
0.749020 0.741787 0.774640
0.988235 0.702937 0.743130
0.300008 0.996078 0.782361
0.388235 0.996078 0.778424
0.562737 0.996078 0.766659
0.826719 0.996078 0.739223
0.988235 0.996078 0.723522
0.035294 0.000000 1.000000
0.035294 0.000000 1.000000
0.141176 0.000000 1.000000
0.519600 0.000000 1.000000
0.886275 0.000000 1.000000
0.031373 0.149996 1.000000
0.031373 0.146075 1.000000
0.185290 0.142153 1.000000
0.547066 0.138231 1.000000
0.908827 0.130388 1.000000
0.000000 0.403922 1.000000
0.000000 0.401968 1.000000
0.244114 0.396078 1.000000
0.596078 0.390188 1.000000
0.949020 0.374517 1.000000
0.000000 0.758816 1.000000
0.000000 0.754910 1.000000
0.308827 0.749996 1.000000
0.652201 0.731365 1.000000
0.988235 0.706859 1.000000
0.098039 0.996078 1.000000
0.224506 0.996078 1.000000
0.435294 0.996078 1.000000
0.730388 0.996078 1.000000
0.988235 0.996078 1.000000
