app/src/main/assets/filters/y2000.cube
#Created by: Adobe Photoshop Export Color Lookup Plugin
#Copyright: (C) Copyright 2026 Plady
TITLE "Y2K Plady.psb"
#LUT size
LUT_3D_SIZE 5
#data domain
DOMAIN_MIN 0.0 0.0 0.0
DOMAIN_MAX 1.0 1.0 1.0
#LUT data points
0.039062 0.038757 0.034485
0.354767 0.038757 0.034485
0.614838 0.045685 0.040680
0.838043 0.071869 0.063965
0.954468 0.085663 0.076263
0.055817 0.367065 0.091034
0.353333 0.346893 0.098206
0.615265 0.352509 0.107788
0.821747 0.335114 0.118744
0.949066 0.314056 0.121002
0.108002 0.625214 0.160614
0.303986 0.593872 0.137512
0.612061 0.593536 0.173370
0.834229 0.614197 0.216614
0.975006 0.599457 0.187256
0.144562 0.813080 0.220856
0.286438 0.787384 0.208862
0.590424 0.830780 0.192535
0.834656 0.795807 0.242798
0.978851 0.811310 0.288269
0.152252 0.851807 0.255768
0.249817 0.866425 0.252960
0.519745 0.902740 0.232422
0.831390 0.973541 0.316284
0.982544 0.970856 0.294617
0.039062 0.038757 0.283875
0.322174 0.038757 0.300842
0.581665 0.038757 0.271606
0.800751 0.067169 0.254333
0.939362 0.083740 0.236176
0.039062 0.301849 0.273102
0.371490 0.382507 0.350189
0.625000 0.363831 0.332153
0.843079 0.344666 0.313751
0.974060 0.320831 0.291046
0.067169 0.575409 0.321503
0.334412 0.620972 0.387909
0.627869 0.621704 0.412872
0.850250 0.625488 0.395691
0.976227 0.608673 0.378265
0.120819 0.776276 0.377441
0.293518 0.802917 0.422546
0.584045 0.812317 0.443787
0.847961 0.820435 0.473480
0.982544 0.831116 0.488098
0.134308 0.855255 0.414703
0.224243 0.867950 0.436646
0.557648 0.921417 0.492310
0.831848 0.981659 0.493652
0.982544 0.981659 0.522125
0.040161 0.039856 0.508331
0.238861 0.038757 0.499329
0.558411 0.038757 0.538086
0.793976 0.039459 0.510925
0.942902 0.069366 0.485413
0.039062 0.268372 0.502258
0.311432 0.328766 0.551636
0.597168 0.327850 0.576660
0.819458 0.308441 0.548096
0.964966 0.288116 0.524658
0.039062 0.521851 0.489319
0.378937 0.587372 0.557465
0.643555 0.649109 0.622833
0.858673 0.634552 0.607330
0.982544 0.617828 0.589600
0.063690 0.742401 0.526733
0.332520 0.783325 0.579651
0.608002 0.836182 0.652985
0.860901 0.844910 0.676208
0.982544 0.847137 0.661591
0.096893 0.859985 0.563049
0.274933 0.886230 0.598785
0.557800 0.936432 0.670868
0.823395 0.981659 0.698364
0.982544 0.981659 0.722443
0.064880 0.064514 0.706024
0.185760 0.062042 0.687134
0.413849 0.049805 0.708557
0.765503 0.038757 0.745728
0.956726 0.041321 0.725708
0.064514 0.233093 0.703979
0.248077 0.272339 0.731384
0.457184 0.279022 0.731659
0.795593 0.270081 0.776794
0.977448 0.242676 0.752808
0.045044 0.492950 0.688873
0.318542 0.545288 0.737274
0.528717 0.593842 0.783020
0.835571 0.606964 0.818695
0.982544 0.590637 0.792938
0.039062 0.702972 0.680542
0.386475 0.759888 0.741913
0.649963 0.815094 0.801575
0.873840 0.869141 0.859772
0.982544 0.855408 0.845001
0.054321 0.864624 0.711426
0.323120 0.904755 0.757233
0.600281 0.955475 0.817474
0.838806 0.981659 0.881683
0.982544 0.981659 0.905365
0.085205 0.084869 0.878326
0.132812 0.083008 0.862701
0.296051 0.081360 0.846985
0.595184 0.062103 0.901764
0.942780 0.039917 0.935791
0.085205 0.191772 0.878326
0.179596 0.212524 0.891174
0.343536 0.224426 0.882202
0.625031 0.216614 0.923798
0.965393 0.209106 0.961090
0.074127 0.466614 0.872040
0.258453 0.502594 0.901093
0.406128 0.535217 0.929291
0.682617 0.570465 0.946960
0.982544 0.563232 0.980377
0.054565 0.676208 0.858032
0.324921 0.721100 0.902069
0.533356 0.765076 0.947296
0.739288 0.811493 0.980377
0.982544 0.832001 0.980377
0.054321 0.864624 0.854919
0.393890 0.917877 0.912079
0.656372 0.970276 0.968201
0.879150 0.981659 0.980377
0.982544 0.981659 0.980377
