app/src/main/assets/filters/y2000.cube
#Created by: Adobe Photoshop Export Color Lookup Plugin
#Copyright: (C) Copyright 2026 Plady
TITLE "Y2K Plady.psb"
#LUT size
LUT_3D_SIZE 9
#data domain
DOMAIN_MIN 0.0 0.0 0.0
DOMAIN_MAX 1.0 1.0 1.0
#LUT data points
0.039062 0.038757 0.034485
0.205414 0.038757 0.034485
0.354767 0.038757 0.034485
0.489594 0.038757 0.034485
0.614838 0.045685 0.040680
0.731201 0.058990 0.052521
0.838043 0.071869 0.063965
0.935211 0.083252 0.074127
0.954468 0.085663 0.076263
0.039062 0.209656 0.045715
0.204559 0.197815 0.051025
0.355042 0.201263 0.057739
0.479187 0.191101 0.065216
0.605164 0.182800 0.071045
0.723602 0.170898 0.074066
0.830933 0.159576 0.079498
0.929718 0.146332 0.082367
0.954407 0.125458 0.079224
0.055817 0.367065 0.091034
0.196198 0.355835 0.080200
0.353333 0.346893 0.098206
0.486969 0.360107 0.122345
0.615265 0.352509 0.107788
0.719971 0.343994 0.114960
0.821747 0.335114 0.118744
0.920746 0.327698 0.122009
0.949066 0.314056 0.121002
0.084717 0.504639 0.126831
0.196259 0.483154 0.119659
0.341522 0.505066 0.109924
0.487244 0.478027 0.136963
0.612579 0.492828 0.167572
0.733398 0.494019 0.158051
0.838654 0.485352 0.150085
0.927002 0.477173 0.154938
0.953186 0.465851 0.157318
0.108002 0.625214 0.160614
0.207001 0.610565 0.160065
0.303986 0.593872 0.137512
0.487854 0.621948 0.166382
0.612061 0.593536 0.173370
0.730591 0.609039 0.206573
0.834229 0.614197 0.216614
0.938965 0.610352 0.195038
0.975006 0.599457 0.187256
0.129242 0.734619 0.192993
0.217285 0.725250 0.198547
0.292053 0.694733 0.173370
0.448059 0.719940 0.165375
0.617432 0.723022 0.223999
0.728119 0.698090 0.208527
0.839447 0.714935 0.243317
0.929718 0.719910 0.263367
0.971069 0.715912 0.258423
0.144562 0.813080 0.220856
0.211975 0.804596 0.221313
0.286438 0.787384 0.208862
0.415833 0.783417 0.191467
0.590424 0.830780 0.192535
0.729797 0.812775 0.253815
0.834656 0.795807 0.242798
0.936066 0.812012 0.277832
0.978851 0.811310 0.288269
0.150482 0.842255 0.239868
0.199158 0.839874 0.236938
0.274719 0.839996 0.237488
0.392242 0.824860 0.215088
0.552216 0.874603 0.214355
0.720306 0.907257 0.249146
0.831726 0.892853 0.280884
0.931610 0.889282 0.276337
0.982544 0.894165 0.294617
0.152252 0.851807 0.255768
0.182739 0.855621 0.249207
0.249817 0.866425 0.252960
0.379211 0.867523 0.241974
0.519745 0.902740 0.232422
0.687012 0.963684 0.236084
0.831390 0.973541 0.316284
0.924835 0.970947 0.307495
0.982544 0.970856 0.294617
0.039062 0.038757 0.159393
0.186768 0.038757 0.168884
0.335571 0.038757 0.152710
0.465942 0.038757 0.143341
0.592773 0.042938 0.135559
0.710999 0.056641 0.127747
0.819550 0.069550 0.119904
0.918182 0.081573 0.112122
0.946960 0.084778 0.098114
0.039062 0.171997 0.153412
0.214844 0.218475 0.195648
0.360657 0.207825 0.185913
0.492676 0.196716 0.175781
0.615601 0.185486 0.165588
0.730194 0.174103 0.155304
0.835266 0.162537 0.144897
0.930939 0.151062 0.134583
0.957886 0.132721 0.118195
0.039062 0.335266 0.180084
0.213409 0.369781 0.221863
0.362305 0.364777 0.230286
0.497314 0.367249 0.220856
0.609589 0.358368 0.213043
0.721619 0.350098 0.202820
0.828003 0.340912 0.191345
0.924438 0.331726 0.180664
0.955841 0.317078 0.165497
0.067047 0.476440 0.211975
0.211670 0.502380 0.247650
0.338287 0.493958 0.247589
0.495728 0.493866 0.264008
0.617462 0.504211 0.273834
0.738159 0.498108 0.245331
0.834473 0.489502 0.236542
0.921356 0.482239 0.229980
0.954224 0.469879 0.215454
0.099365 0.598938 0.245117
0.209961 0.619049 0.273010
0.330994 0.612061 0.282349
0.483826 0.631195 0.273682
0.620026 0.607635 0.297272
0.734283 0.619507 0.312286
0.841370 0.620728 0.296234
0.940918 0.613525 0.269501
0.977753 0.602539 0.255035
0.124390 0.709839 0.277161
0.208221 0.725098 0.298004
0.323395 0.723328 0.313416
0.449036 0.709503 0.298706
0.620514 0.737000 0.323730
0.735443 0.711090 0.329712
0.842102 0.724060 0.347900
0.933655 0.728210 0.348602
0.980804 0.722015 0.325378
0.140900 0.793518 0.304138
0.203003 0.804413 0.319366
0.301697 0.803192 0.330231
0.435760 0.792725 0.327942
0.583801 0.822205 0.321503
0.738983 0.826874 0.374542
0.841339 0.808167 0.361694
0.940857 0.822876 0.381714
0.982544 0.820435 0.377716
0.148529 0.832581 0.323853
0.190063 0.839691 0.334137
0.273590 0.844635 0.341309
0.426056 0.855103 0.356140
0.552338 0.865814 0.342529
0.717041 0.918793 0.346039
0.840057 0.906372 0.399902
0.937714 0.901489 0.393158
0.982544 0.906067 0.399658
0.152252 0.851807 0.340668
0.173431 0.855469 0.345764
0.241302 0.866302 0.349365
0.413208 0.897186 0.381165
0.526611 0.892303 0.361847
0.680908 0.954865 0.363068
0.833160 0.981659 0.406891
0.932495 0.981659 0.424866
0.982544 0.981659 0.412262
0.039062 0.038757 0.283875
0.158356 0.038757 0.284058
0.322174 0.038757 0.300842
0.461823 0.038757 0.285248
0.581665 0.038757 0.271606
0.695770 0.049164 0.261383
0.800751 0.067169 0.254333
0.901093 0.079346 0.247375
0.939362 0.083740 0.236176
0.039062 0.164459 0.279297
0.201263 0.204254 0.313171
0.345551 0.200165 0.324188
0.478363 0.189392 0.307709
0.597839 0.179169 0.295227
0.709564 0.169952 0.285797
0.816498 0.158478 0.276459
0.913788 0.146606 0.266907
0.950226 0.129242 0.253357
0.039062 0.301849 0.273102
0.219177 0.342865 0.312042
0.371490 0.382507 0.350189
0.502625 0.373108 0.341095
0.625000 0.363831 0.332153
0.738708 0.354279 0.322968
0.843079 0.344666 0.313751
0.938171 0.334930 0.304474
0.974060 0.320831 0.291046
0.039062 0.449371 0.294952
0.214569 0.479706 0.330750
0.352966 0.509155 0.369141
0.504150 0.509430 0.381775
0.629333 0.511536 0.372986
0.733002 0.503784 0.366028
0.835449 0.496460 0.356689
0.931671 0.488678 0.346252
0.971283 0.477875 0.334442
0.067169 0.575409 0.321503
0.215515 0.598083 0.353973
0.334412 0.620972 0.387909
0.481110 0.620789 0.398163
0.627869 0.621704 0.412872
0.740234 0.630890 0.421936
0.850250 0.625488 0.395691
0.937531 0.617889 0.387482
0.976227 0.608673 0.378265
0.096954 0.689056 0.350220
0.216003 0.705200 0.378296
0.315430 0.723236 0.406708
0.473785 0.728088 0.429504
0.616791 0.745697 0.421844
0.742737 0.723999 0.443481
0.846924 0.734833 0.457397
0.943878 0.736084 0.442566
0.982544 0.727478 0.418365
0.120819 0.776276 0.377441
0.211700 0.789764 0.399597
0.293518 0.802917 0.422546
0.463348 0.819153 0.455536
0.584045 0.812317 0.443787
0.742950 0.840515 0.469299
0.847961 0.820435 0.473480
0.944489 0.832794 0.490173
0.982544 0.831116 0.488098
0.129272 0.826050 0.397644
0.199677 0.835022 0.414581
0.261505 0.845306 0.431122
0.438477 0.869568 0.466827
0.568176 0.869965 0.467621
0.710022 0.910675 0.464539
0.848419 0.920135 0.511292
0.943817 0.913391 0.502869
0.982544 0.919189 0.510620
0.134308 0.855255 0.414703
0.182159 0.860870 0.425934
0.224243 0.867950 0.436646
0.410217 0.900452 0.475372
0.557648 0.921417 0.492310
0.679535 0.946014 0.481689
0.831848 0.981659 0.493652
0.940186 0.981659 0.534576
0.982544 0.981659 0.522125
0.039062 0.038757 0.399750
0.143402 0.038757 0.388428
0.277496 0.038757 0.412292
0.444336 0.038757 0.423615
0.579041 0.038757 0.410797
0.691650 0.038757 0.394104
0.795654 0.056885 0.382568
0.892242 0.071075 0.372864
0.936646 0.079926 0.361908
0.039062 0.157013 0.398712
0.187439 0.189789 0.423096
0.301697 0.187256 0.425873
0.464447 0.181488 0.443878
0.594086 0.168274 0.428772
0.705231 0.158936 0.412842
0.808380 0.148865 0.400513
0.903107 0.137634 0.389557
0.946381 0.123077 0.377411
0.039062 0.284180 0.389404
0.206024 0.321869 0.422974
0.341766 0.356018 0.454010
0.487976 0.355377 0.467590
0.611176 0.346191 0.452087
0.721619 0.337463 0.440552
0.823273 0.329651 0.431183
0.920013 0.319916 0.422638
0.965332 0.306305 0.410828
0.039062 0.417694 0.384552
0.223480 0.454742 0.421295
0.375244 0.490417 0.457184
0.512604 0.524750 0.492279
0.634308 0.516602 0.483948
0.747314 0.508362 0.475494
0.850891 0.500092 0.467041
0.945404 0.491974 0.458771
0.982544 0.480438 0.447083
0.039062 0.550812 0.404053
0.214844 0.578247 0.436462
0.353027 0.605103 0.469513
0.494385 0.634766 0.509430
0.635712 0.635468 0.521362
0.751312 0.637390 0.513245
0.845734 0.630341 0.506683
0.938263 0.623993 0.498077
0.982544 0.614746 0.486847
0.067108 0.665894 0.427032
0.214386 0.687744 0.456085
0.334045 0.708649 0.485657
0.476196 0.735809 0.526367
0.614288 0.736115 0.536377
0.749969 0.736786 0.549866
0.852295 0.745239 0.558167
0.951965 0.740448 0.533844
0.982544 0.731506 0.524078
0.093933 0.760010 0.450836
0.212524 0.776367 0.475586
0.312988 0.793121 0.500793
0.454926 0.819427 0.541016
0.606384 0.828522 0.564117
0.740051 0.850037 0.557587
0.854553 0.832733 0.577911
0.948944 0.843018 0.590729
0.982544 0.840973 0.581604
0.107635 0.819153 0.471313
0.202026 0.831726 0.491058
0.284332 0.844788 0.511169
0.428253 0.869995 0.550598
0.593750 0.895630 0.584991
0.708984 0.901764 0.576019
0.853882 0.933289 0.605103
0.949860 0.925385 0.605499
0.982544 0.932373 0.614075
0.115967 0.857758 0.488861
0.187012 0.867249 0.503784
0.250275 0.876892 0.518555
0.396606 0.901489 0.556946
0.569153 0.935608 0.594269
0.691254 0.945282 0.596100
0.825958 0.981659 0.595917
0.947754 0.981659 0.637207
0.982544 0.981659 0.625092
0.040161 0.039856 0.508331
0.133545 0.038757 0.497742
0.238861 0.038757 0.499329
0.386810 0.038757 0.530182
0.558411 0.038757 0.538086
0.688202 0.038757 0.528198
0.793976 0.039459 0.510925
0.889099 0.059479 0.497253
0.942902 0.069366 0.485413
0.040039 0.147522 0.507294
0.173309 0.175079 0.526367
0.268982 0.174133 0.515961
0.405121 0.167328 0.543549
0.575958 0.162323 0.555542
0.701599 0.147858 0.543610
0.805176 0.137512 0.526154
0.899689 0.126953 0.511963
0.952515 0.111877 0.499054
0.039062 0.268372 0.502258
0.194275 0.300598 0.528442
0.311432 0.328766 0.551636
0.430145 0.330902 0.556854
0.597168 0.327850 0.576660
0.717743 0.316223 0.563049
0.819458 0.308441 0.548096
0.913788 0.298248 0.536194
0.964966 0.288116 0.524658
0.039062 0.400299 0.492462
0.209991 0.434357 0.523071
0.345215 0.467438 0.554871
0.468719 0.497833 0.584015
0.620575 0.501221 0.599945
0.734406 0.493042 0.585815
0.835449 0.485718 0.575134
0.927307 0.478790 0.566650
0.981445 0.467896 0.556488
0.039062 0.521851 0.489319
0.227783 0.555054 0.523712
0.378937 0.587372 0.557465
0.516083 0.618713 0.590546
0.643555 0.649109 0.622833
0.755890 0.641846 0.615143
0.858673 0.634552 0.607330
0.952606 0.627228 0.599579
0.982544 0.617828 0.589600
0.039062 0.642944 0.507599
0.214142 0.669067 0.537781
0.352783 0.693726 0.567230
0.494385 0.721283 0.601379
0.626648 0.749023 0.638672
0.757141 0.749481 0.649689
0.862091 0.751404 0.642181
0.947815 0.744904 0.636139
0.982544 0.736938 0.626465
0.063690 0.742401 0.526733
0.212769 0.763062 0.553253
0.332520 0.783325 0.579651
0.474182 0.809692 0.615051
0.608002 0.836182 0.652985
0.737183 0.840851 0.663055
0.860901 0.844910 0.676208
0.953888 0.852966 0.683960
0.982544 0.847137 0.661591
0.084900 0.811554 0.545624
0.203979 0.828888 0.568146
0.305542 0.845184 0.590271
0.449677 0.869934 0.625641
0.585114 0.895813 0.663635
0.727753 0.914276 0.687042
0.852722 0.945709 0.682800
0.955811 0.937256 0.702393
0.982544 0.943573 0.710175
0.096893 0.859985 0.563049
0.192505 0.873047 0.580963
0.274933 0.886230 0.598785
0.419403 0.911438 0.633362
0.557800 0.936432 0.670868
0.714874 0.970428 0.705444
0.823395 0.981659 0.698364
0.954315 0.981659 0.731018
0.982544 0.981659 0.722443
0.052917 0.052551 0.610077
0.123505 0.051178 0.600098
0.210480 0.050079 0.589935
0.328339 0.041931 0.607239
0.490723 0.038757 0.641754
0.665649 0.038757 0.644897
0.786560 0.038757 0.635620
0.886932 0.043671 0.620300
0.949219 0.057831 0.606079
0.052673 0.137543 0.608887
0.158539 0.159760 0.623322
0.241364 0.159119 0.613434
0.350128 0.155182 0.619751
0.505768 0.146973 0.653229
0.680786 0.142609 0.660034
0.799500 0.126221 0.649933
0.897400 0.113647 0.633301
0.958496 0.100372 0.618256
0.050049 0.251434 0.607117
0.180359 0.277039 0.625824
0.280212 0.300903 0.643646
0.384644 0.306396 0.637512
0.524963 0.301941 0.665588
0.700012 0.299316 0.679321
0.816711 0.285492 0.669006
0.910339 0.276550 0.651886
0.971161 0.265869 0.638000
0.039062 0.386597 0.598114
0.197113 0.416168 0.623138
0.316376 0.444489 0.648132
0.423492 0.470032 0.670746
0.552704 0.480774 0.678040
0.721741 0.477112 0.701202
0.831940 0.467285 0.688477
0.923828 0.460480 0.674530
0.982544 0.450012 0.662506
0.039062 0.504913 0.588776
0.212860 0.535370 0.617889
0.348419 0.565582 0.647430
0.471771 0.594421 0.676544
0.587067 0.621796 0.704498
0.743134 0.628204 0.722931
0.847015 0.621002 0.709717
0.938263 0.614532 0.699799
0.982544 0.605896 0.690125
0.039062 0.615997 0.587677
0.232086 0.646515 0.620087
0.382721 0.676270 0.651886
0.519470 0.705414 0.683197
0.646790 0.734009 0.713989
0.764130 0.762115 0.744354
0.866211 0.755585 0.737274
0.959686 0.748810 0.729980
0.982544 0.740601 0.721100
0.040039 0.723907 0.604553
0.217072 0.748779 0.632751
0.351593 0.773346 0.660736
0.493286 0.799896 0.691956
0.625244 0.826538 0.724060
0.748016 0.852692 0.758698
0.867371 0.857025 0.769745
0.962952 0.858704 0.762787
0.982544 0.851440 0.755707
0.055145 0.804779 0.621002
0.207581 0.824829 0.645386
0.328064 0.844391 0.669373
0.470642 0.870026 0.701447
0.604279 0.896179 0.734772
0.728668 0.921600 0.770203
0.849243 0.937347 0.781403
0.961853 0.949005 0.794769
0.982544 0.954132 0.801086
0.072388 0.863403 0.637360
0.196808 0.879547 0.657684
0.298645 0.895905 0.678131
0.443268 0.920410 0.710022
0.578888 0.946198 0.743469
0.705444 0.971100 0.778564
0.838745 0.981659 0.802826
0.954498 0.981659 0.803284
0.982544 0.981659 0.815613
0.064880 0.064514 0.706024
0.113159 0.063080 0.696594
0.185760 0.062042 0.687134
0.280853 0.058472 0.681549
0.413849 0.049805 0.708557
0.589050 0.038757 0.745239
0.765503 0.038757 0.745728
0.877075 0.038757 0.737030
0.956726 0.041321 0.725708
0.064636 0.127289 0.704895
0.143677 0.144409 0.715271
0.212860 0.143707 0.705872
0.304688 0.142731 0.696472
0.431152 0.135345 0.720551
0.602264 0.126160 0.756683
0.778534 0.122162 0.759125
0.887848 0.104950 0.749542
0.964569 0.088318 0.736237
0.064514 0.233093 0.703979
0.165802 0.252899 0.717682
0.248077 0.272339 0.731384
0.342834 0.279358 0.726532
0.457184 0.279022 0.731659
0.618500 0.272095 0.768402
0.795593 0.270081 0.776794
0.903259 0.255859 0.767151
0.977448 0.242676 0.752808
0.054901 0.372162 0.697784
0.185425 0.397095 0.716827
0.286407 0.420593 0.737152
0.377258 0.441528 0.754028
0.500061 0.458710 0.758362
0.639648 0.455383 0.780518
0.815674 0.452423 0.797729
0.921356 0.440521 0.788116
0.982544 0.431824 0.772156
0.045044 0.492950 0.688873
0.200012 0.519684 0.713043
0.318542 0.545288 0.737274
0.427307 0.570374 0.760590
0.528717 0.593842 0.783020
0.667938 0.610443 0.792572
0.835571 0.606964 0.818695
0.935211 0.598175 0.806305
0.982544 0.590637 0.792938
0.039062 0.600586 0.681610
0.216064 0.627716 0.708710
0.350647 0.655060 0.736481
0.473938 0.681976 0.764343
0.589264 0.708160 0.791534
0.697815 0.733673 0.818176
0.854950 0.742981 0.839355
0.949036 0.736328 0.826660
0.982544 0.729401 0.816498
0.039062 0.702972 0.680542
0.236267 0.731720 0.711517
0.386475 0.759888 0.741913
0.523010 0.787659 0.771942
0.649963 0.815094 0.801575
0.767120 0.842224 0.830811
0.873840 0.869141 0.859772
0.966766 0.862701 0.852844
0.982544 0.855408 0.845001
0.047241 0.795258 0.696350
0.220795 0.819275 0.723114
0.354797 0.843109 0.749695
0.492462 0.869781 0.779419
0.623566 0.896118 0.809204
0.746338 0.921631 0.839386
0.857941 0.947174 0.872162
0.967834 0.960785 0.884003
0.982544 0.961884 0.877350
0.054321 0.864624 0.711426
0.203888 0.884674 0.734283
0.323120 0.904755 0.757233
0.466827 0.929413 0.786713
0.600281 0.955475 0.817474
0.725159 0.980347 0.848450
0.838806 0.981659 0.881683
0.950745 0.981659 0.894196
0.982544 0.981659 0.905365
0.075958 0.075592 0.797913
0.102386 0.074402 0.788788
0.160187 0.073242 0.779663
0.242828 0.072327 0.770538
0.350067 0.066437 0.775208
0.495850 0.056061 0.805328
0.693909 0.038757 0.849121
0.857819 0.038757 0.842438
0.950867 0.040527 0.833740
0.075836 0.116730 0.796936
0.128296 0.128601 0.803406
0.183105 0.127533 0.794403
0.263367 0.126831 0.785339
0.367706 0.124573 0.785339
0.510468 0.115662 0.816437
0.705444 0.100830 0.859650
0.868652 0.100586 0.854126
0.960175 0.080933 0.844543
0.075775 0.212799 0.795807
0.151062 0.228119 0.805817
0.214783 0.242920 0.815674
0.299744 0.251984 0.811951
0.398987 0.253052 0.803223
0.531738 0.248291 0.828125
0.718597 0.241699 0.869141
0.883728 0.240021 0.870514
0.974152 0.225037 0.860779
0.072174 0.357300 0.791809
0.172943 0.377106 0.807220
0.254456 0.395111 0.821075
0.329620 0.412231 0.834167
0.448090 0.435211 0.842651
0.565002 0.435455 0.839691
0.735626 0.429901 0.880585
0.902191 0.427155 0.890778
0.982544 0.414520 0.881195
0.061493 0.480316 0.783997
0.188080 0.502808 0.803162
0.289276 0.524445 0.822357
0.381836 0.545441 0.841766
0.468658 0.565063 0.859283
0.608368 0.590881 0.873016
0.755798 0.588013 0.892883
0.920410 0.585327 0.910858
0.982544 0.574738 0.901398
0.050446 0.588531 0.775970
0.205017 0.612610 0.797668
0.321930 0.636719 0.821838
0.429993 0.659912 0.844940
0.531250 0.682465 0.868042
0.628143 0.704712 0.889954
0.782379 0.726562 0.904724
0.938354 0.723419 0.930817
0.982544 0.714417 0.919586
0.046478 0.688538 0.770386
0.220367 0.713837 0.796265
0.354370 0.738983 0.822083
0.476532 0.764160 0.848297
0.591827 0.789337 0.874939
0.699951 0.814117 0.901001
0.808655 0.840576 0.929352
0.956299 0.850616 0.950897
0.982544 0.843567 0.938629
0.046417 0.785248 0.769348
0.240509 0.812683 0.798981
0.390137 0.839874 0.828308
0.526459 0.866821 0.857300
0.653168 0.893646 0.886108
0.770050 0.920197 0.914551
0.876526 0.946472 0.942719
0.973846 0.972504 0.970612
0.982544 0.965881 0.963501
0.054321 0.864624 0.782776
0.224609 0.887970 0.808716
0.358154 0.911285 0.834229
0.495605 0.937439 0.862823
0.624512 0.963593 0.891479
0.744934 0.981659 0.920044
0.856476 0.981659 0.948883
0.957947 0.981659 0.980194
0.982544 0.981659 0.980377
0.085205 0.084869 0.878326
0.090057 0.083740 0.870636
0.132812 0.083008 0.862701
0.203156 0.082184 0.854919
0.296051 0.081360 0.846985
0.416443 0.072906 0.862793
0.595184 0.062103 0.901764
0.794739 0.040527 0.944824
0.942780 0.039917 0.935791
0.085205 0.105255 0.878326
0.111298 0.111267 0.881561
0.151428 0.110626 0.873810
0.219849 0.109924 0.865875
0.311249 0.108978 0.858154
0.430511 0.104980 0.871826
0.607269 0.093964 0.911865
0.805176 0.077087 0.955139
0.951874 0.076599 0.945953
0.085205 0.191772 0.878326
0.135498 0.202057 0.884827
0.179596 0.212524 0.891174
0.254547 0.222900 0.889648
0.343536 0.224426 0.882202
0.455414 0.224396 0.883301
0.625031 0.216614 0.923798
0.819122 0.207458 0.968384
0.965393 0.209106 0.961090
0.085205 0.341278 0.878052
0.158020 0.354889 0.888000
0.221100 0.368408 0.897644
0.279816 0.381622 0.907227
0.393127 0.409485 0.919403
0.500610 0.412201 0.913177
0.651337 0.409271 0.934723
0.832825 0.402313 0.978699
0.982544 0.401093 0.980377
0.074127 0.466614 0.872040
0.174866 0.484894 0.886536
0.258453 0.502594 0.901093
0.335236 0.519928 0.915955
0.406128 0.535217 0.929291
0.543304 0.566345 0.947845
0.682617 0.570465 0.946960
0.848419 0.564667 0.980377
0.982544 0.563232 0.980377
0.066315 0.577148 0.864319
0.191589 0.597504 0.882721
0.292664 0.617554 0.901154
0.385468 0.637238 0.919617
0.471130 0.655975 0.939178
0.555206 0.674988 0.957062
0.723938 0.708435 0.980377
0.866211 0.706024 0.980377
0.982544 0.703674 0.980377
0.054565 0.676208 0.858032
0.205994 0.698944 0.879974
0.324921 0.721100 0.902069
0.431732 0.743469 0.925201
0.533356 0.765076 0.947296
0.630157 0.786377 0.968903
0.739288 0.811493 0.980377
0.890198 0.835114 0.980377
0.982544 0.832001 0.980377
0.054321 0.771576 0.854919
0.224609 0.795685 0.880005
0.358154 0.819641 0.905029
0.480011 0.843475 0.929810
0.595154 0.866974 0.954041
0.701996 0.891724 0.980377
0.810730 0.917969 0.980377
0.914001 0.944824 0.980377
0.982544 0.954559 0.980377
0.054321 0.864624 0.854919
0.244751 0.891388 0.883667
0.393890 0.917877 0.912079
0.529846 0.944183 0.940277
0.656372 0.970276 0.968201
0.772980 0.981659 0.980377
0.879150 0.981659 0.980377
0.976349 0.981659 0.980377
0.982544 0.981659 0.980377
