app/src/main/assets/filters/y2000.cube
#Created by: Adobe Photoshop Export Color Lookup Plugin
#Copyright: (C) Copyright 2026 Plady
TITLE "Y2K Plady.psb"
#LUT size
LUT_3D_SIZE 33
#data domain
DOMAIN_MIN 0.0 0.0 0.0
DOMAIN_MAX 1.0 1.0 1.0
#LUT data points
0.039062 0.038757 0.034485
0.063385 0.038757 0.034485
0.118683 0.038757 0.034485
0.163666 0.038757 0.034485
0.205414 0.038757 0.034485
0.244904 0.038757 0.034485
0.282623 0.038757 0.034485
0.319336 0.038757 0.034485
0.354767 0.038757 0.034485
0.389557 0.038757 0.034485
0.423370 0.038757 0.034485
0.456787 0.038757 0.034485
0.489594 0.038757 0.034485
0.521545 0.038757 0.034485
0.553253 0.038757 0.034485
0.584167 0.042053 0.037445
0.614838 0.045685 0.040680
0.644684 0.048920 0.043549
0.674133 0.052307 0.046570
0.703033 0.055542 0.049438
0.731201 0.058990 0.052521
0.758911 0.062286 0.055450
0.785858 0.065582 0.058380
0.812286 0.068756 0.061188
0.838043 0.071869 0.063965
0.863159 0.074982 0.066772
0.887726 0.077484 0.068970
0.911621 0.080444 0.071594
0.935211 0.083252 0.074127
0.948700 0.085052 0.075714
0.951874 0.085388 0.076019
0.953918 0.085602 0.076202
0.954468 0.085663 0.076263
0.039062 0.063477 0.034485
0.063080 0.058777 0.034485
0.119507 0.065643 0.034485
0.160736 0.066742 0.034485
0.201843 0.068604 0.034485
0.241608 0.069702 0.034485
0.279694 0.070831 0.034485
0.316559 0.071747 0.034485
0.352020 0.072998 0.034485
0.387299 0.073242 0.034485
0.421204 0.073975 0.034485
0.454742 0.074982 0.034485
0.487793 0.075317 0.034485
0.519440 0.076599 0.036438
0.551605 0.076660 0.038086
0.582336 0.078186 0.041473
0.613495 0.077423 0.042480
0.643372 0.079193 0.045715
0.672394 0.080200 0.048828
0.702057 0.079346 0.049377
0.730286 0.080627 0.052399
0.757629 0.082031 0.055328
0.784698 0.083099 0.058289
0.811096 0.083984 0.061096
0.836945 0.085266 0.063873
0.861969 0.086395 0.066559
0.886566 0.087555 0.068878
0.910492 0.088745 0.071533
0.934113 0.089661 0.074036
0.947906 0.089874 0.075623
0.951843 0.089020 0.076019
0.953918 0.087952 0.076202
0.954468 0.086304 0.076263
0.039062 0.119232 0.034485
0.066071 0.117737 0.034485
0.118164 0.112549 0.034485
0.162720 0.118988 0.034485
0.206573 0.119049 0.034485
0.242004 0.118591 0.034485
0.276825 0.117828 0.034485
0.312836 0.117920 0.034485
0.348907 0.117279 0.035675
0.384094 0.116760 0.037689
0.418091 0.116333 0.040131
0.451691 0.115570 0.041687
0.484955 0.114166 0.042847
0.517120 0.113647 0.045410
0.548676 0.112915 0.047729
0.580109 0.111755 0.049377
0.610992 0.110748 0.051270
0.641235 0.109100 0.052460
0.671173 0.107727 0.053680
0.699493 0.107635 0.056671
0.727417 0.107574 0.059906
0.755890 0.105560 0.060730
0.783722 0.103119 0.061005
0.809692 0.102692 0.063873
0.835052 0.102478 0.066650
0.861267 0.099915 0.066345
0.885498 0.099548 0.068787
0.909515 0.099304 0.071411
0.933014 0.098389 0.073975
0.947174 0.097260 0.075562
0.951782 0.095001 0.076019
0.953918 0.092377 0.076202
0.954468 0.089569 0.076263
0.039062 0.166138 0.034485
0.068665 0.158630 0.034485
0.123840 0.168335 0.034485
0.162994 0.156799 0.035919
0.204712 0.162384 0.048737
0.245239 0.163757 0.046021
0.282928 0.161621 0.042358
0.316315 0.159393 0.044708
0.348846 0.157349 0.046661
0.380493 0.156250 0.050079
0.415222 0.154419 0.051208
0.448975 0.152588 0.052277
0.481628 0.151276 0.054535
0.514069 0.149170 0.055756
0.546265 0.146881 0.056671
0.578094 0.144165 0.057587
0.608459 0.142181 0.059296
0.638580 0.140076 0.061188
0.668152 0.137634 0.062500
0.697327 0.135101 0.063965
0.726013 0.132294 0.064850
0.754211 0.129486 0.065491
0.781830 0.126404 0.066010
0.807800 0.124786 0.068939
0.834351 0.121307 0.069061
0.858948 0.119629 0.071777
0.884308 0.116028 0.071716
0.907867 0.114258 0.074249
0.932495 0.110138 0.073914
0.946503 0.107361 0.075409
0.951691 0.103882 0.076019
0.953918 0.100128 0.076202
0.954468 0.095947 0.076263
0.039062 0.209656 0.045715
0.076843 0.204285 0.045563
0.119049 0.205933 0.038788
0.169800 0.208557 0.054321
0.204559 0.197815 0.051025
0.244415 0.203735 0.064087
0.281097 0.205658 0.067749
0.320648 0.204163 0.059448
0.355042 0.201263 0.057739
0.385986 0.198792 0.060638
0.416809 0.196381 0.062500
0.447296 0.193665 0.064209
0.479187 0.191101 0.065216
0.511047 0.189758 0.067474
0.543579 0.187012 0.067535
0.575104 0.184570 0.068512
0.605164 0.182800 0.071045
0.635864 0.179504 0.071289
0.665131 0.177368 0.073273
0.695251 0.173523 0.072876
0.723602 0.170898 0.074066
0.751617 0.167877 0.075134
0.779175 0.164703 0.076172
0.805908 0.161469 0.076691
0.830933 0.159576 0.079498
0.856720 0.156158 0.079834
0.881927 0.152100 0.079956
0.906708 0.147949 0.079926
0.929718 0.146332 0.082367
0.944122 0.143463 0.084076
0.950897 0.136902 0.081818
0.952759 0.132416 0.082001
0.954407 0.125458 0.079224
0.039062 0.251221 0.058746
0.084412 0.247864 0.061096
0.118073 0.239319 0.052124
0.165253 0.251984 0.050293
0.210083 0.246735 0.070526
0.243713 0.237244 0.064667
0.283142 0.243744 0.077087
0.317230 0.245758 0.083740
0.354675 0.246185 0.079285
0.391907 0.243958 0.072540
0.423920 0.241058 0.072174
0.453857 0.238525 0.073975
0.483063 0.236176 0.076538
0.512756 0.233459 0.077118
0.540558 0.231567 0.080109
0.571930 0.229095 0.080200
0.602631 0.227295 0.081635
0.633118 0.225098 0.082306
0.663239 0.222626 0.082825
0.691925 0.220734 0.084717
0.720093 0.219086 0.086487
0.748962 0.215454 0.086121
0.776306 0.213135 0.087189
0.802887 0.210449 0.088440
0.829132 0.207764 0.089142
0.854767 0.204529 0.089722
0.879791 0.201599 0.090210
0.904480 0.198364 0.090637
0.927399 0.196838 0.093475
0.943176 0.192169 0.092346
0.949280 0.188568 0.093292
0.952637 0.182678 0.090820
0.952850 0.178589 0.090820
0.039398 0.291260 0.070709
0.091797 0.289398 0.074646
0.121460 0.278168 0.065704
0.160339 0.284027 0.061462
0.209167 0.295288 0.062164
0.247650 0.283478 0.081299
0.281525 0.274933 0.076904
0.319611 0.281250 0.088470
0.353577 0.283966 0.094788
0.387604 0.285492 0.096619
0.424713 0.284760 0.089447
0.460327 0.282166 0.083405
0.489899 0.279327 0.084686
0.518311 0.277008 0.087036
0.547882 0.274536 0.087524
0.575043 0.272583 0.090637
0.602844 0.270142 0.091858
0.629486 0.268158 0.094330
0.660095 0.265686 0.093781
0.688477 0.264496 0.096161
0.717560 0.262146 0.096375
0.746216 0.259583 0.096375
0.773438 0.257812 0.098114
0.799835 0.255768 0.099335
0.825897 0.253571 0.100739
0.852539 0.249847 0.099426
0.877472 0.247345 0.100281
0.900726 0.246368 0.103394
0.924805 0.243561 0.103882
0.940857 0.239563 0.103333
0.948944 0.234589 0.101501
0.950867 0.231049 0.101776
0.951141 0.226990 0.101776
0.047699 0.329956 0.081268
0.098419 0.329590 0.086700
0.126556 0.318634 0.079010
0.157898 0.314636 0.072540
0.201355 0.326202 0.071350
0.249115 0.330414 0.081818
0.283783 0.319031 0.091125
0.317841 0.311615 0.087769
0.354828 0.317688 0.098663
0.388519 0.320831 0.106049
0.419922 0.322754 0.112213
0.455109 0.323059 0.107727
0.490784 0.321899 0.100861
0.524780 0.319153 0.095764
0.553650 0.316559 0.096436
0.581635 0.314270 0.098328
0.609039 0.311890 0.099609
0.636566 0.309601 0.100952
0.662689 0.307495 0.103424
0.689484 0.304901 0.103882
0.713867 0.303802 0.107971
0.743347 0.300964 0.106354
0.770386 0.299774 0.108429
0.798004 0.297333 0.108215
0.823730 0.295654 0.109894
0.849152 0.293823 0.111084
0.873840 0.291718 0.112427
0.899567 0.288055 0.110962
0.922119 0.287354 0.114349
0.938507 0.284302 0.113800
0.947052 0.279572 0.112488
0.949158 0.276367 0.112762
0.950745 0.270752 0.110199
0.055817 0.367065 0.091034
0.102997 0.366821 0.096222
0.131531 0.357880 0.090546
0.158234 0.347076 0.083099
0.196198 0.355835 0.080200
0.241333 0.367401 0.079407
0.286835 0.365265 0.097717
0.318604 0.353577 0.100616
0.353333 0.346893 0.098206
0.389496 0.352783 0.108643
0.423004 0.356750 0.116913
0.454498 0.358704 0.121948
0.486969 0.360107 0.122345
0.521362 0.359406 0.116791
0.555664 0.357605 0.110474
0.588043 0.354828 0.105988
0.615265 0.352509 0.107788
0.642426 0.350220 0.108978
0.668182 0.348236 0.111816
0.694763 0.345703 0.112671
0.719971 0.343994 0.114960
0.744598 0.342072 0.117096
0.770355 0.339142 0.117126
0.794830 0.337250 0.119019
0.821747 0.335114 0.118744
0.846832 0.333954 0.120361
0.871460 0.332520 0.121948
0.895691 0.330780 0.123260
0.920746 0.327698 0.122009
0.937469 0.324554 0.121918
0.945343 0.322205 0.122955
0.947540 0.318848 0.123535
0.949066 0.314056 0.121002
0.063507 0.403259 0.100220
0.106873 0.402740 0.104919
0.136536 0.395691 0.101685
0.162109 0.385437 0.094299
0.192566 0.384186 0.089081
0.233490 0.395599 0.087341
0.280121 0.406586 0.088074
0.322571 0.398041 0.114197
0.352570 0.387177 0.109802
0.387848 0.381134 0.108185
0.423157 0.386841 0.118225
0.456940 0.391632 0.127136
0.487671 0.393555 0.132477
0.517426 0.395203 0.137909
0.552124 0.395508 0.131195
0.585907 0.394348 0.124878
0.618591 0.392151 0.119354
0.648224 0.389740 0.117340
0.674622 0.387329 0.118439
0.701019 0.384796 0.119568
0.725983 0.382812 0.122009
0.751801 0.380524 0.122437
0.775818 0.378387 0.124512
0.799622 0.376587 0.126495
0.822845 0.374542 0.128296
0.845856 0.372589 0.129944
0.868958 0.370728 0.131348
0.894470 0.368408 0.130768
0.918030 0.366913 0.132080
0.935120 0.364532 0.132385
0.944885 0.360962 0.131134
0.946991 0.358093 0.131470
0.947205 0.354614 0.131470
0.070953 0.438293 0.109192
0.110992 0.437317 0.113434
0.141510 0.432159 0.112579
0.165649 0.422272 0.105469
0.190765 0.412292 0.098267
0.227783 0.421906 0.096436
0.270325 0.433289 0.095276
0.316864 0.440308 0.101288
0.356659 0.430786 0.126556
0.386383 0.419739 0.118744
0.421600 0.414490 0.117828
0.456421 0.420044 0.128021
0.490326 0.425446 0.137238
0.520447 0.427155 0.142273
0.549500 0.428772 0.148193
0.581451 0.429871 0.146820
0.614624 0.429565 0.140594
0.646698 0.428070 0.135345
0.678345 0.425842 0.129425
0.706146 0.423523 0.128387
0.731873 0.420898 0.129181
0.757385 0.418549 0.129883
0.781219 0.416687 0.131989
0.804840 0.414612 0.134155
0.827850 0.412781 0.135986
0.850616 0.410919 0.137817
0.874115 0.408234 0.137329
0.894684 0.406982 0.141022
0.916321 0.404938 0.142273
0.932587 0.402466 0.142487
0.942871 0.399414 0.141785
0.945068 0.396362 0.142090
0.946747 0.392090 0.139679
0.077942 0.471924 0.118042
0.114899 0.470917 0.121948
0.146332 0.467621 0.122864
0.169495 0.457947 0.115997
0.193634 0.448181 0.108948
0.223267 0.448334 0.104187
0.262482 0.458832 0.103241
0.306274 0.469940 0.102661
0.352142 0.471802 0.115417
0.390137 0.461945 0.135315
0.419586 0.451233 0.127411
0.454803 0.446625 0.127319
0.488831 0.452026 0.137329
0.522491 0.457458 0.146912
0.552704 0.459839 0.152191
0.581360 0.461212 0.157867
0.610809 0.462891 0.161133
0.642517 0.463074 0.156525
0.673920 0.462372 0.151123
0.706238 0.460724 0.143982
0.735626 0.458496 0.139435
0.761658 0.455933 0.139252
0.786530 0.453613 0.139679
0.809753 0.451721 0.141968
0.832733 0.449890 0.144073
0.856445 0.447418 0.143860
0.877258 0.446136 0.147919
0.900269 0.443298 0.147095
0.921692 0.441467 0.148560
0.935974 0.439545 0.151245
0.945740 0.436432 0.150452
0.947479 0.433167 0.150696
0.948395 0.428741 0.148193
0.084717 0.504639 0.126831
0.118835 0.503174 0.130249
0.151123 0.501617 0.133301
0.173340 0.492401 0.126495
0.196259 0.483154 0.119659
0.220276 0.473633 0.112701
0.256073 0.483917 0.110626
0.296539 0.494202 0.110046
0.341522 0.505066 0.109924
0.388123 0.501831 0.131531
0.423309 0.492126 0.143890
0.452271 0.481750 0.136108
0.487244 0.478027 0.136963
0.520935 0.483276 0.146515
0.553741 0.488434 0.156219
0.583710 0.490997 0.162872
0.612579 0.492828 0.167572
0.640594 0.494415 0.172516
0.670837 0.495361 0.170502
0.701691 0.495117 0.165436
0.733398 0.494019 0.158051
0.762146 0.492218 0.153778
0.791626 0.489502 0.147522
0.816071 0.487244 0.147888
0.838654 0.485352 0.150085
0.860901 0.483612 0.152161
0.882751 0.481537 0.153992
0.904419 0.479797 0.155640
0.927002 0.477173 0.154938
0.941528 0.475159 0.157715
0.951904 0.472351 0.157074
0.953491 0.469147 0.157349
0.953186 0.465851 0.157318
0.091003 0.536194 0.135437
0.122467 0.534546 0.138245
0.154480 0.533417 0.142029
0.176880 0.525543 0.136841
0.198853 0.516510 0.130096
0.222015 0.507477 0.123047
0.251099 0.507751 0.118652
0.288330 0.517944 0.117096
0.330017 0.528900 0.115662
0.379913 0.539703 0.118225
0.423920 0.530884 0.148041
0.455933 0.521393 0.152435
0.484375 0.511322 0.144745
0.519318 0.508148 0.146118
0.552246 0.513184 0.155579
0.584778 0.518280 0.165253
0.615082 0.521698 0.172058
0.642303 0.523010 0.178101
0.669678 0.524628 0.183197
0.698547 0.526215 0.184662
0.728821 0.526428 0.179749
0.758667 0.525909 0.174042
0.788086 0.524445 0.167969
0.816956 0.522583 0.161530
0.843231 0.520081 0.158112
0.866699 0.517914 0.158203
0.888245 0.515991 0.160187
0.909729 0.514252 0.161926
0.930695 0.512299 0.163727
0.946930 0.509918 0.164368
0.957764 0.506775 0.163727
0.959381 0.504028 0.164032
0.959167 0.500641 0.163971
0.096863 0.566589 0.143921
0.126495 0.564728 0.146423
0.156525 0.563568 0.149719
0.180664 0.557678 0.146729
0.201477 0.548950 0.140076
0.223602 0.540009 0.133362
0.247009 0.531250 0.126617
0.281647 0.540344 0.124847
0.320160 0.550690 0.123657
0.367493 0.562500 0.124176
0.417023 0.567566 0.135132
0.458344 0.558990 0.164062
0.487976 0.549713 0.160889
0.515839 0.539948 0.153259
0.550720 0.537567 0.155212
0.583282 0.542450 0.164856
0.615021 0.547211 0.174133
0.645081 0.551056 0.182526
0.672577 0.552643 0.187195
0.699402 0.554169 0.192566
0.725372 0.555695 0.198181
0.755188 0.556458 0.193848
0.783264 0.556122 0.190063
0.813354 0.555542 0.182220
0.840240 0.554047 0.177948
0.868073 0.551971 0.171295
0.892395 0.549805 0.168945
0.915009 0.547607 0.168365
0.935791 0.545593 0.170227
0.950745 0.543671 0.173523
0.963593 0.540436 0.170502
0.965271 0.537476 0.170929
0.965027 0.534454 0.170837
0.102509 0.596313 0.152374
0.130249 0.594299 0.154510
0.158752 0.592773 0.157227
0.184113 0.588654 0.156799
0.204346 0.580231 0.150208
0.225342 0.571777 0.143646
0.247833 0.563019 0.136932
0.275482 0.563293 0.131378
0.311462 0.572693 0.130157
0.356628 0.584290 0.130646
0.406189 0.596283 0.131592
0.452820 0.594604 0.151489
0.491547 0.586670 0.176483
0.519348 0.577301 0.169220
0.546906 0.567780 0.161682
0.581787 0.565918 0.164215
0.613525 0.570709 0.173737
0.644836 0.575439 0.182922
0.675415 0.579956 0.191345
0.702362 0.581512 0.196289
0.728577 0.582977 0.201447
0.754181 0.584381 0.207031
0.781006 0.585449 0.207794
0.809662 0.585541 0.202393
0.837738 0.585236 0.196472
0.865509 0.584198 0.190125
0.891266 0.582458 0.185577
0.916687 0.580475 0.180603
0.940918 0.578247 0.176758
0.957550 0.575897 0.177795
0.967834 0.573700 0.180054
0.969543 0.570740 0.180389
0.970703 0.567352 0.177856
0.108002 0.625214 0.160614
0.133972 0.622833 0.162231
0.160980 0.621124 0.164978
0.187866 0.618958 0.166473
0.207001 0.610565 0.160065
0.227173 0.602356 0.153412
0.248535 0.594025 0.146851
0.271332 0.585449 0.140167
0.303986 0.593872 0.137512
0.346893 0.605652 0.136932
0.394653 0.617493 0.137817
0.444061 0.628815 0.139374
0.487854 0.621948 0.166382
0.522949 0.613342 0.184692
0.550323 0.604156 0.177490
0.577301 0.594879 0.170074
0.612061 0.593536 0.173370
0.643463 0.598145 0.182556
0.674072 0.602753 0.191833
0.704071 0.607361 0.201019
0.730591 0.609039 0.206573
0.756134 0.610382 0.211639
0.782166 0.612061 0.215698
0.806152 0.613434 0.221649
0.834229 0.614197 0.216614
0.861694 0.614197 0.210663
0.887268 0.613220 0.206451
0.914032 0.611938 0.199615
0.938965 0.610352 0.195038
0.959259 0.608154 0.190277
0.973602 0.605560 0.186951
0.976807 0.602386 0.184845
0.975006 0.599457 0.187256
0.113464 0.653412 0.168884
0.137482 0.650909 0.170166
0.163147 0.649017 0.172272
0.190094 0.647583 0.175049
0.209595 0.640350 0.169891
0.228943 0.632172 0.163391
0.249542 0.623993 0.156860
0.271454 0.615875 0.150330
0.298004 0.613464 0.145996
0.338623 0.625916 0.144073
0.384399 0.637421 0.145111
0.432129 0.649597 0.145294
0.480316 0.656158 0.153229
0.521515 0.647644 0.182648
0.553741 0.639343 0.192871
0.580688 0.630371 0.185730
0.607208 0.621368 0.178284
0.642029 0.620575 0.182190
0.672638 0.625122 0.191345
0.702789 0.629669 0.200653
0.732208 0.634155 0.209625
0.759216 0.636505 0.215118
0.784149 0.637756 0.220306
0.808289 0.639069 0.225983
0.833008 0.640686 0.230225
0.857941 0.641754 0.230713
0.884888 0.641846 0.224823
0.910034 0.641327 0.220428
0.936310 0.640564 0.213806
0.956726 0.639008 0.209412
0.972504 0.636963 0.205139
0.975555 0.633972 0.203430
0.977600 0.630981 0.199402
0.118835 0.680908 0.176849
0.141296 0.678314 0.178070
0.165314 0.676117 0.179871
0.191010 0.674469 0.182220
0.212128 0.669250 0.179718
0.230682 0.661346 0.173248
0.250366 0.653412 0.166687
0.271484 0.645294 0.160187
0.293640 0.637299 0.153534
0.331451 0.644989 0.152588
0.375458 0.657135 0.152496
0.421326 0.670166 0.150970
0.469330 0.680847 0.152863
0.515259 0.681183 0.169739
0.554871 0.673584 0.197266
0.584045 0.664856 0.201019
0.610535 0.656036 0.193787
0.636749 0.647247 0.186493
0.671265 0.646912 0.190979
0.701416 0.651337 0.200226
0.730835 0.655762 0.209229
0.759613 0.660126 0.218475
0.786316 0.662903 0.225128
0.810516 0.664246 0.230621
0.835175 0.665924 0.234741
0.857910 0.667053 0.240540
0.881256 0.668457 0.244873
0.907532 0.669006 0.238983
0.933716 0.669037 0.232574
0.954407 0.668121 0.228363
0.970581 0.666443 0.223877
0.973846 0.663818 0.222565
0.975800 0.660950 0.218719
0.124054 0.707977 0.184967
0.144989 0.705139 0.185791
0.167511 0.702728 0.187042
0.191864 0.700897 0.189087
0.214783 0.697693 0.189117
0.232544 0.689789 0.182800
0.251343 0.682037 0.176392
0.271545 0.674225 0.169983
0.292664 0.666199 0.163452
0.324860 0.664673 0.159485
0.367279 0.677795 0.157898
0.411865 0.689545 0.158051
0.458221 0.701019 0.158508
0.506104 0.712311 0.158936
0.549561 0.706726 0.184418
0.586792 0.698181 0.213165
0.614075 0.690002 0.209076
0.640045 0.681396 0.201813
0.665710 0.672729 0.194672
0.700073 0.672821 0.199615
0.729462 0.677155 0.208893
0.758270 0.681488 0.217865
0.786530 0.685760 0.226990
0.812531 0.688934 0.235168
0.837341 0.690613 0.238892
0.860229 0.691803 0.244751
0.883636 0.693268 0.248962
0.906311 0.694702 0.253204
0.929718 0.695343 0.253021
0.950653 0.695129 0.249115
0.968903 0.694183 0.242737
0.970612 0.691833 0.243622
0.972656 0.689209 0.239777
0.129242 0.734619 0.192993
0.148560 0.731537 0.193359
0.169739 0.729004 0.194519
0.192566 0.726837 0.196289
0.217285 0.725250 0.198547
0.234253 0.717834 0.192505
0.252106 0.710205 0.186157
0.271606 0.702423 0.179779
0.292053 0.694733 0.173370
0.319916 0.686829 0.166840
0.360229 0.696136 0.166229
0.403198 0.708710 0.165009
0.448059 0.719940 0.165375
0.494568 0.731201 0.165863
0.541595 0.738312 0.172272
0.582367 0.730743 0.200470
0.617432 0.723022 0.223999
0.643433 0.714630 0.217072
0.668884 0.706177 0.209808
0.693970 0.697601 0.202820
0.728119 0.698090 0.208527
0.757111 0.702393 0.217468
0.785248 0.706573 0.226624
0.812714 0.710876 0.235474
0.839447 0.714935 0.243317
0.862427 0.716034 0.248901
0.885803 0.717560 0.252838
0.907410 0.718597 0.259003
0.929718 0.719910 0.263367
0.948425 0.720856 0.267212
0.965759 0.720459 0.263336
0.970520 0.718506 0.259766
0.971069 0.715912 0.258423
0.134308 0.760620 0.201019
0.152008 0.757507 0.201019
0.171844 0.754761 0.201538
0.193420 0.752472 0.203003
0.216736 0.750641 0.205170
0.235748 0.745239 0.201996
0.253082 0.737762 0.195526
0.271698 0.730255 0.189240
0.291504 0.722504 0.182861
0.319092 0.714935 0.176483
0.353027 0.716187 0.171600
0.395325 0.727722 0.171783
0.438904 0.738922 0.172058
0.483887 0.749908 0.172607
0.530396 0.760620 0.173584
0.575317 0.761871 0.188538
0.614838 0.755524 0.214813
0.646637 0.747162 0.231934
0.672180 0.738892 0.225067
0.697205 0.730469 0.217804
0.721832 0.722076 0.210938
0.755798 0.723053 0.217102
0.783966 0.727264 0.226013
0.811401 0.731445 0.235107
0.838409 0.735687 0.243896
0.864471 0.739716 0.252869
0.888092 0.741608 0.256805
0.909760 0.742462 0.262756
0.932129 0.744171 0.266998
0.951416 0.744873 0.270935
0.966797 0.745148 0.274658
0.968903 0.743103 0.276459
0.969391 0.740845 0.275665
0.139404 0.786560 0.208984
0.155670 0.783234 0.208679
0.174011 0.780243 0.208923
0.194275 0.777802 0.209991
0.216339 0.775665 0.211609
0.237518 0.772400 0.211426
0.253906 0.764832 0.205170
0.271729 0.757446 0.198883
0.290558 0.750000 0.192596
0.318085 0.742371 0.186218
0.348053 0.734863 0.179901
0.388458 0.745300 0.179993
0.430573 0.757599 0.178680
0.474213 0.769562 0.177704
0.519623 0.779175 0.180237
0.565826 0.789459 0.181305
0.608490 0.786285 0.202911
0.645905 0.778687 0.230774
0.675354 0.770996 0.239838
0.700378 0.762756 0.232971
0.724884 0.754486 0.225769
0.749420 0.746613 0.219482
0.782623 0.747620 0.225616
0.810242 0.751770 0.234741
0.837189 0.755890 0.243530
0.863281 0.760071 0.252319
0.888916 0.764221 0.261200
0.912079 0.766144 0.266663
0.934448 0.767578 0.270569
0.952850 0.768280 0.276489
0.968994 0.768555 0.280273
0.972534 0.767029 0.279846
0.973022 0.764648 0.279083
0.142578 0.802765 0.215271
0.157593 0.799652 0.214783
0.174530 0.796936 0.214813
0.193726 0.794556 0.215485
0.214508 0.792725 0.217010
0.237427 0.791382 0.219086
0.253723 0.784821 0.213440
0.270538 0.777863 0.207245
0.288696 0.770874 0.201050
0.316101 0.763824 0.194794
0.346222 0.756714 0.188538
0.380951 0.761078 0.184204
0.422760 0.772430 0.184570
0.465576 0.783447 0.185242
0.509735 0.795685 0.184418
0.555115 0.806366 0.185638
0.600494 0.813599 0.191772
0.640839 0.807495 0.217987
0.675873 0.799408 0.247040
0.703033 0.792389 0.247131
0.727600 0.784851 0.240173
0.751770 0.777130 0.233429
0.776581 0.770447 0.227966
0.809021 0.771820 0.234131
0.835907 0.775848 0.243195
0.862061 0.779938 0.251892
0.887726 0.784058 0.260834
0.912659 0.788116 0.269562
0.935455 0.790619 0.276459
0.955536 0.791687 0.280060
0.972504 0.792175 0.283508
0.976135 0.790680 0.283203
0.975250 0.787933 0.284821
0.144562 0.813080 0.220856
0.158234 0.810242 0.219757
0.174133 0.808014 0.219604
0.192078 0.806030 0.220032
0.211975 0.804596 0.221313
0.233734 0.803741 0.223236
0.252441 0.799988 0.221008
0.268768 0.793610 0.214996
0.286438 0.787384 0.208862
0.313751 0.780914 0.202759
0.344055 0.774475 0.196625
0.374969 0.771515 0.190948
0.415833 0.783417 0.191467
0.457306 0.795990 0.190643
0.500488 0.808472 0.189941
0.545013 0.818329 0.192871
0.590424 0.830780 0.192535
0.633575 0.831299 0.209625
0.671783 0.826050 0.235352
0.705048 0.819580 0.260468
0.729797 0.812775 0.253815
0.754272 0.805939 0.247375
0.777985 0.799103 0.240906
0.803070 0.794067 0.236664
0.834656 0.795807 0.242798
0.860840 0.799866 0.251556
0.886536 0.803894 0.260406
0.911499 0.807953 0.269165
0.936066 0.812012 0.277832
0.958191 0.815002 0.283630
0.974518 0.815002 0.289215
0.978180 0.813507 0.288971
0.978851 0.811310 0.288269
0.146454 0.822205 0.225708
0.158691 0.819855 0.224915
0.173584 0.817902 0.224335
0.190247 0.816406 0.224731
0.209198 0.815308 0.225525
0.229950 0.814789 0.227173
0.251526 0.813812 0.228119
0.266998 0.808167 0.222290
0.283936 0.802521 0.216339
0.311249 0.796814 0.210480
0.341400 0.790955 0.204468
0.371155 0.785248 0.198456
0.408539 0.794312 0.196655
0.449890 0.806183 0.197479
0.491974 0.819244 0.196869
0.535461 0.830872 0.198303
0.580170 0.843567 0.197784
0.625427 0.856018 0.197479
0.665619 0.850159 0.225311
0.701538 0.844482 0.252258
0.731567 0.839081 0.266968
0.756195 0.832977 0.260773
0.780121 0.827026 0.254578
0.803680 0.820862 0.248016
0.828918 0.817017 0.245117
0.859772 0.819427 0.251221
0.885345 0.823517 0.259888
0.910339 0.827515 0.268799
0.934998 0.831512 0.277405
0.957733 0.835175 0.285645
0.977905 0.838257 0.292908
0.981659 0.836792 0.292572
0.980988 0.834045 0.294128
0.148071 0.830139 0.230835
0.159088 0.828186 0.229370
0.172516 0.826477 0.228821
0.188232 0.825531 0.228912
0.205963 0.824738 0.229431
0.225952 0.824554 0.230896
0.247559 0.824768 0.232910
0.264771 0.821350 0.229462
0.281067 0.816315 0.223633
0.308228 0.811218 0.217743
0.338654 0.806061 0.211823
0.368591 0.801117 0.206055
0.402374 0.803101 0.203217
0.442474 0.816681 0.202515
0.483643 0.830048 0.201721
0.526398 0.843384 0.201294
0.570282 0.854065 0.204865
0.614777 0.867126 0.204742
0.658203 0.872803 0.215454
0.695984 0.867615 0.242828
0.730804 0.863770 0.267273
0.757751 0.858337 0.273407
