app/src/main/assets/filters/千禧回声1.cube
# Created by DESONG SHI
LUT_3D_SIZE 5
0.0861524 0.0589609 0.0550851
0.218082 0.078233 0.047013
0.546609 0.13846 0.0485847
0.804944 0.248127 0.10869
0.890227 0.370275 0.232395
0.0518807 0.183444 0.055375
0.201038 0.189853 0.0469825
0.588037 0.274479 0.0361639
0.819867 0.336355 0.115618
0.894133 0.420981 0.237568
0.0292058 0.411048 0.11426
0.203189 0.410925 0.0990768
0.461204 0.407797 0.0782483
0.805798 0.526482 0.150942
0.91078 0.580484 0.293141
0.140551 0.611215 0.144945
0.30338 0.619165 0.135546
0.52401 0.625376 0.154604
0.721538 0.626352 0.219287
0.876265 0.683314 0.343999
0.429313 0.697978 0.260899
0.482597 0.711864 0.283787
0.621271 0.763531 0.348104
0.771054 0.806439 0.41886
0.858793 0.81416 0.485405
0.0938888 0.0945754 0.190051
0.211612 0.108385 0.195575
0.477043 0.143664 0.202472
0.728939 0.242969 0.233158
0.879576 0.36173 0.29218
0.067216 0.170214 0.148867
0.2 0.201053 0.173449
0.483879 0.251865 0.197116
0.749538 0.32224 0.238651
0.887404 0.420127 0.314855
0.00918593 0.378851 0.156054
0.203967 0.395911 0.175006
0.456413 0.408621 0.202121
0.789212 0.523613 0.273808
0.902876 0.581476 0.375265
0.136492 0.603983 0.196368
0.303212 0.613855 0.209766
0.524834 0.62269 0.238926
0.72224 0.628 0.290242
0.873564 0.684535 0.402564
0.429831 0.698207 0.282078
0.480018 0.711101 0.298482
0.620554 0.763256 0.356176
0.771313 0.806851 0.427115
0.858747 0.814633 0.496315
0.122667 0.200549 0.448188
0.273426 0.21529 0.458442
0.490043 0.241856 0.445396
0.698482 0.306355 0.45948
0.858793 0.365209 0.466117
0.131624 0.242969 0.355566
0.257282 0.268635 0.389685
0.464454 0.302693 0.420661
0.698955 0.345754 0.449851
0.859388 0.418235 0.482506
0.0277256 0.359472 0.319738
0.219928 0.40148 0.366079
0.490974 0.454383 0.432471
0.72755 0.510658 0.475563
0.869093 0.579019 0.535821
0.088777 0.588968 0.362005
0.270466 0.60206 0.391226
0.527352 0.626123 0.436225
0.725734 0.645533 0.48426
0.865568 0.721538 0.589288
0.435737 0.71136 0.444648
0.484611 0.725521 0.45771
0.626566 0.778058 0.513268
0.774578 0.809934 0.57261
0.857893 0.815549 0.615518
0.275334 0.322545 0.613108
0.372976 0.343679 0.620264
0.563561 0.387991 0.634241
0.713893 0.415061 0.638926
0.837003 0.543496 0.685649
0.266499 0.349645 0.579522
0.361807 0.373632 0.59765
0.556191 0.419791 0.627176
0.713893 0.454688 0.6421
0.83769 0.573098 0.692515
0.239246 0.425528 0.515999
0.341314 0.449195 0.544244
0.549111 0.515236 0.612314
0.722698 0.570718 0.655818
0.84126 0.630701 0.691035
0.0964065 0.570047 0.529961
0.23566 0.584192 0.542641
0.523674 0.638193 0.609155
0.748684 0.697993 0.679805
0.851698 0.740383 0.717418
0.329961 0.698711 0.538766
0.39646 0.717449 0.557885
0.608331 0.785351 0.645182
0.781872 0.82063 0.707347
0.859709 0.828672 0.732158
0.556649 0.538598 0.749279
0.585336 0.548669 0.749096
0.6822 0.579522 0.75845
0.783658 0.627268 0.773297
0.843122 0.647211 0.781369
0.551598 0.551003 0.753719
0.586328 0.55993 0.754711
0.68571 0.59704 0.765347
0.786694 0.643732 0.777539
0.843168 0.661921 0.784497
0.555474 0.608835 0.753262
0.582025 0.613031 0.753658
0.683543 0.64918 0.770062
0.791409 0.700435 0.788922
0.845518 0.71783 0.797925
0.440009 0.664668 0.727962
0.491127 0.665782 0.728511
0.632822 0.695537 0.752239
0.790234 0.755856 0.792874
0.850904 0.779126 0.806775
0.397864 0.740612 0.714183
0.443778 0.7476 0.72137
0.596872 0.792935 0.755886
0.782025 0.831754 0.798321
0.866529 0.844984 0.820874
