app/src/main/assets/filters/千禧回声1.cube
# Created by DESONG SHI
LUT_3D_SIZE 33
0.0861524 0.0589609 0.0550851
0.0861677 0.0589609 0.0550698
0.0876173 0.0588083 0.0541848
0.0977646 0.0588846 0.0510262
0.11075 0.0616312 0.0509957
0.127947 0.0652171 0.0507515
0.15108 0.0693217 0.0487068
0.180804 0.0736248 0.0470283
0.218082 0.078233 0.047013
0.258991 0.0839857 0.0471046
0.301442 0.0901503 0.0470588
0.343587 0.0971084 0.0471962
0.38436 0.104982 0.0471962
0.426566 0.113054 0.0469825
0.467658 0.120958 0.0469825
0.507195 0.129152 0.0472114
0.546609 0.13846 0.0485847
0.585946 0.149523 0.0516213
0.623438 0.161517 0.0562142
0.657588 0.174365 0.062501
0.689082 0.188052 0.0702831
0.720668 0.201328 0.0782635
0.751934 0.215518 0.0864271
0.780224 0.231678 0.0962997
0.804944 0.248127 0.10869
0.829007 0.266407 0.12311
0.850614 0.284077 0.138872
0.866148 0.300298 0.155505
0.875914 0.316564 0.173983
0.883726 0.332891 0.19202
0.888747 0.349218 0.210529
0.89015 0.365179 0.22739
0.890227 0.370275 0.232395
0.0861524 0.0589609 0.0550851
0.0862593 0.0590524 0.054963
0.0888533 0.0608377 0.0527504
0.0979782 0.0624552 0.0509194
0.11136 0.0659648 0.0510262
0.12723 0.0703441 0.0503548
0.15259 0.0742351 0.0485847
0.183581 0.0779126 0.0472419
0.221027 0.0817731 0.0470283
0.261906 0.086305 0.0472114
0.304097 0.0910658 0.0470588
0.346136 0.0974899 0.0469825
0.386679 0.105547 0.0470588
0.428443 0.113542 0.0470893
0.469429 0.121386 0.0469825
0.508736 0.129564 0.047364
0.548257 0.138918 0.0487068
0.587396 0.149905 0.0519112
0.624933 0.162005 0.0563058
0.658701 0.17496 0.0627604
0.690303 0.188617 0.070634
0.721813 0.201724 0.0784619
0.753109 0.216098 0.0866865
0.781094 0.232197 0.0966049
0.805875 0.248753 0.109102
0.829786 0.267048 0.123644
0.851316 0.284672 0.139559
0.866545 0.300862 0.15613
0.876219 0.317159 0.174716
0.883986 0.33341 0.192508
0.888884 0.349813 0.211246
0.89015 0.365667 0.227893
0.890227 0.370275 0.232395
0.0862135 0.0651865 0.0547646
0.0881971 0.0652781 0.0531472
0.090959 0.0658122 0.0512856
0.0983597 0.0674754 0.0509041
0.111192 0.0718242 0.0509041
0.128923 0.0760967 0.050309
0.154253 0.0801404 0.0482338
0.186633 0.083772 0.0472114
0.224491 0.0873884 0.0472267
0.264714 0.0915236 0.0471656
0.306294 0.0959793 0.0470741
0.348684 0.101045 0.0470741
0.389166 0.107362 0.0470436
0.430274 0.114275 0.0469673
0.471061 0.121782 0.0471199
0.510338 0.1299 0.047425
0.549828 0.139269 0.0489509
0.588861 0.150393 0.052079
0.62623 0.162478 0.0565957
0.659861 0.175418 0.0629587
0.691463 0.189059 0.0708476
0.723049 0.202258 0.0786755
0.754192 0.216739 0.0870069
0.782071 0.232853 0.0970474
0.806699 0.249332 0.109575
0.830686 0.267781 0.124208
0.852003 0.285222 0.140032
0.867002 0.301457 0.15668
0.876509 0.317693 0.175372
0.88426 0.334035 0.19321
0.888991 0.350332 0.211948
0.890135 0.366247 0.228443
0.890196 0.370336 0.232395
0.0864729 0.0788434 0.0545357
0.0892653 0.0785687 0.0523384
0.0930648 0.0787976 0.0511635
0.0998856 0.0795605 0.0509194
0.111772 0.0817578 0.0509499
0.130938 0.0862593 0.0501564
0.157702 0.0902724 0.0480049
0.190524 0.0944839 0.0472114
0.228351 0.0994888 0.0470283
0.268406 0.103243 0.0470283
0.309377 0.108064 0.0470588
0.351293 0.113466 0.0470283
0.392691 0.119463 0.0471046
0.433616 0.125231 0.0471656
0.473213 0.131533 0.0471504
0.512291 0.139162 0.047364
0.551614 0.146899 0.0489204
0.590723 0.155459 0.0523384
0.627726 0.165621 0.0568856
0.661265 0.17705 0.063386
0.692683 0.189776 0.0711833
0.724254 0.202731 0.0790875
0.755367 0.217319 0.0872969
0.783017 0.233433 0.0974441
0.807568 0.249958 0.11014
0.83154 0.268482 0.124819
0.852674 0.285832 0.140658
0.867399 0.302098 0.157321
0.876814 0.318364 0.176074
0.88452 0.3346 0.193774
0.889128 0.350988 0.212634
0.890181 0.366796 0.22887
0.890227 0.370398 0.232364
0.0837262 0.0941176 0.0545205
0.086656 0.0940566 0.0525673
0.092195 0.0941024 0.051133
0.101213 0.094377 0.0509346
0.113649 0.0957198 0.0510567
0.13315 0.0998093 0.0500496
0.159243 0.103716 0.0476539
0.194293 0.108263 0.0469673
0.232151 0.114443 0.0469368
0.271595 0.12105 0.0461891
0.312627 0.127031 0.0447242
0.355734 0.133684 0.0448768
0.398764 0.140246 0.0451667
0.441047 0.146502 0.045716
0.481514 0.152758 0.0463874
0.520012 0.159197 0.0469062
0.558587 0.166766 0.0480659
0.596017 0.174578 0.0516823
0.630686 0.182757 0.0570077
0.662715 0.192081 0.0637675
0.694179 0.202548 0.0716411
0.725582 0.214771 0.0794842
0.756695 0.228031 0.0873732
0.783978 0.241611 0.0964218
0.808606 0.255726 0.109636
0.832425 0.271565 0.125231
0.853452 0.287602 0.141344
0.867811 0.302922 0.157946
0.877119 0.318914 0.176761
0.884764 0.33521 0.194385
0.88922 0.351568 0.213306
0.89015 0.367315 0.229419
0.890196 0.370428 0.232456
0.0797742 0.112245 0.054902
0.082826 0.112245 0.0534371
0.0889448 0.112276 0.0514382
0.0993057 0.112383 0.0511635
0.113802 0.112917 0.0510414
0.132036 0.114931 0.0500954
0.157275 0.119524 0.0478065
0.189502 0.126055 0.0471809
0.227863 0.13283 0.046128
0.270771 0.1402 0.0442969
0.314427 0.147692 0.0428779
0.358068 0.155734 0.0411994
0.403586 0.163668 0.0413214
0.4477 0.170245 0.0416266
0.489815 0.176974 0.0429084
0.529351 0.183368 0.0446784
0.568399 0.190051 0.0466163
0.606058 0.198154 0.0501717
0.640162 0.205829 0.0559854
0.671794 0.213947 0.0634165
0.702678 0.222919 0.0714122
0.732769 0.233539 0.0795148
0.760159 0.246601 0.0876173
0.785321 0.260029 0.0965744
0.809567 0.273945 0.109926
0.833402 0.28864 0.125841
0.85417 0.302739 0.141939
0.86833 0.315343 0.158709
0.877409 0.32987 0.177523
0.885023 0.344167 0.195056
0.889357 0.357809 0.214038
0.890181 0.371298 0.23003
0.890227 0.37351 0.232517
0.0733959 0.133379 0.0550088
0.0764935 0.133303 0.0546426
0.084184 0.133394 0.0534829
0.0962997 0.133471 0.0526131
0.111589 0.133577 0.0509804
0.129458 0.134844 0.050721
0.153735 0.13875 0.0491188
0.18323 0.143862 0.0471962
0.219226 0.150912 0.046067
0.26273 0.160067 0.0434882
0.310048 0.168734 0.0417182
0.358083 0.178347 0.0391241
0.405112 0.187762 0.0372931
0.452689 0.196338 0.0374151
0.496956 0.203876 0.0379797
0.537453 0.210727 0.0399329
0.576211 0.217731 0.0428626
0.613809 0.225376 0.0476539
0.647715 0.232883 0.0535744
0.679164 0.23975 0.0605173
0.709209 0.247288 0.0684672
0.737667 0.256718 0.0766308
0.762875 0.267277 0.0864424
0.786923 0.279088 0.0986801
0.811032 0.292485 0.113558
0.834653 0.306279 0.129229
0.85507 0.319249 0.14519
0.868772 0.332341 0.160998
0.877745 0.345769 0.17908
0.885405 0.359518 0.196384
0.890181 0.373144 0.214939
0.890379 0.387274 0.231052
0.890303 0.38912 0.233143
0.0634165 0.158373 0.0548714
0.0665446 0.158312 0.0548867
0.0756542 0.158373 0.0548714
0.0905318 0.158343 0.0535592
0.10663 0.15845 0.0510567
0.124819 0.158892 0.0509651
0.148104 0.160494 0.0504921
0.175189 0.16318 0.0485695
0.209506 0.168948 0.0458534
0.25153 0.177844 0.0434272
0.299641 0.188373 0.0414435
0.350057 0.199451 0.0385901
0.401373 0.210727 0.0361791
0.452033 0.221393 0.0355688
0.500725 0.231098 0.0354162
0.544503 0.23917 0.0356756
0.584405 0.246189 0.0382544
0.621942 0.254108 0.0437934
0.656046 0.262455 0.0511788
0.687373 0.269505 0.059144
0.71722 0.275959 0.0672923
0.743542 0.28275 0.0758984
0.767712 0.291829 0.0857099
0.791516 0.30161 0.0990921
0.815396 0.312428 0.114855
0.83827 0.32578 0.130938
0.856321 0.338186 0.147036
0.869215 0.351797 0.163302
0.87808 0.364614 0.180468
0.886183 0.377737 0.199191
0.891737 0.391073 0.216892
0.893568 0.402975 0.232929
0.89369 0.404074 0.234501
0.0518807 0.183444 0.055375
0.0548257 0.18349 0.0550698
0.0651255 0.183444 0.0549477
0.0819867 0.184054 0.0537728
0.100038 0.18497 0.051545
0.120897 0.184955 0.0513924
0.144076 0.185183 0.0509041
0.169467 0.18645 0.0494392
0.201038 0.189853 0.0469825
0.239429 0.195743 0.0446784
0.284474 0.205676 0.0417334
0.335088 0.218357 0.0388342
0.388907 0.230961 0.0364385
0.443763 0.24358 0.0355383
0.496498 0.256489 0.035462
0.544839 0.266773 0.0353094
0.588037 0.274479 0.0361639
0.627344 0.281758 0.0406348
0.661906 0.29041 0.0479438
0.693599 0.298634 0.0558785
0.722988 0.305547 0.0642863
0.748913 0.312352 0.0737011
0.772961 0.31931 0.08542
0.796857 0.327611 0.0998093
0.819867 0.336355 0.115618
0.840726 0.346853 0.131762
0.857679 0.358099 0.14786
0.872358 0.371023 0.164614
0.881621 0.383047 0.183139
0.889006 0.395743 0.201587
0.893385 0.408759 0.220096
0.894102 0.420279 0.236469
0.894133 0.420981 0.237568
0.0392157 0.211307 0.0593423
0.0428626 0.211307 0.0584878
0.0542153 0.211154 0.0572671
0.0722515 0.211795 0.0566415
0.0934768 0.212802 0.0555581
0.116793 0.212726 0.0552224
0.14023 0.212772 0.0541695
0.165423 0.213504 0.0525063
0.194827 0.215015 0.0504768
0.229786 0.217716 0.0478828
0.270878 0.224384 0.0451362
0.318547 0.234653 0.0420081
0.371069 0.247639 0.0386358
0.426978 0.261921 0.0364843
0.483909 0.276417 0.0356298
0.537453 0.290562 0.0353094
0.585367 0.301762 0.0358129
0.627848 0.310201 0.0394141
0.664851 0.31809 0.0462348
0.697429 0.325795 0.054078
0.727962 0.333837 0.0623789
0.754116 0.340978 0.0730297
0.77821 0.347967 0.0861524
0.801587 0.355367 0.100832
0.824048 0.362646 0.11667
0.842145 0.371969 0.132708
0.858518 0.382345 0.149065
0.873365 0.392966 0.166293
0.882673 0.404227 0.185595
0.890059 0.415671 0.205905
0.893904 0.427405 0.22533
0.894133 0.438102 0.240803
0.894133 0.438453 0.241367
0.0265507 0.241001 0.0661021
0.0308843 0.241001 0.064744
0.0429236 0.240925 0.0629892
0.0623026 0.240955 0.0629435
0.0861524 0.240925 0.0628061
0.110826 0.240894 0.062501
0.136019 0.240925 0.0607309
0.162646 0.241184 0.0586404
0.192264 0.241596 0.0568551
0.224628 0.242329 0.0536355
0.261189 0.245686 0.0503548
0.303593 0.252598 0.0472877
0.352834 0.263188 0.0442664
0.406546 0.27718 0.0413825
0.463844 0.292485 0.0387427
0.521111 0.308003 0.0376287
0.574228 0.322881 0.0373846
0.621805 0.335775 0.0399329
0.663371 0.346181 0.0464942
0.698528 0.353948 0.0542153
0.729763 0.361181 0.0627298
0.757702 0.368933 0.0738231
0.782345 0.375799 0.087953
0.805646 0.383001 0.102785
0.826978 0.390753 0.118639
0.843793 0.398398 0.134768
0.859388 0.40618 0.151141
0.874434 0.415763 0.170138
0.884108 0.425437 0.189807
0.891875 0.434928 0.210224
0.897261 0.445411 0.231037
0.897505 0.456062 0.24828
0.89749 0.456031 0.24831
0.0169985 0.269566 0.0734874
0.021088 0.269566 0.0721752
0.0328222 0.269459 0.0705119
0.0527962 0.269474 0.0703441
0.0772259 0.269413 0.0702831
0.104097 0.269383 0.0698711
0.132555 0.269368 0.0679179
0.161852 0.269322 0.0660258
0.192538 0.269413 0.0639658
0.223621 0.269383 0.0605783
0.256672 0.27039 0.0571145
0.293507 0.273411 0.0531777
0.336645 0.280537 0.0499886
0.386664 0.292042 0.0475166
0.44126 0.306477 0.0448157
0.498085 0.322408 0.0430457
0.553826 0.338415 0.0427863
0.606577 0.35436 0.0432441
0.653529 0.36849 0.0473182
0.695125 0.379644 0.0545205
0.729976 0.387594 0.0631418
0.759258 0.395178 0.0746319
0.783902 0.402564 0.0898299
0.807218 0.410086 0.105699
0.828107 0.417609 0.121767
0.847135 0.425101 0.138277
0.862928 0.432593 0.155032
0.875883 0.440269 0.173342
0.886885 0.448005 0.194736
0.894789 0.455909 0.216297
0.899199 0.465629 0.236683
0.899168 0.473198 0.254261
0.899168 0.473198 0.254261
0.0107729 0.298253 0.081651
0.0143893 0.298253 0.0808728
0.0252079 0.298161 0.0791485
0.044358 0.298177 0.0780804
0.0696269 0.298039 0.0778058
0.0986648 0.298116 0.0773175
0.12987 0.298177 0.0751659
0.161166 0.298085 0.0733349
0.19266 0.297917 0.0710155
0.223804 0.297826 0.0674296
0.255528 0.297948 0.0638285
0.289738 0.298268 0.0597696
0.327077 0.301396 0.0558938
0.370748 0.308537 0.0532082
0.42005 0.319631 0.0516518
0.473838 0.334508 0.0504311
0.529259 0.350988 0.0500191
0.583856 0.367803 0.0501869
0.635935 0.384695 0.0517128
0.68249 0.3991 0.0568093
0.723445 0.410864 0.0648814
0.757458 0.419043 0.0764782
0.784634 0.426703 0.0920119
0.808301 0.434394 0.107942
0.828595 0.441962 0.123827
0.84715 0.449561 0.141466
0.863844 0.457099 0.159579
0.877379 0.464683 0.179736
0.887724 0.471855 0.201175
0.89575 0.479408 0.222507
0.901823 0.487312 0.24506
0.901869 0.494133 0.262242
0.901869 0.494133 0.262242
0.011017 0.325933 0.0893873
0.0130159 0.32578 0.0892805
0.0210422 0.32578 0.0890211
0.038407 0.325811 0.0874952
0.0646677 0.325658 0.0856336
0.095613 0.325643 0.0848402
0.128588 0.326055 0.0826276
0.160937 0.325902 0.080705
0.193484 0.325521 0.0784314
0.225452 0.325399 0.0745556
0.256596 0.325154 0.0703593
0.289342 0.324971 0.0660105
0.323354 0.32604 0.0618448
0.360754 0.32903 0.059205
0.403555 0.335744 0.0580453
0.45185 0.347082 0.0578317
0.504814 0.362325 0.0577554
0.558556 0.379355 0.0586557
0.611994 0.396612 0.06009
0.662211 0.41294 0.0636912
0.708171 0.428092 0.0707561
0.748577 0.441428 0.0818189
0.781353 0.450324 0.0972
0.807355 0.458137 0.113237
0.82916 0.465797 0.129259
0.845853 0.473533 0.146319
0.862013 0.481163 0.166064
0.876966 0.488365 0.186496
0.888075 0.495628 0.208927
0.896193 0.501076 0.230564
0.903334 0.508446 0.253147
0.905715 0.514794 0.270451
0.905715 0.514794 0.270451
0.0175784 0.354788 0.0968185
0.0184329 0.35465 0.096788
0.0244297 0.35462 0.0967269
0.0390021 0.354635 0.0958877
0.0636454 0.354788 0.093904
0.0954147 0.354986 0.0924239
0.129152 0.354925 0.090074
0.162722 0.354864 0.0880446
0.194888 0.354803 0.0852522
0.227451 0.35465 0.0813001
0.258961 0.353689 0.0772717
0.2916 0.353063 0.0721752
0.323674 0.352926 0.0672313
0.356878 0.353246 0.0653391
0.39321 0.355734 0.0649729
0.435142 0.362722 0.0652628
0.483146 0.374304 0.0651865
0.533974 0.389609 0.067155
0.585657 0.406775 0.0699626
0.637308 0.423636 0.0737621
0.686549 0.440726 0.0800641
0.731411 0.456687 0.0895094
0.769375 0.470848 0.102846
0.801266 0.481254 0.118669
0.825345 0.489479 0.134737
0.846296 0.497292 0.152331
0.862364 0.505013 0.171786
0.877333 0.511818 0.193927
0.888731 0.517418 0.216205
0.896803 0.524498 0.239094
0.904372 0.531716 0.260685
0.909178 0.537545 0.278599
0.909178 0.537545 0.278599
0.023743 0.381964 0.104845
0.0243992 0.381842 0.104402
0.0290074 0.381842 0.104189
0.0424353 0.381735 0.103532
0.0659953 0.381918 0.101625
0.097612 0.383124 0.100145
0.131823 0.383429 0.0975662
0.165652 0.383215 0.0953841
0.198016 0.383078 0.0922103
0.230335 0.383062 0.0880751
0.262394 0.381811 0.0839551
0.294697 0.380941 0.0786908
0.326085 0.379904 0.0735332
0.357855 0.379263 0.0709392
0.390707 0.379324 0.0705577
0.426963 0.382101 0.0713664
0.468193 0.389166 0.0724346
0.513039 0.400259 0.0752117
0.561151 0.415213 0.079469
0.611399 0.431769 0.0845655
0.661585 0.449042 0.0912642
0.708492 0.467597 0.0994278
0.751186 0.484901 0.111101
0.788449 0.499413 0.126726
0.818235 0.51136 0.14284
0.842512 0.52018 0.159213
0.862409 0.528222 0.178683
0.877638 0.535378 0.200732
0.889265 0.540871 0.223941
0.898177 0.547982 0.246006
0.905684 0.554818 0.269032
0.910109 0.558022 0.286564
0.910109 0.558022 0.286564
0.0292058 0.411048 0.11426
0.0303502 0.410925 0.112993
0.0355383 0.410925 0.111971
0.0485084 0.410803 0.11136
0.0712749 0.410956 0.110491
0.101411 0.411551 0.108598
0.135134 0.412497 0.10631
0.169146 0.411673 0.102953
0.203189 0.410925 0.0990768
0.235111 0.410834 0.0936751
0.267094 0.410513 0.089189
0.298833 0.409506 0.0843977
0.329915 0.40763 0.0797589
0.361563 0.406592 0.076112
0.393225 0.405539 0.0749371
0.426108 0.405386 0.0756085
0.461204 0.407797 0.0782483
0.498878 0.414115 0.082887
0.541085 0.424826 0.0878309
0.58761 0.439185 0.0937362
0.636179 0.455619 0.101396
0.685252 0.474113 0.1093
0.730175 0.493355 0.119814
0.770321 0.511467 0.134951
0.805798 0.526482 0.150942
0.834577 0.538781 0.167452
0.857038 0.547539 0.186023
0.874586 0.556283 0.208713
0.888289 0.563714 0.230564
0.897658 0.570779 0.254078
0.90544 0.576394 0.277211
0.91078 0.580484 0.293141
0.91078 0.580484 0.293141
0.0364538 0.437644 0.119585
0.0366979 0.437537 0.119371
0.0415961 0.437507 0.119081
0.0545205 0.437369 0.117815
0.0762493 0.437858 0.116167
0.105379 0.438758 0.114504
0.138628 0.439109 0.112123
0.173205 0.438926 0.109514
0.207828 0.438682 0.104494
0.242161 0.438605 0.0992599
0.274281 0.437247 0.0950484
0.30544 0.436728 0.0906233
0.335973 0.435218 0.0845808
0.366537 0.433448 0.0809186
0.39794 0.431785 0.0800641
0.428473 0.43093 0.0810712
0.45893 0.43122 0.0842451
0.491768 0.434012 0.0890211
0.528542 0.440452 0.0949111
0.570245 0.45008 0.101808
0.615244 0.463279 0.109758
0.661936 0.480476 0.117784
0.707759 0.49926 0.127703
0.750881 0.518395 0.141222
0.789822 0.536385 0.156771
0.822492 0.551308 0.173938
0.848463 0.564157 0.193942
0.869276 0.574502 0.215457
0.886198 0.582467 0.238056
0.897841 0.590326 0.260426
0.905684 0.597604 0.283604
0.910994 0.60267 0.299321
0.910994 0.60267 0.299321
0.0437629 0.463828 0.126665
0.0440681 0.463844 0.12665
0.0482338 0.463844 0.126513
0.0607614 0.463722 0.124788
0.0826276 0.463813 0.123171
0.112078 0.463859 0.121401
0.145449 0.463905 0.119127
0.179675 0.46392 0.116518
0.214038 0.463813 0.111223
0.248508 0.463737 0.106142
0.282231 0.463371 0.101488
0.314839 0.463264 0.0953078
0.345556 0.461677 0.0906539
0.374731 0.46099 0.088014
0.403906 0.459602 0.0873121
0.432731 0.457862 0.0874647
0.460761 0.457496 0.09131
0.490715 0.458015 0.0959793
0.522713 0.460197 0.102296
0.558312 0.465217 0.110048
0.599344 0.474189 0.117906
0.643061 0.488289 0.126131
0.687526 0.505684 0.135958
0.73135 0.524117 0.14934
0.772091 0.543236 0.164721
0.807233 0.560586 0.181155
0.836774 0.575677 0.200671
0.861524 0.588647 0.223819
0.880827 0.598642 0.246677
0.895308 0.606836 0.268864
0.90602 0.614801 0.291981
0.911055 0.62063 0.307012
0.911055 0.62063 0.307012
0.0516213 0.487449 0.134356
0.0516976 0.488807 0.134325
0.0576028 0.48925 0.134157
0.071046 0.489158 0.132296
0.0929885 0.489158 0.130755
0.121828 0.489281 0.128862
0.154284 0.489952 0.126253
0.188357 0.491066 0.122835
0.223453 0.49192 0.117662
0.258534 0.491798 0.112795
0.291829 0.490547 0.106493
0.323888 0.489418 0.101701
0.354498 0.488472 0.0962081
0.383444 0.488243 0.0951705
0.413382 0.486839 0.0950179
0.441154 0.484932 0.0951247
0.468177 0.484443 0.0993668
0.496742 0.484535 0.104814
0.525017 0.484855 0.110887
0.555871 0.485878 0.118303
0.59089 0.489738 0.126131
0.629908 0.49958 0.135454
0.67097 0.51426 0.145357
0.713237 0.530953 0.158068
0.754253 0.548852 0.173388
0.791623 0.566415 0.189654
0.824201 0.582238 0.20798
0.851255 0.597604 0.230152
0.87274 0.610986 0.253819
0.890013 0.621637 0.277623
0.903777 0.630426 0.300572
0.911147 0.636225 0.314824
0.911147 0.636164 0.314794
0.0617075 0.515908 0.138903
0.0630503 0.516167 0.13753
0.0699016 0.516121 0.137026
0.0846723 0.516136 0.13666
0.107256 0.516152 0.134722
0.135286 0.516075 0.132143
0.166491 0.516213 0.129763
0.200427 0.51632 0.126299
0.23563 0.516518 0.121386
0.269871 0.516442 0.11667
0.302724 0.516045 0.111864
0.334859 0.515801 0.106401
0.365209 0.515541 0.103044
0.393759 0.515496 0.10277
0.424079 0.515221 0.102754
0.451392 0.513634 0.102739
0.478202 0.512001 0.107683
0.50547 0.511513 0.11339
0.532647 0.511574 0.119341
0.559365 0.511742 0.126635
0.58967 0.512551 0.13463
0.622766 0.516915 0.144137
0.659968 0.526513 0.154162
0.698772 0.539757 0.166766
0.737697 0.555337 0.182177
0.775586 0.572152 0.198413
0.810208 0.588724 0.216709
0.83975 0.604562 0.238361
0.864073 0.619471 0.261051
0.88336 0.631876 0.283787
0.898711 0.641413 0.306447
0.907866 0.646952 0.319875
0.907881 0.646906 0.31986
0.0717174 0.540459 0.140978
0.0741436 0.540444 0.13962
0.0825818 0.540337 0.139315
0.10045 0.540337 0.138094
0.12459 0.540322 0.137026
0.152453 0.541238 0.134859
0.182666 0.542641 0.132143
0.214649 0.543206 0.128527
0.248142 0.543282 0.124071
0.282017 0.543557 0.120058
0.315358 0.544259 0.115953
0.347021 0.544961 0.111574
0.377203 0.544594 0.110689
0.404517 0.542977 0.110704
0.435004 0.54284 0.110674
0.461875 0.541299 0.110689
0.488792 0.540856 0.116091
0.515602 0.540566 0.121782
0.541329 0.539117 0.127703
0.567742 0.538827 0.135088
0.594736 0.538918 0.143175
0.623743 0.539986 0.152728
0.655756 0.544366 0.162799
0.689738 0.552865 0.175662
0.725399 0.564874 0.191073
0.761547 0.579751 0.207111
0.796948 0.595895 0.224628
0.828733 0.611856 0.245319
0.854566 0.627298 0.267506
0.875456 0.640452 0.290242
0.89221 0.650095 0.312184
0.901549 0.655375 0.324651
0.901579 0.655344 0.32462
0.0839704 0.56408 0.141711
0.0912795 0.564095 0.14107
0.103609 0.564004 0.141024
0.123064 0.563989 0.140703
0.146517 0.564294 0.138521
0.173861 0.566155 0.136675
0.203494 0.567468 0.134463
0.233585 0.568582 0.131228
0.264378 0.570047 0.127413
0.295811 0.570703 0.123659
0.327428 0.570916 0.120394
0.358114 0.571084 0.118761
0.388281 0.570886 0.118563
0.416983 0.570428 0.118593
0.445457 0.57026 0.118639
0.472389 0.569863 0.120333
0.49929 0.568795 0.125017
0.526131 0.56846 0.13167
0.551354 0.566506 0.136584
0.577783 0.566079 0.143725
0.602533 0.566125 0.151705
0.629496 0.566278 0.161471
0.657771 0.567391 0.171481
0.687587 0.571939 0.184695
0.719203 0.580194 0.200061
0.751904 0.592371 0.216022
0.784939 0.60676 0.233036
0.816648 0.621241 0.253483
0.84419 0.636118 0.275395
0.867399 0.650065 0.297536
0.885283 0.660258 0.318471
0.894163 0.665278 0.329946
0.894194 0.665232 0.329931
0.107256 0.585824 0.143481
0.116915 0.587488 0.141726
0.130312 0.587777 0.141268
0.148623 0.587777 0.141329
0.170459 0.588113 0.140139
0.195911 0.590326 0.138125
0.224414 0.591867 0.135943
0.253208 0.593652 0.13286
0.282368 0.595102 0.129961
0.312779 0.595651 0.128023
0.342565 0.596582 0.126879
0.371771 0.597284 0.126589
0.401556 0.597147 0.126589
0.429755 0.597101 0.126955
0.457771 0.596963 0.129503
0.48571 0.596857 0.13402
0.511391 0.596536 0.138476
0.537835 0.596338 0.145541
0.56199 0.595895 0.150118
0.58819 0.595666 0.157443
0.612543 0.595651 0.165286
0.638636 0.595666 0.17348
0.664057 0.595728 0.1823
0.690791 0.597162 0.194385
0.717983 0.601892 0.209384
0.746593 0.610056 0.225101
0.777188 0.620432 0.241764
0.80679 0.632654 0.261326
0.834165 0.646174 0.283146
0.858289 0.659632 0.304967
0.877195 0.670115 0.325536
0.885847 0.674922 0.336202
0.885878 0.674891 0.336187
0.140551 0.611215 0.144945
0.150561 0.611612 0.14461
0.163912 0.611597 0.144411
0.181506 0.611582 0.144427
0.202747 0.611978 0.143206
0.226017 0.614343 0.141299
0.250523 0.615473 0.139284
0.276432 0.617624 0.13724
0.30338 0.619165 0.135546
0.331029 0.61973 0.134798
0.358862 0.621347 0.134539
0.386648 0.622751 0.135073
0.415473 0.622629 0.136507
0.442847 0.622995 0.139605
0.470665 0.624018 0.144854
0.497765 0.624765 0.14995
0.52401 0.625376 0.154604
0.548898 0.625208 0.161593
0.574212 0.625147 0.166201
0.598749 0.624979 0.173739
0.622431 0.624949 0.18146
0.64686 0.624811 0.189151
0.672679 0.624811 0.197177
0.69723 0.624994 0.206638
0.721538 0.626352 0.219287
0.747204 0.63035 0.23447
0.774289 0.636561 0.250889
0.801114 0.645762 0.270314
0.82742 0.657526 0.292073
0.850797 0.669322 0.313893
0.868345 0.678782 0.334127
0.876265 0.683314 0.343999
0.876265 0.683314 0.343999
0.181155 0.628656 0.150774
0.189914 0.629831 0.150622
0.203143 0.63003 0.149722
0.218952 0.63003 0.148074
0.237522 0.632471 0.147463
0.257145 0.634073 0.147097
0.278782 0.636072 0.146654
0.302571 0.638788 0.146273
0.32639 0.640497 0.145983
0.35169 0.64213 0.147005
0.377966 0.644495 0.148089
0.403906 0.64622 0.148745
0.430411 0.646998 0.151156
0.457267 0.648081 0.155566
0.483711 0.650263 0.161349
0.510384 0.650462 0.166674
0.53579 0.650507 0.171756
0.560906 0.650889 0.178073
0.585748 0.65243 0.18291
0.609232 0.653223 0.190555
0.632593 0.653162 0.198276
0.656168 0.65301 0.205966
0.68014 0.652964 0.213748
0.703746 0.653468 0.221775
0.72723 0.654841 0.231327
0.751171 0.656001 0.244343
0.775021 0.658488 0.260365
0.798398 0.664103 0.280003
0.822309 0.671794 0.301717
0.844373 0.679438 0.323415
0.861112 0.687312 0.343389
0.868345 0.691493 0.352377
0.868345 0.691493 0.352377
0.224842 0.643565 0.158694
0.232456 0.643839 0.158663
0.243427 0.643885 0.158389
0.257771 0.643885 0.157992
0.27364 0.646922 0.157992
0.289601 0.64828 0.158434
0.308949 0.651072 0.159792
0.329412 0.654688 0.160403
0.350591 0.65774 0.161761
0.372839 0.660883 0.163455
0.395987 0.663981 0.165377
0.42092 0.666545 0.168063
0.446525 0.66923 0.172107
0.471687 0.671427 0.176989
0.498131 0.672923 0.181781
0.523796 0.674784 0.187533
0.548333 0.674693 0.192844
0.572534 0.675349 0.198444
