app/src/main/assets/filters/千禧回声2.cube
# Created by DESONG SHI
LUT_3D_SIZE 33
DOMAIN_MIN 0.0 0.0 0.0
DOMAIN_MAX 1.0 1.0 1.0
0.086152 0.058961 0.055085
0.086152 0.058961 0.055085
0.087190 0.058808 0.054322
0.096986 0.058717 0.051026
0.109346 0.061341 0.050996
0.125643 0.064790 0.050965
0.147494 0.068788 0.048951
0.175326 0.072969 0.047028
0.211276 0.077272 0.046998
0.250858 0.082826 0.047120
0.292485 0.088746 0.047028
0.334173 0.095277 0.047181
0.373693 0.102937 0.047272
0.415045 0.110872 0.046967
0.456031 0.118624 0.046998
0.494667 0.126406 0.046937
0.533288 0.134890 0.047761
0.572045 0.145266 0.050141
0.609918 0.156863 0.054170
0.644892 0.168887 0.059449
0.675837 0.182254 0.066896
0.706661 0.195743 0.074769
0.737575 0.208072 0.082490
0.767941 0.223819 0.090822
0.792691 0.239658 0.101869
0.816464 0.256077 0.115084
0.839719 0.275242 0.129976
0.859220 0.291051 0.145907
0.871122 0.306950 0.162387
0.879088 0.322942 0.181674
0.886503 0.338872 0.198215
0.889982 0.354925 0.217319
0.890227 0.370275 0.232395
0.086152 0.058961 0.055085
0.086152 0.058961 0.055085
0.088228 0.060761 0.052888
0.096712 0.062165 0.050904
0.109712 0.065522 0.051087
0.123812 0.069886 0.050599
0.147951 0.073762 0.048829
0.177005 0.077333 0.047303
0.213016 0.080934 0.046967
0.252598 0.085389 0.047242
0.293858 0.089693 0.047089
0.335576 0.095369 0.046967
0.374914 0.103273 0.046998
0.415717 0.111177 0.047181
0.456489 0.118776 0.046876
0.495033 0.126558 0.047211
0.533623 0.135042 0.047639
0.572290 0.145296 0.050477
0.610224 0.156863 0.054108
0.645106 0.169070 0.059327
0.675929 0.182437 0.067109
0.706874 0.195743 0.074708
0.737728 0.208103 0.082460
0.768032 0.223850 0.090791
0.792813 0.239689 0.101808
0.816526 0.256138 0.115053
0.839780 0.275273 0.130129
0.859220 0.291112 0.146029
0.871153 0.307012 0.162509
0.879118 0.322942 0.181674
0.886534 0.338903 0.198184
0.889982 0.354955 0.217411
0.890227 0.370275 0.232395
0.086091 0.065278 0.054871
0.088045 0.065370 0.053285
0.090272 0.065766 0.051301
0.096834 0.067018 0.050904
0.108705 0.071321 0.050935
0.124941 0.075532 0.050690
0.148287 0.079591 0.048463
0.178897 0.083192 0.047211
0.215183 0.086610 0.047242
0.254490 0.090578 0.047181
0.294347 0.094850 0.047089
0.336919 0.099397 0.047059
0.376196 0.105287 0.047120
0.416327 0.111879 0.046876
0.456947 0.118929 0.047150
0.495430 0.126711 0.047089
0.534020 0.134981 0.047974
0.572595 0.145449 0.050355
0.610468 0.156985 0.054383
0.645289 0.169100 0.059266
0.676143 0.182467 0.067079
0.707027 0.195773 0.074678
0.737881 0.208255 0.082368
0.768154 0.224002 0.090974
0.792905 0.239750 0.101778
0.816617 0.256229 0.115175
0.839872 0.275303 0.130098
0.859281 0.291173 0.145998
0.871183 0.307042 0.162478
0.879149 0.323003 0.181796
0.886534 0.338964 0.198306
0.889982 0.354955 0.217502
0.890196 0.370336 0.232395
0.086213 0.079194 0.054749
0.088899 0.078920 0.052461
0.092287 0.079072 0.051209
0.098207 0.079683 0.050904
0.108614 0.081239 0.051026
0.125795 0.085725 0.050660
0.150851 0.089815 0.048219
0.181491 0.093446 0.047272
0.217990 0.099092 0.047028
0.256840 0.102358 0.046998
0.296635 0.106966 0.047089
0.337621 0.112001 0.046998
0.378454 0.117983 0.047059
0.418799 0.123659 0.047211
0.458137 0.129183 0.047120
0.496071 0.136263 0.047181
0.534600 0.144198 0.047608
0.573205 0.151217 0.050568
0.610956 0.160861 0.054383
0.645624 0.171023 0.059571
0.676448 0.183017 0.067109
0.707271 0.195865 0.074861
0.738125 0.208347 0.082551
0.768368 0.224094 0.090883
0.793057 0.239841 0.101930
0.816739 0.256352 0.115328
0.839994 0.275425 0.130251
0.859312 0.291295 0.146120
0.871214 0.307195 0.162600
0.879179 0.323095 0.181765
0.886564 0.339025 0.198398
0.890013 0.355077 0.217472
0.890227 0.370397 0.232364
0.083314 0.094606 0.054780
0.085817 0.094606 0.052827
0.090700 0.094606 0.051179
0.099153 0.094850 0.050874
0.109865 0.095399 0.051148
0.127749 0.099428 0.050721
0.150637 0.103273 0.047883
0.184115 0.107240 0.046967
0.220737 0.113008 0.046937
0.259098 0.120119 0.046906
0.297948 0.125582 0.044556
0.340398 0.132326 0.044709
0.382605 0.138857 0.044862
0.424598 0.145144 0.045380
0.465553 0.151339 0.045991
0.503288 0.157351 0.046815
0.541009 0.163912 0.046967
0.578637 0.172427 0.049134
0.614191 0.179110 0.054170
0.646174 0.188266 0.059632
0.676905 0.197147 0.067323
0.707668 0.208316 0.075013
0.738491 0.220829 0.082704
0.768582 0.233921 0.090394
0.793240 0.247166 0.099886
0.816953 0.260960 0.114809
0.840146 0.277134 0.130404
0.859403 0.292424 0.146242
0.871244 0.307225 0.162722
0.879240 0.323156 0.181857
0.886564 0.339147 0.198489
0.889982 0.355138 0.217563
0.890196 0.370428 0.232456
0.079194 0.113039 0.055116
0.081697 0.113039 0.053925
0.086885 0.113039 0.051514
0.096101 0.113191 0.051209
0.109743 0.113405 0.051087
0.125856 0.114717 0.050874
0.148409 0.118410 0.048035
0.178103 0.124941 0.047303
0.213565 0.131441 0.046937
0.255131 0.138582 0.044373
0.298802 0.146090 0.043885
0.340124 0.153536 0.040925
0.385290 0.162295 0.041047
0.429145 0.168826 0.041138
0.471931 0.175418 0.041627
0.511376 0.182040 0.043885
0.549645 0.188144 0.045197
0.587732 0.194949 0.047791
0.623377 0.203952 0.052064
0.654994 0.210330 0.059022
0.685298 0.219333 0.066590
0.715572 0.227970 0.074647
0.744228 0.239261 0.082490
0.769558 0.252995 0.090547
0.793484 0.265873 0.099672
0.817166 0.279911 0.114748
0.840269 0.294408 0.130526
0.859525 0.307744 0.146334
0.871336 0.319341 0.162936
0.879271 0.334386 0.182010
0.886564 0.347784 0.198550
0.890013 0.360876 0.217716
0.890227 0.373816 0.232517
0.072663 0.134493 0.055024
0.074708 0.134371 0.054994
0.081331 0.134432 0.053681
0.092195 0.134646 0.053315
0.107118 0.134615 0.050965
0.122469 0.134981 0.051026
0.144717 0.138399 0.050172
0.171695 0.142977 0.047181
0.203586 0.148501 0.047242
0.244450 0.158114 0.044068
0.289647 0.166262 0.042481
0.338384 0.175692 0.040467
0.383551 0.185275 0.037049
0.431128 0.194308 0.036988
0.476875 0.202426 0.037263
0.518181 0.209201 0.037995
0.556237 0.216068 0.041016
0.594202 0.222995 0.043885
0.629908 0.230838 0.050233
0.661372 0.238010 0.055604
0.691585 0.244236 0.063294
0.720485 0.252354 0.071107
0.747463 0.262028 0.079194
0.770779 0.272404 0.089845
0.794247 0.284398 0.102876
0.817807 0.297887 0.118227
0.840818 0.311437 0.133608
0.859648 0.323674 0.149233
0.871397 0.336797 0.164584
0.879332 0.349859 0.182803
0.886748 0.363409 0.199466
0.890898 0.376776 0.217838
0.890318 0.390845 0.233219
0.062409 0.159884 0.054871
0.064149 0.159792 0.054841
0.071290 0.159854 0.055055
0.085481 0.159884 0.054658
0.101350 0.160006 0.051118
0.117098 0.160067 0.050935
0.139010 0.161379 0.051087
0.163058 0.162966 0.049714
0.193362 0.167147 0.046967
0.231510 0.174746 0.044190
0.276829 0.185000 0.042390
0.325933 0.195804 0.040253
0.376226 0.206973 0.036622
0.426795 0.218326 0.035584
0.476112 0.228214 0.035309
0.522759 0.237644 0.035157
0.563104 0.244663 0.035462
0.601190 0.251377 0.039643
0.637171 0.260166 0.046021
0.668788 0.268009 0.054017
0.698970 0.274418 0.061860
0.727596 0.280705 0.069917
0.751736 0.287175 0.078614
0.775021 0.297093 0.088563
0.798398 0.306279 0.103120
0.821683 0.317021 0.118929
0.843748 0.330938 0.134737
0.859770 0.342473 0.150484
0.871458 0.356451 0.166567
0.879423 0.368566 0.183383
0.887388 0.381445 0.202152
0.892546 0.394598 0.219181
0.894102 0.405707 0.234653
0.050782 0.185092 0.055512
0.051972 0.185183 0.055116
0.059266 0.185153 0.054994
0.075868 0.185397 0.054871
0.092714 0.186862 0.051545
0.112306 0.186862 0.051637
0.134768 0.187015 0.051057
0.157687 0.187076 0.050721
0.185183 0.190036 0.047791
0.220005 0.193423 0.046174
0.260502 0.201602 0.043122
0.307866 0.213077 0.040284
0.359899 0.226780 0.037415
0.413275 0.238102 0.035584
0.467720 0.251621 0.035523
0.517906 0.264103 0.035462
0.563622 0.272862 0.035187
0.604242 0.279728 0.036500
0.641566 0.287053 0.042573
0.673610 0.296239 0.050324
0.704067 0.303868 0.058076
0.732082 0.310491 0.066560
0.756252 0.317174 0.076173
0.779629 0.323919 0.088685
0.802976 0.332311 0.103395
0.825193 0.340673 0.119142
0.844785 0.351141 0.134920
0.860624 0.362158 0.150729
0.874937 0.375097 0.167269
0.883146 0.386603 0.185946
0.890105 0.399084 0.203799
0.893919 0.411933 0.222141
0.894133 0.423011 0.237949
0.037842 0.213382 0.059785
0.039246 0.213443 0.059358
0.047791 0.213321 0.057465
0.064210 0.213413 0.057465
0.084291 0.215000 0.055879
0.107057 0.215000 0.055909
0.130251 0.215061 0.055055
0.153017 0.215091 0.053651
0.179934 0.216831 0.051728
0.210666 0.217655 0.049744
0.247898 0.221683 0.046540
0.290501 0.230289 0.044434
0.340154 0.241154 0.040467
0.392859 0.255680 0.037568
0.449104 0.269444 0.035859
0.505364 0.284215 0.035492
0.555840 0.298192 0.035187
0.601526 0.307958 0.036133
0.641230 0.315740 0.040925
0.676234 0.323308 0.048463
0.706783 0.330907 0.056153
0.736507 0.339025 0.064424
0.760739 0.345678 0.075837
0.784085 0.352728 0.089296
0.806821 0.359930 0.104005
0.828489 0.366979 0.119661
0.844999 0.376440 0.135409
0.860838 0.386603 0.151461
0.875181 0.396826 0.168582
0.883574 0.407843 0.187747
0.890715 0.419013 0.208072
0.894133 0.430304 0.227024
0.894133 0.440650 0.241855
0.024903 0.243473 0.066896
0.026734 0.243442 0.066255
0.035737 0.243534 0.063478
0.052338 0.243473 0.063569
0.075502 0.243503 0.063447
0.099428 0.243442 0.063539
0.124300 0.243442 0.062715
0.148928 0.243534 0.059724
0.177035 0.244083 0.058747
0.206851 0.244144 0.056214
0.239963 0.245365 0.052399
0.277104 0.249821 0.049622
0.321355 0.257877 0.046448
0.371557 0.269535 0.043793
0.425544 0.284611 0.040711
0.482582 0.299718 0.038178
0.538903 0.315160 0.037751
0.589319 0.329839 0.037476
0.635035 0.342412 0.041108
0.674189 0.351995 0.048676
0.707301 0.359014 0.056245
0.737026 0.365942 0.064851
0.764004 0.373846 0.076478
0.787381 0.380346 0.091035
0.810117 0.387518 0.105592
0.830411 0.395422 0.121279
0.846006 0.402533 0.137057
0.861143 0.409857 0.153170
0.875822 0.419471 0.172305
0.884916 0.428717 0.191653
0.892454 0.437781 0.211612
0.897887 0.447974 0.232273
0.898009 0.458381 0.249302
0.015503 0.272160 0.074372
0.017334 0.272129 0.073793
0.024903 0.272160 0.071321
0.042115 0.272129 0.071107
0.065156 0.272221 0.070985
0.090089 0.272221 0.071077
0.118624 0.272160 0.070039
0.146334 0.272160 0.067170
0.176577 0.272251 0.066438
0.206546 0.272282 0.063172
0.237003 0.272282 0.059876
0.270298 0.273594 0.056367
0.307164 0.276982 0.052094
0.351812 0.285832 0.049714
0.402472 0.297978 0.047364
0.456977 0.313146 0.044617
0.512810 0.328954 0.043275
0.567407 0.344762 0.043519
0.618402 0.360784 0.043702
0.663569 0.374487 0.048646
0.703761 0.385168 0.056275
0.736843 0.392279 0.065003
0.764492 0.399725 0.076905
0.787900 0.407141 0.092653
0.810544 0.414527 0.108278
0.830655 0.421973 0.124117
0.849454 0.429297 0.140352
0.864622 0.436652 0.156863
0.876738 0.443977 0.174716
0.887663 0.451301 0.196170
0.895293 0.458930 0.217411
0.899413 0.468391 0.237308
0.899351 0.475624 0.255070
0.009857 0.301091 0.082460
0.010681 0.301061 0.082460
0.018067 0.301091 0.080751
0.032685 0.301122 0.079133
0.056184 0.301091 0.078553
0.082551 0.301061 0.078676
0.113436 0.301274 0.077546
0.144320 0.301457 0.074525
0.174990 0.301091 0.073823
0.206241 0.301061 0.070222
0.236088 0.301122 0.066804
0.267857 0.301122 0.063172
0.301854 0.301335 0.059052
0.338903 0.305241 0.055268
0.383307 0.313024 0.053193
0.432441 0.324804 0.052186
0.485908 0.340307 0.051026
0.540002 0.356786 0.050935
0.593683 0.373388 0.051179
0.644526 0.390265 0.052613
0.689479 0.404273 0.058228
0.729335 0.415839 0.066560
0.762173 0.423346 0.078584
0.788052 0.430854 0.094331
0.810941 0.438422 0.109926
0.830289 0.445899 0.125399
0.848264 0.453376 0.143069
0.864591 0.460853 0.160983
0.877897 0.468299 0.181186
0.887785 0.475257 0.202090
0.895720 0.482734 0.222965
0.902220 0.490181 0.245548
0.902312 0.497353 0.263493
0.011109 0.328862 0.090211
0.011109 0.328862 0.090211
0.015137 0.328771 0.090211
0.026734 0.328862 0.090028
0.049195 0.328832 0.087007
0.078187 0.328771 0.086061
0.110170 0.328771 0.085389
0.142885 0.329778 0.082033
0.174105 0.328740 0.081239
0.206485 0.328771 0.078035
0.237400 0.328740 0.073823
0.267399 0.328313 0.069673
0.300420 0.328374 0.065339
0.333165 0.329564 0.061341
0.370489 0.332525 0.059388
0.412848 0.339849 0.058686
0.461067 0.351659 0.058839
0.513390 0.367376 0.058778
0.566003 0.384405 0.060090
0.618280 0.401221 0.061555
0.667323 0.417395 0.065339
0.712215 0.432471 0.072663
0.751797 0.446204 0.083955
0.783963 0.454475 0.099519
0.809018 0.462043 0.115206
0.830411 0.469673 0.130983
0.846098 0.477241 0.147555
0.861845 0.484840 0.167300
0.876707 0.491798 0.187228
0.887877 0.499001 0.209445
0.895842 0.503929 0.230594
0.903319 0.511162 0.252964
0.906340 0.518029 0.271733
0.018402 0.358099 0.097658
0.018402 0.358099 0.097658
0.019989 0.358068 0.097658
0.029786 0.358038 0.097566
0.047669 0.358068 0.096223
0.076753 0.358618 0.093843
0.109499 0.358587 0.092988
0.143008 0.358556 0.089631
0.175540 0.358526 0.088563
0.206394 0.358526 0.084657
0.238865 0.358465 0.080873
0.269078 0.356909 0.076875
0.301732 0.356817 0.071321
0.332403 0.356451 0.066621
0.364752 0.356573 0.066011
0.400336 0.359167 0.065919
0.441779 0.366491 0.066377
0.489387 0.378302 0.066194
0.538964 0.393652 0.068818
0.589410 0.410834 0.071901
0.640070 0.427222 0.075776
0.688563 0.444343 0.082185
0.732418 0.460151 0.091493
0.769863 0.474830 0.104524
0.801572 0.485267 0.120150
0.825193 0.493294 0.135927
0.846433 0.500938 0.153262
0.862181 0.508629 0.172213
0.876921 0.515282 0.194156
0.888304 0.520409 0.215824
0.896239 0.527733 0.238651
0.903899 0.534813 0.259648
0.909728 0.541375 0.279942
0.024750 0.385260 0.106050
0.024201 0.385260 0.105592
0.026032 0.385229 0.105165
0.032654 0.385260 0.105104
0.051026 0.385229 0.104067
0.077516 0.385534 0.101564
0.111452 0.387579 0.100862
0.144869 0.387030 0.097169
0.177737 0.386969 0.095918
0.208957 0.386969 0.091798
0.240635 0.386938 0.087739
0.271885 0.385168 0.083711
0.303716 0.384771 0.078126
0.333837 0.383368 0.073243
0.365179 0.383032 0.071290
0.396887 0.382757 0.071351
0.432441 0.385473 0.072419
0.472419 0.392554 0.073732
0.516075 0.403357 0.076844
0.562829 0.418158 0.081453
0.612177 0.434546 0.086763
0.661250 0.451453 0.093507
0.707240 0.470253 0.101472
0.749447 0.487465 0.112795
0.786618 0.502373 0.128267
0.816678 0.514733 0.144015
0.841123 0.523583 0.159731
0.861540 0.531640 0.178653
0.876799 0.538872 0.200107
0.888457 0.544213 0.223148
0.897520 0.551110 0.244388
0.905211 0.558221 0.267582
0.910185 0.561486 0.287938
0.029541 0.414862 0.116152
0.030243 0.414862 0.114931
0.031891 0.414862 0.113527
0.039887 0.414862 0.112642
0.055970 0.414832 0.112306
0.082155 0.415106 0.111391
0.113405 0.415686 0.108827
0.147189 0.417151 0.106935
0.180392 0.415015 0.102632
0.214084 0.414954 0.098970
0.244327 0.414832 0.092683
0.275944 0.414679 0.088960
0.306798 0.413519 0.084077
0.336980 0.411322 0.079774
0.368261 0.410681 0.076204
0.398962 0.409400 0.075441
0.430976 0.408972 0.076356
0.464576 0.411078 0.079530
0.500511 0.416968 0.084627
0.541405 0.427283 0.089570
0.586542 0.441199 0.095521
0.634058 0.457313 0.103334
0.682277 0.475380 0.111055
0.726589 0.494606 0.121248
0.766201 0.512963 0.135927
0.802274 0.528283 0.151583
0.831571 0.541192 0.167666
0.854368 0.549981 0.185336
0.872343 0.558953 0.207797
0.886839 0.566796 0.228672
0.896269 0.573968 0.251926
0.904173 0.579248 0.275364
0.910918 0.584649 0.294285
0.037934 0.441230 0.120211
0.037140 0.441260 0.120241
0.037934 0.441230 0.120211
0.045411 0.441199 0.119997
0.061341 0.441169 0.117952
0.085542 0.442023 0.116335
0.116030 0.443030 0.114809
0.149630 0.443000 0.112062
0.183597 0.442969 0.109834
0.217685 0.442939 0.103609
0.251621 0.442847 0.099001
0.282414 0.440986 0.095125
0.312627 0.440986 0.090730
0.342412 0.439246 0.084077
0.372045 0.437476 0.081239
0.403082 0.435767 0.080873
0.432288 0.435157 0.082185
0.461463 0.435218 0.085573
0.493080 0.437629 0.090333
0.528496 0.443580 0.096407
0.568688 0.452277 0.103365
0.612177 0.464759 0.111238
0.657282 0.481361 0.119081
0.702449 0.499611 0.128603
0.745235 0.518456 0.141421
0.784237 0.536767 0.156374
0.817533 0.552056 0.173098
0.844175 0.565759 0.192844
0.865721 0.576593 0.213443
0.883665 0.584466 0.235935
0.896452 0.592370 0.257176
0.904356 0.600244 0.280583
0.911009 0.606836 0.300481
0.045014 0.467750 0.127810
0.044739 0.467781 0.127779
0.045472 0.467781 0.127779
0.051423 0.467781 0.127535
0.067109 0.467781 0.125002
0.091554 0.467781 0.123964
0.122499 0.467781 0.121920
0.155795 0.467781 0.119661
0.189395 0.467811 0.116945
0.222873 0.467781 0.110964
0.256748 0.467689 0.106294
0.289830 0.467689 0.101686
0.321965 0.467628 0.094850
0.351568 0.465736 0.091188
0.379828 0.465675 0.089021
0.407813 0.464210 0.088563
0.435889 0.462409 0.088594
0.462806 0.462104 0.092836
0.491890 0.462287 0.097414
0.522362 0.463813 0.103731
0.556268 0.467994 0.111513
0.595514 0.475929 0.119173
0.637873 0.488991 0.127230
0.680964 0.505638 0.136568
0.724178 0.523491 0.149630
0.764828 0.542443 0.164553
0.800320 0.560235 0.180179
0.830472 0.575555 0.198337
0.856474 0.589319 0.221530
0.876646 0.600092 0.244175
0.891997 0.608209 0.265507
0.904509 0.616114 0.289036
0.911070 0.623987 0.308598
0.052613 0.489998 0.135592
0.053040 0.491768 0.135561
0.052827 0.493233 0.135531
0.062287 0.493233 0.135286
0.077577 0.493233 0.132723
0.101686 0.493233 0.131685
0.131502 0.493599 0.129519
0.163668 0.494545 0.126741
0.197452 0.495949 0.123018
0.232151 0.497017 0.117647
0.266636 0.496590 0.113069
0.298619 0.495033 0.106203
0.329747 0.493751 0.102358
0.359442 0.493050 0.096437
0.387549 0.493050 0.096437
0.417365 0.491524 0.096376
0.444099 0.489754 0.096559
0.470497 0.489326 0.100984
0.498207 0.489418 0.106508
0.525322 0.489570 0.112428
0.554467 0.489754 0.119539
0.587457 0.492348 0.127169
0.624414 0.500725 0.136477
0.663813 0.514427 0.146029
0.704738 0.530175 0.157900
0.745480 0.547417 0.172824
0.782956 0.564813 0.188510
0.816556 0.580438 0.205570
0.844358 0.596185 0.226413
0.866880 0.610681 0.249790
0.885008 0.622217 0.273381
0.900237 0.631434 0.297032
0.911162 0.639338 0.316411
0.062867 0.520775 0.140627
0.063752 0.520775 0.138979
0.065675 0.520745 0.137423
0.074800 0.520745 0.137331
0.091737 0.520775 0.137301
0.115999 0.520775 0.134554
0.144289 0.520745 0.131960
0.175326 0.520745 0.129793
0.209049 0.520714 0.126131
0.243778 0.520714 0.121096
0.276707 0.520653 0.116609
0.308812 0.520592 0.112337
0.340154 0.520592 0.106569
0.369757 0.520592 0.104189
0.397406 0.520531 0.104189
0.427314 0.520531 0.104189
0.453834 0.519097 0.104158
0.480110 0.517235 0.109255
0.506554 0.516747 0.114870
0.533135 0.516777 0.120638
0.558251 0.516899 0.127718
0.586786 0.517052 0.135439
0.617639 0.519677 0.144747
0.652888 0.527489 0.154269
0.690211 0.539361 0.166201
0.727687 0.553765 0.181125
0.765347 0.570092 0.196841
0.800473 0.586603 0.213901
0.831144 0.602289 0.234897
0.856809 0.617548 0.256870
0.877409 0.630915 0.278325
0.893309 0.641077 0.301640
0.906981 0.648981 0.320806
0.072847 0.544549 0.142519
0.073701 0.544549 0.140719
0.076967 0.544518 0.139681
0.087648 0.544518 0.139742
0.108400 0.544518 0.137758
0.133211 0.544488 0.137331
0.161349 0.546044 0.134859
0.190951 0.547753 0.132052
0.222293 0.548363 0.128328
0.254795 0.548363 0.123964
0.288151 0.548760 0.120272
0.320775 0.549828 0.116304
0.351568 0.550652 0.112306
0.380957 0.550256 0.112184
0.407355 0.548211 0.112245
0.437263 0.548119 0.112215
0.463569 0.546685 0.112215
0.489876 0.546593 0.117525
0.516258 0.546593 0.123140
0.540978 0.544701 0.128786
0.567041 0.544274 0.136019
0.592645 0.544396 0.143771
0.619989 0.544518 0.153140
0.649836 0.547204 0.162570
0.681758 0.553887 0.174746
0.715724 0.564111 0.189670
0.750576 0.577874 0.205264
0.785855 0.593500 0.221347
0.818875 0.609125 0.240726
0.845975 0.624811 0.262364
0.867918 0.638972 0.284367
0.885954 0.649256 0.307195
0.900023 0.657160 0.325719
0.082856 0.568383 0.143130
0.087617 0.568353 0.141299
0.097078 0.568383 0.141329
0.111116 0.568383 0.141299
0.131930 0.568353 0.141268
0.155123 0.568841 0.138155
0.182742 0.571283 0.136751
0.211856 0.572229 0.134585
0.241123 0.573571 0.131380
0.270726 0.575372 0.127718
0.300969 0.576104 0.124086
0.331609 0.576043 0.121126
0.361303 0.576043 0.120241
0.390967 0.576013 0.120150
0.419379 0.575952 0.120180
0.446906 0.575921 0.120241
0.473213 0.575830 0.122164
0.499611 0.574456 0.126406
0.526055 0.574395 0.133394
0.550591 0.572259 0.137697
0.576745 0.571893 0.144564
0.600275 0.571923 0.152010
0.626032 0.571954 0.161685
0.652949 0.572015 0.170901
0.680751 0.574884 0.183322
0.710658 0.581353 0.198306
0.741543 0.591760 0.213870
0.773312 0.605463 0.229404
0.805051 0.619135 0.248844
0.833707 0.633204 0.270237
0.858579 0.648341 0.291661
0.878538 0.659785 0.313298
0.892454 0.667659 0.331182
0.106691 0.588525 0.145144
0.113863 0.590295 0.143465
0.124361 0.592370 0.141329
0.138460 0.592370 0.141238
0.156863 0.592370 0.141360
0.178683 0.592889 0.140322
0.203555 0.595392 0.138094
0.231724 0.596826 0.135958
0.259648 0.598871 0.132845
0.288060 0.600153 0.130251
0.317845 0.600671 0.128908
0.346654 0.601862 0.128298
0.374853 0.602716 0.128206
0.404059 0.602655 0.128267
0.431373 0.602625 0.128634
0.458900 0.602594 0.131685
0.486702 0.602502 0.136812
0.511284 0.602441 0.140780
0.537591 0.602411 0.148257
0.560418 0.602380 0.152224
0.586603 0.602319 0.159487
0.609888 0.602289 0.167117
0.635798 0.602289 0.174716
0.659602 0.602319 0.182345
0.685328 0.602350 0.192996
0.710628 0.605310 0.207248
0.736843 0.611872 0.222629
0.766354 0.620081 0.238041
0.795377 0.631220 0.255863
0.822721 0.643519 0.277165
0.847868 0.657374 0.298466
0.869291 0.669123 0.320043
0.883818 0.677150 0.337743
0.140719 0.616358 0.145235
0.149233 0.616388 0.145205
0.159396 0.616388 0.145327
0.173220 0.616388 0.145174
0.191043 0.616358 0.145205
0.212345 0.616938 0.143709
0.234897 0.619532 0.141848
0.257908 0.620325 0.139925
0.282963 0.622705 0.138216
0.308812 0.624201 0.136843
0.335363 0.624842 0.136355
0.362127 0.626551 0.136202
0.389105 0.628107 0.136873
0.417121 0.628077 0.138613
0.443824 0.628473 0.142184
0.471015 0.629938 0.147982
0.497383 0.630915 0.153079
0.523552 0.631800 0.157259
0.547387 0.631739 0.164675
0.572778 0.631678 0.168551
0.596612 0.631617 0.176059
0.619562 0.631586 0.183566
0.642390 0.631556 0.191135
0.668513 0.631556 0.198825
0.692134 0.631525 0.206485
0.715328 0.631525 0.217258
0.739040 0.633753 0.231571
0.764981 0.638178 0.246952
0.790219 0.645014 0.264500
0.816251 0.655604 0.285985
0.841093 0.667597 0.307103
0.860197 0.677333 0.328771
0.873808 0.685328 0.346044
0.183658 0.630823 0.152285
0.191043 0.632013 0.152163
0.199741 0.633600 0.151980
0.213382 0.633600 0.150729
0.228641 0.633600 0.148562
0.246555 0.636957 0.148409
0.264897 0.638087 0.148470
0.285985 0.640528 0.148470
0.308873 0.643305 0.148470
0.331548 0.644984 0.148470
0.355871 0.646937 0.149966
0.381384 0.649439 0.151400
0.406317 0.651362 0.151980
0.431708 0.652338 0.154360
0.457862 0.653376 0.158663
0.483467 0.656184 0.164462
0.509636 0.656153 0.169802
0.534356 0.656092 0.174716
0.559075 0.656245 0.181125
0.583551 0.658350 0.185214
0.606317 0.659846 0.192752
0.629236 0.659785 0.200351
0.652094 0.659754 0.207919
0.675013 0.659663 0.215518
0.697932 0.659632 0.223148
0.720912 0.661891 0.230716
0.743832 0.662379 0.241550
0.767086 0.663050 0.255955
0.788724 0.666316 0.273655
0.811185 0.672938 0.295293
0.834409 0.678950 0.316045
0.853086 0.685756 0.337835
0.866484 0.693599 0.354528
0.229496 0.646693 0.160433
0.235019 0.646693 0.160433
0.242710 0.646693 0.160494
0.253208 0.646693 0.160433
0.267308 0.646693 0.160525
0.282567 0.649989 0.160678
0.297368 0.651209 0.161257
0.316106 0.654170 0.163088
0.335302 0.657954 0.163821
0.355505 0.661311 0.165530
0.376562 0.664790 0.167300
0.398291 0.668025 0.169253
0.422492 0.670802 0.172457
0.447486 0.673976 0.176730
0.471473 0.676600 0.181704
0.497566 0.677607 0.185946
0.522728 0.680507 0.191775
0.546593 0.680446 0.197147
0.570184 0.680751 0.202182
0.593042 0.682795 0.208682
0.615930 0.684199 0.214084
0.638849 0.684138 0.220249
0.661799 0.684047 0.227817
0.684688 0.683955 0.235355
0.704982 0.683894 0.242893
0.727565 0.687190 0.250523
0.747250 0.687617 0.258213
