app/src/main/assets/filters/千禧回声2.cube
# Created by DESONG SHI
LUT_3D_SIZE 9
DOMAIN_MIN 0.0 0.0 0.0
DOMAIN_MAX 1.0 1.0 1.0
0.086152 0.058961 0.055085
0.109346 0.061341 0.050996
0.211276 0.077272 0.046998
0.373693 0.102937 0.047272
0.533288 0.134890 0.047761
0.675837 0.182254 0.066896
0.792691 0.239658 0.101869
0.871122 0.306950 0.162387
0.890227 0.370275 0.232395
0.083314 0.094606 0.054780
0.109865 0.095399 0.051148
0.220737 0.113008 0.046937
0.382605 0.138857 0.044862
0.541009 0.163912 0.046967
0.676905 0.197147 0.067323
0.793240 0.247166 0.099886
0.871244 0.307225 0.162722
0.890196 0.370428 0.232456
0.050782 0.185092 0.055512
0.092714 0.186862 0.051545
0.185183 0.190036 0.047791
0.359899 0.226780 0.037415
0.563622 0.272862 0.035187
0.704067 0.303868 0.058076
0.802976 0.332311 0.103395
0.874937 0.375097 0.167269
0.894133 0.423011 0.237949
0.009857 0.301091 0.082460
0.056184 0.301091 0.078553
0.174990 0.301091 0.073823
0.301854 0.301335 0.059052
0.485908 0.340307 0.051026
0.689479 0.404273 0.058228
0.810941 0.438422 0.109926
0.877897 0.468299 0.181186
0.902312 0.497353 0.263493
0.029541 0.414862 0.116152
0.055970 0.414832 0.112306
0.180392 0.415015 0.102632
0.306798 0.413519 0.084077
0.430976 0.408972 0.076356
0.586542 0.441199 0.095521
0.766201 0.512963 0.135927
0.872343 0.558953 0.207797
0.910918 0.584649 0.294285
0.062867 0.520775 0.140627
0.091737 0.520775 0.137301
0.209049 0.520714 0.126131
0.340154 0.520592 0.106569
0.453834 0.519097 0.104158
0.558251 0.516899 0.127718
0.690211 0.539361 0.166201
0.831144 0.602289 0.234897
0.906981 0.648981 0.320806
0.140719 0.616358 0.145235
0.191043 0.616358 0.145205
0.282963 0.622705 0.138216
0.389105 0.628107 0.136873
0.497383 0.630915 0.153079
0.596612 0.631617 0.176059
0.692134 0.631525 0.206485
0.790219 0.645014 0.264500
0.873808 0.685328 0.346044
0.313298 0.666743 0.188418
0.339330 0.666743 0.188815
0.388098 0.677943 0.198947
0.458106 0.697383 0.216098
0.546502 0.719234 0.239750
0.637415 0.730068 0.263706
0.719936 0.732753 0.292851
0.793576 0.736019 0.326177
0.856016 0.735744 0.381140
0.435554 0.700252 0.267094
0.439002 0.700252 0.267124
0.473060 0.708400 0.280735
0.528985 0.730495 0.310491
0.598077 0.756008 0.342382
0.673701 0.786374 0.378790
0.744961 0.808194 0.414130
0.811246 0.815152 0.455207
0.858793 0.819486 0.496498
0.086671 0.066621 0.088441
0.113436 0.067109 0.089052
0.196780 0.078920 0.093660
0.340612 0.103426 0.100343
0.491890 0.135042 0.105409
0.637659 0.180392 0.120912
0.760342 0.239872 0.151431
0.855680 0.305211 0.192660
0.889128 0.368750 0.248600
0.083131 0.096071 0.089815
0.114229 0.099855 0.089845
0.196841 0.115999 0.093477
0.342229 0.139223 0.097566
0.496681 0.161715 0.103731
0.638911 0.194583 0.120607
0.761349 0.246433 0.151156
0.856474 0.305638 0.192233
0.889403 0.369146 0.248203
0.055238 0.176333 0.089082
0.094972 0.177401 0.089143
0.183871 0.187716 0.092683
0.336614 0.219211 0.092897
0.521721 0.261662 0.097108
0.665278 0.295140 0.118166
0.779019 0.329625 0.150210
0.864164 0.372015 0.199802
0.892851 0.423285 0.255436
0.007935 0.283574 0.092836
0.056458 0.287236 0.093141
0.174228 0.292515 0.094728
0.296056 0.298955 0.096559
0.476417 0.340185 0.099550
0.673915 0.399695 0.115663
0.796048 0.437201 0.153231
0.872374 0.467811 0.211276
0.902068 0.496925 0.278386
0.023224 0.398230 0.117739
0.053925 0.403204 0.114809
0.180789 0.407568 0.111208
0.305241 0.409552 0.107362
0.429206 0.408789 0.111299
0.587030 0.442115 0.132326
0.766293 0.512963 0.167208
0.872068 0.557305 0.229526
0.910155 0.584863 0.306310
0.058930 0.512078 0.141360
0.091829 0.514244 0.137514
0.210361 0.519036 0.129915
0.340459 0.520378 0.124208
0.454139 0.517052 0.130526
0.557794 0.515190 0.153841
0.690059 0.539483 0.184176
0.830076 0.602411 0.246769
0.904448 0.649012 0.327337
0.139681 0.613642 0.145357
0.189883 0.616144 0.145266
0.282322 0.620905 0.140322
0.389715 0.626581 0.144289
0.497383 0.628138 0.161013
0.596796 0.631647 0.184146
0.691859 0.631525 0.213993
0.790402 0.645014 0.269474
0.873930 0.685359 0.346502
0.313268 0.666773 0.188418
0.338231 0.666773 0.188815
0.387182 0.677729 0.198795
0.457282 0.697261 0.215976
0.546105 0.719142 0.239628
0.637232 0.730129 0.263767
0.719936 0.732845 0.292973
0.793606 0.736080 0.326299
0.856046 0.735744 0.381231
0.435645 0.700282 0.267155
0.437781 0.700313 0.267247
0.472084 0.708339 0.279942
0.528008 0.730129 0.309911
0.597436 0.755764 0.342138
0.673213 0.786221 0.378637
0.744778 0.808225 0.414160
0.811124 0.815244 0.455299
0.858793 0.819547 0.496590
0.094392 0.103609 0.215213
0.124025 0.104555 0.220157
0.210208 0.115633 0.219883
0.326299 0.128298 0.220188
0.462562 0.146609 0.222629
0.587701 0.174807 0.228580
0.705226 0.232090 0.245792
0.805081 0.296025 0.273320
0.877226 0.360021 0.304570
0.091005 0.129244 0.200534
0.125643 0.132937 0.204349
0.209781 0.143496 0.211337
0.320836 0.154513 0.217594
0.459632 0.165164 0.222354
0.588312 0.187655 0.228733
0.705623 0.236912 0.245884
0.805722 0.296422 0.273198
0.877409 0.360235 0.304356
0.070680 0.173709 0.165896
0.103914 0.184848 0.175143
0.189151 0.205997 0.191135
0.307286 0.222904 0.205875
0.450690 0.248692 0.218357
0.588922 0.276219 0.229404
0.713893 0.311254 0.252995
0.817990 0.365179 0.285100
0.884642 0.420630 0.332158
0.005951 0.263432 0.162997
0.053132 0.274662 0.173587
0.174258 0.291051 0.189578
0.298558 0.304814 0.205753
0.454810 0.337224 0.219455
0.620874 0.383307 0.239994
0.746365 0.419745 0.270085
0.840879 0.457679 0.310094
0.895232 0.496254 0.363500
0.007416 0.378851 0.171542
0.044739 0.386084 0.179232
0.179568 0.397650 0.193606
0.305669 0.404547 0.208896
0.426184 0.408576 0.223911
0.582788 0.446601 0.248234
0.750088 0.511437 0.286259
0.849058 0.555200 0.339879
0.901244 0.585748 0.398077
0.041291 0.494759 0.193301
0.094423 0.499702 0.196353
0.213382 0.507988 0.206851
0.342016 0.512810 0.219913
0.452888 0.515373 0.232517
0.555230 0.515007 0.249546
0.690669 0.543053 0.286412
0.825864 0.607538 0.349340
0.898528 0.657893 0.424170
0.135073 0.607416 0.216190
0.187808 0.608637 0.220340
0.280003 0.616602 0.231113
0.388647 0.621363 0.244236
0.497230 0.628168 0.259129
0.595727 0.631373 0.276646
0.690639 0.631525 0.304173
0.789975 0.648341 0.351659
0.871672 0.689937 0.427100
0.309972 0.667170 0.256474
0.332067 0.667170 0.257633
0.384009 0.677089 0.269230
0.454932 0.697322 0.286534
0.546319 0.718746 0.306065
0.637263 0.730220 0.328801
0.719875 0.733059 0.355810
0.793759 0.736172 0.390326
0.853117 0.735805 0.438331
0.435859 0.700404 0.304143
0.436744 0.700435 0.304051
0.471199 0.707820 0.311803
0.525505 0.729397 0.336675
0.596094 0.756130 0.367437
0.671839 0.785702 0.399756
0.744228 0.808255 0.435523
0.810941 0.815427 0.477729
0.858793 0.819730 0.519524
0.104799 0.159701 0.361425
0.136629 0.162966 0.370123
0.243442 0.173465 0.368902
0.351843 0.184543 0.359808
0.463081 0.203708 0.359838
0.581689 0.227787 0.364843
0.687984 0.247257 0.365515
0.784970 0.285161 0.370214
0.864347 0.348577 0.390478
0.105959 0.179171 0.341802
0.144106 0.183139 0.346777
0.240665 0.193851 0.350896
0.343786 0.203464 0.352941
0.458350 0.218936 0.358801
0.580621 0.234684 0.364446
0.688655 0.248478 0.365545
0.785489 0.285405 0.370062
0.864500 0.348821 0.390143
0.104311 0.211704 0.273655
0.136202 0.217777 0.284550
0.219089 0.237766 0.308232
0.318883 0.257298 0.326940
0.433326 0.271061 0.339879
0.556603 0.284154 0.350835
0.677485 0.303899 0.361395
0.783444 0.352789 0.381506
0.867491 0.417609 0.419501
0.043000 0.263371 0.256260
0.079225 0.278050 0.268101
0.192660 0.304570 0.296117
0.318700 0.330480 0.325231
0.443549 0.352270 0.342535
0.568994 0.372930 0.357122
0.690059 0.402045 0.376928
0.794675 0.444678 0.406378
0.875303 0.494148 0.453223
0.005402 0.365972 0.260319
0.036347 0.376165 0.273503
0.177554 0.396582 0.298070
0.323949 0.415778 0.327062
0.446204 0.432593 0.348821
0.583001 0.462409 0.371344
0.722621 0.509758 0.405676
0.820218 0.550103 0.445289
0.884855 0.585077 0.492775
0.033570 0.482399 0.281987
0.072969 0.487678 0.290623
0.205539 0.499947 0.308598
0.339483 0.512535 0.330877
0.458167 0.519829 0.351171
0.561212 0.523430 0.370123
0.694270 0.566003 0.406348
0.817777 0.628260 0.469673
0.884337 0.669581 0.530816
0.125124 0.601068 0.311437
0.169772 0.601099 0.317052
0.272038 0.608942 0.332647
0.382849 0.617609 0.349981
0.496773 0.627436 0.367559
0.596735 0.630976 0.384070
0.691279 0.634424 0.404913
0.789944 0.661341 0.454963
0.866667 0.708797 0.528557
0.305943 0.670405 0.348730
0.320562 0.670405 0.348638
0.373297 0.679957 0.360571
0.449958 0.700069 0.378302
0.544884 0.719692 0.399756
0.636072 0.732509 0.423896
0.719539 0.733455 0.446418
0.793423 0.736538 0.474861
0.851743 0.741024 0.519493
0.443977 0.709865 0.394507
0.444007 0.709804 0.394049
0.475746 0.715328 0.399847
0.531426 0.737972 0.423011
0.600031 0.764920 0.451362
0.674617 0.790829 0.484779
0.747127 0.808469 0.516838
0.812131 0.815793 0.549767
0.858793 0.820096 0.578546
0.138979 0.220035 0.488289
0.166354 0.221958 0.493233
0.278325 0.235874 0.497902
0.393835 0.251347 0.496834
0.491798 0.262028 0.487007
0.583703 0.286046 0.485298
0.683833 0.328344 0.502312
0.777432 0.362402 0.512779
0.855253 0.395727 0.516686
0.145205 0.231327 0.468971
0.175357 0.236210 0.474464
0.276982 0.249973 0.484077
0.390387 0.263981 0.487129
0.489174 0.272770 0.485267
0.583825 0.290654 0.484688
0.684535 0.328771 0.502251
0.778042 0.362463 0.512657
0.855558 0.395514 0.516106
0.150790 0.261753 0.400000
0.180606 0.267765 0.409339
0.260868 0.284154 0.428504
0.363226 0.303624 0.449653
0.461769 0.319921 0.461128
0.560754 0.337285 0.475044
0.674586 0.366857 0.494789
0.773709 0.399512 0.509300
0.855528 0.438758 0.527337
0.126284 0.297887 0.356786
0.159426 0.308507 0.369604
0.242527 0.336400 0.399115
0.352270 0.362829 0.432258
0.459510 0.386603 0.458717
0.561334 0.401740 0.474647
0.674861 0.420691 0.490517
0.774166 0.447333 0.507805
0.856748 0.492287 0.532952
0.055024 0.365148 0.355993
0.098054 0.375982 0.366491
0.210269 0.400641 0.394507
0.344671 0.430335 0.432074
0.471107 0.461891 0.470832
0.583154 0.482002 0.488014
0.689570 0.502434 0.503502
0.785855 0.533013 0.528283
0.860533 0.578546 0.562402
0.031220 0.470192 0.372808
0.055268 0.473793 0.378668
0.184817 0.491249 0.402655
0.332891 0.514397 0.431983
0.475105 0.535882 0.468757
0.590631 0.556268 0.492103
0.702571 0.589624 0.524620
0.805447 0.638666 0.569696
0.866300 0.671870 0.612055
0.077363 0.589319 0.394293
0.084993 0.590784 0.394598
0.209232 0.600092 0.416419
0.357580 0.611841 0.442817
0.490791 0.630274 0.469032
0.604089 0.641413 0.493019
0.697597 0.649989 0.517998
0.791318 0.685328 0.566949
0.862882 0.732326 0.626429
0.249210 0.667353 0.420813
0.255344 0.667384 0.420630
0.335088 0.677943 0.442695
0.436866 0.699275 0.469642
0.539849 0.719997 0.495369
0.638087 0.733669 0.520226
0.722377 0.738125 0.542657
0.793698 0.744686 0.567712
0.850126 0.755367 0.610132
0.435950 0.712428 0.474739
0.436255 0.712459 0.474586
0.472450 0.721065 0.486397
0.530724 0.746029 0.511040
0.600793 0.772976 0.539544
0.679500 0.800565 0.568536
0.750820 0.814267 0.597223
0.814603 0.819669 0.625025
0.858793 0.823117 0.646662
0.224216 0.283909 0.578088
0.236790 0.285435 0.578027
0.330877 0.302892 0.585809
0.431800 0.322881 0.591608
0.533410 0.343145 0.595789
0.613092 0.352331 0.593561
0.689174 0.377050 0.596765
0.771328 0.439979 0.623285
0.839017 0.509483 0.649378
0.224063 0.292912 0.572747
0.243290 0.295048 0.574182
0.333623 0.310643 0.583673
0.431250 0.328069 0.591150
0.534295 0.346044 0.594568
0.613092 0.353857 0.592767
0.689631 0.377569 0.596918
0.771847 0.440436 0.623529
0.839322 0.509514 0.649287
0.220890 0.319341 0.523583
0.238956 0.324010 0.529015
0.317205 0.341894 0.546014
0.412238 0.361395 0.563012
0.513664 0.381018 0.578576
0.600122 0.393805 0.584771
0.682368 0.418677 0.597223
0.772366 0.480354 0.626703
0.840787 0.537469 0.654139
0.221622 0.355962 0.483528
0.242771 0.360449 0.488685
0.307866 0.378882 0.512627
0.401862 0.406012 0.539422
0.506126 0.433326 0.565026
0.597284 0.454658 0.583307
0.682979 0.477607 0.600397
0.772457 0.520775 0.626368
0.843870 0.565301 0.650904
0.177798 0.398688 0.459541
0.205051 0.403204 0.464759
0.283665 0.424353 0.488258
0.384375 0.454597 0.519707
0.500725 0.490242 0.562127
0.604639 0.520134 0.589868
0.688289 0.539391 0.606165
0.776089 0.566918 0.625940
0.845884 0.596765 0.646571
0.105928 0.468482 0.468879
0.140291 0.471992 0.471412
0.233982 0.490181 0.487739
0.354376 0.516320 0.516625
0.491279 0.552331 0.561944
0.616205 0.587823 0.602289
0.708492 0.613855 0.623407
0.786801 0.637781 0.641230
0.849546 0.663661 0.662196
0.068849 0.576440 0.487037
0.073243 0.576715 0.486915
0.172519 0.586084 0.497200
0.323491 0.605005 0.523919
0.477241 0.630701 0.561303
0.618341 0.658656 0.599542
0.715175 0.680140 0.630213
0.794430 0.708522 0.663081
0.854582 0.744137 0.699306
0.188937 0.666285 0.492805
0.189181 0.666316 0.492653
0.248295 0.671321 0.503960
0.376867 0.693019 0.537499
0.513237 0.716304 0.576074
0.638209 0.736385 0.611505
0.726314 0.749081 0.636622
0.796262 0.759854 0.659144
0.852689 0.776211 0.694728
0.354620 0.701686 0.506432
0.354894 0.701747 0.506218
0.402014 0.712184 0.526207
0.493782 0.744869 0.565362
0.590784 0.777096 0.609552
0.678462 0.806363 0.642206
0.754574 0.819364 0.670588
0.818418 0.825010 0.695308
0.859190 0.829099 0.710140
0.338201 0.370184 0.648890
0.338140 0.370123 0.648859
0.413092 0.390173 0.654078
0.486976 0.408148 0.661555
0.577630 0.432868 0.669459
0.658442 0.453712 0.674189
0.720363 0.464851 0.677790
0.776638 0.490272 0.686793
0.836942 0.563317 0.714351
0.338201 0.370275 0.645563
0.339605 0.370916 0.645533
0.414710 0.390753 0.653285
0.488197 0.409216 0.660365
0.577752 0.433173 0.669337
0.658930 0.453925 0.674250
0.720699 0.465003 0.677882
0.777066 0.490639 0.686915
0.837125 0.563684 0.714504
0.328313 0.393194 0.635370
0.334936 0.393042 0.635370
0.400000 0.409918 0.644953
0.478462 0.430854 0.655695
0.570306 0.460456 0.667994
0.656703 0.485420 0.679225
0.719844 0.499641 0.685084
0.778592 0.527245 0.696681
0.837613 0.595544 0.723171
0.331518 0.428840 0.613184
0.341100 0.429297 0.613764
0.394781 0.443091 0.626398
0.471229 0.467079 0.642908
0.564141 0.496681 0.662989
0.652918 0.525261 0.682582
0.719600 0.544976 0.691035
0.779934 0.574090 0.706661
0.838437 0.632502 0.729946
0.312352 0.465095 0.586633
0.320867 0.465064 0.586694
0.380987 0.477394 0.600580
0.457893 0.501244 0.624231
0.553918 0.533562 0.654444
0.649500 0.572992 0.681544
0.721187 0.598779 0.698085
0.784573 0.625544 0.712978
0.841093 0.666499 0.733333
0.246220 0.505638 0.573541
0.258030 0.505821 0.573571
0.322240 0.515770 0.582422
0.414557 0.538293 0.604761
0.525811 0.569970 0.637598
0.642573 0.619318 0.678706
0.728054 0.653742 0.705348
0.788571 0.675257 0.720882
0.843839 0.696651 0.734371
0.160861 0.579828 0.581292
0.175570 0.581353 0.581994
0.256016 0.588006 0.591547
0.365576 0.600977 0.606439
0.494026 0.632380 0.636103
0.626947 0.669886 0.678676
0.733516 0.706294 0.711971
0.796841 0.729915 0.731014
0.849943 0.745449 0.744411
0.164431 0.667933 0.588708
0.164675 0.667964 0.588647
0.213016 0.670832 0.594598
0.335210 0.687556 0.612268
0.473335 0.710689 0.644251
0.615839 0.738247 0.679591
0.732418 0.761654 0.711574
0.804898 0.779812 0.737514
0.855314 0.794003 0.756924
0.325017 0.702937 0.588891
0.325139 0.702937 0.588769
0.355688 0.709133 0.591608
0.441779 0.742306 0.620233
0.548882 0.775692 0.655421
0.661341 0.806943 0.697780
0.755154 0.823178 0.730282
0.824399 0.832486 0.753536
0.862669 0.836912 0.764034
0.496132 0.490364 0.720851
0.496101 0.490333 0.720851
0.535943 0.503532 0.723445
0.584588 0.516411 0.728481
0.647211 0.536522 0.734157
0.710384 0.563012 0.744167
0.764401 0.585504 0.749752
0.804776 0.596674 0.753567
0.838010 0.617273 0.760189
0.494545 0.490547 0.721004
0.494575 0.490517 0.720974
0.536797 0.503929 0.724086
0.585260 0.516625 0.728725
0.647700 0.536858 0.734310
0.710719 0.563226 0.744289
0.764614 0.585657 0.749844
0.804929 0.596857 0.753658
0.838102 0.617426 0.760250
0.492805 0.505455 0.726619
0.492805 0.505272 0.726589
0.532189 0.517632 0.727779
0.583398 0.532677 0.734585
0.647547 0.558038 0.742611
0.711360 0.584863 0.750942
0.765194 0.608637 0.757687
0.805356 0.619135 0.761654
0.838346 0.640253 0.769070
0.493202 0.539330 0.727779
0.493263 0.539239 0.727779
0.530358 0.546685 0.728939
0.580468 0.560754 0.736355
0.645319 0.586389 0.746365
0.709163 0.615290 0.756588
0.765682 0.641779 0.765225
0.806271 0.653742 0.770962
0.840360 0.671473 0.777676
0.494759 0.569726 0.718227
0.494942 0.569665 0.718349
0.524193 0.574823 0.719753
0.573907 0.588708 0.729885
0.639521 0.614282 0.743709
0.706020 0.645136 0.757168
0.765957 0.673671 0.768185
0.810147 0.689540 0.776089
0.842985 0.706630 0.782834
0.434882 0.594324 0.697444
0.435004 0.594324 0.697475
0.474891 0.600153 0.699763
0.537865 0.614527 0.712703
0.615473 0.640955 0.730373
0.693660 0.673091 0.751492
0.763027 0.704372 0.770291
0.811673 0.726101 0.782559
0.843748 0.740536 0.787655
0.360327 0.638819 0.693294
0.360357 0.638880 0.693294
0.410437 0.639216 0.694911
0.480293 0.648341 0.704707
0.567071 0.668238 0.721523
0.663111 0.698360 0.744839
0.754177 0.734005 0.770169
0.815976 0.763394 0.787961
0.851041 0.771878 0.794553
0.291020 0.693599 0.688685
0.297642 0.693599 0.688685
0.353765 0.694728 0.692592
0.432837 0.705318 0.705348
0.532189 0.721889 0.723354
0.636866 0.744228 0.745693
0.738399 0.772122 0.771603
0.819028 0.799313 0.792264
0.857816 0.810849 0.801877
0.358190 0.723079 0.686702
0.358221 0.723079 0.686671
0.385504 0.727474 0.690028
0.455543 0.749203 0.705715
0.544579 0.778500 0.725887
0.643793 0.808591 0.751675
0.742428 0.827909 0.776516
0.822385 0.839231 0.798734
0.866667 0.844511 0.810147
0.653010 0.624750 0.798978
0.652949 0.624750 0.798978
0.664607 0.628687 0.798947
0.692409 0.637659 0.798947
0.724361 0.649042 0.803220
0.763149 0.669306 0.810513
0.800809 0.689357 0.816831
0.832609 0.704158 0.821714
0.850980 0.708400 0.823850
0.653193 0.624903 0.799069
0.653193 0.624903 0.799069
0.664912 0.628840 0.799039
0.692714 0.637812 0.799069
0.724636 0.649226 0.803342
0.763363 0.669459 0.810605
0.801022 0.689479 0.816953
0.832822 0.704280 0.821866
0.850980 0.708492 0.823911
0.653620 0.636408 0.801968
0.653620 0.636286 0.801846
0.665248 0.637873 0.802121
0.693874 0.649683 0.803861
0.728328 0.662135 0.807279
0.764828 0.679927 0.811398
0.801633 0.699641 0.817685
0.833341 0.711696 0.822263
0.850950 0.712367 0.824063
0.658625 0.659174 0.811398
0.658656 0.659022 0.811368
0.667872 0.661646 0.811368
0.696834 0.670008 0.811429
0.731563 0.683528 0.811856
0.767239 0.700557 0.816312
0.802884 0.720027 0.820523
0.834195 0.731502 0.824186
0.850980 0.733547 0.825467
0.666743 0.687312 0.811612
0.666773 0.687221 0.811673
0.669886 0.687037 0.811765
0.695888 0.694148 0.811856
0.730892 0.706294 0.812985
0.768002 0.722042 0.819669
0.804379 0.740841 0.823667
0.836820 0.753323 0.825925
0.850980 0.756161 0.828641
0.652155 0.714107 0.802731
0.652277 0.714137 0.802762
0.658350 0.714137 0.802914
0.689052 0.715694 0.804379
0.723537 0.727565 0.812009
0.763729 0.741085 0.816983
0.804410 0.761440 0.825010
0.840726 0.776242 0.829160
0.854246 0.778866 0.832944
0.607965 0.736110 0.796323
0.608057 0.736172 0.796353
0.616907 0.736812 0.796445
0.654047 0.740383 0.796628
0.695949 0.748928 0.804990
0.745693 0.761807 0.815579
0.798825 0.779782 0.824552
0.842466 0.798611 0.832395
0.857267 0.803861 0.833433
0.561181 0.764828 0.788663
0.561151 0.764920 0.788724
0.578973 0.766690 0.788785
0.616693 0.770993 0.793942
0.663478 0.780148 0.804990
0.718105 0.791318 0.814450
0.780148 0.805478 0.824918
0.840482 0.822324 0.833951
0.864652 0.828336 0.837552
0.537591 0.784360 0.778592
0.537652 0.784390 0.778592
0.561883 0.787320 0.783047
0.597559 0.799222 0.794888
0.650996 0.813260 0.808042
0.716030 0.825071 0.819059
0.787625 0.835782 0.829313
0.850828 0.845518 0.837308
0.866667 0.850980 0.839200
