app/src/main/assets/filters/千禧回声2.cube
# Created by DESONG SHI
LUT_3D_SIZE 5
DOMAIN_MIN 0.0 0.0 0.0
DOMAIN_MAX 1.0 1.0 1.0
0.086152 0.058961 0.055085
0.211276 0.077272 0.046998
0.533288 0.134890 0.047761
0.792691 0.239658 0.101869
0.890227 0.370275 0.232395
0.050782 0.185092 0.055512
0.185183 0.190036 0.047791
0.563622 0.272862 0.035187
0.802976 0.332311 0.103395
0.894133 0.423011 0.237949
0.029541 0.414862 0.116152
0.180392 0.415015 0.102632
0.430976 0.408972 0.076356
0.766201 0.512963 0.135927
0.910918 0.584649 0.294285
0.140719 0.616358 0.145235
0.282963 0.622705 0.138216
0.497383 0.630915 0.153079
0.692134 0.631525 0.206485
0.873808 0.685328 0.346044
0.435554 0.700252 0.267094
0.473060 0.708400 0.280735
0.598077 0.756008 0.342382
0.744961 0.808194 0.414130
0.858793 0.819486 0.496498
0.094392 0.103609 0.215213
0.210208 0.115633 0.219883
0.462562 0.146609 0.222629
0.705226 0.232090 0.245792
0.877226 0.360021 0.304570
0.070680 0.173709 0.165896
0.189151 0.205997 0.191135
0.450690 0.248692 0.218357
0.713893 0.311254 0.252995
0.884642 0.420630 0.332158
0.007416 0.378851 0.171542
0.179568 0.397650 0.193606
0.426184 0.408576 0.223911
0.750088 0.511437 0.286259
0.901244 0.585748 0.398077
0.135073 0.607416 0.216190
0.280003 0.616602 0.231113
0.497230 0.628168 0.259129
0.690639 0.631525 0.304173
0.871672 0.689937 0.427100
0.435859 0.700404 0.304143
0.471199 0.707820 0.311803
0.596094 0.756130 0.367437
0.744228 0.808255 0.435523
0.858793 0.819730 0.519524
0.138979 0.220035 0.488289
0.278325 0.235874 0.497902
0.491798 0.262028 0.487007
0.683833 0.328344 0.502312
0.855253 0.395727 0.516686
0.150790 0.261753 0.400000
0.260868 0.284154 0.428504
0.461769 0.319921 0.461128
0.674586 0.366857 0.494789
0.855528 0.438758 0.527337
0.055024 0.365148 0.355993
0.210269 0.400641 0.394507
0.471107 0.461891 0.470832
0.689570 0.502434 0.503502
0.860533 0.578546 0.562402
0.077363 0.589319 0.394293
0.209232 0.600092 0.416419
0.490791 0.630274 0.469032
0.697597 0.649989 0.517998
0.862882 0.732326 0.626429
0.435950 0.712428 0.474739
0.472450 0.721065 0.486397
0.600793 0.772976 0.539544
0.750820 0.814267 0.597223
0.858793 0.823117 0.646662
0.338201 0.370184 0.648890
0.413092 0.390173 0.654078
0.577630 0.432868 0.669459
0.720363 0.464851 0.677790
0.836942 0.563317 0.714351
0.328313 0.393194 0.635370
0.400000 0.409918 0.644953
0.570306 0.460456 0.667994
0.719844 0.499641 0.685084
0.837613 0.595544 0.723171
0.312352 0.465095 0.586633
0.380987 0.477394 0.600580
0.553918 0.533562 0.654444
0.721187 0.598779 0.698085
0.841093 0.666499 0.733333
0.160861 0.579828 0.581292
0.256016 0.588006 0.591547
0.494026 0.632380 0.636103
0.733516 0.706294 0.711971
0.849943 0.745449 0.744411
0.325017 0.702937 0.588891
0.355688 0.709133 0.591608
0.548882 0.775692 0.655421
0.755154 0.823178 0.730282
0.862669 0.836912 0.764034
0.653010 0.624750 0.798978
0.664607 0.628687 0.798947
0.724361 0.649042 0.803220
0.800809 0.689357 0.816831
0.850980 0.708400 0.823850
0.653620 0.636408 0.801968
0.665248 0.637873 0.802121
0.728328 0.662135 0.807279
0.801633 0.699641 0.817685
0.850950 0.712367 0.824063
0.666743 0.687312 0.811612
0.669886 0.687037 0.811765
0.730892 0.706294 0.812985
0.804379 0.740841 0.823667
0.850980 0.756161 0.828641
0.607965 0.736110 0.796323
0.616907 0.736812 0.796445
0.695949 0.748928 0.804990
0.798825 0.779782 0.824552
0.857267 0.803861 0.833433
0.537591 0.784360 0.778592
0.561883 0.787320 0.783047
0.650996 0.813260 0.808042
0.787625 0.835782 0.829313
0.866667 0.850980 0.839200
