app/src/main/assets/filters/千禧回声1.cube
# Created by DESONG SHI
LUT_3D_SIZE 9
0.0861524 0.0589609 0.0550851
0.11075 0.0616312 0.0509957
0.218082 0.078233 0.047013
0.38436 0.104982 0.0471962
0.546609 0.13846 0.0485847
0.689082 0.188052 0.0702831
0.804944 0.248127 0.10869
0.875914 0.316564 0.173983
0.890227 0.370275 0.232395
0.0837262 0.0941176 0.0545205
0.113649 0.0957198 0.0510567
0.232151 0.114443 0.0469368
0.398764 0.140246 0.0451667
0.558587 0.166766 0.0480659
0.694179 0.202548 0.0716411
0.808606 0.255726 0.109636
0.877119 0.318914 0.176761
0.890196 0.370428 0.232456
0.0518807 0.183444 0.055375
0.100038 0.18497 0.051545
0.201038 0.189853 0.0469825
0.388907 0.230961 0.0364385
0.588037 0.274479 0.0361639
0.722988 0.305547 0.0642863
0.819867 0.336355 0.115618
0.881621 0.383047 0.183139
0.894133 0.420981 0.237568
0.0107729 0.298253 0.081651
0.0696269 0.298039 0.0778058
0.19266 0.297917 0.0710155
0.327077 0.301396 0.0558938
0.529259 0.350988 0.0500191
0.723445 0.410864 0.0648814
0.828595 0.441962 0.123827
0.887724 0.471855 0.201175
0.901869 0.494133 0.262242
0.0292058 0.411048 0.11426
0.0712749 0.410956 0.110491
0.203189 0.410925 0.0990768
0.329915 0.40763 0.0797589
0.461204 0.407797 0.0782483
0.636179 0.455619 0.101396
0.805798 0.526482 0.150942
0.888289 0.563714 0.230564
0.91078 0.580484 0.293141
0.0617075 0.515908 0.138903
0.107256 0.516152 0.134722
0.23563 0.516518 0.121386
0.365209 0.515541 0.103044
0.478202 0.512001 0.107683
0.58967 0.512551 0.13463
0.737697 0.555337 0.182177
0.864073 0.619471 0.261051
0.907881 0.646906 0.31986
0.140551 0.611215 0.144945
0.202747 0.611978 0.143206
0.30338 0.619165 0.135546
0.415473 0.622629 0.136507
0.52401 0.625376 0.154604
0.622431 0.624949 0.18146
0.721538 0.626352 0.219287
0.82742 0.657526 0.292073
0.876265 0.683314 0.343999
0.30808 0.664897 0.184894
0.340169 0.667704 0.187701
0.398993 0.679988 0.198337
0.480583 0.700832 0.217319
0.572305 0.720226 0.24126
0.663142 0.726528 0.266239
0.745769 0.729717 0.297063
0.820188 0.729641 0.342458
0.855772 0.730297 0.378592
0.429313 0.697978 0.260899
0.442679 0.698756 0.262318
0.482597 0.711864 0.283787
0.545754 0.735119 0.314321
0.621271 0.763531 0.348104
0.699275 0.792126 0.382467
0.771054 0.806439 0.41886
0.835248 0.810178 0.464073
0.858793 0.81416 0.485405
0.0866407 0.0652476 0.0824445
0.114809 0.06598 0.0831159
0.204944 0.0795453 0.0872053
0.355169 0.105577 0.092256
0.511543 0.138567 0.0975662
0.656397 0.186786 0.115038
0.780926 0.24831 0.148516
0.868101 0.316411 0.195377
0.889555 0.369406 0.244129
0.0835889 0.0953078 0.0829175
0.117708 0.0987716 0.0827955
0.209766 0.116701 0.0851148
0.36405 0.140383 0.0887922
0.52192 0.164614 0.0953384
0.663066 0.200793 0.114656
0.786114 0.25539 0.148592
0.870726 0.318944 0.19649
0.889754 0.369726 0.243473
0.0553445 0.176349 0.0818494
0.102388 0.177646 0.0817731
0.198795 0.188785 0.0832074
0.36759 0.225269 0.0827955
0.555047 0.267323 0.0854353
0.694087 0.299794 0.110536
0.803037 0.33518 0.148104
0.87866 0.382193 0.203998
0.893217 0.421027 0.249653
0.00972 0.283787 0.0894331
0.0709392 0.287343 0.0885786
0.192081 0.291569 0.0883803
0.323934 0.300664 0.0870832
0.521538 0.350011 0.0868696
0.712184 0.408865 0.10547
0.822477 0.441596 0.15259
0.887312 0.471794 0.217792
0.901732 0.49424 0.270985
0.0246586 0.397894 0.11548
0.0699321 0.40293 0.112505
0.20441 0.4065 0.105516
0.330541 0.405707 0.0982223
0.460822 0.407919 0.103746
0.636835 0.456306 0.125383
0.805875 0.526467 0.169436
0.888273 0.563333 0.241749
0.910475 0.580575 0.298939
0.0597391 0.510506 0.139574
0.10808 0.513252 0.135088
0.236973 0.515923 0.124437
0.366155 0.51548 0.114885
0.479026 0.511772 0.123491
0.590341 0.512001 0.148928
0.738262 0.555932 0.191012
0.8636 0.619837 0.266377
0.906844 0.646998 0.322988
0.13994 0.610285 0.14522
0.202838 0.611994 0.143481
0.303593 0.618677 0.137682
0.416007 0.622766 0.140764
0.524422 0.624277 0.159777
0.622965 0.625086 0.185702
0.722118 0.626596 0.222904
0.827482 0.657877 0.293828
0.876234 0.683406 0.344396
0.307271 0.664942 0.184985
0.339925 0.667506 0.187625
0.398947 0.679973 0.198474
0.480568 0.700877 0.217441
0.572549 0.720439 0.24155
0.663493 0.726696 0.266529
0.746288 0.729946 0.29749
0.820554 0.729854 0.342916
0.855817 0.730343 0.378668
0.429587 0.698085 0.261158
0.441749 0.698695 0.262425
0.482048 0.711727 0.283619
0.545525 0.735042 0.314412
0.621195 0.763531 0.348226
0.699428 0.792294 0.382849
0.771298 0.806577 0.419226
0.835569 0.810361 0.464668
0.858793 0.814359 0.485771
0.0938888 0.0945754 0.190051
0.124056 0.0973831 0.19411
0.211612 0.108385 0.195575
0.336202 0.121492 0.196887
0.477043 0.143664 0.202472
0.607187 0.181598 0.211109
0.728939 0.242969 0.233158
0.829068 0.308888 0.262791
0.879576 0.36173 0.29218
0.0905776 0.121553 0.178439
0.127245 0.125734 0.182025
0.212757 0.13875 0.188708
0.337072 0.149294 0.195514
0.480842 0.166186 0.20061
0.612207 0.194842 0.210788
0.733776 0.248371 0.233402
0.832761 0.311269 0.262943
0.879805 0.361975 0.291524
0.067216 0.170214 0.148867
0.106905 0.183124 0.159869
0.2 0.201053 0.173449
0.331151 0.222522 0.185992
0.483879 0.251865 0.197116
0.625971 0.282429 0.212055
0.749538 0.32224 0.238651
0.846677 0.377951 0.277333
0.887404 0.420127 0.314855
0.00761425 0.264057 0.146197
0.0696422 0.275471 0.159091
0.192905 0.288869 0.172335
0.322087 0.301595 0.184619
0.494652 0.344137 0.198138
0.661723 0.39205 0.222858
0.78056 0.428046 0.25449
0.863706 0.467369 0.304265
0.896864 0.493996 0.343969
0.00918593 0.378851 0.156054
0.0657359 0.387213 0.163439
0.203967 0.395911 0.175006
0.330556 0.401022 0.186862
0.456413 0.408621 0.202121
0.630533 0.458991 0.229709
0.789212 0.523613 0.273808
0.87277 0.56141 0.33228
0.902876 0.581476 0.375265
0.045655 0.493553 0.174578
0.11133 0.499107 0.178454
0.238682 0.506539 0.187823
0.367437 0.509377 0.200702
0.478202 0.510552 0.213901
0.588312 0.512795 0.234318
0.737972 0.55906 0.279942
0.85893 0.623835 0.35024
0.900526 0.651499 0.400122
0.136492 0.603983 0.196368
0.202701 0.606546 0.199008
0.303212 0.613855 0.209766
0.4159 0.619272 0.224201
0.524834 0.62269 0.238926
0.623468 0.625376 0.259022
0.72224 0.628 0.290242
0.825849 0.659297 0.357061
0.873564 0.684535 0.402564
0.303395 0.664942 0.235355
0.334951 0.666529 0.239109
0.397177 0.679835 0.250446
0.479881 0.700648 0.268208
0.57232 0.719661 0.290028
0.664057 0.727031 0.314733
0.746609 0.730175 0.344244
0.82092 0.730083 0.386954
0.853635 0.730587 0.417746
0.429831 0.698207 0.282078
0.439689 0.698543 0.28217
0.480018 0.711101 0.298482
0.544274 0.734676 0.326299
0.620554 0.763256 0.356176
0.699077 0.792401 0.389517
0.771313 0.806851 0.427115
0.835874 0.81059 0.473793
0.858747 0.814633 0.496315
0.101061 0.146502 0.326192
0.137774 0.14786 0.332677
0.241367 0.159167 0.329366
0.349889 0.170092 0.323827
0.472663 0.191119 0.325246
0.595483 0.209979 0.327642
0.705058 0.236698 0.330098
0.804181 0.295537 0.345068
0.866484 0.351736 0.36466
0.101793 0.165347 0.306554
0.143847 0.169238 0.31078
0.241306 0.179416 0.314305
0.345586 0.188876 0.31667
0.473396 0.205585 0.323537
0.599252 0.217395 0.326574
0.709102 0.238819 0.329366
0.807858 0.2981 0.3449
0.866804 0.352071 0.36379
0.0958419 0.199069 0.241947
0.135286 0.208698 0.256199
0.223392 0.22945 0.278767
0.328435 0.246021 0.295888
0.453574 0.259541 0.308843
0.582101 0.277165 0.319371
0.707012 0.307469 0.331701
0.811826 0.367315 0.362203
0.871839 0.41651 0.39469
0.0285496 0.258076 0.230793
0.0811627 0.2766 0.245289
0.206241 0.30164 0.271046
0.335195 0.325078 0.294667
0.471885 0.348867 0.310719
0.607462 0.377539 0.327916
0.732631 0.411109 0.355276
0.831403 0.458701 0.39118
0.882155 0.492363 0.42652
0.00419623 0.36553 0.234531
0.0563363 0.378744 0.249928
0.204791 0.396689 0.273671
0.342443 0.411414 0.297902
0.468132 0.427146 0.316686
0.623743 0.468605 0.343801
0.762112 0.519692 0.383154
0.850172 0.559701 0.428641
0.890593 0.581857 0.463233
0.0357824 0.481544 0.256458
0.106294 0.488945 0.265736
0.2383 0.500801 0.283406
0.369787 0.509148 0.302373
0.480949 0.512642 0.319173
0.592065 0.52105 0.341604
0.738796 0.576379 0.389288
0.850385 0.63856 0.457511
0.890364 0.663951 0.498939
0.127031 0.597345 0.283085
0.196887 0.600015 0.291661
0.298878 0.607996 0.30663
0.413642 0.616526 0.322515
0.525124 0.622721 0.338247
0.624292 0.625818 0.35404
0.72195 0.630976 0.383444
0.826123 0.671473 0.451591
0.870375 0.700343 0.495888
0.298207 0.667338 0.31902
0.327718 0.668208 0.322698
0.390494 0.682322 0.3355
0.477302 0.702083 0.354467
0.572503 0.720653 0.376028
0.664897 0.727504 0.398428
0.747051 0.730587 0.423682
0.821241 0.731731 0.460838
0.853086 0.734051 0.490867
0.436057 0.70544 0.363226
0.441321 0.705455 0.363088
0.482734 0.716579 0.376211
0.548119 0.740505 0.402975
0.622126 0.768887 0.432639
0.699382 0.794705 0.464164
0.771954 0.807218 0.499306
0.836591 0.811002 0.534127
0.857893 0.814969 0.551888
0.122667 0.200549 0.448188
0.157229 0.203128 0.455726
0.273426 0.21529 0.458442
0.389425 0.227878 0.452644
0.490043 0.241856 0.445396
0.594965 0.273686 0.449424
0.698482 0.306355 0.45948
0.795911 0.332967 0.463844
0.858793 0.365209 0.466117
0.127794 0.213092 0.426123
0.167865 0.218265 0.433127
0.275013 0.231357 0.441169
0.386954 0.242817 0.443549
0.489906 0.254139 0.442161
0.59881 0.278386 0.448569
0.702358 0.30692 0.458793
0.799558 0.333318 0.462654
0.859083 0.364599 0.4645
0.131624 0.242969 0.355566
0.170611 0.250843 0.369284
0.257282 0.268635 0.389685
0.360922 0.28835 0.408301
0.464454 0.302693 0.420661
0.58056 0.322011 0.435401
0.698955 0.345754 0.449851
0.799146 0.378958 0.463844
0.859388 0.418235 0.482506
0.0936141 0.281773 0.317861
0.140475 0.2981 0.335241
0.240269 0.326345 0.366491
0.359945 0.353307 0.400504
0.47097 0.37377 0.420447
0.58558 0.38822 0.433936
0.701946 0.408759 0.447807
0.802182 0.44921 0.473594
0.862104 0.487572 0.499748
0.0277256 0.359472 0.319738
0.0850233 0.375784 0.336583
0.219928 0.40148 0.366079
0.365179 0.42884 0.40473
0.490974 0.454383 0.432471
0.612543 0.479454 0.450507
0.72755 0.510658 0.475563
0.822889 0.549325 0.507805
0.869093 0.579019 0.535821
0.0288548 0.470848 0.338811
0.0730602 0.477317 0.348501
0.220523 0.494804 0.373678
0.370062 0.515312 0.405142
0.498421 0.530465 0.430777
0.61236 0.546304 0.454459
0.739071 0.59675 0.497765
0.83505 0.64744 0.552712
0.873289 0.669291 0.583505
0.088777 0.588968 0.362005
0.133806 0.591104 0.369436
0.270466 0.60206 0.391226
0.40415 0.613214 0.413855
0.527352 0.626123 0.436225
0.628916 0.632059 0.455848
0.725734 0.645533 0.48426
0.82533 0.691936 0.550134
0.865568 0.721538 0.589288
0.269383 0.665934 0.394415
0.296407 0.666758 0.39855
0.37615 0.682109 0.418814
0.471763 0.703075 0.440757
0.572168 0.720836 0.464424
0.667124 0.728161 0.487022
0.747372 0.731716 0.509529
0.821653 0.739773 0.545037
0.850889 0.746365 0.574166
0.435737 0.71136 0.444648
0.439399 0.711772 0.444404
0.484611 0.725521 0.45771
0.550637 0.749905 0.483848
0.626566 0.778058 0.513268
0.703944 0.80087 0.542855
0.774578 0.809934 0.57261
0.837629 0.814069 0.602029
0.857893 0.815549 0.615518
0.186679 0.25713 0.5449
0.209705 0.260121 0.546654
0.312749 0.275532 0.554009
0.425406 0.293446 0.556313
0.526085 0.308476 0.553933
0.607935 0.321096 0.548638
0.69929 0.366735 0.562402
0.787579 0.422599 0.586053
0.845533 0.460761 0.598718
0.18613 0.266621 0.531929
0.217304 0.271199 0.536538
0.317723 0.285405 0.545388
0.427192 0.301244 0.552254
0.528038 0.312444 0.552102
0.610452 0.323796 0.5467
0.702754 0.368856 0.562814
0.790845 0.424079 0.586038
0.845899 0.459663 0.597269
0.186847 0.292073 0.470481
0.220737 0.29987 0.481407
0.304204 0.316915 0.499779
0.405997 0.336889 0.519585
0.505653 0.353674 0.529381
0.597345 0.368917 0.539742
0.697108 0.410101 0.561669
0.793744 0.458305 0.586603
0.847059 0.491875 0.601556
0.179294 0.328405 0.427314
0.215351 0.337057 0.440574
0.295308 0.359625 0.467613
0.397833 0.388724 0.496773
0.503517 0.414679 0.523781
0.598444 0.432151 0.540124
0.701183 0.458625 0.560449
0.79823 0.496117 0.581888
0.848722 0.522728 0.597772
0.123125 0.3785 0.412329
0.172351 0.388876 0.423423
0.270878 0.414542 0.451759
0.391791 0.447089 0.48893
0.515297 0.48159 0.529488
0.615061 0.502007 0.548806
0.710399 0.5196 0.562249
0.80322 0.549233 0.583139
0.850477 0.575219 0.599481
0.0606851 0.464118 0.424292
0.11313 0.471031 0.431754
0.235264 0.491188 0.454017
0.375647 0.518685 0.489097
0.520836 0.552666 0.533578
0.633982 0.578897 0.56318
0.73431 0.60972 0.587869
0.818357 0.642664 0.618204
0.857389 0.662394 0.636667
0.063859 0.577096 0.441917
0.0807202 0.578531 0.444694
0.220096 0.590921 0.463523
0.377417 0.610376 0.495018
0.527169 0.633631 0.532372
0.643015 0.651362 0.561944
0.736584 0.671809 0.590585
0.822553 0.713649 0.641215
0.859571 0.738048 0.670512
0.201984 0.663767 0.453712
0.213535 0.663767 0.454292
0.314229 0.677165 0.483619
0.442237 0.699718 0.518074
0.566629 0.720943 0.550546
0.672755 0.733211 0.576471
0.750896 0.740536 0.597513
0.821836 0.753201 0.630808
0.850858 0.764508 0.655741
0.385061 0.706691 0.488792
0.390372 0.706935 0.489189
0.461723 0.725383 0.521309
0.542733 0.754437 0.55697
0.625269 0.784512 0.588998
0.707897 0.805753 0.618357
0.778531 0.815518 0.643778
0.839292 0.819852 0.667842
0.857969 0.820279 0.677317
0.275334 0.322545 0.613108
0.284245 0.325673 0.613214
0.372976 0.343679 0.620264
0.467292 0.36321 0.626932
0.563561 0.387991 0.634241
0.644266 0.401862 0.637675
0.713893 0.415061 0.638926
0.785382 0.476402 0.662684
0.837003 0.543496 0.685649
0.273945 0.324804 0.610971
0.292241 0.328893 0.611688
0.376761 0.345296 0.619486
0.471458 0.365148 0.625788
0.566918 0.388586 0.633616
0.646357 0.401556 0.637156
0.716381 0.415747 0.638483
0.788144 0.478981 0.663478
0.837217 0.543282 0.685283
0.266499 0.349645 0.579522
0.287648 0.354818 0.583047
0.361807 0.373632 0.59765
0.457191 0.395666 0.611612
0.556191 0.419791 0.627176
0.641047 0.436728 0.634409
0.713893 0.454688 0.6421
0.791333 0.519997 0.669825
0.83769 0.573098 0.692515
0.270436 0.386999 0.547463
0.293904 0.391623 0.551278
0.357855 0.410269 0.571054
0.450111 0.436851 0.594064
0.55227 0.465965 0.618067
0.642496 0.489616 0.634821
0.716472 0.511864 0.64799
0.796689 0.563821 0.676326
0.838682 0.60383 0.695674
0.239246 0.425528 0.515999
0.268086 0.430243 0.52311
0.341314 0.449195 0.544244
0.437552 0.479774 0.575921
0.549111 0.515236 0.612314
0.64683 0.54844 0.638437
0.722698 0.570718 0.655818
0.801724 0.606317 0.678691
0.84126 0.630701 0.691035
0.170764 0.479591 0.513527
0.210559 0.482399 0.517296
0.296757 0.498787 0.534524
0.408865 0.525109 0.564706
0.539742 0.567422 0.607721
0.656687 0.608652 0.648066
0.736934 0.633539 0.666728
0.806592 0.654353 0.682139
0.844022 0.667689 0.691066
0.0964065 0.570047 0.529961
0.126848 0.571649 0.530907
0.23566 0.584192 0.542641
0.373526 0.606317 0.56965
0.523674 0.638193 0.609155
0.661265 0.672312 0.65124
0.748684 0.697993 0.679805
0.816999 0.725139 0.705516
0.851698 0.740383 0.717418
0.165667 0.663249 0.536599
0.167041 0.663203 0.536416
0.250446 0.671046 0.548226
0.390906 0.692851 0.579431
0.539879 0.717815 0.617075
0.670451 0.740734 0.653513
0.757504 0.75697 0.681224
0.822965 0.772686 0.708309
0.852872 0.783215 0.724544
0.329961 0.698711 0.538766
0.332174 0.698863 0.538262
0.39646 0.717449 0.557885
0.499245 0.753094 0.597757
0.608331 0.785351 0.645182
0.706828 0.809888 0.680949
0.781872 0.82063 0.707347
0.841962 0.826474 0.727077
0.859709 0.828672 0.732158
0.400214 0.412711 0.67747
0.402472 0.413611 0.677302
0.461585 0.4327 0.683513
0.529976 0.449714 0.689677
0.612116 0.475364 0.697398
0.687572 0.499992 0.703426
0.746487 0.514641 0.707256
0.795834 0.532998 0.71371
0.836896 0.579553 0.73135
0.399222 0.4121 0.676402
0.404135 0.414267 0.676158
0.462821 0.433036 0.683085
0.532097 0.450111 0.68954
0.614801 0.475685 0.697246
0.68954 0.500298 0.703166
0.748043 0.51429 0.706935
0.797589 0.533989 0.713802
0.837079 0.579477 0.731167
0.390265 0.432593 0.672663
0.397238 0.432975 0.672602
0.456077 0.449683 0.679942
0.528298 0.470893 0.688777
0.61268 0.501701 0.700755
0.690684 0.528862 0.711116
0.74931 0.54519 0.716838
0.800305 0.567758 0.725994
0.837522 0.609674 0.740429
0.389364 0.466926 0.662409
0.398917 0.467247 0.662501
0.453269 0.481376 0.671916
0.524636 0.504082 0.683833
0.610971 0.535332 0.701137
0.691936 0.565423 0.716823
0.751766 0.582727 0.724651
0.804364 0.609018 0.736873
0.838376 0.646052 0.748775
0.37908 0.500267 0.638941
0.388861 0.500404 0.638895
0.442725 0.512184 0.650248
0.515908 0.535134 0.670405
0.605341 0.567803 0.694881
0.691402 0.605646 0.717205
0.755001 0.629633 0.729732
0.809354 0.655741 0.742916
0.84094 0.679789 0.754101
0.310445 0.530999 0.621225
0.325246 0.532372 0.620996
0.390127 0.54258 0.628702
0.479149 0.567849 0.650752
0.582864 0.600519 0.682353
0.68658 0.646342 0.714412
0.759503 0.677562 0.734737
0.813382 0.699245 0.74934
0.843397 0.712886 0.757351
0.227832 0.592462 0.620752
0.252262 0.593912 0.621347
0.329717 0.600702 0.630137
0.431647 0.615381 0.646601
0.552422 0.645335 0.677623
0.674647 0.686763 0.714244
0.764187 0.724285 0.741588
0.821698 0.744549 0.756878
0.848432 0.749584 0.761028
0.18175 0.668605 0.623774
0.192844 0.668482 0.623682
0.274144 0.672328 0.6327
0.393347 0.691096 0.651072
0.526589 0.716487 0.681437
0.660029 0.74548 0.715175
0.767819 0.770596 0.745403
0.830823 0.79028 0.76669
0.855787 0.797009 0.773358
0.314534 0.705791 0.62266
0.314702 0.705745 0.622324
0.369558 0.71632 0.63006
0.467506 0.751965 0.65716
0.578195 0.78526 0.691463
0.691112 0.812909 0.726833
0.782635 0.826886 0.757321
0.846433 0.834867 0.777173
0.864057 0.836744 0.780835
0.556649 0.538598 0.749279
0.556283 0.538308 0.749096
0.585336 0.548669 0.749096
0.628687 0.559564 0.752834
0.6822 0.579522 0.75845
0.736965 0.605386 0.7673
0.783658 0.627268 0.773297
0.820676 0.637568 0.77734
0.843122 0.647211 0.781369
0.554543 0.538613 0.748821
0.553994 0.53817 0.748577
0.58613 0.54847 0.748623
0.62974 0.559091 0.752422
0.683879 0.579828 0.758358
0.738552 0.605539 0.767193
0.784878 0.626871 0.773022
0.821683 0.637125 0.777066
0.843046 0.646525 0.780941
0.551598 0.551003 0.753719
0.551278 0.550439 0.753475
0.586328 0.55993 0.754711
0.630533 0.575082 0.758785
0.68571 0.59704 0.765347
0.740505 0.622339 0.772946
0.786694 0.643732 0.777539
0.82298 0.653773 0.783108
0.843168 0.661921 0.784497
0.551232 0.581003 0.757839
0.550927 0.580575 0.757671
0.584863 0.586465 0.758129
0.630503 0.600305 0.763409
0.686351 0.623072 0.770428
0.741894 0.649195 0.778012
0.789059 0.671763 0.785412
0.824887 0.682216 0.79057
0.843656 0.688472 0.792737
0.555474 0.608835 0.753262
0.555184 0.608484 0.75314
0.582025 0.613031 0.753658
0.625971 0.625757 0.760174
0.683543 0.64918 0.770062
0.740993 0.676478 0.779522
0.791409 0.700435 0.788922
0.828061 0.712261 0.794873
0.845518 0.71783 0.797925
0.510842 0.632959 0.735546
0.510674 0.6327 0.735409
0.549249 0.636713 0.737469
0.605081 0.650141 0.748272
0.6692 0.672816 0.761135
0.734813 0.701854 0.777096
0.792462 0.728237 0.791257
0.830747 0.744213 0.799115
0.846632 0.749859 0.801984
0.440009 0.664668 0.727962
0.443046 0.664302 0.727657
0.491127 0.665782 0.728511
0.554498 0.676295 0.73756
0.632822 0.695537 0.752239
0.714931 0.724163 0.772488
0.790234 0.755856 0.792874
0.834836 0.776013 0.803326
0.850904 0.779126 0.806775
0.373419 0.710262 0.71957
0.389563 0.710109 0.720851
0.440909 0.713039 0.724468
0.513085 0.722759 0.735897
0.600748 0.73724 0.752605
0.692912 0.758099 0.773251
0.781888 0.786877 0.795392
0.840879 0.810285 0.808408
0.859739 0.814557 0.812284
0.397864 0.740612 0.714183
0.398184 0.740429 0.713939
0.443778 0.7476 0.72137
0.513695 0.767254 0.73756
0.596872 0.792935 0.755886
0.690242 0.816861 0.777081
0.782025 0.831754 0.798321
0.850507 0.842817 0.815244
0.866529 0.844984 0.820874
