app/src/main/assets/filters/复古夏日.cube
# Created by Desong
LUT_3D_SIZE 33
0.0242161 0.0665751 0.0719463
0.0389105 0.0696727 0.0738079
0.0583963 0.070573 0.0751202
0.084184 0.0762951 0.0772412
0.121294 0.0871443 0.0796063
0.17026 0.0958114 0.083238
0.223423 0.103136 0.0865034
0.277394 0.108263 0.0895857
0.330449 0.113344 0.0916152
0.382605 0.119799 0.0930037
0.432273 0.127001 0.0934768
0.479026 0.1337 0.0914473
0.523415 0.140002 0.0843214
0.564355 0.145205 0.0725872
0.601404 0.149386 0.0580758
0.63505 0.152224 0.0429084
0.665934 0.154711 0.0292363
0.694697 0.157839 0.0182498
0.720943 0.161257 0.0106355
0.74519 0.16492 0.0056611
0.767666 0.168963 0.00277714
0.788525 0.173037 0.00195315
0.807157 0.176837 0.00225834
0.824155 0.180499 0.00404364
0.839628 0.184024 0.00747692
0.853788 0.187381 0.0117952
0.866102 0.190539 0.0172732
0.877211 0.19379 0.0231479
0.887022 0.196933 0.029221
0.895766 0.199863 0.0349584
0.903883 0.20264 0.0408026
0.911177 0.205295 0.0468299
0.918181 0.207797 0.0527962
0.0284581 0.0822461 0.0766155
0.035111 0.0807965 0.0763714
0.0534829 0.0810101 0.0766766
0.081178 0.0847334 0.0766155
0.118257 0.0940108 0.0769055
0.16556 0.10341 0.080705
0.219593 0.112123 0.0851301
0.274846 0.117952 0.0889143
0.330724 0.123354 0.0913252
0.385321 0.130388 0.0930953
0.436652 0.138003 0.0942397
0.484321 0.144991 0.0921645
0.528786 0.150881 0.0843977
0.568872 0.155428 0.072221
0.605783 0.158648 0.0569772
0.639521 0.160937 0.0414588
0.670192 0.163302 0.0276341
0.698787 0.166125 0.0166629
0.724895 0.169162 0.00929274
0.749035 0.172488 0.00437934
0.771252 0.176196 0.00180056
0.791745 0.17998 0.00122072
0.810132 0.18349 0.00148013
0.827039 0.186954 0.00323491
0.84239 0.190311 0.00645457
0.856382 0.193561 0.0108797
0.868452 0.19675 0.0166018
0.879271 0.200122 0.0224765
0.888945 0.203387 0.0286564
0.89749 0.206439 0.0347448
0.905486 0.209247 0.0407263
0.912612 0.211963 0.046891
0.919524 0.214511 0.052842
0.0308537 0.102373 0.0873274
0.034226 0.0957656 0.0823529
0.0472267 0.0958724 0.0817731
0.0728923 0.0976425 0.0799878
0.109071 0.104433 0.0794995
0.153964 0.114794 0.0829175
0.209369 0.125216 0.0883192
0.268055 0.132708 0.092256
0.328008 0.139178 0.0950179
0.384771 0.146105 0.0966506
0.437629 0.153277 0.097734
0.486351 0.15935 0.0951858
0.53106 0.164279 0.0868391
0.571908 0.168307 0.073991
0.609125 0.170916 0.0581674
0.64268 0.172457 0.0420539
0.673533 0.173816 0.0273594
0.701885 0.175753 0.0160983
0.727703 0.17789 0.00843824
0.751797 0.180606 0.00341802
0.773953 0.183825 0.00105287
0.79411 0.187121 0.000686656
0.812375 0.190463 0.0009308
0.829114 0.193851 0.00234989
0.844358 0.197192 0.00546273
0.858259 0.200504 0.00994888
0.870192 0.203723 0.0155947
0.880934 0.207019 0.0216526
0.890547 0.210193 0.0279698
0.899031 0.213199 0.0341039
0.907027 0.216007 0.0401923
0.914061 0.218738 0.0464637
0.920882 0.221332 0.0526436
0.0352941 0.132021 0.104738
0.0340734 0.118624 0.0938277
0.0423133 0.115419 0.0911269
0.0621958 0.11577 0.0886091
0.0955673 0.118578 0.0851606
0.138094 0.127794 0.086305
0.191653 0.140063 0.0916915
0.252506 0.150347 0.0959029
0.317342 0.158389 0.098909
0.378744 0.166308 0.101045
0.434852 0.173434 0.102312
0.485969 0.178836 0.0995804
0.532494 0.182605 0.0910506
0.574273 0.185031 0.0775464
0.611826 0.186114 0.0608072
0.645823 0.186481 0.043595
0.676356 0.187106 0.028275
0.704753 0.188098 0.0161288
0.730587 0.189471 0.00801099
0.75462 0.191394 0.00283818
0.776883 0.193835 0.000534066
0.796948 0.196689 0.000106813
0.815137 0.199557 0.000259403
0.8318 0.202441 0.00141909
0.84686 0.205447 0.00453193
0.860639 0.208591 0.00901808
0.872435 0.211688 0.014847
0.882918 0.214832 0.0209201
0.892424 0.217823 0.0274052
0.900832 0.220844 0.0336919
0.90869 0.223499 0.0396429
0.915679 0.2262 0.0461433
0.922423 0.228794 0.0525521
0.0380713 0.166323 0.122545
0.0361028 0.149325 0.10956
0.0410925 0.142016 0.104799
0.0555734 0.139055 0.100267
0.0822309 0.139269 0.0960403
0.120989 0.144472 0.092958
0.171588 0.156527 0.0948196
0.23122 0.16936 0.0984817
0.297337 0.179797 0.101579
0.36495 0.189609 0.104387
0.42707 0.198367 0.106615
0.482139 0.204059 0.104356
0.532021 0.20705 0.0957656
0.575982 0.208301 0.0821851
0.614618 0.208057 0.0654307
0.649409 0.207019 0.0471351
0.680293 0.205859 0.0300908
0.707927 0.205066 0.0168612
0.733684 0.20473 0.00790417
0.757855 0.205402 0.00247196
0.77998 0.206851 6.10361e-05
0.800015 0.208682 4.57771e-05
0.818051 0.21059 0.000244144
0.834669 0.212863 0.000961318
0.849577 0.215442 0.0039826
0.863096 0.218067 0.00799573
0.874708 0.22092 0.0138399
0.8851 0.223957 0.0201724
0.894453 0.22681 0.0267796
0.9028 0.229877 0.0332799
0.910506 0.232502 0.0394903
0.917449 0.23534 0.0460059
0.924086 0.238071 0.0523842
0.0409094 0.204211 0.140002
0.0404517 0.186038 0.126604
0.0425727 0.175845 0.120867
0.0525521 0.169146 0.115633
0.0736095 0.166644 0.10988
0.106676 0.168566 0.104707
0.151308 0.175784 0.102235
0.208392 0.189837 0.102739
0.273884 0.202441 0.103975
0.345815 0.214908 0.106889
0.414145 0.226413 0.110094
0.474769 0.234119 0.109178
0.528237 0.237797 0.100938
0.574792 0.238849 0.0875105
0.616327 0.237629 0.0706645
0.65211 0.234974 0.0518959
0.683558 0.231846 0.0332952
0.711391 0.22916 0.0187381
0.737362 0.226947 0.00854505
0.761303 0.225757 0.00247196
0.783215 0.225284 0.000106813
0.80322 0.225467 3.0518e-05
0.821103 0.226123 0.000106813
0.837507 0.227329 0.000579843
0.852384 0.229175 0.00334173
0.865614 0.23122 0.00730907
0.877119 0.233677 0.0133211
0.887327 0.236347 0.0198062
0.896544 0.23888 0.0264286
0.904753 0.241596 0.033051
0.912413 0.244053 0.0394141
0.919295 0.246769 0.0459449
0.925887 0.249439 0.052491
0.0419013 0.241779 0.156405
0.0437171 0.227115 0.144427
0.045594 0.215702 0.137407
0.0514382 0.206912 0.132052
0.0677653 0.202167 0.12665
0.0953384 0.201144 0.119997
0.134569 0.20351 0.113924
0.184817 0.21117 0.110369
0.247517 0.226047 0.10869
0.321431 0.241413 0.109499
0.395499 0.256046 0.11249
0.462852 0.267597 0.113497
0.521691 0.273777 0.107424
0.571664 0.275471 0.0944839
0.615091 0.274052 0.0774395
0.652735 0.270863 0.0577707
0.685344 0.266621 0.0379187
0.714519 0.262684 0.0215305
0.740795 0.258732 0.00996414
0.765118 0.255299 0.00288396
0.786862 0.252445 0.000244144
0.806424 0.250202 7.62951e-05
0.824247 0.248508 6.10361e-05
0.840436 0.24773 0.000427253
0.855116 0.247944 0.00299077
0.868238 0.248844 0.00689708
0.879622 0.250446 0.0130922
0.88954 0.252293 0.0195926
0.898573 0.254429 0.0262913
0.906676 0.256779 0.0328374
0.914244 0.25893 0.0395972
0.921126 0.26154 0.0461891
0.927657 0.264088 0.0526741
0.0421454 0.279362 0.172427
0.0447089 0.267887 0.161883
0.0479744 0.257603 0.154025
0.0521553 0.248829 0.148409
0.0636454 0.24213 0.142947
0.0853742 0.238361 0.136599
0.119799 0.238651 0.128939
0.165133 0.241169 0.121553
0.221241 0.248722 0.116594
0.292134 0.26569 0.114137
0.371832 0.284794 0.114611
0.446265 0.300328 0.116365
0.510933 0.310719 0.112871
0.566094 0.315343 0.102419
0.612406 0.315267 0.0863203
0.651896 0.311666 0.0658732
0.685939 0.30721 0.0444038
0.716304 0.302373 0.0260014
0.743725 0.298024 0.0125277
0.768368 0.293385 0.00418097
0.790051 0.289265 0.000411994
0.809567 0.284962 4.57771e-05
0.827085 0.281224 3.0518e-05
0.843046 0.277989 0.000366217
0.85745 0.275914 0.00297551
0.870405 0.275074 0.00686656
0.881544 0.275441 0.0133822
0.89131 0.276097 0.0199588
0.900298 0.277348 0.0267948
0.908354 0.279225 0.0335699
0.915892 0.28098 0.040177
0.922835 0.283284 0.0470436
0.929458 0.285771 0.0539864
0.0433509 0.315847 0.187671
0.0466621 0.307927 0.178515
0.0497597 0.300404 0.171466
0.0529946 0.291341 0.164981
0.0607919 0.284977 0.159167
0.0767224 0.280125 0.153262
0.104662 0.277684 0.145357
0.146304 0.278737 0.136461
0.198856 0.281483 0.127932
0.262821 0.290547 0.121782
0.34136 0.30985 0.118868
0.422644 0.329534 0.118379
0.494575 0.343694 0.11574
0.556146 0.352804 0.10811
0.606928 0.355901 0.0948806
0.649393 0.35404 0.0762341
0.684871 0.350118 0.0546273
0.716716 0.345922 0.0336614
0.745052 0.341115 0.0175937
0.770443 0.336355 0.00764477
0.792157 0.331533 0.00234989
0.811475 0.326253 0.000839246
0.828977 0.321157 0.000411994
0.844511 0.316579 0.00134279
0.858854 0.313344 0.00411994
0.871519 0.311192 0.00807202
0.882673 0.310338 0.014847
0.892317 0.310185 0.0214084
0.901228 0.310124 0.0281071
0.909453 0.311299 0.0353552
0.916945 0.312627 0.0419318
0.923919 0.315007 0.0495308
0.930526 0.317189 0.0568551
0.0461738 0.352682 0.203281
0.0497749 0.347982 0.195743
0.0530709 0.342168 0.189105
0.0564584 0.33521 0.182132
0.0618753 0.329625 0.175906
0.0714733 0.324819 0.170275
0.0917983 0.321645 0.162936
0.127199 0.32018 0.15314
0.176715 0.32105 0.14313
0.237156 0.324193 0.133394
0.309026 0.335439 0.126146
0.390433 0.354437 0.12166
0.470207 0.372625 0.117433
0.540078 0.38587 0.110369
0.596963 0.393652 0.100008
0.643534 0.395392 0.0849317
0.681697 0.393713 0.0659648
0.714794 0.390249 0.0453956
0.744289 0.385977 0.0273442
0.770321 0.38114 0.0148775
0.793103 0.376593 0.00796521
0.812757 0.371099 0.00471504
0.830396 0.365164 0.00389105
0.845914 0.360143 0.00535592
0.859892 0.356008 0.0084535
0.872358 0.352911 0.0129549
0.883299 0.350668 0.0191501
0.892912 0.349645 0.0252232
0.901839 0.349004 0.0318456
0.909895 0.349493 0.0395361
0.917342 0.350698 0.0467689
0.924254 0.352834 0.0549325
0.930877 0.355505 0.063447
0.0505989 0.389334 0.21976
0.0545968 0.386511 0.213413
0.0579995 0.382589 0.20737
0.0614633 0.377676 0.200641
0.065568 0.372824 0.193896
0.0718853 0.368719 0.187884
0.0846876 0.365774 0.181125
0.109514 0.363607 0.172229
0.15317 0.362371 0.160494
0.210956 0.363561 0.14905
0.278904 0.36849 0.138033
0.355673 0.380941 0.128969
0.43801 0.399039 0.120806
0.515938 0.415534 0.111482
0.582055 0.427039 0.100801
0.634592 0.433677 0.088304
0.676844 0.434699 0.0728313
0.711742 0.433478 0.055436
0.741772 0.430106 0.0383001
0.768597 0.426368 0.0248264
0.791959 0.422034 0.0160983
0.812421 0.417334 0.0119326
0.83061 0.41178 0.0109255
0.846418 0.406363 0.0121004
0.860716 0.401556 0.0154726
0.873198 0.397665 0.0201724
0.884092 0.394888 0.0262303
0.893812 0.393378 0.0328985
0.902403 0.392248 0.0395819
0.910369 0.39234 0.0474861
0.917617 0.392859 0.0554513
0.924636 0.394476 0.06421
0.931182 0.396445 0.0734417
0.0570077 0.425559 0.237873
0.0611124 0.424155 0.232212
0.0649882 0.421729 0.226505
0.068574 0.418524 0.220157
0.0718853 0.414618 0.213077
0.0769207 0.411536 0.206546
0.0847791 0.408911 0.199786
0.100542 0.406958 0.191867
0.130465 0.404868 0.181048
0.183734 0.403967 0.167224
0.249958 0.406683 0.154101
0.323842 0.413504 0.141192
0.403876 0.426734 0.128389
0.485145 0.443732 0.115358
0.559808 0.458183 0.101946
0.622141 0.468101 0.0880903
0.670985 0.473487 0.0739605
0.70956 0.474876 0.0589303
0.740795 0.473228 0.0444953
0.767376 0.470329 0.0323033
0.790738 0.46659 0.0236362
0.811292 0.462211 0.0189212
0.829801 0.457572 0.0175784
0.846281 0.452583 0.0187533
0.86096 0.447654 0.0220798
0.873747 0.443961 0.0277256
0.884718 0.441321 0.0345159
0.894713 0.439292 0.0415351
0.903304 0.438041 0.0494698
0.911162 0.437308 0.0576791
0.918471 0.43714 0.0665904
0.925521 0.437583 0.0755474
0.932189 0.438895 0.08542
0.0651255 0.46041 0.257588
0.0700084 0.460685 0.252827
0.0742351 0.459113 0.247501
0.0781567 0.456748 0.241108
0.0820783 0.454429 0.234012
0.0864424 0.452155 0.2271
0.0918288 0.450126 0.219654
0.101701 0.448997 0.212116
0.120241 0.4477 0.20293
0.15787 0.446052 0.189639
0.220676 0.446281 0.173022
0.293355 0.450416 0.157031
0.371008 0.458854 0.141299
0.450599 0.471687 0.124453
0.529915 0.487114 0.107042
0.601587 0.500023 0.0901656
0.660365 0.508797 0.0739147
0.705562 0.513909 0.0586709
0.740353 0.515084 0.0452735
0.767895 0.513558 0.034699
0.791287 0.510719 0.0273136
0.811429 0.50663 0.0234226
0.829831 0.502251 0.0224918
0.84625 0.497383 0.0238346
0.861311 0.492729 0.0273442
0.874113 0.488579 0.0328985
0.885573 0.485924 0.0404059
0.89575 0.483711 0.0483864
0.904479 0.482383 0.0577096
0.912444 0.48127 0.0666819
0.919692 0.480613 0.0764782
0.926757 0.480308 0.0862898
0.933425 0.480385 0.096788
0.0739147 0.492912 0.27863
0.0792554 0.493919 0.274586
0.084062 0.49305 0.269398
0.0888838 0.492012 0.263111
0.0935988 0.490745 0.256077
0.0982376 0.489509 0.248753
0.103105 0.48838 0.240925
0.110552 0.488121 0.233219
0.122515 0.488212 0.224826
0.146334 0.487999 0.213977
0.193362 0.487938 0.197467
0.262272 0.489296 0.177401
0.338933 0.494041 0.158175
0.418311 0.502922 0.139269
0.496147 0.515328 0.118456
0.571725 0.529564 0.0976577
0.64036 0.541238 0.0783703
0.695857 0.549432 0.0602274
0.737194 0.553429 0.04477
0.768795 0.554177 0.0334783
0.7935 0.553017 0.0269474
0.814359 0.550469 0.0250095
0.832212 0.546777 0.0252689
0.848646 0.542321 0.027863
0.863233 0.537301 0.0320439
0.87602 0.532525 0.0381628
0.887205 0.528908 0.0459144
0.897368 0.526574 0.0545357
0.906172 0.524773 0.0648508
0.914412 0.523552 0.0751659
0.921508 0.522042 0.0861067
0.928512 0.521263 0.0968643
0.934997 0.520409 0.108019
0.0831464 0.522927 0.30013
0.0887617 0.524056 0.29633
0.0943465 0.524193 0.291432
0.10013 0.524178 0.285466
0.105653 0.52372 0.278614
0.111299 0.523629 0.271031
0.116823 0.523507 0.262989
0.12369 0.524285 0.255161
0.132448 0.525139 0.246647
0.147768 0.526238 0.237385
0.176181 0.527794 0.224872
0.232166 0.528771 0.204181
0.306752 0.530907 0.180438
0.386358 0.535882 0.158343
0.465049 0.54464 0.13637
0.53991 0.557092 0.111925
0.611597 0.570184 0.0888228
0.677165 0.581094 0.0673991
0.728481 0.588052 0.0483253
0.766476 0.591379 0.0340124
0.794873 0.592035 0.0269017
0.817441 0.591119 0.025391
0.836347 0.588647 0.0272374
0.852628 0.584909 0.030808
0.86685 0.580087 0.036347
0.879454 0.575174 0.0437476
0.890425 0.571069 0.0522011
0.900191 0.56788 0.061738
0.908766 0.565408 0.0729381
0.91696 0.563882 0.0843061
0.923949 0.561929 0.0966049
0.93077 0.560952 0.108293
0.937026 0.559548 0.119753
0.0924544 0.550149 0.320836
0.0985275 0.551614 0.317388
0.104677 0.552544 0.312932
0.111177 0.553277 0.307546
0.117418 0.553368 0.30071
0.124178 0.554162 0.29308
0.130892 0.554757 0.284672
0.137758 0.556039 0.276509
0.145602 0.557626 0.267903
0.157031 0.559701 0.259037
0.174365 0.562005 0.248768
0.210147 0.564095 0.233402
0.273121 0.565347 0.209033
0.352178 0.568231 0.182773
0.433753 0.574441 0.158907
0.508797 0.584222 0.133715
0.579599 0.596643 0.10692
0.649729 0.609705 0.0816968
0.711055 0.619135 0.0581979
0.758022 0.624979 0.0396735
0.792599 0.627512 0.0288548
0.818723 0.627832 0.0260777
0.839643 0.626871 0.0285191
0.856428 0.624002 0.0338293
0.871061 0.620096 0.041062
0.883726 0.615732 0.0495918
0.894881 0.611383 0.0596628
0.904265 0.607569 0.0704509
0.912657 0.6047 0.0821546
0.92047 0.602396 0.0944839
0.927214 0.60029 0.107347
0.933837 0.598596 0.120272
0.939986 0.597025 0.132418
0.101793 0.574975 0.340215
0.108446 0.576593 0.337011
0.115206 0.577585 0.332723
0.122255 0.578576 0.327581
0.129274 0.579217 0.321141
0.137133 0.580468 0.313497
0.144717 0.58143 0.304921
0.152483 0.582986 0.296193
0.160678 0.585107 0.287343
0.170047 0.587304 0.27834
0.182467 0.590066 0.268894
0.204135 0.592874 0.257603
0.245518 0.596033 0.240162
0.314931 0.598367 0.213611
0.3991 0.603174 0.185306
0.479133 0.611078 0.158968
0.550347 0.622324 0.131685
0.618952 0.635584 0.103243
0.685389 0.647272 0.0756085
0.741695 0.655604 0.0511025
0.785061 0.660792 0.0344396
0.817304 0.662913 0.0280919
0.841093 0.662623 0.0301061
0.859342 0.660578 0.0372625
0.874647 0.657679 0.0473335
0.887877 0.653605 0.0575723
0.899611 0.649531 0.0684672
0.909102 0.645502 0.0790723
0.917601 0.642298 0.0911574
0.924956 0.639338 0.104005
0.931701 0.636896 0.117372
0.937865 0.634455 0.130358
0.943847 0.632639 0.14345
0.111788 0.59704 0.35758
0.118532 0.598276 0.354391
0.125734 0.599283 0.350317
0.132921 0.600046 0.345098
0.140719 0.601129 0.339147
0.14963 0.602899 0.331884
0.158083 0.604166 0.323278
0.166827 0.60592 0.314366
0.175631 0.608209 0.305226
0.184527 0.610697 0.296162
0.195514 0.613977 0.287144
0.210407 0.617456 0.277684
0.235355 0.62182 0.265766
0.284703 0.625788 0.245365
0.361105 0.630213 0.216449
0.447135 0.636851 0.186145
0.523552 0.646723 0.158801
0.591394 0.659434 0.130907
0.657252 0.672648 0.100633
0.71902 0.68336 0.0705882
0.770764 0.691157 0.0465095
0.810727 0.695674 0.0334783
0.839551 0.696422 0.0323186
0.860883 0.694987 0.0399786
0.877485 0.692485 0.0520027
0.891279 0.688792 0.0649271
0.903441 0.684901 0.0776989
0.913619 0.68098 0.0892958
0.922576 0.677775 0.100999
0.929992 0.674327 0.113436
0.936843 0.671473 0.12665
0.942855 0.668437 0.13933
0.948608 0.665995 0.152514
0.121813 0.615991 0.372519
0.128756 0.617121 0.369543
0.135927 0.618021 0.365545
0.143496 0.618982 0.360739
0.15201 0.620432 0.355276
0.161196 0.622293 0.348333
0.170687 0.62417 0.340246
0.180224 0.626215 0.331533
0.189792 0.628687 0.322271
0.199634 0.631662 0.313359
0.209934 0.635111 0.304662
0.222416 0.639063 0.295674
0.239948 0.644053 0.286381
0.270085 0.649317 0.27274
0.32752 0.65481 0.24918
0.409079 0.661265 0.217517
0.49427 0.670207 0.186664
0.566491 0.681498 0.159838
0.631434 0.69482 0.131197
0.693843 0.707652 0.0988022
0.750835 0.717357 0.0668803
0.798215 0.724422 0.0450904
0.833799 0.727932 0.0380255
0.860166 0.727962 0.0429541
0.87921 0.725368 0.0554818
0.89395 0.721828 0.0708171
0.906386 0.717861 0.0859846
0.917006 0.713985 0.0996719
0.926467 0.710521 0.112657
0.934417 0.706722 0.1252
0.941512 0.703563 0.137819
0.94757 0.699977 0.149462
0.953338 0.697063 0.161837
0.131853 0.632761 0.385702
0.138903 0.633768 0.382681
0.146227 0.634913 0.379278
0.154116 0.63621 0.375174
0.162661 0.637781 0.370077
0.172488 0.64007 0.363684
0.18265 0.642329 0.356085
0.192859 0.644694 0.347814
0.203418 0.647639 0.338994
0.213794 0.65069 0.330129
0.22443 0.654322 0.321691
0.236316 0.658473 0.313054
0.251102 0.66363 0.304662
0.271489 0.669276 0.29453
0.307851 0.676158 0.278492
0.373297 0.683406 0.251179
0.458106 0.692027 0.217731
0.539834 0.7028 0.188449
0.608194 0.715328 0.162142
0.670237 0.728939 0.132235
0.728786 0.741085 0.0979934
0.781125 0.750134 0.0671244
0.822995 0.755413 0.0505837
0.855039 0.75729 0.0495766
0.87776 0.755566 0.0598154
0.895155 0.752575 0.0742504
0.90866 0.748714 0.0907149
0.919783 0.745037 0.107012
0.929427 0.741344 0.122194
0.937881 0.737453 0.136721
0.945342 0.733837 0.150668
0.951675 0.730159 0.162615
0.95761 0.726879 0.174197
0.142214 0.648234 0.397314
0.149187 0.649454 0.394858
0.156786 0.650919 0.39202
0.164752 0.652369 0.388281
0.173556 0.654169 0.383703
0.183581 0.656748 0.378027
0.194156 0.659434 0.371069
0.204929 0.662135 0.363317
0.216281 0.6654 0.355032
0.227253 0.668635 0.346426
0.238727 0.672374 0.338231
0.250324 0.676234 0.329732
0.264485 0.681407 0.321843
0.281361 0.687007 0.313024
0.305943 0.693751 0.301411
0.350195 0.702007 0.281559
0.421912 0.710979 0.250935
0.50753 0.72163 0.218479
0.583963 0.734096 0.192477
0.648081 0.747433 0.1664
0.707042 0.761379 0.135531
0.761563 0.772595 0.100893
0.807706 0.7794 0.0739147
0.845014 0.78265 0.0640116
0.872831 0.782895 0.0681163
0.893751 0.780911 0.0793927
0.909438 0.777554 0.0945144
0.921767 0.773983 0.111192
0.931777 0.769894 0.12726
0.940719 0.76611 0.143847
0.948196 0.76199 0.158862
0.954971 0.758236 0.173022
0.960952 0.754452 0.185534
0.152544 0.66305 0.408042
0.159609 0.664424 0.406027
0.166934 0.665904 0.403464
0.175143 0.667674 0.400275
0.18378 0.669535 0.39617
0.193896 0.672312 0.391226
0.204807 0.675334 0.384939
0.216007 0.678187 0.377783
0.227893 0.681712 0.370184
0.239689 0.685176 0.36199
0.251804 0.688853 0.354116
0.263935 0.692729 0.346014
0.277562 0.697337 0.338262
0.293202 0.702785 0.330007
0.313069 0.709163 0.320317
0.34284 0.71693 0.305913
0.395117 0.726619 0.281651
0.472633 0.737697 0.249882
0.555169 0.750362 0.221744
0.625559 0.763745 0.197986
0.686564 0.778363 0.171328
0.742153 0.79205 0.139559
0.790921 0.801419 0.107622
0.832029 0.805859 0.0872511
0.864759 0.807157 0.0829328
0.88957 0.806516 0.0906081
0.908171 0.804135 0.101808
0.922225 0.800855 0.115633
0.933532 0.796933 0.131792
0.94284 0.792859 0.147677
0.950668 0.788556 0.163027
0.9579 0.784787 0.178378
0.963958 0.780529 0.19237
0.162509 0.677104 0.417746
0.169436 0.678508 0.416022
0.176822 0.680049 0.413748
0.18471 0.68188 0.411017
0.193408 0.684016 0.407614
0.203586 0.686885 0.403189
0.214481 0.689967 0.397482
0.226246 0.693339 0.391348
0.238407 0.696818 0.383993
0.250813 0.700267 0.376287
0.263645 0.704021 0.368887
0.276417 0.707851 0.361135
0.290211 0.712444 0.353979
0.305119 0.717403 0.346136
0.32282 0.723262 0.337179
0.34612 0.730465 0.325765
0.383459 0.739757 0.307012
0.443824 0.751171 0.279545
0.522713 0.764523 0.250858
0.599649 0.778317 0.227268
0.66537 0.792645 0.204486
0.722652 0.807294 0.176745
0.773541 0.819364 0.146517
0.817655 0.826291 0.119722
0.853574 0.828687 0.106142
0.882216 0.828977 0.106538
0.904387 0.828321 0.114305
0.921019 0.8262 0.125536
0.933852 0.822934 0.139513
0.943862 0.818524 0.15462
0.952483 0.814282 0.169589
0.960098 0.810208 0.184192
0.96672 0.806058 0.197711
0.17203 0.690394 0.426383
0.178897 0.691981 0.425086
0.186084 0.693507 0.423224
0.19382 0.695262 0.420829
0.202472 0.697475 0.417929
0.212573 0.700465 0.414191
0.223697 0.703685 0.409339
0.235386 0.706996 0.403677
0.248249 0.710567 0.39707
0.261341 0.71426 0.389914
0.274556 0.717952 0.382834
0.287953 0.721798 0.375372
0.301793 0.726146 0.368521
0.316487 0.731029 0.361379
0.333028 0.736446 0.352911
0.352773 0.742824 0.342962
0.380697 0.751003 0.328527
0.427161 0.762127 0.305562
0.493355 0.77557 0.278676
0.570336 0.789914 0.254688
0.641428 0.804669 0.234546
0.702739 0.81973 0.211307
0.756542 0.833936 0.18352
0.802762 0.843763 0.156344
0.841337 0.84828 0.1364
0.872786 0.849515 0.128985
0.898436 0.8495 0.13193
0.918441 0.848707 0.140047
0.933257 0.846738 0.151339
0.944503 0.843427 0.164782
0.953811 0.839033 0.17966
0.961883 0.834791 0.194339
0.968887 0.830472 0.206683
0.181323 0.703258 0.434348
0.188174 0.704814 0.433295
0.195361 0.706432 0.431662
0.202945 0.708141 0.429572
0.211353 0.710277 0.427131
0.221607 0.713329 0.423987
0.232547 0.716426 0.41944
0.244556 0.719966 0.414755
0.25745 0.723491 0.408576
0.270771 0.727123 0.401968
0.284489 0.730922 0.395392
0.297917 0.7346 0.38819
0.312261 0.739116 0.381903
0.326543 0.743633 0.375067
0.342794 0.749004 0.367773
0.3608 0.754833 0.358862
0.383993 0.761959 0.347158
0.419532 0.771496 0.328511
0.473075 0.784329 0.304326
0.541497 0.799115 0.28043
0.614511 0.814618 0.261234
0.68069 0.830335 0.242496
0.738323 0.845777 0.219104
0.788144 0.858427 0.19263
0.830045 0.865812 0.169299
0.863279 0.868391 0.156939
0.890745 0.86923 0.154955
0.913573 0.869017 0.15903
0.931105 0.868284 0.166735
0.944518 0.866423 0.177432
0.95494 0.863325 0.191562
0.963272 0.859052 0.206455
0.970642 0.854627 0.220127
0.190372 0.71548 0.441596
0.197223 0.717113 0.440635
0.204349 0.718761 0.439338
0.211826 0.72047 0.437659
0.220188 0.722667 0.435798
0.230121 0.72546 0.432731
0.241199 0.728664 0.428901
0.25301 0.732097 0.424704
0.266224 0.735729 0.41912
0.279789 0.739422 0.413062
0.293645 0.743221 0.406836
0.307378 0.74696 0.400275
0.321752 0.751431 0.394263
0.336217 0.755932 0.387945
0.351797 0.760983 0.381247
0.36936 0.766735 0.373663
0.389883 0.773053 0.363699
0.418082 0.780819 0.348959
0.461616 0.792065 0.327398
0.519844 0.80621 0.303914
0.587427 0.822248 0.285145
0.655772 0.838651 0.269398
0.717784 0.854917 0.250919
0.77232 0.869657 0.227695
0.817517 0.880156 0.2038
0.8542 0.885405 0.186694
0.883574 0.887251 0.180117
0.907515 0.887907 0.181903
0.927153 0.887892 0.186664
0.942962 0.887205 0.194385
0.955184 0.88539 0.205005
0.964446 0.882094 0.219059
0.972229 0.877821 0.234134
0.198917 0.72697 0.447852
0.205692 0.728496 0.447105
0.212772 0.730144 0.446113
0.220172 0.731868 0.444633
0.22855 0.734051 0.442878
0.238514 0.736889 0.440513
0.249317 0.739971 0.437064
0.261067 0.743481 0.433524
0.273991 0.746944 0.428336
0.287739 0.750774 0.422843
0.301625 0.754574 0.41709
0.31577 0.758633 0.411032
0.330419 0.763088 0.405478
0.345083 0.76762 0.399496
0.360449 0.772625 0.393622
0.377111 0.778012 0.386831
0.396475 0.783841 0.3785
0.42005 0.790143 0.366232
0.455543 0.799237 0.34815
