app/src/main/assets/filters/复古夏日.cube
# Created by Desong
LUT_3D_SIZE 5
0.0242161 0.0665751 0.0719463
0.330449 0.113344 0.0916152
0.665934 0.154711 0.0292363
0.839628 0.184024 0.00747692
0.918181 0.207797 0.0527962
0.0433509 0.315847 0.187671
0.198856 0.281483 0.127932
0.684871 0.350118 0.0546273
0.858854 0.313344 0.00411994
0.930526 0.317189 0.0568551
0.101793 0.574975 0.340215
0.160678 0.585107 0.287343
0.550347 0.622324 0.131685
0.874647 0.657679 0.0473335
0.943847 0.632639 0.14345
0.181323 0.703258 0.434348
0.25745 0.723491 0.408576
0.383993 0.761959 0.347158
0.830045 0.865812 0.169299
0.970642 0.854627 0.220127
0.249882 0.792752 0.48188
0.321614 0.812543 0.4757
0.439155 0.84387 0.448295
0.717418 0.918441 0.376104
0.961501 0.970672 0.369131
0.103136 0.11281 0.309468
0.30576 0.134264 0.277134
0.669367 0.18117 0.242573
0.834974 0.1794 0.154467
0.913115 0.204868 0.171298
0.0462196 0.297337 0.357961
0.253285 0.290547 0.324605
0.685695 0.337865 0.285405
0.85626 0.294255 0.157137
0.934707 0.293095 0.169451
0.080705 0.572717 0.483543
0.13106 0.58555 0.465019
0.586954 0.621759 0.321965
0.864912 0.64242 0.230304
0.945846 0.622889 0.245121
0.169162 0.706218 0.545724
0.234455 0.723384 0.534264
0.391302 0.775753 0.492851
0.828534 0.849775 0.339132
0.969757 0.852003 0.328679
0.231632 0.78883 0.585534
0.304646 0.809232 0.577462
0.413153 0.843427 0.569741
0.726177 0.922179 0.483528
0.963897 0.970703 0.44712
0.211795 0.180117 0.602014
0.327398 0.193881 0.597894
0.640223 0.20441 0.545754
0.820676 0.21796 0.47985
0.906615 0.274174 0.495247
0.117174 0.275578 0.631647
0.261128 0.299153 0.627207
0.643854 0.32932 0.566934
0.845029 0.367468 0.536889
0.928725 0.420203 0.558434
0.0639811 0.578439 0.642771
0.1149 0.591623 0.657923
0.632105 0.628702 0.656687
0.865644 0.633844 0.628428
0.94754 0.608179 0.597009
0.174701 0.713893 0.664195
0.226322 0.728115 0.67425
0.454994 0.794903 0.708568
0.826795 0.830884 0.64976
0.960754 0.833997 0.628153
0.213123 0.783841 0.675471
0.271046 0.797909 0.685969
0.424353 0.847288 0.715709
0.735317 0.929778 0.705058
0.960342 0.955886 0.668559
0.292851 0.232486 0.749218
0.381018 0.24477 0.746822
0.634653 0.243015 0.733166
0.823957 0.260395 0.736202
0.909102 0.317189 0.72784
0.202564 0.276967 0.805539
0.314748 0.296117 0.799969
0.66482 0.321401 0.777737
0.853819 0.38143 0.777798
0.933928 0.461997 0.77818
0.0896315 0.603616 0.858747
0.211749 0.602731 0.853376
0.63122 0.617044 0.833173
0.871733 0.646448 0.823102
0.95523 0.670954 0.817304
0.17995 0.753964 0.797299
0.234485 0.771878 0.813977
0.450004 0.810697 0.850889
0.853834 0.835004 0.849149
0.969909 0.832593 0.833677
0.246159 0.807477 0.773571
0.294865 0.816312 0.780453
0.398062 0.843076 0.802045
0.744564 0.931533 0.869459
0.965255 0.954498 0.858
0.332738 0.26978 0.838804
0.419684 0.283497 0.834577
0.660456 0.279347 0.828336
0.839704 0.309056 0.837674
0.924498 0.388968 0.852567
0.27274 0.322393 0.880629
0.390784 0.337942 0.872633
0.68687 0.345892 0.854658
0.863844 0.405997 0.865904
0.936614 0.499077 0.872572
0.220356 0.635767 0.955276
0.334051 0.635996 0.953124
0.692287 0.641611 0.937041
0.894713 0.645045 0.926543
0.961563 0.674174 0.914122
0.148348 0.801465 0.920989
0.200107 0.812894 0.934752
0.475715 0.831006 0.967788
0.85214 0.834546 0.95201
0.971603 0.844785 0.947707
0.275929 0.842451 0.868467
0.305943 0.841169 0.867704
0.3953 0.864317 0.891463
0.743175 0.935912 0.96231
0.967865 0.95613 0.967742
