app/src/main/assets/filters/复古夏日.cube
# Created by Desong
LUT_3D_SIZE 9
0.0242161 0.0665751 0.0719463
0.121294 0.0871443 0.0796063
0.330449 0.113344 0.0916152
0.523415 0.140002 0.0843214
0.665934 0.154711 0.0292363
0.767666 0.168963 0.00277714
0.839628 0.184024 0.00747692
0.887022 0.196933 0.029221
0.918181 0.207797 0.0527962
0.0380713 0.166323 0.122545
0.0822309 0.139269 0.0960403
0.297337 0.179797 0.101579
0.532021 0.20705 0.0957656
0.680293 0.205859 0.0300908
0.77998 0.206851 6.10361e-05
0.849577 0.215442 0.0039826
0.894453 0.22681 0.0267796
0.924086 0.238071 0.0523842
0.0433509 0.315847 0.187671
0.0607919 0.284977 0.159167
0.198856 0.281483 0.127932
0.494575 0.343694 0.11574
0.684871 0.350118 0.0546273
0.792157 0.331533 0.00234989
0.858854 0.313344 0.00411994
0.901228 0.310124 0.0281071
0.930526 0.317189 0.0568551
0.0651255 0.46041 0.257588
0.0820783 0.454429 0.234012
0.120241 0.4477 0.20293
0.371008 0.458854 0.141299
0.660365 0.508797 0.0739147
0.791287 0.510719 0.0273136
0.861311 0.492729 0.0273442
0.904479 0.482383 0.0577096
0.933425 0.480385 0.096788
0.101793 0.574975 0.340215
0.129274 0.579217 0.321141
0.160678 0.585107 0.287343
0.245518 0.596033 0.240162
0.550347 0.622324 0.131685
0.785061 0.660792 0.0344396
0.874647 0.657679 0.0473335
0.917601 0.642298 0.0911574
0.943847 0.632639 0.14345
0.142214 0.648234 0.397314
0.173556 0.654169 0.383703
0.216281 0.6654 0.355032
0.264485 0.681407 0.321843
0.421912 0.710979 0.250935
0.707042 0.761379 0.135531
0.872831 0.782895 0.0681163
0.931777 0.769894 0.12726
0.960952 0.754452 0.185534
0.181323 0.703258 0.434348
0.211353 0.710277 0.427131
0.25745 0.723491 0.408576
0.312261 0.739116 0.381903
0.383993 0.761959 0.347158
0.614511 0.814618 0.261234
0.830045 0.865812 0.169299
0.931105 0.868284 0.166735
0.970642 0.854627 0.220127
0.215839 0.74902 0.459388
0.245411 0.756466 0.456413
0.289815 0.769192 0.445212
0.346166 0.785565 0.426459
0.410025 0.804959 0.403983
0.542428 0.837644 0.345022
0.773892 0.905333 0.29427
0.913985 0.932952 0.254276
0.973022 0.933059 0.287938
0.249882 0.792752 0.48188
0.278843 0.800015 0.480964
0.321614 0.812543 0.4757
0.377508 0.827298 0.462806
0.439155 0.84387 0.448295
0.53402 0.863005 0.409354
0.717418 0.918441 0.376104
0.892378 0.965896 0.344488
0.961501 0.970672 0.369131
0.0479286 0.0788281 0.139101
0.133501 0.0869917 0.132158
0.321263 0.120851 0.146899
0.513008 0.147372 0.147738
0.662303 0.158968 0.0848859
0.765988 0.166323 0.0417334
0.838117 0.178958 0.0462196
0.885588 0.192615 0.06804
0.917128 0.206058 0.0915541
0.038529 0.154589 0.174975
0.0983597 0.135149 0.145602
0.301839 0.179461 0.157839
0.525521 0.205463 0.156939
0.673823 0.206424 0.0879835
0.77763 0.198596 0.0332647
0.849882 0.205661 0.0374151
0.894347 0.219928 0.06215
0.923629 0.23444 0.0890822
0.0431983 0.312566 0.261387
0.0635386 0.28751 0.223774
0.228077 0.285985 0.180652
0.501778 0.338598 0.169802
0.681041 0.344747 0.115114
0.79089 0.318959 0.041001
0.862394 0.292393 0.0337835
0.905455 0.287694 0.0588998
0.932525 0.29929 0.0912184
0.0579995 0.462165 0.329107
0.0775158 0.459403 0.301488
0.131746 0.448432 0.25243
0.402136 0.461357 0.182635
0.661952 0.502922 0.127443
0.788678 0.501717 0.0767376
0.863737 0.482277 0.064332
0.907744 0.468299 0.0895857
0.934951 0.467597 0.128786
0.0915084 0.576226 0.398337
0.117708 0.580789 0.379889
0.152789 0.585138 0.342901
0.270207 0.595911 0.27422
0.572091 0.624613 0.16907
0.785489 0.656718 0.0924849
0.874632 0.654673 0.0944381
0.918685 0.6392 0.130465
0.94432 0.629114 0.17641
0.135607 0.650401 0.442664
0.163806 0.654734 0.430396
0.204929 0.664622 0.406729
0.260945 0.682002 0.368475
0.454002 0.713863 0.27924
0.717556 0.760708 0.175708
0.872145 0.779324 0.123568
0.932097 0.768643 0.164157
0.962005 0.753857 0.213153
0.179538 0.705013 0.470176
0.206394 0.710201 0.463737
0.246662 0.72195 0.451148
0.305623 0.739666 0.426062
0.38967 0.766094 0.386755
0.634333 0.817716 0.293111
0.833265 0.86244 0.208362
0.930037 0.864836 0.203403
0.971389 0.855833 0.245426
0.216388 0.750942 0.491432
0.243854 0.756771 0.487327
0.281895 0.768017 0.480934
0.337728 0.78587 0.466926
0.406958 0.806165 0.444434
0.555093 0.842435 0.378164
0.783261 0.907103 0.322576
0.915923 0.932326 0.284794
0.973968 0.933776 0.313603
0.248127 0.792752 0.515877
0.277729 0.800122 0.511849
0.316228 0.81178 0.508125
0.369451 0.826383 0.500038
0.432486 0.844068 0.486122
0.540398 0.865736 0.442939
0.724727 0.920287 0.402274
0.893904 0.966293 0.368505
0.962661 0.971328 0.391196
0.103136 0.11281 0.309468
0.159442 0.116457 0.295674
0.30576 0.134264 0.277134
0.524269 0.168093 0.272923
0.669367 0.18117 0.242573
0.764538 0.176883 0.180301
0.834974 0.1794 0.154467
0.881605 0.190677 0.157931
0.913115 0.204868 0.171298
0.0710765 0.144335 0.285969
0.123827 0.147387 0.278843
0.284443 0.176761 0.279637
0.525093 0.216541 0.289693
0.67837 0.228641 0.257374
0.77171 0.210361 0.18352
0.84239 0.205951 0.152804
0.889815 0.215839 0.156847
0.919829 0.231357 0.172656
0.0462196 0.297337 0.357961
0.077409 0.283619 0.340291
0.253285 0.290547 0.324605
0.516686 0.32929 0.323201
0.685695 0.337865 0.285405
0.784146 0.308644 0.196338
0.85626 0.294255 0.157137
0.906371 0.285328 0.152789
0.934707 0.293095 0.169451
0.0518502 0.461326 0.427802
0.0695506 0.459083 0.418921
0.151919 0.44799 0.384833
0.437079 0.467369 0.333593
0.665782 0.496483 0.296117
0.782742 0.485512 0.236057
0.858289 0.472053 0.190036
0.910689 0.45861 0.187961
0.93962 0.453925 0.200809
0.080705 0.572717 0.483543
0.102113 0.578744 0.48278
0.13106 0.58555 0.465019
0.305241 0.595331 0.401251
0.586954 0.621759 0.321965
0.776883 0.64419 0.266758
0.864912 0.64242 0.230304
0.917174 0.63331 0.233814
0.945846 0.622889 0.245121
0.123644 0.649744 0.524804
0.149355 0.656397 0.522408
0.184405 0.66688 0.511986
0.243137 0.686336 0.489509
0.479927 0.716838 0.397528
0.713756 0.746197 0.3187
0.859556 0.761593 0.272236
0.928466 0.759838 0.271489
0.9617 0.751247 0.281682
0.169162 0.706218 0.545724
0.196323 0.712337 0.542306
0.234455 0.723384 0.534264
0.28481 0.740291 0.524102
0.391302 0.775753 0.492851
0.647669 0.817258 0.398001
0.828534 0.849775 0.339132
0.925566 0.856031 0.316945
0.969757 0.852003 0.328679
0.204425 0.750637 0.563043
0.233326 0.756878 0.559152
0.273762 0.768719 0.552697
0.322072 0.785916 0.546944
0.389807 0.807889 0.536843
0.560327 0.849287 0.477394
0.785779 0.902144 0.415717
0.914839 0.926009 0.382055
0.97322 0.930251 0.389197
0.231632 0.78883 0.585534
0.262242 0.795911 0.58233
0.304646 0.809232 0.577462
0.355123 0.826032 0.572854
0.413153 0.843427 0.569741
0.54023 0.872602 0.532204
0.726177 0.922179 0.483528
0.896101 0.964553 0.435966
0.963897 0.970703 0.44712
0.164355 0.151415 0.483314
0.210422 0.159243 0.481422
0.313817 0.167605 0.466361
0.499001 0.181765 0.420127
0.668421 0.200626 0.375555
0.764965 0.199878 0.341009
0.831479 0.204501 0.322316
0.8804 0.223056 0.330922
0.913115 0.244511 0.344579
0.111345 0.166552 0.485954
0.162646 0.175692 0.481544
0.284031 0.195239 0.463615
0.489601 0.214572 0.42182
0.670222 0.239582 0.385855
0.770916 0.246799 0.356756
0.837995 0.25211 0.340108
0.886442 0.265049 0.346761
0.918257 0.280751 0.358816
0.0696422 0.269154 0.488869
0.114824 0.275731 0.491569
0.246876 0.289052 0.483925
0.483421 0.318791 0.463081
0.677531 0.348318 0.443442
0.781796 0.353079 0.415351
0.847074 0.340627 0.377111
0.895338 0.338888 0.370367
0.927291 0.346563 0.376532
0.0418708 0.449699 0.523003
0.0607919 0.448142 0.522957
0.161196 0.443 0.515846
0.451072 0.467247 0.507851
0.668208 0.492958 0.489937
0.789014 0.495338 0.469261
0.857832 0.469825 0.420386
0.905913 0.453498 0.39968
0.937957 0.453162 0.400198
0.0807355 0.575479 0.564263
0.100786 0.581155 0.567788
0.129564 0.586847 0.567163
0.360128 0.598886 0.545815
0.615946 0.626413 0.5075
0.772427 0.639185 0.479515
0.858778 0.629068 0.448249
0.909819 0.615641 0.430228
0.943374 0.608103 0.427558
0.121981 0.650568 0.591531
0.145525 0.65684 0.596185
0.176623 0.666957 0.599054
0.264622 0.696895 0.59997
0.529183 0.7205 0.548333
0.722148 0.740047 0.502556
0.853681 0.751751 0.471305
0.918563 0.747982 0.451575
0.955718 0.739696 0.445167
0.165179 0.706447 0.609049
0.1897 0.712139 0.612665
0.222538 0.722637 0.615396
0.281285 0.744961 0.618769
0.413092 0.790051 0.612055
0.662684 0.815076 0.544671
0.819532 0.833616 0.507378
0.915465 0.841199 0.490669
0.964767 0.841016 0.493309
0.198764 0.75079 0.622705
0.22472 0.756603 0.625742
0.260288 0.767315 0.628733
0.308064 0.784466 0.631785
0.392035 0.813458 0.631312
0.571313 0.862638 0.60061
0.784344 0.891188 0.545007
0.903563 0.908904 0.521508
0.968429 0.917342 0.528878
0.220218 0.784772 0.636927
0.248005 0.791272 0.639643
0.286275 0.804593 0.644953
0.334707 0.8206 0.648722
0.398703 0.841047 0.647608
0.538094 0.880568 0.62945
0.726833 0.923354 0.593744
0.890974 0.956161 0.554269
0.963623 0.965881 0.558633
0.211795 0.180117 0.602014
0.255497 0.186557 0.602029
0.327398 0.193881 0.597894
0.488777 0.203494 0.575372
0.640223 0.20441 0.545754
0.750973 0.208591 0.500725
0.820676 0.21796 0.47985
0.870695 0.244297 0.482902
0.906615 0.274174 0.495247
0.170825 0.19237 0.620508
0.214664 0.200534 0.618875
0.304494 0.215381 0.613642
0.490028 0.229603 0.586618
0.644312 0.231449 0.550271
0.759823 0.242283 0.510216
0.832151 0.266224 0.49575
0.882582 0.30103 0.505623
0.917144 0.333715 0.5243
0.117174 0.275578 0.631647
0.16022 0.284108 0.632059
0.261128 0.299153 0.627207
0.465904 0.320516 0.605798
0.643854 0.32932 0.566934
0.770611 0.34435 0.544076
0.845029 0.367468 0.536889
0.894102 0.395529 0.545586
0.928725 0.420203 0.558434
0.0397498 0.430823 0.652033
0.0766461 0.434745 0.651865
0.1897 0.43563 0.643519
0.440009 0.459236 0.63949
0.652903 0.480552 0.618814
0.785077 0.498573 0.612924
0.859892 0.512383 0.604089
0.907454 0.515679 0.593484
0.939757 0.52105 0.593027
0.0639811 0.578439 0.642771
0.0815747 0.584741 0.649851
0.1149 0.591623 0.657923
0.357412 0.593271 0.652461
0.632105 0.628702 0.656687
0.777417 0.633982 0.639689
0.865644 0.633844 0.628428
0.917052 0.621515 0.612421
0.94754 0.608179 0.597009
0.133974 0.662501 0.658824
0.157687 0.668574 0.663279
0.187366 0.678218 0.669779
0.273854 0.700359 0.683986
0.563821 0.724376 0.675517
0.746227 0.742931 0.651698
0.853712 0.74789 0.62739
0.918196 0.741192 0.606256
0.955825 0.729671 0.600122
0.174701 0.713893 0.664195
0.197299 0.718868 0.66775
0.226322 0.728115 0.67425
0.285771 0.749844 0.688624
0.454994 0.794903 0.708568
0.696254 0.819791 0.680262
0.826795 0.830884 0.64976
0.913191 0.837461 0.633478
0.960754 0.833997 0.628153
0.198245 0.753796 0.669139
0.222614 0.758694 0.672969
0.255085 0.767788 0.679393
0.30396 0.784573 0.690852
0.430426 0.826276 0.713481
0.599573 0.872587 0.715099
0.796063 0.889876 0.675074
0.901717 0.901259 0.654246
0.962951 0.906035 0.64976
0.213123 0.783841 0.675471
0.238087 0.788128 0.678645
0.271046 0.797909 0.685969
0.320638 0.814359 0.696544
0.424353 0.847288 0.715709
0.558541 0.888197 0.717266
0.735317 0.929778 0.705058
0.887282 0.947204 0.671489
0.960342 0.955886 0.668559
0.257435 0.206592 0.684779
0.29723 0.21236 0.685481
0.355077 0.219242 0.683848
0.485969 0.227832 0.673198
0.634043 0.224277 0.664454
0.74313 0.226123 0.650309
0.817563 0.234363 0.630976
0.868345 0.254536 0.622614
0.905669 0.292729 0.626291
0.226368 0.223819 0.707851
0.267094 0.229908 0.705211
0.334112 0.241016 0.701442
0.495018 0.252628 0.688609
0.646616 0.24889 0.676646
0.753918 0.255772 0.663508
0.829725 0.274952 0.649454
0.881025 0.31078 0.648875
0.917021 0.358465 0.655528
0.156207 0.26186 0.739162
0.198535 0.270665 0.739361
0.280369 0.289052 0.734295
0.477501 0.322438 0.715923
0.649561 0.327672 0.697017
0.762905 0.335286 0.679561
0.844434 0.363882 0.675486
0.896162 0.405783 0.679332
0.93193 0.45005 0.687526
0.116457 0.441093 0.75993
0.158465 0.446387 0.759609
0.246586 0.450553 0.755291
0.458183 0.464622 0.746258
0.653437 0.475624 0.732372
0.779812 0.490181 0.715465
0.860487 0.512932 0.714382
0.910399 0.53724 0.7149
0.943664 0.55877 0.717372
0.014023 0.594095 0.765621
0.0447242 0.59939 0.771786
0.121569 0.596887 0.768765
0.363455 0.582727 0.747189
0.622965 0.618952 0.755383
0.779828 0.637659 0.747707
0.867552 0.647272 0.744686
0.920409 0.655039 0.741161
0.953399 0.654826 0.732479
0.118563 0.683665 0.738064
0.140124 0.691859 0.746181
0.167575 0.705119 0.759701
0.267857 0.717739 0.771405
0.557015 0.717601 0.763561
0.761807 0.74876 0.767056
0.861738 0.748531 0.750362
0.923873 0.74638 0.740353
0.960952 0.73875 0.733593
0.185916 0.729274 0.726375
0.209796 0.734783 0.731029
0.240635 0.744213 0.73901
0.293202 0.763195 0.754269
0.454841 0.796841 0.778988
0.714504 0.822232 0.780896
0.843961 0.832929 0.762097
0.917937 0.834012 0.748577
0.963363 0.827863 0.738018
0.217502 0.766354 0.724269
0.241627 0.770718 0.727871
0.272557 0.778637 0.734173
0.314305 0.791119 0.743557
0.422065 0.82295 0.767651
0.613809 0.87097 0.796109
0.819165 0.893996 0.780896
0.908675 0.899382 0.764584
0.964004 0.902281 0.759182
0.228412 0.790539 0.721386
0.251301 0.794491 0.724315
0.279622 0.801572 0.729885
0.319326 0.813169 0.738735
0.402518 0.838895 0.757214
0.563027 0.88629 0.783001
0.74789 0.934295 0.800488
0.894804 0.94609 0.777523
0.960372 0.952056 0.772503
0.292851 0.232486 0.749218
0.329 0.237888 0.749218
0.381018 0.24477 0.746822
0.491081 0.252766 0.741039
0.634653 0.243015 0.733166
0.746868 0.246052 0.731472
0.823957 0.260395 0.736202
0.874205 0.28307 0.732754
0.909102 0.317189 0.72784
0.266987 0.250782 0.76997
0.304829 0.256321 0.767712
0.363943 0.266621 0.763729
0.503334 0.278721 0.755688
0.651576 0.266056 0.746166
0.760006 0.272587 0.743786
0.834775 0.296345 0.74902
0.884855 0.332784 0.750988
0.918715 0.376959 0.74931
0.202564 0.276967 0.805539
0.243275 0.283238 0.804974
0.314748 0.296117 0.799969
0.492515 0.324819 0.785763
0.66482 0.321401 0.777737
0.778531 0.342611 0.773754
0.853819 0.38143 0.777798
0.902312 0.423484 0.78056
0.933928 0.461997 0.77818
0.180377 0.447364 0.840375
0.22237 0.453666 0.840833
0.297627 0.457191 0.837064
0.488472 0.473503 0.826703
0.671611 0.479957 0.815244
0.788022 0.482719 0.802014
0.864347 0.508461 0.80119
0.914321 0.540948 0.80502
0.946014 0.567178 0.801221
0.0896315 0.603616 0.858747
0.132586 0.605798 0.859159
0.211749 0.602731 0.853376
0.405509 0.593683 0.835874
0.63122 0.617044 0.833173
0.787015 0.633036 0.825803
0.871733 0.646448 0.823102
0.923735 0.661631 0.822263
0.95523 0.670954 0.817304
0.0589456 0.723308 0.845228
0.0846418 0.731014 0.854566
0.12987 0.74023 0.866453
0.276783 0.729778 0.858839
0.541955 0.706218 0.833677
0.7579 0.744656 0.841443
0.868116 0.755611 0.838026
0.927993 0.760311 0.835859
0.964202 0.760449 0.829084
0.17995 0.753964 0.797299
0.203418 0.76025 0.803037
0.234485 0.771878 0.813977
0.283055 0.792477 0.833295
0.450004 0.810697 0.850889
0.703304 0.814481 0.847593
0.853834 0.835004 0.849149
0.927413 0.836362 0.841611
0.969909 0.832593 0.833677
0.224537 0.779568 0.777615
0.248508 0.784192 0.781476
0.279515 0.792782 0.788525
0.321752 0.805783 0.799878
0.421897 0.836316 0.826841
0.614237 0.874449 0.857969
0.823804 0.893889 0.86099
0.918212 0.901259 0.852277
0.969757 0.902602 0.846281
0.246159 0.807477 0.773571
0.268498 0.811215 0.776577
0.294865 0.816312 0.780453
0.330785 0.824216 0.786618
0.398062 0.843076 0.802045
0.543557 0.882017 0.832273
0.744564 0.931533 0.869459
0.904356 0.949477 0.863539
0.965255 0.954498 0.858
0.316503 0.253513 0.799084
0.351644 0.258625 0.798184
0.401709 0.266239 0.795636
0.506615 0.273716 0.790295
0.645274 0.262013 0.785916
0.75201 0.262562 0.786877
0.833341 0.287144 0.792538
0.882307 0.313375 0.801572
0.916411 0.350454 0.802274
0.294865 0.272084 0.81532
0.332143 0.277058 0.813336
0.390387 0.287037 0.809598
0.523354 0.299367 0.802014
0.661784 0.284169 0.795026
0.765728 0.2878 0.79556
0.842893 0.318791 0.802121
0.892424 0.361776 0.814954
0.924758 0.404852 0.816724
0.243793 0.301137 0.847547
0.283162 0.306416 0.84622
0.354696 0.316884 0.840421
0.521447 0.341375 0.827207
0.675486 0.329351 0.821103
0.786267 0.341375 0.822614
0.863951 0.394461 0.832456
0.909194 0.443519 0.838941
0.935958 0.475624 0.836072
0.18526 0.420539 0.892287
0.228016 0.426337 0.892927
0.30898 0.432181 0.890684
0.506233 0.456397 0.878111
0.688945 0.467811 0.86775
0.807706 0.479744 0.862333
0.87921 0.515541 0.864042
0.923323 0.55111 0.864469
0.949691 0.577523 0.8598
0.180575 0.62472 0.918654
0.222919 0.626154 0.918059
0.296162 0.625513 0.914794
0.463828 0.621912 0.902907
0.665721 0.634226 0.894743
0.805646 0.634562 0.886351
0.882734 0.643168 0.881697
0.929534 0.660914 0.879988
0.958801 0.674235 0.876127
0.0563363 0.742199 0.918288
0.0930343 0.746777 0.92459
0.158099 0.751247 0.932647
0.331014 0.737179 0.924102
0.556497 0.716579 0.898283
0.76492 0.745235 0.900023
0.878645 0.758923 0.898314
0.93463 0.767346 0.897581
0.967376 0.769543 0.891981
0.160861 0.784375 0.867308
0.183413 0.790021 0.873304
0.213504 0.801526 0.886061
0.26598 0.820554 0.907973
0.456504 0.824964 0.919875
0.684199 0.80528 0.901305
0.850752 0.833997 0.908431
0.930022 0.843641 0.908675
0.970657 0.843183 0.904082
0.225284 0.798672 0.830579
0.247898 0.802762 0.834501
0.276326 0.811078 0.842145
0.315908 0.824475 0.855741
0.418494 0.85745 0.888151
0.606653 0.884504 0.916228
0.812604 0.888518 0.91429
0.91928 0.90219 0.916197
0.972839 0.903914 0.911727
0.254444 0.819501 0.81767
0.273472 0.820798 0.818601
0.30341 0.828458 0.825818
0.337316 0.836835 0.833783
0.40322 0.854841 0.849867
0.551369 0.896178 0.88716
0.742596 0.933562 0.919371
0.901442 0.948089 0.92369
0.969711 0.955856 0.920027
0.332738 0.26978 0.838804
0.368429 0.274556 0.837201
0.419684 0.283497 0.834577
0.52903 0.293385 0.832166
0.660456 0.279347 0.828336
0.761028 0.282597 0.828809
0.839704 0.309056 0.837674
0.890562 0.351675 0.846082
0.924498 0.388968 0.852567
0.314839 0.290364 0.85304
0.352621 0.294942 0.85037
0.413504 0.305699 0.84596
0.547494 0.318761 0.840787
0.6766 0.301732 0.834806
0.772442 0.307195 0.83537
0.848234 0.338781 0.844724
0.899565 0.397543 0.856687
0.931899 0.44033 0.863569
0.27274 0.322393 0.880629
0.312139 0.327092 0.87892
0.390784 0.337942 0.872633
0.55082 0.358099 0.859998
0.68687 0.345892 0.854658
0.787396 0.352926 0.853727
0.863844 0.405997 0.865904
0.910597 0.462013 0.87219
0.936614 0.499077 0.872572
0.211475 0.426627 0.922972
0.252247 0.430732 0.923323
0.33727 0.437049 0.921416
0.530373 0.457237 0.908614
0.697688 0.462303 0.8981
0.812543 0.469703 0.894331
0.885618 0.511635 0.900877
0.928115 0.559976 0.901732
0.950835 0.589075 0.89482
0.220356 0.635767 0.955276
0.262074 0.637247 0.95491
0.334051 0.635996 0.953124
0.502037 0.635843 0.947021
0.692287 0.641611 0.937041
0.821134 0.635248 0.929107
0.894713 0.645045 0.926543
0.938537 0.666133 0.924636
0.961563 0.674174 0.914122
0.116854 0.750332 0.963226
0.149462 0.75256 0.964675
0.212787 0.75465 0.968215
0.382406 0.747097 0.964233
0.587259 0.736461 0.946883
0.781628 0.754543 0.945113
0.890318 0.761242 0.943404
0.941726 0.76849 0.942077
0.968811 0.767376 0.932754
0.148348 0.801465 0.920989
0.172534 0.806546 0.926406
0.200107 0.812894 0.934752
0.261372 0.824933 0.950317
0.475715 0.831006 0.967788
0.680354 0.808286 0.947478
0.85214 0.834546 0.95201
0.935088 0.846555 0.953872
0.971603 0.844785 0.947707
0.221118 0.820478 0.885664
0.237049 0.820157 0.885237
0.264942 0.826383 0.891218
0.304036 0.836454 0.901167
0.407919 0.866514 0.934401
0.610758 0.892576 0.964508
0.797284 0.882078 0.954971
0.915465 0.901045 0.959503
0.970382 0.906477 0.959457
0.275929 0.842451 0.868467
0.291203 0.841901 0.86807
0.305943 0.841169 0.867704
0.334524 0.848569 0.874769
0.3953 0.864317 0.891463
0.548211 0.904784 0.93193
0.743175 0.935912 0.96231
0.895628 0.94609 0.964935
0.967865 0.95613 0.967742
