app/src/main/assets/filters/富士ETERNA.cube
TITLE "富士ETERNA"
LUT_3D_SIZE 33
DOMAIN_MIN 0.0 0.0 0.0
DOMAIN_MAX 1.0 1.0 1.0
0.022716 0.028424 0.030298
0.054041 0.035423 0.026699
0.090995 0.041971 0.029594
0.121761 0.042581 0.027365
0.149817 0.044676 0.030299
0.174365 0.046109 0.029816
0.199418 0.052465 0.033753
0.221225 0.054090 0.031915
0.243148 0.057931 0.028097
0.267202 0.055760 0.025564
0.291770 0.056523 0.021041
0.315248 0.059788 0.020657
0.340381 0.055918 0.020609
0.365668 0.066655 0.019708
0.386910 0.080092 0.027794
0.407799 0.087644 0.044328
0.429540 0.087671 0.050750
0.453743 0.093207 0.049404
0.477496 0.092683 0.039144
0.500611 0.094765 0.034159
0.522829 0.100703 0.030012
0.544094 0.110497 0.024076
0.567445 0.116443 0.007383
0.657488 0.052438 0.000248
0.702190 0.042473 0.000062
0.776696 0.003479 0.000033
0.704028 0.097314 0.022423
0.719379 0.107595 0.019543
0.742816 0.109668 0.012561
0.770743 0.108417 0.007577
0.799472 0.106648 0.004530
0.828156 0.104619 0.002341
0.850701 0.102864 0.001066
0.040963 0.074184 0.050070
0.073966 0.076851 0.043199
0.102735 0.084107 0.049330
0.128347 0.088755 0.046719
0.154217 0.089335 0.041908
0.179967 0.090450 0.042572
0.203299 0.094198 0.044646
0.225822 0.096467 0.045616
0.249514 0.095592 0.041409
0.274076 0.097804 0.042636
0.297669 0.101766 0.042672
0.319887 0.104866 0.036028
0.343818 0.106075 0.036623
0.369810 0.109615 0.041540
0.391787 0.115032 0.039707
0.412784 0.119233 0.052725
0.434257 0.121951 0.062542
0.457252 0.123853 0.065788
0.478955 0.125765 0.055234
0.502813 0.125892 0.050571
0.527987 0.127249 0.044389
0.551739 0.129169 0.026755
0.573524 0.131518 0.014043
0.593903 0.132935 0.006287
0.616705 0.133343 0.002557
0.636460 0.137054 0.001196
0.753546 0.073830 0.000394
0.713306 0.123312 0.016437
0.738379 0.124093 0.011502
0.766233 0.122364 0.007678
0.794690 0.120538 0.004658
0.823107 0.118459 0.002450
0.845384 0.116697 0.001131
0.049559 0.118396 0.066161
0.092160 0.123793 0.069518
0.116401 0.123635 0.056685
0.141647 0.126781 0.062932
0.162893 0.128607 0.066464
0.184408 0.129618 0.068359
0.206276 0.132170 0.070276
0.226703 0.134188 0.069595
0.248907 0.134675 0.062500
0.274190 0.131360 0.056279
0.296816 0.131573 0.055833
0.318070 0.134033 0.048203
0.342203 0.137774 0.047114
0.367620 0.140176 0.057081
0.389985 0.140996 0.053293
0.411279 0.142382 0.054505
0.432602 0.146687 0.066880
0.454598 0.148666 0.074311
0.474081 0.151662 0.063418
0.498657 0.150433 0.062305
0.526573 0.149061 0.066007
0.549976 0.149720 0.053206
0.573703 0.150366 0.036729
0.595214 0.151185 0.024677
0.617379 0.150253 0.012541
0.639798 0.149827 0.003999
0.660818 0.156435 0.001844
0.680993 0.164589 0.001205
0.734124 0.143280 0.009587
0.763375 0.140497 0.006808
0.793123 0.137406 0.004901
0.817548 0.136981 0.002660
0.839347 0.135263 0.001273
0.062035 0.154095 0.079479
0.102116 0.157734 0.090371
0.125185 0.155371 0.074955
0.147400 0.154829 0.060164
0.170731 0.155774 0.065627
0.190424 0.159056 0.080001
0.210202 0.160984 0.085977
0.229267 0.161113 0.087144
0.248444 0.161123 0.079257
0.273620 0.159429 0.063378
0.295595 0.156555 0.056797
0.315258 0.156794 0.050956
0.339717 0.158515 0.044188
0.364918 0.159615 0.051064
0.388623 0.161138 0.060274
0.407732 0.159214 0.048852
0.431128 0.163482 0.053813
0.451243 0.167317 0.071294
0.470843 0.170865 0.073026
0.491443 0.174635 0.072782
0.521792 0.168841 0.078770
0.547689 0.168242 0.074456
0.570089 0.168868 0.066339
0.595200 0.169156 0.049547
0.620352 0.173493 0.037867
0.639892 0.171049 0.018034
0.665101 0.169236 0.004864
0.685166 0.174388 0.001646
0.712161 0.176842 0.001073
0.764212 0.159148 0.005440
0.795295 0.155206 0.004634
0.813083 0.156807 0.002986
0.834328 0.155165 0.001505
0.064661 0.181939 0.081972
0.107864 0.186222 0.097736
0.133926 0.184412 0.100693
0.153236 0.181373 0.084332
0.171193 0.181990 0.069383
0.192240 0.182878 0.073560
0.213332 0.184784 0.091566
0.231488 0.185559 0.097919
0.252580 0.186583 0.097898
0.273403 0.185848 0.084398
0.296421 0.184670 0.066888
0.316365 0.183975 0.059180
0.336347 0.182696 0.049203
0.361746 0.182994 0.053284
0.387641 0.185306 0.069910
0.408219 0.180449 0.055118
0.429686 0.179724 0.047112
0.451237 0.183420 0.058425
0.472613 0.187174 0.072845
0.490976 0.190264 0.073892
0.513396 0.187542 0.076336
0.538060 0.182982 0.066389
0.565587 0.187464 0.079903
0.595212 0.188158 0.073765
0.624704 0.191215 0.059316
0.645110 0.192542 0.043050
0.661568 0.193483 0.023093
0.690778 0.186599 0.003329
0.705496 0.193060 0.001681
0.898575 0.128297 0.000227
0.795062 0.175189 0.004958
0.813106 0.176601 0.003626
0.830344 0.176078 0.001934
0.078994 0.208608 0.095575
0.114994 0.209875 0.104681
0.140081 0.211052 0.106524
0.159307 0.209269 0.104140
0.175036 0.206231 0.088421
0.190352 0.205626 0.070234
0.212086 0.209182 0.082135
0.234359 0.210328 0.099834
0.255186 0.210447 0.107603
0.276537 0.210291 0.106126
0.297600 0.210670 0.093605
0.319655 0.208311 0.060384
0.338951 0.208440 0.044428
0.360762 0.208851 0.058516
0.385371 0.210177 0.074181
0.408872 0.208369 0.078116
0.430691 0.202582 0.053665
0.450576 0.202642 0.053184
0.470916 0.206286 0.072040
0.495368 0.207052 0.084051
0.514942 0.207499 0.085331
0.534962 0.204188 0.063621
0.547114 0.199494 0.033135
0.568273 0.201200 0.047885
0.624658 0.203626 0.075495
0.650193 0.207613 0.059432
0.666092 0.209448 0.041210
0.680298 0.211186 0.032093
0.725290 0.205638 0.018419
0.758549 0.201960 0.010610
0.788540 0.198980 0.006376
0.810005 0.198643 0.004496
0.827301 0.197994 0.002683
0.101017 0.232508 0.113528
0.120903 0.232276 0.113966
0.148831 0.235760 0.110802
0.164189 0.236323 0.107491
0.179103 0.233590 0.104665
0.196873 0.229907 0.091675
0.212787 0.230497 0.069205
0.235823 0.232295 0.078487
0.257764 0.233342 0.101044
0.277049 0.232819 0.110377
0.299484 0.235005 0.117633
0.320842 0.233062 0.099396
0.342278 0.232075 0.060128
0.364962 0.231845 0.047235
0.385990 0.232961 0.085040
0.408722 0.233655 0.095890
0.432104 0.230334 0.082846
0.452740 0.226524 0.061287
0.471739 0.227200 0.069144
0.495919 0.225830 0.086781
0.518534 0.225586 0.091561
0.539318 0.228008 0.093585
0.556735 0.228435 0.071528
0.568860 0.223369 0.045021
0.590720 0.233248 0.060289
0.759558 0.193701 0.011602
0.678107 0.228586 0.042423
0.701853 0.228542 0.033408
0.729077 0.227493 0.025292
0.754507 0.225699 0.017152
0.779841 0.224196 0.009335
0.807478 0.221730 0.005949
0.825022 0.220911 0.003806
0.105386 0.255102 0.123368
0.133921 0.258281 0.127526
0.152643 0.256348 0.124443
0.169982 0.257541 0.113633
0.184526 0.260534 0.111003
0.201095 0.258832 0.114634
0.218719 0.252506 0.090281
0.237072 0.255353 0.077033
0.259722 0.256734 0.078514
0.280782 0.256691 0.094497
0.299075 0.256635 0.110401
0.319594 0.256436 0.111432
0.340706 0.255930 0.101959
0.365681 0.256476 0.064663
0.388328 0.256556 0.080829
0.409496 0.257118 0.107526
0.430674 0.255128 0.104225
0.454135 0.252849 0.081154
0.475296 0.251592 0.075456
0.496388 0.251126 0.087289
0.518807 0.248886 0.089415
0.540986 0.250506 0.094771
0.561109 0.251479 0.099341
0.580754 0.251078 0.086970
0.601485 0.253827 0.075497
0.619890 0.254249 0.030398
0.633962 0.252286 0.002519
0.828837 0.221573 0.000057
0.728835 0.250724 0.030702
0.750785 0.250595 0.024315
0.775406 0.249166 0.014517
0.802340 0.246793 0.007920
0.823708 0.244726 0.005275
0.094977 0.277536 0.130187
0.138028 0.281984 0.134128
0.155874 0.283819 0.137125
0.174099 0.279667 0.132901
0.192744 0.280821 0.126148
0.206593 0.285276 0.128833
0.221481 0.282345 0.121276
0.241839 0.280590 0.101274
0.258614 0.280434 0.081869
0.283038 0.281168 0.079348
0.304914 0.280546 0.079272
0.323760 0.280169 0.090118
0.342732 0.280221 0.106886
0.364981 0.281229 0.087276
0.389396 0.281950 0.070159
0.411355 0.282039 0.093725
0.434339 0.280936 0.104449
0.455695 0.279087 0.098124
0.478557 0.277572 0.084125
0.499925 0.277193 0.084122
0.519962 0.275749 0.090252
0.540086 0.274488 0.079292
0.564264 0.277079 0.092023
0.586678 0.276394 0.083368
0.607094 0.275537 0.076902
0.627642 0.273277 0.045008
0.643994 0.270755 0.006920
0.659766 0.276929 0.004073
0.730260 0.275392 0.033908
0.753558 0.275280 0.029984
0.775142 0.273961 0.020922
0.802021 0.271502 0.010864
0.823353 0.269390 0.007321
0.100204 0.300660 0.140873
0.145757 0.305599 0.146386
0.160197 0.305494 0.145432
0.170896 0.309083 0.147754
0.188434 0.304819 0.150212
0.211032 0.305247 0.146116
0.219944 0.306338 0.140354
0.243326 0.304064 0.118553
0.262419 0.304792 0.106292
0.283194 0.305741 0.093584
0.307681 0.307359 0.086854
0.330208 0.305513 0.070169
0.349876 0.305081 0.066911
0.367278 0.306983 0.066694
0.389735 0.308116 0.068844
0.414219 0.308559 0.079703
0.435766 0.308179 0.098857
0.458742 0.306451 0.112086
0.480143 0.305186 0.104858
0.504043 0.306485 0.090508
0.525406 0.305817 0.092715
0.544757 0.303487 0.086775
0.568927 0.305110 0.084650
0.591970 0.307275 0.080539
0.613923 0.305085 0.053155
0.634839 0.302974 0.040613
0.654652 0.301325 0.023563
0.674553 0.303929 0.016105
0.771255 0.301160 0.019419
0.749779 0.302414 0.039318
0.775967 0.299505 0.028469
0.802779 0.296974 0.017272
0.824001 0.294849 0.010274
0.112489 0.325002 0.150990
0.152126 0.331312 0.157597
0.170198 0.329512 0.154336
0.177116 0.328114 0.152208
0.184973 0.327832 0.156201
0.198427 0.331458 0.159536
0.220319 0.333125 0.151562
0.242336 0.327601 0.150702
0.266691 0.328820 0.128675
0.287716 0.330002 0.117316
0.309033 0.332293 0.106720
0.329677 0.330816 0.106240
0.354320 0.329683 0.086681
0.375606 0.331651 0.054961
0.395675 0.335261 0.037907
0.417496 0.337511 0.050820
0.439056 0.334224 0.092596
0.459452 0.332752 0.117426
0.482521 0.332711 0.115758
0.506685 0.334678 0.109813
0.530067 0.335398 0.101087
0.550988 0.335410 0.097023
0.576809 0.337250 0.094762
0.600524 0.337608 0.094911
0.621435 0.337179 0.067365
0.641700 0.334965 0.038053
0.664377 0.334293 0.045776
0.687450 0.337056 0.047666
0.699065 0.340102 0.069590
0.749489 0.329476 0.049453
0.777494 0.325839 0.037219
0.804374 0.323232 0.025342
0.825507 0.321100 0.015674
0.131831 0.349197 0.160382
0.162538 0.354642 0.166073
0.180240 0.352525 0.168001
0.185603 0.351169 0.160937
0.192826 0.351447 0.159664
0.204353 0.353091 0.161801
0.222740 0.356180 0.160049
0.243926 0.354500 0.164612
0.270567 0.350349 0.156726
0.292222 0.354258 0.128197
0.311195 0.355242 0.127018
0.333068 0.357625 0.118648
0.353950 0.356215 0.122372
0.377958 0.356844 0.109386
0.400857 0.358479 0.067439
0.423218 0.363128 0.041582
0.446220 0.365875 0.062167
0.467293 0.363096 0.109637
0.486629 0.361195 0.125813
0.509402 0.362749 0.131846
0.535101 0.364404 0.116387
0.559172 0.365286 0.114417
0.582961 0.367063 0.113686
0.606183 0.368510 0.108081
0.627622 0.367889 0.076904
0.648208 0.366976 0.046899
0.672624 0.368419 0.053642
0.691600 0.366806 0.061509
0.702048 0.366146 0.077583
0.750504 0.356871 0.060891
0.779964 0.352850 0.046817
0.806785 0.350235 0.034683
0.827847 0.348104 0.024796
0.137089 0.371819 0.167739
0.172389 0.376429 0.175531
0.192067 0.378941 0.181289
0.197573 0.375949 0.178984
0.201334 0.372664 0.172613
0.212348 0.372728 0.172554
0.228774 0.374788 0.172384
0.250354 0.377163 0.172133
0.272570 0.382463 0.170344
0.299416 0.380179 0.144584
0.318196 0.381228 0.120261
0.338363 0.383697 0.134179
0.359973 0.384899 0.132984
0.380812 0.386199 0.134360
0.404432 0.385512 0.130577
0.429314 0.387899 0.085991
0.452404 0.393508 0.062810
0.475958 0.397041 0.084722
0.496875 0.394017 0.121667
0.516723 0.392088 0.136622
0.541034 0.394888 0.130498
0.565522 0.396158 0.118635
0.589220 0.396802 0.110062
0.612243 0.397544 0.117501
0.634210 0.398158 0.098793
0.655785 0.398232 0.063803
0.678840 0.400001 0.062508
0.695089 0.398059 0.075848
0.738905 0.389827 0.085667
0.755755 0.383803 0.070271
0.783324 0.380523 0.057181
0.809988 0.377949 0.045140
0.830993 0.375825 0.035294
0.084023 0.396342 0.169824
0.169124 0.397164 0.184222
0.197157 0.397458 0.189260
0.206493 0.397154 0.191929
0.208732 0.394644 0.181403
0.224708 0.400671 0.188435
0.237601 0.394324 0.181228
0.259186 0.399042 0.175997
0.282651 0.408675 0.169615
0.308970 0.419396 0.176896
0.327926 0.414119 0.149790
0.346322 0.411315 0.125071
0.365938 0.412350 0.144303
0.388372 0.415035 0.151131
0.410360 0.415786 0.153008
0.433358 0.417545 0.143094
0.460659 0.423604 0.114078
0.483540 0.426063 0.100849
0.504590 0.426039 0.117729
0.525480 0.425275 0.137556
0.547661 0.425536 0.139228
0.571548 0.427199 0.116226
0.595806 0.427985 0.101407
0.616340 0.427584 0.083105
0.638732 0.427628 0.092973
0.662005 0.428830 0.102266
0.681844 0.428015 0.090983
0.698562 0.424177 0.096470
0.733794 0.415949 0.092828
0.762046 0.411539 0.080074
0.787657 0.408852 0.068186
0.813985 0.406334 0.056431
0.834914 0.404227 0.046665
0.036264 0.425800 0.173833
0.146869 0.434040 0.186772
0.184034 0.436407 0.188882
0.202562 0.436848 0.183706
0.216785 0.437039 0.179162
0.237592 0.434452 0.181110
0.228895 0.444366 0.124492
0.261320 0.431924 0.132024
0.296954 0.437264 0.179069
0.314772 0.442542 0.176194
0.333168 0.446056 0.184520
0.356971 0.445721 0.148004
0.374840 0.444195 0.134115
0.395662 0.445613 0.163057
0.419394 0.447136 0.164605
0.440552 0.449040 0.162987
0.463022 0.451275 0.158120
0.490143 0.455155 0.136446
0.511769 0.455422 0.133704
0.533008 0.455740 0.132897
0.554637 0.456183 0.133200
0.576081 0.457289 0.131937
0.599448 0.459035 0.109775
0.621995 0.458549 0.073214
0.641265 0.454636 0.062871
0.665871 0.454707 0.101465
0.687669 0.456654 0.125529
0.703703 0.455597 0.136778
0.744641 0.444702 0.103325
0.772673 0.440420 0.087045
0.792789 0.437842 0.079965
0.818741 0.435356 0.068528
0.839581 0.433271 0.058865
0.022370 0.451845 0.181996
0.141329 0.464980 0.196532
0.183780 0.468037 0.197412
0.206817 0.468742 0.191652
0.223032 0.468873 0.186431
0.236922 0.469325 0.176006
0.205460 0.467377 0.048308
0.227333 0.468851 0.029406
0.299153 0.462857 0.138864
0.325745 0.466415 0.166951
0.341852 0.471835 0.181098
0.362415 0.477444 0.188240
0.384913 0.478511 0.155031
0.404324 0.478925 0.152327
0.425691 0.479312 0.175119
0.451753 0.480828 0.175807
0.471740 0.483025 0.165688
0.494354 0.484151 0.154713
0.517675 0.484315 0.147036
0.539802 0.486117 0.138061
0.561968 0.487435 0.117173
0.583204 0.486852 0.126832
0.604446 0.487651 0.127992
0.625395 0.486922 0.082886
0.647419 0.484370 0.079071
0.668287 0.480929 0.104955
0.690552 0.480004 0.137697
0.711092 0.482790 0.167477
0.856394 0.470747 0.023785
0.783227 0.470264 0.095948
0.799030 0.467464 0.092100
0.824425 0.464981 0.081223
0.844964 0.462923 0.071886
0.029825 0.486266 0.201215
0.140588 0.495098 0.209314
0.186277 0.498308 0.209356
0.212186 0.499098 0.203190
0.229309 0.499479 0.197789
0.245091 0.499625 0.189728
0.262220 0.500032 0.182171
0.278915 0.499912 0.169980
0.256968 0.498753 0.023560
0.335793 0.485778 0.168104
0.352738 0.493873 0.177784
0.371722 0.500751 0.192031
0.391419 0.503727 0.194258
0.414590 0.508602 0.171622
0.433920 0.511549 0.169387
0.456179 0.511573 0.181184
0.480103 0.511956 0.180573
0.502609 0.514268 0.157211
0.523921 0.514132 0.135942
0.546155 0.514794 0.134360
0.566141 0.515114 0.130277
0.586283 0.514602 0.127025
0.609720 0.514187 0.137761
0.629307 0.514548 0.121489
0.649913 0.512521 0.112018
0.672864 0.508991 0.128295
0.694320 0.510183 0.135081
0.717938 0.512854 0.166621
0.844629 0.502440 0.037017
0.800343 0.500878 0.096956
0.813655 0.497744 0.096922
0.831140 0.495193 0.094268
0.851173 0.493149 0.085568
0.022313 0.514014 0.219232
0.145946 0.525569 0.224028
0.194638 0.527764 0.223123
0.221280 0.528321 0.220869
0.240173 0.528815 0.218897
0.258664 0.529379 0.217056
0.276153 0.529931 0.212407
0.291529 0.530473 0.199529
0.309743 0.530347 0.191989
0.328380 0.530089 0.181843
0.324784 0.526621 0.043398
0.380830 0.514242 0.188577
0.399746 0.519836 0.204524
0.419152 0.527353 0.205495
0.440125 0.532941 0.197414
0.460981 0.537363 0.183554
0.482884 0.539327 0.189303
0.506604 0.540140 0.187105
0.529442 0.541768 0.159200
0.549904 0.541867 0.132100
0.572412 0.542103 0.140898
0.590286 0.541341 0.159290
0.609914 0.541117 0.160097
0.632592 0.540087 0.147806
0.652666 0.540580 0.153055
0.674326 0.537550 0.159037
0.699879 0.532913 0.131402
0.718966 0.533739 0.118247
0.820458 0.537165 0.044392
0.904244 0.531405 0.001394
0.831744 0.528979 0.096982
0.844041 0.526147 0.101923
0.858264 0.523930 0.099771
0.004124 0.553894 0.237914
0.151297 0.554789 0.238488
0.204107 0.557058 0.237049
0.228454 0.557660 0.235457
0.247362 0.558229 0.233878
0.266001 0.558881 0.232379
0.284680 0.559595 0.230746
0.303449 0.560343 0.228967
0.321179 0.561144 0.222605
0.338285 0.561565 0.209824
0.358386 0.561019 0.208278
0.379899 0.560661 0.212715
0.402902 0.559998 0.223739
0.429998 0.541768 0.216810
0.446892 0.547754 0.215879
0.467449 0.555509 0.204131
0.486349 0.561036 0.204776
0.505585 0.563807 0.205165
0.529939 0.566638 0.193437
0.553196 0.568064 0.170564
0.574210 0.567598 0.163157
0.595526 0.565802 0.184871
0.617041 0.568255 0.192692
0.637325 0.568426 0.177473
0.660151 0.567420 0.174624
0.679755 0.572264 0.177693
0.702713 0.580241 0.166747
0.733991 0.564666 0.118860
0.750977 0.569208 0.105355
0.880505 0.564679 0.021528
0.934758 0.562908 0.002895
0.856908 0.558096 0.109410
0.866350 0.555271 0.114187
0.002527 0.574090 0.255455
0.157244 0.584877 0.239211
0.213811 0.586494 0.251272
0.235509 0.587156 0.250412
0.254314 0.587802 0.248877
0.272992 0.588538 0.247436
0.291806 0.589341 0.246154
0.310746 0.590195 0.244889
0.329800 0.591075 0.243403
0.349079 0.591940 0.242016
0.368634 0.592779 0.240847
0.388559 0.593549 0.240283
0.409075 0.593201 0.239416
0.429732 0.592615 0.238239
0.451049 0.590852 0.233552
0.479529 0.571037 0.207987
0.496523 0.582280 0.210645
0.512370 0.589633 0.217633
0.530829 0.590448 0.222896
0.553971 0.591678 0.216678
0.576788 0.593152 0.204499
0.599421 0.592257 0.204229
0.623573 0.594764 0.212937
0.646653 0.598337 0.213874
0.668200 0.598836 0.207188
0.692894 0.599784 0.203257
0.713634 0.609892 0.193049
0.736951 0.610082 0.187802
0.767002 0.596609 0.135102
0.791513 0.613128 0.120647
0.905367 0.600504 0.038043
0.868407 0.591445 0.117286
0.879658 0.587444 0.122590
0.000073 0.622160 0.014226
0.170796 0.614924 0.247476
0.221185 0.616109 0.266201
0.242457 0.616805 0.265896
0.261232 0.617538 0.264381
0.279958 0.618362 0.262943
0.298832 0.619251 0.261700
0.317869 0.620191 0.260606
0.337083 0.621167 0.259615
0.356489 0.622166 0.258680
0.376097 0.623171 0.257728
0.395936 0.624136 0.256738
0.416016 0.625042 0.255663
0.436386 0.625797 0.254371
0.457522 0.624803 0.250315
0.478833 0.623976 0.243719
0.500409 0.621872 0.231720
0.523757 0.610895 0.213680
0.541195 0.620002 0.223813
0.558864 0.621188 0.238633
0.581607 0.615395 0.238377
0.605049 0.619712 0.235369
0.628696 0.622474 0.229307
0.655301 0.626862 0.234266
0.678929 0.630221 0.232688
0.703625 0.633399 0.227225
0.726490 0.633204 0.210549
0.742804 0.641181 0.209850
0.796514 0.640825 0.146297
0.807699 0.637227 0.115690
0.821343 0.642151 0.140849
0.955917 0.627038 0.019112
0.895994 0.621193 0.125489
0.157851 0.645115 0.244331
0.191353 0.645363 0.263575
0.229063 0.645810 0.282629
0.249423 0.646563 0.282121
0.268192 0.647397 0.280547
0.286984 0.648318 0.279116
0.305925 0.649304 0.277885
0.325029 0.650340 0.276806
0.344311 0.651413 0.275834
0.363785 0.652508 0.274921
0.383466 0.653611 0.274022
0.403369 0.654707 0.273089
0.423506 0.655782 0.272076
0.443908 0.656775 0.270875
0.464588 0.657660 0.269219
0.485679 0.658008 0.263924
0.507436 0.656472 0.252621
0.534978 0.641720 0.118990
0.556037 0.641150 0.222009
0.573177 0.651903 0.241819
0.594215 0.662772 0.256700
0.615216 0.644379 0.256840
0.638631 0.649463 0.255629
0.660669 0.655706 0.254449
0.689372 0.661430 0.251865
0.715208 0.667827 0.249753
0.738037 0.670298 0.237022
0.756462 0.667134 0.228682
0.769053 0.672734 0.233103
0.854852 0.659058 0.074553
0.840610 0.679703 0.133817
0.924757 0.666007 0.059815
0.920229 0.654750 0.111567
0.193076 0.674910 0.289767
0.212941 0.675120 0.295077
0.236960 0.675556 0.300135
0.256382 0.676398 0.298997
0.275163 0.677343 0.297368
0.294039 0.678370 0.295948
0.313064 0.679462 0.294732
0.332254 0.680605 0.293672
0.351622 0.681784 0.292722
0.371183 0.682985 0.291836
0.390952 0.684193 0.290967
0.410942 0.685395 0.290068
0.431169 0.686576 0.289093
0.451647 0.687722 0.287996
0.472393 0.688807 0.286606
0.493439 0.689741 0.284608
0.515107 0.689649 0.275529
0.537180 0.688800 0.269997
0.560493 0.687165 0.253914
0.590038 0.673186 0.245008
0.609902 0.686927 0.264329
0.631520 0.701980 0.281504
0.662942 0.696409 0.273281
0.672709 0.682415 0.278184
0.694457 0.687702 0.277686
0.726244 0.696742 0.262795
0.750083 0.703560 0.253792
0.771381 0.707406 0.207506
0.783397 0.698848 0.210735
0.902984 0.687650 0.007091
0.910591 0.689814 0.044035
0.933137 0.691580 0.054981
0.992083 0.689107 0.010970
0.211255 0.703902 0.321556
0.225745 0.704481 0.320037
0.244372 0.705315 0.318231
0.263275 0.706276 0.316492
0.282117 0.707340 0.314834
0.301094 0.708482 0.313430
0.320222 0.709690 0.312233
0.339515 0.710948 0.311196
0.358987 0.712242 0.310273
0.378653 0.713559 0.309417
0.398527 0.714883 0.308582
0.418624 0.716200 0.307722
0.438958 0.717497 0.306789
0.459543 0.718758 0.305737
0.480394 0.719969 0.304519
0.501533 0.721094 0.302923
0.522978 0.722096 0.300998
0.544819 0.722880 0.297848
0.568321 0.722036 0.281893
0.602726 0.721967 0.069063
0.630019 0.710273 0.275997
0.649420 0.724853 0.297160
0.671297 0.736457 0.302889
0.689847 0.734364 0.283843
0.703225 0.703596 0.290800
0.737964 0.719062 0.288415
0.764576 0.729549 0.283446
0.781566 0.737968 0.279021
0.798120 0.745989 0.240626
0.903539 0.720229 0.005503
0.880910 0.721902 0.165227
0.906982 0.720224 0.171094
0.934948 0.719031 0.150637
0.218635 0.733400 0.340718
0.232849 0.734092 0.338765
0.251224 0.735066 0.336528
0.270062 0.736161 0.334582
0.289023 0.737349 0.332940
0.308120 0.738617 0.331555
0.327369 0.739950 0.330380
0.346783 0.741333 0.329370
0.366377 0.742752 0.328478
0.386166 0.744194 0.327657
0.406163 0.745643 0.326860
0.426384 0.747085 0.326041
0.446842 0.748506 0.325154
0.467553 0.749892 0.324151
0.488531 0.751228 0.322987
0.509789 0.752500 0.321615
0.531343 0.753694 0.319988
0.553258 0.754742 0.317483
0.576315 0.755561 0.303037
0.602705 0.756333 0.280024
0.654868 0.778739 0.150163
0.669953 0.750732 0.306786
0.684295 0.757259 0.325893
0.700821 0.768219 0.319781
0.719131 0.758933 0.296819
0.743285 0.757055 0.291354
0.780607 0.750721 0.302048
0.797288 0.761639 0.309715
0.808649 0.770045 0.315444
0.896269 0.754675 0.036821
0.881502 0.754380 0.204219
0.904934 0.752724 0.218876
0.929784 0.751367 0.202680
0.224955 0.762882 0.359400
0.239272 0.763677 0.357454
0.257780 0.764783 0.355228
0.276755 0.766012 0.353298
0.295853 0.767336 0.351675
0.315088 0.768738 0.350313
0.334475 0.770205 0.349166
0.354028 0.771723 0.348187
0.373762 0.773277 0.347329
0.393691 0.774853 0.346546
0.413830 0.776436 0.345791
0.434192 0.778013 0.345018
0.454794 0.779568 0.344181
0.475648 0.781088 0.343232
0.496770 0.782559 0.342125
0.518173 0.783965 0.340814
0.539873 0.785293 0.339252
0.561900 0.786523 0.337131
0.584430 0.787668 0.333444
0.609775 0.789796 0.310504
0.647254 0.792176 0.090852
0.680666 0.799776 0.144501
0.705019 0.791863 0.308287
0.715550 0.796465 0.308527
0.728998 0.807704 0.299289
0.752886 0.792497 0.303066
0.778471 0.789811 0.305616
0.808836 0.778210 0.319497
0.818626 0.784205 0.323748
0.889030 0.783137 0.071724
0.887861 0.787529 0.234900
0.912560 0.786109 0.246624
0.935578 0.784754 0.234672
0.231102 0.792269 0.378688
0.245536 0.793173 0.376752
0.264195 0.794421 0.374543
0.283323 0.795795 0.372632
0.302576 0.797262 0.371032
0.321966 0.798809 0.369698
0.341510 0.800420 0.368582
0.361220 0.802082 0.367637
0.381112 0.803780 0.366818
0.401199 0.805499 0.366077
0.421497 0.807227 0.365369
0.442020 0.808947 0.364646
0.462782 0.810646 0.363862
0.483798 0.812310 0.362970
0.505082 0.813924 0.361925
0.526649 0.815473 0.360679
0.548512 0.816945 0.359186
0.570687 0.818323 0.357399
0.593269 0.819624 0.354530
0.617076 0.820895 0.339215
0.642461 0.822484 0.313881
0.676077 0.825541 0.090697
0.722593 0.840105 0.271650
0.731683 0.833608 0.283154
0.739717 0.834015 0.292482
0.762602 0.826570 0.309692
0.787614 0.823284 0.311536
0.813555 0.822140 0.310956
