app/src/main/assets/filters/富士ETERNA.cube
TITLE "富士ETERNA"
LUT_3D_SIZE 5
DOMAIN_MIN 0.0 0.0 0.0
DOMAIN_MAX 1.0 1.0 1.0
0.022716 0.028424 0.030298
0.243148 0.057931 0.028097
0.429540 0.087671 0.050750
0.702190 0.042473 0.000062
0.850701 0.102864 0.001066
0.094977 0.277536 0.130187
0.258614 0.280434 0.081869
0.434339 0.280936 0.104449
0.607094 0.275537 0.076902
0.823353 0.269390 0.007321
0.029825 0.486266 0.201215
0.256968 0.498753 0.023560
0.480103 0.511956 0.180573
0.649913 0.512521 0.112018
0.851173 0.493149 0.085568
0.218635 0.733400 0.340718
0.366377 0.742752 0.328478
0.531343 0.753694 0.319988
0.719131 0.758933 0.296819
0.929784 0.751367 0.202680
0.261592 0.957384 0.500759
0.421195 0.976725 0.490629
0.598758 0.993137 0.486159
0.795487 0.994439 0.459550
0.996916 0.996955 0.404232
0.006880 0.056299 0.255750
0.234545 0.074183 0.264298
0.437041 0.094141 0.274144
0.641205 0.126394 0.269354
0.876241 0.140381 0.229980
0.099886 0.262762 0.281507
0.246369 0.263170 0.274264
0.418156 0.276925 0.286143
0.620020 0.289998 0.286675
0.848977 0.293181 0.243480
0.107257 0.481974 0.319134
0.306503 0.480167 0.335683
0.465866 0.498118 0.344042
0.643841 0.501728 0.332973
0.907119 0.495430 0.277780
0.095248 0.741547 0.302400
0.368967 0.716292 0.416072
0.527895 0.731255 0.421898
0.719240 0.750722 0.432907
0.933417 0.754036 0.348891
0.294039 0.929492 0.524972
0.440834 0.943032 0.522970
0.605218 0.965661 0.537015
0.789848 0.989608 0.543972
0.992025 0.994554 0.483142
0.003369 0.079533 0.427662
0.194864 0.086369 0.433569
0.420538 0.102283 0.450800
0.653844 0.135470 0.457814
0.911132 0.164142 0.443041
0.015117 0.281554 0.468185
0.212018 0.265203 0.451677
0.409152 0.279147 0.453158
0.639104 0.291781 0.479377
0.851356 0.316547 0.463526
0.125143 0.486160 0.496944
0.266961 0.477908 0.492888
0.443997 0.477776 0.495754
0.640337 0.504138 0.519106
0.950718 0.510175 0.502811
0.148623 0.712951 0.593706
0.365397 0.716700 0.555417
0.524450 0.726528 0.564248
0.711055 0.741774 0.589991
0.942310 0.760835 0.566759
0.288680 0.949766 0.619328
0.456971 0.938168 0.626181
0.611502 0.951054 0.642478
0.786319 0.973304 0.662348
0.990005 0.993225 0.614789
0.000000 0.131726 0.613373
0.151464 0.114303 0.587721
0.399762 0.120330 0.590757
0.666908 0.143622 0.600395
0.950302 0.175699 0.593666
0.003708 0.323755 0.637690
0.186705 0.294258 0.638991
0.398703 0.289719 0.638558
0.625527 0.303548 0.643993
0.873100 0.325423 0.637648
0.085603 0.530988 0.701650
0.255980 0.531798 0.705562
0.445392 0.519747 0.696689
0.631148 0.501749 0.693167
0.859997 0.525961 0.694139
0.215922 0.780890 0.782269
0.358545 0.746368 0.747103
0.505919 0.740725 0.748015
0.703875 0.739508 0.756598
0.923161 0.744833 0.767573
0.333143 0.993205 0.832971
0.464479 0.966877 0.798431
0.612984 0.958608 0.799777
0.781819 0.967490 0.815357
0.995770 0.989729 0.828980
0.000000 0.206954 0.790869
0.101330 0.160823 0.727533
0.379214 0.144607 0.701791
0.675988 0.153192 0.692969
0.985802 0.178188 0.678164
0.000009 0.406860 0.887787
0.141222 0.348446 0.818965
0.373580 0.319523 0.789402
0.625191 0.315373 0.778635
0.893925 0.328005 0.763730
0.048750 0.638642 0.976693
0.225118 0.572159 0.904190
0.422970 0.532949 0.878212
0.633487 0.522321 0.861946
0.866068 0.526810 0.848800
0.189481 0.877609 0.999610
0.337510 0.807690 0.975955
0.501127 0.763264 0.951223
0.746879 0.749534 0.994694
0.895321 0.752062 0.927077
0.330212 1.000000 1.000000
0.459375 0.999392 0.999194
0.605680 0.989664 0.994001
0.769983 0.976445 0.992916
0.978174 0.992225 0.995467
