app/src/main/assets/filters/富士cc.cube
TITLE "富士cc"
LUT_3D_SIZE 9
DOMAIN_MIN 0.0 0.0 0.0
DOMAIN_MAX 1.0 1.0 1.0
0.003118 0.003459 0.003159
0.071814 0.004350 0.002716
0.181169 0.008910 0.006830
0.311585 0.014580 0.011777
0.450646 0.023739 0.017671
0.578721 0.047008 0.024142
0.730540 0.032299 0.006877
0.834076 0.121694 0.101539
0.952153 0.158307 0.132038
0.010721 0.083302 0.012754
0.117434 0.096812 0.015006
0.218288 0.104123 0.023986
0.344895 0.118556 0.021988
0.473197 0.132372 0.026032
0.593656 0.152486 0.058116
0.709563 0.175189 0.076005
0.812429 0.204126 0.109376
0.948318 0.239354 0.127277
0.022796 0.210755 0.036038
0.146529 0.218463 0.044276
0.264013 0.239432 0.033359
0.382258 0.248714 0.049862
0.505890 0.260940 0.063476
0.618113 0.278442 0.081137
0.717953 0.281392 0.093208
0.843487 0.307810 0.103909
0.952159 0.341530 0.137122
0.082657 0.351122 0.092691
0.192093 0.356482 0.101942
0.292043 0.367929 0.098742
0.411198 0.379548 0.080099
0.539170 0.396028 0.025604
0.642350 0.400938 0.096714
0.747087 0.414346 0.104373
0.837120 0.407853 0.119606
0.960880 0.453530 0.159389
0.002744 0.479994 0.123890
0.217948 0.496975 0.130328
0.260579 0.498439 0.016115
0.436564 0.498840 0.122488
0.559240 0.518557 0.122530
0.668349 0.530394 0.082922
0.766208 0.542584 0.113176
0.870671 0.511303 0.044045
0.970606 0.569504 0.191468
0.000073 0.622793 0.010756
0.257073 0.630088 0.185913
0.364753 0.635169 0.187613
0.473849 0.640276 0.191186
0.582144 0.640126 0.182866
0.684649 0.642746 0.214682
0.783332 0.655173 0.220462
0.881087 0.661731 0.162787
0.978995 0.675532 0.197902
0.187077 0.747831 0.235487
0.284598 0.752808 0.236117
0.390950 0.757316 0.238355
0.497897 0.761391 0.242056
0.603766 0.765471 0.247055
0.694084 0.764049 0.064704
0.802006 0.768800 0.261604
0.887261 0.775620 0.308555
0.980229 0.785143 0.248151
0.203486 0.853711 0.281250
0.300691 0.859047 0.283477
0.405870 0.863355 0.286989
0.510771 0.866622 0.291514
0.613722 0.869283 0.296884
0.712907 0.871735 0.301047
0.833656 0.881071 0.223526
0.894052 0.877935 0.314560
0.967932 0.882201 0.322946
0.205150 0.932522 0.318674
0.302191 0.938508 0.323021
0.406411 0.942964 0.328386
0.509538 0.945809 0.334342
0.609899 0.947477 0.340720
0.705821 0.948405 0.347353
0.798903 0.949591 0.350202
0.912228 0.990700 0.354421
0.945982 0.950952 0.366706
0.002205 0.006605 0.062581
0.076396 0.013928 0.072990
0.202352 0.022053 0.094264
0.336347 0.034251 0.099586
0.458119 0.047213 0.115303
0.581594 0.065775 0.138760
0.711965 0.088890 0.162159
0.841561 0.121190 0.190083
0.959554 0.159576 0.220854
0.006290 0.086318 0.084916
0.087852 0.088489 0.087063
0.195864 0.102552 0.101759
0.322244 0.116264 0.114839
0.467628 0.133385 0.129166
0.593420 0.155029 0.149211
0.710942 0.181617 0.167545
0.820088 0.210766 0.200709
0.947055 0.237252 0.214575
0.026253 0.199829 0.119804
0.125098 0.211755 0.124672
0.238005 0.225859 0.137830
0.357620 0.237858 0.146663
0.486750 0.252060 0.159926
0.605071 0.266111 0.171732
0.722516 0.286641 0.185861
0.832058 0.308670 0.203898
0.961969 0.290309 0.177088
0.058221 0.352947 0.157308
0.177201 0.356377 0.170803
0.277248 0.364495 0.182192
0.395315 0.371694 0.188293
0.513630 0.380580 0.192523
0.631786 0.396048 0.208629
0.738862 0.409352 0.220116
0.827562 0.419563 0.226387
0.949123 0.446787 0.241415
0.044491 0.482695 0.201179
0.236952 0.482419 0.209981
0.324744 0.496343 0.221972
0.427929 0.506861 0.226603
0.546497 0.513942 0.236032
0.655519 0.522304 0.236248
0.757145 0.537026 0.254129
0.870143 0.542882 0.259703
0.958464 0.560478 0.266037
0.040485 0.608797 0.245624
0.246745 0.619559 0.255573
0.355580 0.624278 0.259387
0.460566 0.627881 0.258696
0.572802 0.633081 0.273288
0.678573 0.641011 0.288456
0.777692 0.653282 0.296268
0.881170 0.639260 0.198305
0.970606 0.668704 0.276449
0.001821 0.742466 0.150537
0.282247 0.740481 0.300182
0.388235 0.745584 0.303965
0.494631 0.750317 0.308887
0.599864 0.755106 0.314854
0.702640 0.757955 0.322451
0.805396 0.759727 0.345163
0.893176 0.777443 0.347082
0.976530 0.774691 0.300966
0.211091 0.839605 0.335632
0.307928 0.845724 0.339951
0.412283 0.850962 0.345173
0.516277 0.855212 0.351155
0.618235 0.858909 0.357730
0.716488 0.862489 0.364730
0.807390 0.865905 0.363287
0.896758 0.869835 0.377949
0.968658 0.876011 0.373743
0.224761 0.917854 0.365211
0.320789 0.924954 0.371600
0.423851 0.930646 0.378897
0.525735 0.934780 0.386532
0.624768 0.937791 0.394337
0.719279 0.940114 0.402144
0.807595 0.942184 0.409787
0.888045 0.944435 0.417096
0.954802 0.947072 0.423491
0.003165 0.012485 0.165329
0.085984 0.015074 0.185303
0.213714 0.023337 0.204576
0.364341 0.018189 0.239118
0.479191 0.049479 0.231218
0.602731 0.037826 0.250808
0.724705 0.100335 0.264326
0.856498 0.131317 0.290371
0.977365 0.165274 0.317289
0.005479 0.109343 0.195955
0.095173 0.109326 0.186851
0.204769 0.120743 0.197075
0.330331 0.135054 0.211106
0.471844 0.147794 0.225379
0.593055 0.174505 0.239630
0.696521 0.197820 0.257184
0.822477 0.219934 0.274659
0.954207 0.239580 0.310660
0.009964 0.225074 0.226862
0.117636 0.224930 0.222391
0.224330 0.224438 0.223606
0.345859 0.238950 0.234655
0.477756 0.256066 0.253293
0.603647 0.271207 0.265261
0.721022 0.294942 0.285047
0.832027 0.314891 0.300976
0.947462 0.327110 0.308556
0.022149 0.339965 0.252128
0.154307 0.339517 0.257597
0.263062 0.357546 0.261810
0.381538 0.367401 0.273719
0.501657 0.378679 0.281679
0.622726 0.392956 0.295071
0.734095 0.405417 0.306366
0.835383 0.419824 0.317443
0.952476 0.436348 0.329559
0.021085 0.478505 0.278916
0.141840 0.495640 0.277479
0.315861 0.489920 0.305737
0.417057 0.502164 0.314051
0.534433 0.509782 0.323095
0.646014 0.519161 0.328640
0.751974 0.530071 0.341757
0.847554 0.539882 0.348597
0.965976 0.524696 0.316321
0.000709 0.610182 0.314990
0.159949 0.622187 0.275393
0.278243 0.621147 0.273596
0.456465 0.621812 0.349770
0.559241 0.633080 0.360392
0.671495 0.639147 0.364096
0.771887 0.650115 0.373037
0.868653 0.662505 0.388105
0.992571 0.637308 0.291632
0.066826 0.750142 0.292731
0.267082 0.734561 0.369744
0.383304 0.738373 0.382639
0.489553 0.743353 0.388279
0.592209 0.748337 0.391261
0.695975 0.753466 0.398655
0.795784 0.759323 0.409447
0.887592 0.775017 0.415805
0.975248 0.768999 0.374018
0.011206 0.873277 0.258268
0.311330 0.837020 0.409840
0.415725 0.842768 0.416743
0.519347 0.847631 0.423906
0.620844 0.851998 0.431391
0.718545 0.856304 0.439032
0.810276 0.859866 0.445043
0.897265 0.865753 0.449512
0.987028 0.876266 0.446237
0.239779 0.907824 0.425859
0.335290 0.915700 0.434068
0.437714 0.922274 0.443053
0.538870 0.927347 0.452105
0.637084 0.931355 0.461058
0.730687 0.934731 0.469742
0.818004 0.937911 0.477992
0.897365 0.941329 0.485639
0.968266 0.952389 0.457468
0.003087 0.020270 0.282751
0.097384 0.032120 0.302690
0.217117 0.046188 0.300296
0.348285 0.052755 0.319491
0.495312 0.009726 0.368100
0.605521 0.046252 0.355296
0.747673 0.114352 0.364796
0.882237 0.143384 0.388836
0.994344 0.175447 0.413575
0.002952 0.128691 0.312675
0.090352 0.127425 0.308659
0.207065 0.140369 0.301913
0.352167 0.147342 0.339219
0.474090 0.161165 0.321672
0.600051 0.170479 0.350787
0.727969 0.192418 0.367417
0.854540 0.218333 0.386948
0.970256 0.246149 0.407330
0.005613 0.247132 0.341737
0.111480 0.243960 0.335886
0.233724 0.249459 0.336233
0.346924 0.252883 0.340525
0.475508 0.264031 0.352474
0.601168 0.280891 0.364679
0.716034 0.299407 0.378756
0.830904 0.323759 0.395508
0.952938 0.331778 0.408797
0.012070 0.369765 0.364579
0.145048 0.363344 0.361446
0.257283 0.366149 0.365961
0.369264 0.369286 0.368348
0.492965 0.380789 0.379865
0.616849 0.396969 0.394619
0.732601 0.411179 0.405102
0.843046 0.426824 0.413111
0.946934 0.435251 0.419839
0.084910 0.478655 0.391429
0.187168 0.487843 0.394857
0.283551 0.497542 0.397681
0.405906 0.497593 0.407880
0.520563 0.508871 0.415132
0.636815 0.516482 0.420777
0.744949 0.528601 0.432044
0.850207 0.540201 0.440040
0.987917 0.562750 0.456212
0.004475 0.601996 0.404442
0.221492 0.612211 0.424056
0.341233 0.620948 0.447880
0.441323 0.619513 0.434060
0.554438 0.628849 0.444183
0.662810 0.639410 0.452997
0.767110 0.648446 0.464203
0.865241 0.659217 0.473707
0.972306 0.668995 0.482492
0.170747 0.726241 0.458004
0.268773 0.731689 0.462369
0.375445 0.736706 0.468053
0.480547 0.741434 0.472297
0.585317 0.746018 0.477239
0.681969 0.750691 0.472519
0.786788 0.753592 0.489427
0.883667 0.762610 0.489588
0.991959 0.773291 0.506309
0.229814 0.833317 0.485283
0.310398 0.834042 0.488247
0.415049 0.839854 0.496114
0.519326 0.844804 0.504344
0.620988 0.849383 0.512346
0.718731 0.853960 0.520183
0.810565 0.857516 0.526285
0.897095 0.854446 0.510372
0.989581 0.878785 0.521463
0.220714 0.920015 0.481676
0.344068 0.911847 0.505808
0.446480 0.918846 0.516086
0.547533 0.924401 0.526162
0.645556 0.928947 0.535867
0.738876 0.932919 0.545036
0.825821 0.936751 0.553499
0.904718 0.940889 0.561018
0.999925 0.995796 0.433107
0.003257 0.038501 0.390916
0.108112 0.066673 0.401898
0.235312 0.071936 0.408957
0.363398 0.079816 0.419583
0.500641 0.089276 0.434086
0.636504 0.103833 0.448569
0.779869 0.133620 0.464168
0.917474 0.160250 0.485724
0.999515 0.190029 0.507936
0.003494 0.151138 0.416357
0.084954 0.156134 0.420093
0.225136 0.156328 0.428351
0.351762 0.160103 0.435348
0.487926 0.141867 0.478251
0.612269 0.188041 0.451681
0.746529 0.208248 0.467184
0.876713 0.230952 0.484696
0.991407 0.256616 0.502676
0.005017 0.265444 0.447466
0.096780 0.259202 0.444794
0.229246 0.272936 0.449666
0.350557 0.274167 0.445116
0.477731 0.287312 0.451560
0.585324 0.301747 0.468623
0.732137 0.300575 0.482670
0.851815 0.324372 0.494167
0.962408 0.345899 0.508371
0.006437 0.384163 0.480435
0.129033 0.382120 0.476437
0.251383 0.385939 0.478144
0.372231 0.389863 0.478165
0.488819 0.392487 0.483118
0.613014 0.404048 0.493201
0.727273 0.419909 0.506078
0.839383 0.435266 0.518051
0.952896 0.437372 0.519974
0.069835 0.504043 0.499223
0.181826 0.508639 0.503409
0.281721 0.506125 0.503637
0.394413 0.504960 0.505828
0.509760 0.508774 0.509331
0.628011 0.519481 0.517808
0.739743 0.532477 0.529824
0.847294 0.545626 0.540816
0.984748 0.525412 0.521105
0.023334 0.609248 0.534574
0.210580 0.617339 0.525495
0.312238 0.618842 0.528672
0.423097 0.627242 0.528475
0.544616 0.626937 0.545241
0.651542 0.641160 0.552017
0.757037 0.649846 0.558228
0.858872 0.666218 0.560094
0.985247 0.673771 0.566727
0.066461 0.717947 0.572349
0.258527 0.736007 0.553839
0.363936 0.740301 0.558252
0.467495 0.733782 0.564469
0.571651 0.747902 0.564960
0.675132 0.739058 0.583647
0.777082 0.753267 0.578384
0.872693 0.761539 0.587854
0.989787 0.774748 0.591109
0.208196 0.830129 0.566212
0.305914 0.836413 0.573962
0.411306 0.841946 0.582353
0.516064 0.846661 0.590694
0.618517 0.850995 0.598819
0.716846 0.855390 0.606369
0.804415 0.859815 0.603558
0.892247 0.865477 0.603106
0.991517 0.873698 0.637455
0.226961 0.919145 0.565872
0.346971 0.913328 0.585042
0.449997 0.920294 0.596219
0.551575 0.925873 0.606924
0.650032 0.930500 0.616989
0.743695 0.934609 0.626246
0.830894 0.938636 0.634529
0.909934 0.943068 0.641404
0.999968 0.988588 0.634179
0.011287 0.106528 0.504756
0.127398 0.110065 0.502369
0.258771 0.111919 0.508711
0.395466 0.117197 0.517913
0.535820 0.126447 0.529685
0.678156 0.140020 0.543950
0.820801 0.158348 0.560542
0.960822 0.181882 0.579278
0.999987 0.208949 0.598593
0.003153 0.179715 0.505263
0.106895 0.188021 0.520870
0.234567 0.189426 0.525038
0.367007 0.192094 0.533913
0.501748 0.199361 0.542981
0.637779 0.212487 0.551791
0.773437 0.227874 0.564939
0.906902 0.247895 0.579808
0.998613 0.271153 0.595114
0.004420 0.284415 0.532929
0.071771 0.277142 0.540805
0.228625 0.289919 0.550918
0.361052 0.288944 0.564308
0.488720 0.282455 0.580659
0.616316 0.302995 0.573726
0.744413 0.320516 0.578812
0.869702 0.337142 0.590255
0.982311 0.356678 0.601951
0.005391 0.401506 0.566362
0.106598 0.402957 0.576346
0.243554 0.406748 0.582056
0.373085 0.417144 0.584842
0.486595 0.412066 0.582268
0.604895 0.415387 0.590143
0.746558 0.381307 0.622139
0.852455 0.437922 0.608572
0.956326 0.456246 0.617289
0.011355 0.512744 0.587463
0.162554 0.521263 0.606873
0.272331 0.519508 0.608356
0.393611 0.523933 0.612873
0.509659 0.528055 0.615714
0.624122 0.530473 0.618092
0.737118 0.540213 0.627723
0.842994 0.556243 0.636460
0.987951 0.534519 0.633968
0.018117 0.623981 0.608110
0.238478 0.630124 0.623285
0.324042 0.637479 0.634707
0.428336 0.639659 0.638687
0.536433 0.640566 0.641667
0.645282 0.643772 0.644916
0.751098 0.653010 0.650495
0.853098 0.655739 0.659981
0.973826 0.663796 0.670530
0.003526 0.726746 0.633126
0.244286 0.746237 0.648857
0.352879 0.748780 0.654257
0.454433 0.747396 0.655661
0.562366 0.750586 0.660941
0.677563 0.745640 0.672168
0.771591 0.760709 0.677323
0.867956 0.769161 0.683512
0.995287 0.753948 0.640540
0.196860 0.838995 0.655937
0.296154 0.844463 0.664179
0.403142 0.849179 0.672838
0.509408 0.853134 0.681178
0.613279 0.856765 0.689031
0.707034 0.861110 0.690837
0.800542 0.864415 0.694897
0.887403 0.872680 0.704047
0.987055 0.881014 0.718163
0.246372 0.912438 0.658534
0.343847 0.920072 0.669994
0.448114 0.926547 0.681675
0.550842 0.931693 0.692615
0.650359 0.935943 0.702645
0.744993 0.939733 0.711598
0.833071 0.943497 0.719305
0.911785 0.948737 0.722751
1.000000 0.987923 0.708035
0.031981 0.162210 0.604394
0.153315 0.157709 0.606148
0.289559 0.155869 0.610609
0.431038 0.157552 0.617614
0.576081 0.163193 0.626995
0.723016 0.173226 0.638585
0.870170 0.188088 0.652216
0.993674 0.208211 0.667720
1.000000 0.232137 0.683770
0.006509 0.233528 0.623535
0.119092 0.229328 0.624471
0.251257 0.227153 0.627415
0.387841 0.227931 0.632481
0.527173 0.232097 0.639500
0.667581 0.240085 0.648305
0.807393 0.252331 0.658729
0.944363 0.269269 0.670603
0.999920 0.289692 0.682866
0.004405 0.301552 0.595580
0.106123 0.322995 0.649213
0.234585 0.319424 0.653385
0.366219 0.318501 0.658614
0.499120 0.322290 0.662067
0.632576 0.330309 0.666362
0.764687 0.340117 0.674064
0.893657 0.354008 0.682765
0.996088 0.371036 0.691655
0.005348 0.414146 0.650645
0.112668 0.427118 0.679221
0.247702 0.389848 0.730503
0.363156 0.435447 0.687628
0.493528 0.418667 0.698901
0.619670 0.430690 0.693501
0.743787 0.441948 0.695789
0.864362 0.453322 0.701912
0.972091 0.467304 0.708119
0.006664 0.533698 0.688991
0.134665 0.543070 0.697239
0.259881 0.546811 0.702416
0.385092 0.549981 0.707232
0.516677 0.555484 0.712258
0.624826 0.554842 0.704866
0.740263 0.553633 0.723570
0.852430 0.559831 0.725890
0.952696 0.572274 0.729660
0.064914 0.651354 0.721891
0.178422 0.654064 0.727098
0.294668 0.652299 0.731197
0.426415 0.645860 0.734524
0.537709 0.660049 0.740279
0.651759 0.666398 0.745564
0.748293 0.661781 0.742347
0.848675 0.671569 0.746586
0.959574 0.675227 0.754112
0.123244 0.760299 0.740878
0.227136 0.762228 0.746241
0.339722 0.763761 0.751979
0.449288 0.764216 0.757015
0.518955 0.752239 0.754368
0.668710 0.759054 0.768115
0.767101 0.765949 0.767382
0.870542 0.775885 0.765104
0.997165 0.773860 0.782735
0.180140 0.853749 0.749175
0.281595 0.857975 0.757541
0.390808 0.861416 0.766075
0.499207 0.864154 0.774019
0.605089 0.866619 0.781197
0.702079 0.868786 0.785734
0.797432 0.869953 0.790604
0.888609 0.882334 0.796858
0.982433 0.888939 0.805360
0.235245 0.925313 0.747078
0.334545 0.932010 0.758884
0.440679 0.937537 0.770677
0.545184 0.941792 0.781458
0.646387 0.945208 0.791059
0.742617 0.948220 0.799312
0.832201 0.951264 0.806051
0.911320 0.957083 0.807433
0.999645 0.986761 0.828137
0.057957 0.221164 0.705537
0.184518 0.212727 0.705403
0.326259 0.206734 0.707589
0.473145 0.204322 0.712048
0.623505 0.205924 0.718614
0.775666 0.211976 0.727118
0.927781 0.222912 0.737394
0.999724 0.239168 0.749273
1.000000 0.259525 0.761690
0.012879 0.285097 0.726408
0.135285 0.277164 0.725452
0.272590 0.271163 0.726358
0.414224 0.268172 0.729115
0.558516 0.268625 0.733556
0.703793 0.272958 0.739513
0.848384 0.281606 0.746818
0.982891 0.295002 0.755304
1.000000 0.312164 0.764156
0.003712 0.371124 0.752186
0.109111 0.364157 0.750924
0.241822 0.358505 0.751169
0.377991 0.355253 0.752813
0.515945 0.354838 0.755688
0.654012 0.357692 0.759629
0.790520 0.364251 0.764466
0.923715 0.374950 0.770032
0.999609 0.389042 0.775746
0.003854 0.461700 0.782909
0.106914 0.464302 0.778114
0.180925 0.435192 0.745917
0.365824 0.451837 0.784581
0.497830 0.454987 0.782144
0.628830 0.456930 0.784570
0.757406 0.461920 0.787523
0.881884 0.470296 0.790907
0.991096 0.481669 0.794176
0.012330 0.571923 0.799441
0.124830 0.571470 0.804326
0.248161 0.565369 0.805466
0.371551 0.558011 0.810706
0.508502 0.578001 0.805463
0.624448 0.559611 0.817394
0.745485 0.565089 0.816457
0.861113 0.574849 0.815460
0.963549 0.584068 0.816857
0.048378 0.680917 0.826184
0.156820 0.675363 0.828583
0.264855 0.651657 0.833890
0.401217 0.671560 0.833676
0.527797 0.683798 0.832821
0.653930 0.684047 0.833640
0.754712 0.673616 0.826110
0.857513 0.674687 0.843403
0.952460 0.688570 0.841646
0.099284 0.783958 0.839220
0.206279 0.783889 0.844101
0.322144 0.783355 0.849102
0.434761 0.779846 0.855842
0.560752 0.773277 0.865632
0.665460 0.782590 0.861425
0.769869 0.784978 0.860314
0.867688 0.788602 0.854341
0.966673 0.782672 0.868301
0.157886 0.874324 0.844150
0.262088 0.876878 0.852271
0.374150 0.878587 0.860284
0.485310 0.879650 0.867438
0.593889 0.880497 0.873568
0.693743 0.880466 0.878513
0.789024 0.872623 0.887511
0.883963 0.884540 0.884989
0.976665 0.884803 0.890379
0.217201 0.943741 0.838154
0.318914 0.949073 0.849937
0.427541 0.953195 0.861447
0.534449 0.956100 0.871674
0.637964 0.958225 0.880452
0.736416 0.960002 0.887613
0.826077 0.962475 0.892461
0.909284 0.967567 0.896748
0.998404 0.991066 0.914039
0.086370 0.283279 0.794901
0.218361 0.270762 0.792664
0.365806 0.260474 0.792367
0.518312 0.253819 0.794092
0.674208 0.251233 0.797670
0.831820 0.253149 0.802935
0.982903 0.260003 0.809718
0.999998 0.272229 0.817852
1.000000 0.288852 0.826526
0.025610 0.339943 0.817899
0.153798 0.328219 0.815050
0.296472 0.318228 0.813696
0.443391 0.311301 0.813940
0.592883 0.307872 0.815616
0.743277 0.308376 0.818555
0.892871 0.313247 0.822590
0.997527 0.322921 0.827553
1.000000 0.336636 0.832871
0.003955 0.419059 0.845103
0.113907 0.408513 0.842261
0.251630 0.399198 0.840482
0.392727 0.392338 0.839851
0.535524 0.388366 0.840198
0.678351 0.387717 0.841357
0.819534 0.390826 0.843161
0.956317 0.398129 0.845441
0.999971 0.409081 0.847844
0.001613 0.511750 0.872552
0.100724 0.502733 0.870409
0.233651 0.494468 0.868945
0.369080 0.488017 0.868207
0.505337 0.483907 0.867933
0.640750 0.482481 0.868051
0.773649 0.484203 0.868361
0.902360 0.489508 0.868696
0.997475 0.498047 0.868876
0.004714 0.612039 0.897658
0.110459 0.604901 0.896905
0.238745 0.598061 0.896493
0.366938 0.586797 0.897904
0.498058 0.583744 0.900240
0.626687 0.586690 0.896044
0.751457 0.587352 0.895644
0.871164 0.591082 0.894728
0.977174 0.597559 0.893375
0.025628 0.713950 0.917832
0.139322 0.709042 0.919159
0.263073 0.703916 0.920608
0.387604 0.699419 0.921849
0.511289 0.696117 0.922559
0.632279 0.693918 0.923149
0.749112 0.690595 0.925670
0.860092 0.696500 0.921246
0.956993 0.701638 0.918754
0.073088 0.811506 0.930483
0.183523 0.809177 0.934581
0.302943 0.806224 0.938559
0.420183 0.800091 0.944932
0.531205 0.791835 0.952626
0.648068 0.791507 0.954058
0.750367 0.752162 0.995880
0.863900 0.766442 0.974517
0.953688 0.803581 0.942885
0.131966 0.898730 0.933022
0.239273 0.899330 0.940583
0.354563 0.899009 0.947757
0.468865 0.898095 0.953819
0.580243 0.896850 0.958786
0.640691 0.882350 0.994008
0.780089 0.895221 0.974054
0.881742 0.897482 0.968885
0.983764 0.908278 0.980020
0.193997 0.965893 0.924081
0.298500 0.969559 0.935513
0.410018 0.971957 0.946405
0.519733 0.973192 0.955763
0.625972 0.973699 0.963419
0.727063 0.973912 0.969205
0.812631 0.977517 0.976927
0.894637 0.990603 0.998797
0.992035 0.994875 0.994932
