app/src/main/assets/filters/富士cc.cube
TITLE "富士cc"
LUT_3D_SIZE 33
DOMAIN_MIN 0.0 0.0 0.0
DOMAIN_MAX 1.0 1.0 1.0
0.003118 0.003459 0.003159
0.015397 0.002730 0.002903
0.032507 0.003642 0.002844
0.049955 0.004094 0.002372
0.071814 0.004350 0.002716
0.096079 0.004999 0.004040
0.123480 0.006205 0.004456
0.151455 0.007300 0.005768
0.181169 0.008910 0.006830
0.209758 0.010055 0.007514
0.242538 0.011290 0.008738
0.277024 0.012715 0.010266
0.311585 0.014580 0.011777
0.343902 0.017018 0.012232
0.376374 0.019841 0.012882
0.413256 0.022721 0.015644
0.450646 0.023739 0.017671
0.486338 0.028452 0.018762
0.518782 0.031977 0.017898
0.551589 0.037651 0.020164
0.578721 0.047008 0.024142
0.608072 0.061370 0.028962
0.632404 0.071575 0.019744
0.693500 0.037881 0.009125
0.730540 0.032299 0.006877
0.779030 0.002815 0.000380
0.774900 0.091452 0.072304
0.803113 0.109553 0.090000
0.834076 0.121694 0.101539
0.865859 0.131209 0.109680
0.897510 0.140820 0.117707
0.928337 0.150547 0.125704
0.952153 0.158307 0.132038
0.005339 0.013318 0.003704
0.018088 0.014030 0.003460
0.037029 0.015870 0.003950
0.058047 0.017938 0.005314
0.081203 0.019099 0.004966
0.106274 0.020520 0.005725
0.132627 0.021960 0.006346
0.160024 0.023296 0.007410
0.188927 0.025174 0.009101
0.218955 0.028509 0.011228
0.250827 0.030929 0.012731
0.281545 0.033652 0.013527
0.315113 0.036217 0.013379
0.347390 0.039108 0.014857
0.379834 0.043143 0.017875
0.413937 0.046372 0.019560
0.451412 0.049455 0.022596
0.489687 0.055946 0.027449
0.523552 0.062130 0.028352
0.555920 0.067619 0.031656
0.587105 0.074513 0.036030
0.615321 0.081926 0.035760
0.643534 0.091077 0.035835
0.671793 0.099416 0.036925
0.701149 0.109242 0.041422
0.723833 0.120469 0.043993
0.785766 0.068952 0.017104
0.800542 0.126618 0.086026
0.832552 0.137759 0.098422
0.865297 0.147124 0.108181
0.896686 0.156526 0.116084
0.927187 0.166016 0.123870
0.950682 0.173600 0.130032
0.006525 0.032244 0.006113
0.023248 0.034654 0.006417
0.045420 0.037002 0.006046
0.067869 0.038010 0.007107
0.089464 0.040173 0.008098
0.114148 0.042833 0.009631
0.140989 0.043938 0.010215
0.168089 0.046921 0.011199
0.199728 0.048770 0.010968
0.231357 0.051696 0.013440
0.261697 0.054224 0.015150
0.292126 0.057799 0.014754
0.324052 0.059920 0.014460
0.356029 0.062600 0.015908
0.389246 0.067224 0.018061
0.421088 0.070781 0.021218
0.455910 0.076742 0.027905
0.492315 0.083308 0.033694
0.525486 0.090950 0.034729
0.556529 0.095568 0.041745
0.589797 0.099740 0.050121
0.619470 0.107505 0.049592
0.648461 0.114102 0.049383
0.674235 0.119828 0.049300
0.703384 0.125648 0.055604
0.731734 0.133930 0.060024
0.754272 0.147824 0.064620
0.774582 0.163604 0.074466
0.830302 0.157865 0.094637
0.864087 0.166446 0.104243
0.897104 0.175104 0.112297
0.926198 0.186700 0.122117
0.949283 0.194172 0.128193
0.008284 0.056357 0.010113
0.026627 0.057566 0.013309
0.052657 0.061229 0.010702
0.077449 0.064348 0.009344
0.101777 0.065508 0.010347
0.122940 0.067925 0.013952
0.149305 0.071404 0.015822
0.177064 0.072962 0.016780
0.207353 0.075798 0.016972
0.242256 0.078966 0.016381
0.272932 0.081711 0.018985
0.302309 0.084669 0.018610
0.332112 0.087418 0.017213
0.365162 0.089607 0.019333
0.398651 0.094096 0.022120
0.430477 0.098549 0.021510
0.460965 0.100989 0.025776
0.494926 0.108107 0.033505
0.528594 0.115505 0.040430
0.559577 0.122792 0.046921
0.590882 0.124228 0.059031
0.621743 0.130072 0.061650
0.649238 0.138598 0.062045
0.677754 0.145774 0.062545
0.704955 0.153579 0.063764
0.734651 0.158528 0.073188
0.763171 0.163455 0.080573
0.785307 0.177329 0.087769
0.807712 0.185327 0.091853
0.863977 0.185165 0.100075
0.898201 0.193501 0.107029
0.925835 0.208785 0.121179
0.948505 0.216218 0.127238
0.010721 0.083302 0.012754
0.036068 0.086902 0.021967
0.061903 0.087448 0.022958
0.088370 0.089457 0.016325
0.117434 0.096812 0.015006
0.137109 0.096371 0.014356
0.156735 0.096488 0.019511
0.185847 0.101150 0.023346
0.218288 0.104123 0.023986
0.248121 0.107781 0.024481
0.281761 0.112161 0.024001
0.313916 0.115602 0.024107
0.344895 0.118556 0.021988
0.375166 0.120636 0.024229
0.405486 0.122462 0.029974
0.441284 0.129231 0.027497
0.473197 0.132372 0.026032
0.502418 0.136450 0.033025
0.534269 0.141624 0.043429
0.564571 0.146636 0.050293
0.593656 0.152486 0.058116
0.625699 0.157404 0.059128
0.652148 0.163968 0.068209
0.680008 0.167659 0.076724
0.709563 0.175189 0.076005
0.736665 0.185522 0.081064
0.761092 0.193987 0.090721
0.796116 0.193828 0.101448
0.812429 0.204126 0.109376
0.903054 0.128843 0.005248
0.899178 0.214805 0.105490
0.926954 0.229967 0.119000
0.948318 0.239354 0.127277
0.012178 0.113624 0.015959
0.044081 0.116207 0.022830
0.070335 0.118649 0.029424
0.097754 0.119226 0.028099
0.125978 0.122831 0.020671
0.153141 0.129827 0.016552
0.173880 0.129616 0.018336
0.194692 0.129681 0.023987
0.228162 0.134648 0.028420
0.257851 0.136856 0.030843
0.288171 0.140866 0.030975
0.322888 0.145742 0.023961
0.356815 0.151881 0.019873
0.387089 0.152983 0.024064
0.414460 0.154767 0.031511
0.447280 0.159877 0.039024
0.483177 0.165268 0.031859
0.512292 0.169116 0.034821
0.541244 0.172373 0.048598
0.572444 0.175248 0.059400
0.599138 0.179915 0.063485
0.628679 0.186838 0.059192
0.656460 0.194743 0.048574
0.676596 0.198005 0.063574
0.714242 0.191577 0.088831
0.743527 0.202132 0.092423
0.767215 0.213570 0.102705
0.785607 0.221487 0.113582
0.833441 0.227643 0.103121
0.866936 0.233633 0.104647
0.899253 0.242087 0.109576
0.927574 0.254544 0.120441
0.948647 0.263536 0.128310
0.022936 0.146131 0.022831
0.052112 0.149632 0.025322
0.082232 0.150890 0.027174
0.103691 0.151865 0.027084
0.128760 0.151057 0.027175
0.158244 0.154995 0.023672
0.189318 0.166213 0.019975
0.211487 0.165717 0.021810
0.235592 0.165497 0.029538
0.264956 0.168493 0.035016
0.296309 0.171726 0.039332
0.328280 0.175007 0.033890
0.364566 0.180796 0.021312
0.399091 0.186001 0.018712
0.424284 0.187357 0.036218
0.455120 0.192382 0.049436
0.489189 0.196952 0.049636
0.522783 0.203146 0.042386
0.548873 0.204452 0.051982
0.577859 0.207038 0.064010
0.605644 0.209047 0.069153
0.632204 0.213538 0.076009
0.658101 0.218153 0.072322
0.681994 0.224322 0.068317
0.701308 0.237273 0.084589
0.775073 0.194028 0.016150
0.777503 0.239406 0.088654
0.807550 0.247034 0.096324
0.838835 0.254412 0.103373
0.869948 0.262682 0.110044
0.899714 0.272201 0.117173
0.928620 0.280297 0.123057
0.949408 0.288756 0.130401
0.028505 0.177936 0.027749
0.064418 0.183236 0.036152
0.090222 0.181631 0.036618
0.113650 0.183905 0.028786
0.134311 0.188890 0.028684
0.156329 0.187904 0.032944
0.195679 0.194045 0.028828
0.225731 0.202302 0.026937
0.251539 0.202915 0.026162
0.276736 0.203109 0.033686
0.307413 0.206503 0.042615
0.338805 0.209691 0.044618
0.371214 0.213737 0.039629
0.404980 0.217502 0.023622
0.434958 0.219291 0.034653
0.464001 0.223691 0.058263
0.495670 0.229638 0.064780
0.528274 0.234907 0.052846
0.556487 0.237849 0.055661
0.582137 0.241367 0.067268
0.612676 0.244655 0.073117
0.640614 0.246444 0.079683
0.664079 0.245870 0.090649
0.687060 0.247882 0.091244
0.711465 0.256680 0.092276
0.736913 0.269551 0.074650
0.758743 0.278798 0.067723
0.838451 0.224116 0.005520
0.842332 0.281956 0.104147
0.872311 0.292281 0.115499
0.901322 0.301401 0.122920
0.929182 0.308926 0.128820
0.950599 0.314795 0.133357
0.022796 0.210755 0.036038
0.072699 0.217616 0.041860
0.099201 0.223303 0.049871
0.121881 0.217220 0.047864
0.146529 0.218463 0.044276
0.164759 0.223334 0.048319
0.198177 0.228037 0.043597
0.235119 0.233431 0.037258
0.264013 0.239432 0.033359
0.292507 0.240617 0.031200
0.320833 0.242155 0.031977
0.350772 0.244350 0.039395
0.382258 0.248714 0.049862
0.414213 0.252443 0.038224
0.447620 0.255958 0.028285
0.475223 0.256616 0.049509
0.505890 0.260940 0.063476
0.536219 0.266797 0.062924
0.565815 0.271229 0.057993
0.591506 0.275635 0.069777
0.618113 0.278442 0.081137
0.648422 0.280629 0.070781
0.672716 0.281502 0.085840
0.695772 0.279347 0.089437
0.717953 0.281392 0.093208
0.741211 0.287743 0.084896
0.766180 0.295349 0.073274
0.783870 0.303544 0.082373
0.843487 0.307810 0.103909
0.874921 0.318640 0.116859
0.903625 0.328889 0.127269
0.931105 0.336016 0.132879
0.952159 0.341530 0.137122
0.026168 0.247652 0.051012
0.083862 0.253534 0.058311
0.110848 0.255911 0.059073
0.130405 0.261572 0.061050
0.153397 0.257029 0.064908
0.178105 0.253136 0.069751
0.200772 0.260749 0.062452
0.243658 0.263787 0.044767
0.274198 0.270378 0.043422
0.303364 0.275189 0.043285
0.332730 0.277990 0.037205
0.362961 0.280284 0.031528
0.395940 0.283277 0.032157
0.428249 0.290361 0.035712
0.457773 0.293954 0.033239
0.486370 0.294885 0.037692
0.512466 0.294496 0.058438
0.543402 0.298036 0.074427
0.571764 0.302288 0.072246
0.600336 0.307252 0.070244
0.625409 0.310128 0.082796
0.652518 0.312598 0.078125
0.680121 0.314489 0.080502
0.702681 0.315574 0.085853
0.725005 0.313849 0.076109
0.747750 0.315920 0.081702
0.771403 0.320337 0.083946
0.792110 0.323932 0.092616
0.835021 0.309350 0.059798
0.874245 0.346956 0.123458
0.906157 0.356734 0.132188
0.933351 0.363589 0.137583
0.954041 0.368825 0.141604
0.027766 0.281461 0.064124
0.093727 0.290990 0.074583
0.128881 0.292929 0.073797
0.144970 0.291499 0.070607
0.163433 0.294404 0.074591
0.186358 0.300135 0.079962
0.219614 0.303816 0.073399
0.248868 0.299318 0.073070
0.283356 0.303117 0.057333
0.311268 0.306624 0.053550
0.341165 0.311732 0.052842
0.369164 0.312916 0.054844
0.402156 0.314708 0.042298
0.436251 0.319976 0.024286
0.470901 0.328922 0.017161
0.497844 0.331638 0.023986
0.520581 0.329304 0.051828
0.544752 0.328339 0.074767
0.574783 0.330782 0.078098
0.604243 0.336134 0.078444
0.632231 0.340386 0.079183
0.658201 0.344981 0.086386
0.684494 0.346157 0.086891
0.709899 0.347191 0.093661
0.732778 0.348589 0.083382
0.753689 0.347233 0.076374
0.778642 0.349864 0.093262
0.801064 0.352606 0.105156
0.810293 0.353483 0.121761
0.874626 0.374385 0.129532
0.908866 0.385105 0.137945
0.935822 0.391684 0.143032
0.956159 0.396652 0.146837
0.054857 0.317836 0.078651
0.111737 0.326420 0.087758
0.143127 0.326403 0.091237
0.161613 0.324707 0.083475
0.179126 0.326421 0.082258
0.202008 0.330740 0.085768
0.230077 0.336581 0.084112
0.255394 0.335046 0.090092
0.288056 0.331290 0.085259
0.323009 0.338292 0.056591
0.348081 0.342179 0.060423
0.376184 0.346132 0.066214
0.405549 0.346931 0.067357
0.436077 0.348470 0.051221
0.472219 0.354588 0.031001
0.506111 0.362372 0.018740
0.532671 0.365246 0.031035
0.554747 0.361965 0.065340
0.578900 0.361945 0.083825
0.605361 0.363777 0.092775
0.636248 0.369832 0.087012
0.665122 0.374422 0.096167
0.690813 0.377787 0.105445
0.715784 0.380430 0.104537
0.739837 0.381290 0.085149
0.760227 0.379760 0.076323
0.786885 0.382547 0.097457
0.808247 0.382402 0.115033
0.819029 0.383733 0.129081
0.877157 0.403342 0.137489
0.911913 0.413936 0.144384
0.938467 0.420212 0.149185
0.958458 0.424917 0.152779
0.082657 0.351122 0.092691
0.132024 0.356419 0.100757
0.160351 0.359656 0.108452
0.173759 0.356048 0.105824
0.192093 0.356482 0.101942
0.212969 0.356932 0.100972
0.237418 0.359464 0.101590
0.266227 0.363671 0.101618
0.292043 0.367929 0.098742
0.331778 0.368068 0.074772
0.360461 0.372537 0.045795
0.383043 0.376255 0.070660
0.411198 0.379548 0.080099
0.439607 0.379903 0.074346
0.470891 0.382197 0.071921
0.506140 0.388625 0.043519
0.539170 0.396028 0.025604
0.566913 0.399418 0.043349
0.590094 0.397706 0.076839
0.613271 0.396903 0.096074
0.642350 0.400938 0.096714
0.672975 0.407369 0.097956
0.699320 0.410302 0.102208
0.723305 0.412791 0.114995
0.747087 0.414346 0.104373
0.769167 0.414246 0.087946
0.793493 0.415638 0.104196
0.812770 0.417819 0.124029
0.837120 0.407853 0.119606
0.883943 0.434158 0.145208
0.915243 0.443181 0.151462
0.941232 0.449081 0.155997
0.960880 0.453530 0.159389
0.029259 0.381665 0.094211
0.128826 0.381554 0.111869
0.170058 0.383879 0.120263
0.181902 0.381031 0.121454
0.202370 0.381092 0.115591
0.225539 0.387687 0.119386
0.244819 0.382199 0.116942
0.275723 0.388650 0.111858
0.306106 0.397349 0.098353
0.335165 0.406480 0.102923
0.366289 0.405553 0.075749
0.397318 0.407808 0.047522
0.420135 0.411553 0.079745
0.447008 0.412752 0.094453
0.475249 0.412815 0.092676
0.505339 0.417132 0.084418
0.541054 0.423812 0.057435
0.572541 0.429157 0.046951
0.598614 0.431449 0.069177
0.622203 0.431619 0.093679
0.649284 0.434275 0.103444
0.676992 0.438615 0.090321
0.704311 0.441629 0.087723
0.728264 0.443337 0.083301
0.752046 0.445565 0.100544
0.777456 0.449055 0.119070
0.797280 0.449488 0.123244
0.817066 0.448619 0.138109
0.859448 0.458801 0.149223
0.890578 0.465295 0.152997
0.918712 0.472652 0.158929
0.944061 0.478185 0.163394
0.963364 0.482394 0.166626
0.003652 0.415539 0.097957
0.108278 0.420075 0.112968
0.151970 0.422481 0.116613
0.179716 0.424079 0.114854
0.203018 0.425354 0.113266
0.237243 0.424085 0.118063
0.232005 0.436437 0.083652
0.268448 0.421572 0.087734
0.319527 0.427159 0.111629
0.345407 0.435000 0.106011
0.369309 0.439675 0.116490
0.403076 0.440510 0.071849
0.433079 0.444531 0.056893
0.457351 0.448037 0.100452
0.486753 0.449091 0.108019
0.514264 0.450096 0.101672
0.540399 0.450812 0.098293
0.577231 0.458329 0.077783
0.605205 0.462702 0.080904
0.630828 0.465395 0.086950
0.656074 0.467100 0.095666
0.680903 0.469865 0.101936
0.707141 0.472354 0.089378
0.734146 0.475480 0.070269
0.755992 0.475684 0.076379
0.783643 0.480276 0.121220
0.804997 0.482605 0.148420
0.823103 0.486057 0.167590
0.865742 0.488714 0.154339
0.895836 0.494358 0.155317
0.922077 0.502171 0.166786
0.946893 0.507433 0.171336
0.965852 0.511419 0.174451
0.003059 0.445499 0.104536
0.105971 0.454849 0.121587
0.153311 0.458163 0.123992
0.184928 0.460218 0.121995
0.210023 0.461590 0.120265
0.232681 0.463407 0.115612
0.209027 0.466101 0.035270
0.230004 0.468101 0.022092
0.315168 0.453073 0.079997
0.349148 0.453773 0.085703
0.375916 0.464020 0.106785
0.404753 0.472428 0.117219
0.434676 0.472736 0.072040
0.465325 0.477912 0.073928
0.493631 0.483241 0.113577
0.525463 0.485375 0.116541
0.548843 0.483749 0.103564
0.577897 0.486101 0.096146
0.610795 0.493164 0.093573
0.637608 0.497432 0.088883
0.664519 0.501575 0.077188
0.688810 0.502608 0.096828
0.712285 0.504410 0.105702
0.738668 0.507901 0.074208
0.763643 0.509945 0.088588
0.787026 0.511974 0.126176
0.809619 0.511153 0.160371
0.831562 0.515009 0.189703
0.872947 0.475762 0.028237
0.898869 0.521921 0.157459
0.925269 0.531471 0.174417
0.949665 0.536639 0.179484
0.968285 0.540509 0.182823
0.002744 0.479994 0.123890
0.108187 0.489056 0.132899
0.158210 0.493090 0.134595
0.192380 0.495474 0.132461
0.217948 0.496975 0.130328
0.242334 0.498288 0.126866
0.267024 0.499622 0.123640
0.290495 0.499861 0.116244
0.260579 0.498439 0.016115
0.353237 0.473774 0.082749
0.382762 0.482788 0.097589
0.408968 0.493121 0.117641
0.436564 0.498840 0.122488
0.466557 0.502320 0.093155
0.497272 0.510251 0.095474
0.527384 0.514967 0.119539
0.559240 0.518557 0.122530
0.587671 0.520736 0.095734
0.615384 0.523740 0.074132
0.644048 0.528744 0.079489
0.668349 0.530394 0.082922
0.693324 0.533530 0.094037
0.718517 0.535196 0.115174
0.742654 0.539889 0.108290
0.766208 0.542584 0.113176
0.789952 0.542985 0.143232
0.814466 0.545281 0.163490
0.839083 0.548227 0.189839
0.870671 0.511303 0.044045
0.901446 0.546453 0.148912
0.928225 0.557115 0.170538
0.952306 0.565632 0.187464
0.970606 0.569504 0.191468
0.002559 0.510175 0.139165
0.116530 0.523492 0.146125
0.169187 0.527426 0.147247
0.203685 0.529400 0.147440
0.230767 0.530820 0.147371
0.257507 0.532204 0.147378
0.283100 0.533483 0.145636
0.305564 0.534642 0.138295
0.330539 0.534332 0.132795
0.354757 0.533393 0.125445
0.331883 0.524333 0.025216
0.416770 0.506096 0.111816
0.443173 0.515278 0.138628
0.470633 0.525346 0.142067
0.501294 0.534164 0.134788
0.533099 0.542522 0.120985
0.563236 0.548905 0.134070
0.593841 0.553461 0.135231
0.621597 0.554878 0.101561
0.649489 0.558716 0.072066
0.675795 0.561422 0.092520
0.696790 0.562184 0.126382
0.718922 0.565088 0.137197
0.745713 0.568726 0.134880
0.767466 0.572338 0.150932
0.789907 0.572995 0.167261
0.821112 0.569340 0.164596
0.845217 0.574123 0.168175
0.867914 0.552317 0.069201
0.905961 0.532130 0.002132
0.930788 0.581021 0.159856
0.954895 0.591779 0.186434
0.972758 0.598267 0.200167
0.002113 0.547561 0.149989
0.126302 0.556654 0.159101
0.181148 0.561184 0.159845
0.213121 0.563047 0.160294
0.240119 0.564417 0.160450
0.266932 0.565763 0.160635
0.293799 0.567111 0.160750
0.320715 0.568434 0.160771
0.345761 0.569608 0.157662
0.368539 0.569974 0.149837
0.395875 0.568981 0.149122
0.425245 0.568579 0.153529
0.456971 0.568038 0.163081
0.484613 0.544540 0.161391
0.511720 0.556101 0.163793
0.544107 0.568170 0.152763
0.571379 0.577026 0.157090
0.597901 0.582253 0.161896
0.627843 0.586852 0.149236
0.654989 0.589038 0.123034
0.679093 0.590556 0.119541
0.702245 0.591092 0.155346
0.724388 0.593551 0.170981
0.748178 0.597446 0.162932
0.773576 0.599518 0.170665
0.793184 0.605058 0.180232
0.815804 0.610296 0.171562
0.862610 0.607500 0.173693
0.877492 0.615102 0.180861
0.903526 0.573558 0.034941
0.937081 0.563703 0.003974
0.956938 0.617842 0.185263
0.974689 0.626593 0.208465
0.003419 0.571343 0.170585
0.135901 0.590448 0.162769
0.192972 0.594621 0.172330
0.222040 0.596201 0.173028
0.248849 0.597534 0.173220
0.275609 0.598847 0.173441
0.302537 0.600160 0.173776
0.329566 0.601476 0.174154
0.356598 0.602778 0.174433
0.383758 0.604038 0.174844
0.411071 0.605273 0.175517
0.438670 0.606470 0.176774
0.466181 0.606223 0.178093
0.493620 0.605970 0.179532
0.521604 0.605019 0.178420
0.561536 0.587990 0.158164
0.584671 0.601846 0.163719
0.605538 0.611389 0.175835
0.629247 0.613794 0.187890
0.656533 0.616908 0.184872
0.682141 0.619524 0.173877
0.706189 0.620147 0.180066
0.730445 0.621962 0.196230
0.754020 0.625328 0.200090
0.777968 0.628183 0.199010
0.803117 0.629650 0.202800
0.824085 0.638236 0.194160
0.852120 0.641924 0.196150
0.888883 0.637908 0.198141
0.904522 0.647166 0.200944
0.933612 0.608948 0.055367
0.958724 0.643643 0.185230
0.976661 0.652078 0.207062
0.000073 0.622793 0.010756
0.150074 0.623871 0.170797
0.201825 0.627300 0.184609
0.230407 0.628791 0.185691
0.257073 0.630088 0.185913
0.283764 0.631366 0.186149
0.310625 0.632634 0.186513
0.337630 0.633900 0.187002
0.364753 0.635169 0.187613
0.391967 0.636450 0.188344
0.419236 0.637746 0.189174
0.446540 0.639020 0.190121
0.473849 0.640276 0.191186
0.501184 0.641461 0.192302
0.528802 0.641079 0.191679
0.555784 0.641007 0.189262
0.582144 0.640126 0.182866
0.618854 0.633915 0.168117
0.637733 0.642921 0.184699
0.657521 0.645536 0.207235
0.684649 0.642746 0.214682
0.710412 0.647065 0.215222
0.734526 0.650223 0.212585
0.759414 0.652441 0.220939
0.783332 0.655173 0.220462
0.807862 0.658372 0.222295
0.832945 0.659432 0.213136
0.850880 0.667946 0.213689
0.881087 0.661731 0.162787
0.916399 0.668402 0.196078
0.929702 0.672653 0.214144
0.967174 0.630358 0.025260
0.978995 0.675532 0.197902
0.133303 0.655548 0.169454
0.168950 0.657294 0.183361
0.210545 0.659314 0.197391
0.238273 0.660712 0.198377
0.264818 0.661987 0.198589
0.291443 0.663234 0.198852
0.318225 0.664462 0.199236
0.345136 0.665678 0.199737
0.372152 0.666889 0.200354
0.399246 0.668102 0.201084
0.426392 0.669323 0.201924
0.453563 0.670559 0.202871
0.480734 0.671817 0.203923
0.507887 0.673059 0.205036
0.534931 0.674269 0.206040
0.561074 0.674894 0.204581
0.587035 0.674044 0.198569
0.584424 0.654714 0.097532
0.651426 0.663345 0.178907
0.668816 0.672909 0.203041
0.686456 0.680070 0.219004
0.716260 0.668830 0.234677
0.741309 0.674940 0.236881
0.762656 0.680240 0.239002
0.788064 0.682164 0.237024
0.811863 0.685670 0.235876
0.834456 0.687481 0.232593
0.857850 0.687797 0.231194
0.871836 0.693916 0.237513
0.918108 0.674465 0.112127
0.943811 0.701826 0.211971
0.964449 0.675475 0.088566
0.982512 0.694142 0.166279
0.164006 0.688083 0.200700
0.188442 0.689183 0.205495
0.218746 0.690550 0.210378
0.245600 0.691877 0.210996
0.272028 0.693135 0.211209
0.298589 0.694357 0.211510
0.325293 0.695552 0.211925
0.352113 0.696724 0.212451
0.379025 0.697882 0.213085
0.406000 0.699032 0.213825
0.433014 0.700181 0.214668
0.460040 0.701336 0.215611
0.487052 0.702503 0.216652
0.514024 0.703689 0.217789
0.540894 0.704882 0.218925
0.567614 0.706020 0.219852
0.592725 0.706001 0.215613
0.619864 0.705898 0.214255
0.644527 0.704165 0.204214
0.682549 0.690416 0.198515
0.698745 0.701944 0.221429
0.716018 0.712911 0.239290
0.750962 0.707547 0.239868
0.768898 0.701806 0.258577
0.790007 0.706577 0.260291
0.817244 0.709801 0.244203
0.839796 0.714858 0.239608
0.863444 0.719630 0.204823
0.878488 0.714967 0.216014
0.905701 0.688217 0.007324
0.942604 0.696419 0.068215
0.967001 0.699767 0.079229
0.998282 0.690704 0.016381
0.180268 0.718487 0.222654
0.200215 0.719556 0.222896
0.225983 0.720890 0.223211
0.252296 0.722192 0.223490
0.278641 0.723440 0.223732
0.305140 0.724644 0.224083
0.331769 0.725810 0.224541
0.358501 0.726945 0.225103
0.385310 0.728055 0.225766
0.412170 0.729149 0.226527
0.439054 0.730231 0.227384
0.465937 0.731310 0.228335
0.492792 0.732392 0.229377
0.519594 0.733484 0.230506
0.546315 0.734592 0.231722
0.572893 0.735693 0.232892
0.599357 0.736791 0.234089
0.625518 0.737744 0.234585
0.649743 0.736350 0.224207
0.627503 0.721478 0.040399
0.713216 0.720720 0.226767
0.729187 0.731191 0.251158
0.748909 0.739019 0.257489
0.770241 0.737512 0.243414
0.796723 0.719837 0.273280
0.823942 0.729234 0.270566
0.849347 0.737972 0.268844
0.865892 0.745612 0.268421
0.883840 0.754366 0.238528
0.906486 0.720398 0.005262
0.939035 0.748139 0.192315
0.965210 0.751724 0.209194
0.983574 0.750475 0.193656
0.187077 0.747831 0.235487
0.206718 0.748913 0.235500
0.232167 0.750257 0.235600
0.258299 0.751563 0.235807
0.284598 0.752808 0.236117
0.311039 0.753999 0.236530
0.337595 0.755143 0.237042
0.364241 0.756246 0.237651
0.390950 0.757316 0.238355
0.417697 0.758358 0.239149
0.444454 0.759380 0.240033
0.471196 0.760389 0.241003
0.497897 0.761391 0.242056
0.524530 0.762394 0.243191
0.551071 0.763403 0.244404
0.577491 0.764427 0.245693
0.603766 0.765471 0.247055
0.629765 0.766449 0.247990
0.653022 0.766422 0.238666
0.676728 0.764847 0.219358
0.694084 0.764049 0.064704
0.742169 0.750954 0.250886
0.758000 0.758609 0.277276
0.774200 0.767081 0.269916
0.802006 0.768800 0.261604
0.827189 0.769741 0.265941
0.858227 0.756407 0.291706
0.875767 0.766807 0.301017
0.887261 0.775620 0.308555
0.906275 0.755146 0.035945
0.938627 0.779491 0.227607
0.963227 0.785074 0.256142
0.980229 0.785143 0.248151
0.192413 0.776113 0.247360
0.212049 0.777216 0.247449
0.237482 0.778581 0.247641
0.263585 0.779899 0.247934
0.289841 0.781146 0.248325
0.316226 0.782330 0.248811
0.342712 0.783458 0.249389
0.369274 0.784535 0.250057
0.395886 0.785569 0.250812
0.422521 0.786566 0.251651
0.449153 0.787534 0.252573
0.475757 0.788479 0.253573
0.502306 0.789407 0.254650
0.528774 0.790327 0.255801
0.555135 0.791244 0.257024
0.581363 0.792165 0.258315
0.607431 0.793097 0.259673
0.633254 0.794023 0.260864
0.658706 0.794856 0.260879
0.681337 0.794673 0.241252
0.668885 0.782422 0.036754
0.713217 0.788063 0.079949
0.772473 0.784370 0.243661
0.785077 0.789383 0.246535
0.800167 0.799822 0.235877
0.829358 0.800080 0.268215
0.854672 0.799662 0.282722
0.885057 0.782016 0.311768
0.894684 0.789731 0.316533
0.905708 0.784155 0.069895
0.938566 0.807005 0.251789
0.961591 0.811590 0.276978
0.977677 0.812432 0.274421
0.196966 0.803249 0.258972
0.216599 0.804377 0.259145
0.242019 0.805769 0.259440
0.268095 0.807105 0.259832
0.294310 0.808361 0.260315
0.320641 0.809544 0.260885
0.347059 0.810661 0.261541
0.373540 0.811718 0.262279
0.400057 0.812722 0.263097
0.426583 0.813680 0.263993
0.453094 0.814599 0.264963
0.479562 0.815486 0.266006
0.505961 0.816347 0.267118
0.532266 0.817189 0.268297
0.558450 0.818019 0.269541
0.584487 0.818844 0.270846
0.610352 0.819670 0.272210
0.636017 0.820505 0.273631
0.661343 0.821309 0.274356
0.684341 0.821355 0.263647
0.706164 0.821209 0.243626
0.696042 0.816127 0.044888
0.783766 0.820303 0.174715
0.798881 0.820606 0.205975
0.809498 0.824322 0.221848
0.830206 0.827539 0.265102
0.853189 0.827391 0.280656
0.875999 0.826898 0.288899
