app/src/main/assets/filters/富士NC.cube
TITLE "富士NC"
LUT_3D_SIZE 5
DOMAIN_MIN 0.0 0.0 0.0
DOMAIN_MAX 1.0 1.0 1.0
0.006277 0.012790 0.011309
0.211829 0.029437 0.003187
0.497851 0.050136 0.000700
0.738131 0.034365 0.000000
0.853733 0.093981 0.000040
0.006130 0.251677 0.159298
0.211228 0.261066 0.099346
0.469542 0.265185 0.060304
0.741248 0.281884 0.016037
0.889535 0.283010 0.035060
0.003699 0.511186 0.329668
0.244851 0.505727 0.041106
0.559997 0.597648 0.280393
0.819542 0.623977 0.228536
0.972669 0.578067 0.212152
0.121051 0.844593 0.582476
0.330634 0.865020 0.573874
0.616586 0.882427 0.529676
0.871682 0.871905 0.456080
0.999799 0.842814 0.364861
0.151541 0.991027 0.735508
0.364002 0.999115 0.737433
0.649288 0.999991 0.691228
0.909310 0.998062 0.605222
1.000000 0.989701 0.525205
0.018141 0.056569 0.238963
0.245402 0.074435 0.210686
0.507165 0.092285 0.145350
0.754693 0.125826 0.132097
0.890958 0.131059 0.144933
0.003929 0.208652 0.256510
0.197152 0.236863 0.248686
0.463652 0.272802 0.234080
0.761862 0.307986 0.214404
0.924238 0.306093 0.222485
0.009729 0.469046 0.392554
0.230513 0.521904 0.430836
0.544734 0.574021 0.429287
0.808158 0.596162 0.396102
0.968986 0.535901 0.326001
0.003991 0.756612 0.368140
0.205602 0.755655 0.586986
0.538335 0.815242 0.581528
0.853622 0.850181 0.569474
0.991867 0.827961 0.467407
0.000000 0.780989 0.608257
0.172784 0.863519 0.672216
0.512540 0.936437 0.688192
0.817412 0.983598 0.670804
0.996311 0.992248 0.582891
0.033422 0.127669 0.479511
0.318171 0.194481 0.468762
0.552763 0.180786 0.402107
0.765231 0.188848 0.344762
0.846769 0.164840 0.327956
0.011689 0.318006 0.556539
0.292433 0.327747 0.507818
0.528822 0.340465 0.447894
0.775329 0.337148 0.432736
0.890466 0.338086 0.411124
0.003463 0.502162 0.610470
0.215242 0.520516 0.596708
0.545260 0.563862 0.582846
0.821525 0.608076 0.576684
0.997437 0.543968 0.529691
0.030616 0.616590 0.703197
0.229462 0.724100 0.697518
0.554033 0.791319 0.699909
0.858931 0.846926 0.723310
0.995131 0.849880 0.700144
0.001651 0.717704 0.603678
0.153636 0.779035 0.712429
0.496413 0.874513 0.761049
0.788563 0.941609 0.774353
1.000000 0.996832 0.776980
0.360596 0.522904 0.916213
0.481835 0.451122 0.792950
0.641795 0.384314 0.663811
0.750486 0.311804 0.550792
0.724741 0.223690 0.473508
0.003898 0.506433 0.798746
0.441527 0.505184 0.787666
0.646549 0.477254 0.707463
0.800184 0.443131 0.626537
0.810555 0.380520 0.569011
0.298159 0.650995 0.845644
0.496358 0.682685 0.846279
0.719014 0.717069 0.842733
0.868485 0.665280 0.771161
0.906385 0.634271 0.728445
0.175620 0.748586 0.845653
0.415507 0.805689 0.892789
0.563108 0.789445 0.806124
0.880438 0.864734 0.874832
0.999942 0.864932 0.840263
0.059874 0.704849 0.731392
0.322633 0.801595 0.831102
0.614159 0.884032 0.880167
0.839314 0.935461 0.891964
0.999432 0.996494 0.906539
0.710837 0.984030 1.000000
0.721976 0.842533 0.999999
0.753317 0.683052 0.917161
0.718151 0.515327 0.714777
0.538581 0.332565 0.549131
0.666970 0.952138 1.000000
0.731434 0.847390 0.999995
0.814184 0.737951 0.948625
0.826715 0.614046 0.793657
0.689812 0.467814 0.661438
0.648852 0.987831 1.000000
0.760225 0.946194 1.000000
0.865162 0.864615 0.996003
0.940936 0.806957 0.924466
0.840072 0.697312 0.825030
0.606059 0.994940 1.000000
0.755414 0.997081 0.999959
0.832462 0.949270 0.998495
0.759000 0.759397 0.999541
0.932594 0.895125 0.949034
0.491432 0.899015 0.918531
0.670915 0.953212 0.988036
0.861305 0.988182 0.998694
0.941877 0.991727 0.990294
0.997090 0.997705 0.996385
