app/src/main/assets/filters/富士NC.cube
TITLE "富士NC"
LUT_3D_SIZE 9
DOMAIN_MIN 0.0 0.0 0.0
DOMAIN_MAX 1.0 1.0 1.0
0.006277 0.012790 0.011309
0.105797 0.021180 0.005793
0.211829 0.029437 0.003187
0.361548 0.028713 0.004075
0.497851 0.050136 0.000700
0.620556 0.067532 0.001115
0.738131 0.034365 0.000000
0.802146 0.095351 0.000115
0.853733 0.093981 0.000040
0.009756 0.147659 0.086668
0.111657 0.145656 0.061223
0.205391 0.148195 0.058540
0.332450 0.148432 0.017056
0.473472 0.143697 0.006009
0.607802 0.159394 0.001283
0.737432 0.178010 0.001739
0.800687 0.171902 0.001083
0.862725 0.166464 0.001067
0.006130 0.251677 0.159298
0.108526 0.263214 0.154067
0.211228 0.261066 0.099346
0.320870 0.258758 0.090869
0.469542 0.265185 0.060304
0.616272 0.271186 0.039093
0.741248 0.281884 0.016037
0.833340 0.287332 0.031018
0.889535 0.283010 0.035060
0.001909 0.378486 0.243969
0.070737 0.380182 0.239518
0.197749 0.396367 0.229630
0.350502 0.403646 0.181393
0.514958 0.429309 0.119007
0.662445 0.437311 0.138159
0.787718 0.458830 0.131064
0.862625 0.440119 0.131703
0.928470 0.425309 0.116186
0.003699 0.511186 0.329668
0.147630 0.562699 0.339314
0.244851 0.505727 0.041106
0.396322 0.580198 0.309561
0.559997 0.597648 0.280393
0.709922 0.612241 0.226691
0.819542 0.623977 0.228536
0.881714 0.524087 0.058478
0.972669 0.578067 0.212152
0.000000 0.623241 0.024244
0.178984 0.719233 0.471768
0.298393 0.728713 0.459791
0.436274 0.737932 0.440215
0.582792 0.732237 0.383614
0.738389 0.743711 0.380241
0.840306 0.752363 0.369472
0.914320 0.734127 0.270045
0.995857 0.713019 0.268040
0.121051 0.844593 0.582476
0.209108 0.854118 0.583492
0.330634 0.865020 0.573874
0.470117 0.875013 0.555188
0.616586 0.882427 0.529676
0.734909 0.838508 0.249010
0.871682 0.871905 0.456080
0.917991 0.866424 0.480446
0.999799 0.842814 0.364861
0.142597 0.943543 0.674068
0.232058 0.954953 0.678592
0.354629 0.967031 0.671106
0.494676 0.977162 0.652856
0.641231 0.983392 0.626085
0.782544 0.984566 0.589868
0.849093 0.941274 0.432570
0.995670 0.968045 0.513910
0.999985 0.947513 0.480837
0.151541 0.991027 0.735508
0.241417 0.995531 0.743132
0.364002 0.999115 0.737433
0.503616 0.999873 0.719385
0.649288 0.999991 0.691228
0.790049 1.000000 0.655203
0.909310 0.998062 0.605222
0.884274 0.989799 0.504609
1.000000 0.989701 0.525205
0.009334 0.028461 0.123854
0.116041 0.057673 0.121409
0.231016 0.061343 0.088013
0.371691 0.077526 0.061139
0.490991 0.081338 0.034381
0.623048 0.099160 0.039367
0.738619 0.104034 0.036798
0.829912 0.110218 0.038955
0.881847 0.114171 0.049251
0.006938 0.131184 0.154548
0.118203 0.145911 0.147978
0.214886 0.159879 0.146202
0.336396 0.166956 0.124144
0.471405 0.162146 0.081591
0.617568 0.175084 0.052967
0.732768 0.182060 0.041373
0.809423 0.180456 0.078613
0.888220 0.185804 0.068792
0.007201 0.223115 0.191176
0.089475 0.243719 0.200526
0.205893 0.253940 0.199954
0.312030 0.257329 0.179993
0.452927 0.258681 0.140887
0.608538 0.270320 0.114382
0.749216 0.290260 0.109582
0.840438 0.295412 0.116382
0.951149 0.271357 0.123690
0.004186 0.357743 0.265324
0.065521 0.367610 0.272367
0.198894 0.386788 0.281801
0.334478 0.388220 0.255304
0.486420 0.404445 0.236044
0.646308 0.426669 0.222951
0.772524 0.440242 0.213586
0.856717 0.446394 0.214828
0.943259 0.441717 0.201648
0.005120 0.505662 0.360759
0.051666 0.516810 0.365826
0.222717 0.551079 0.385257
0.373776 0.568753 0.373970
0.542420 0.578047 0.354063
0.696220 0.596234 0.326591
0.808043 0.610943 0.331229
0.923090 0.604798 0.300232
0.979739 0.590405 0.288786
0.002253 0.634675 0.463297
0.100532 0.657209 0.466034
0.236695 0.678614 0.468718
0.390006 0.694089 0.444066
0.557233 0.716784 0.449197
0.732220 0.738079 0.439536
0.836796 0.747492 0.428346
0.900320 0.676608 0.246819
0.997010 0.722881 0.346425
0.000024 0.741733 0.189019
0.113605 0.780148 0.561944
0.252526 0.804264 0.566333
0.407598 0.827169 0.561242
0.567815 0.847188 0.549096
0.727512 0.859164 0.528594
0.859696 0.852260 0.517412
0.923765 0.867419 0.511136
0.998370 0.840108 0.405225
0.014079 0.843239 0.616398
0.118357 0.868595 0.636368
0.259200 0.895386 0.644464
0.415680 0.920157 0.641569
0.576826 0.941239 0.629924
0.731668 0.956953 0.611769
0.864344 0.960773 0.572526
0.972310 0.961780 0.561812
0.996632 0.950718 0.521979
0.010882 0.879062 0.655847
0.109265 0.907368 0.679858
0.250897 0.936504 0.691393
0.407734 0.962852 0.690351
0.568789 0.984453 0.678972
0.723091 0.997266 0.659496
0.859670 0.999723 0.634163
0.967201 0.999872 0.605215
0.999971 0.995892 0.576817
0.018141 0.056569 0.238963
0.131823 0.077636 0.225083
0.245402 0.074435 0.210686
0.372407 0.035750 0.222936
0.507165 0.092285 0.145350
0.623917 0.055617 0.191438
0.754693 0.125826 0.132097
0.842453 0.130836 0.133373
0.890958 0.131059 0.144933
0.021221 0.143639 0.249535
0.122369 0.151259 0.237078
0.212571 0.159851 0.215358
0.329958 0.174824 0.203705
0.484492 0.176570 0.168755
0.623988 0.194864 0.151888
0.743154 0.209561 0.158554
0.827909 0.203355 0.167501
0.897197 0.201376 0.166175
0.003929 0.208652 0.256510
0.079684 0.217706 0.247368
0.197152 0.236863 0.248686
0.313991 0.262985 0.253544
0.463652 0.272802 0.234080
0.621534 0.288566 0.214364
0.761862 0.307986 0.214404
0.852743 0.316080 0.228854
0.924238 0.306093 0.222485
0.002851 0.309023 0.304200
0.041576 0.314280 0.297769
0.178310 0.353137 0.311787
0.333339 0.385648 0.328652
0.477547 0.401042 0.311715
0.642824 0.426596 0.302398
0.782569 0.445487 0.296907
0.876051 0.456173 0.307462
0.949088 0.428212 0.280896
0.009729 0.469046 0.392554
0.127815 0.500739 0.353836
0.230513 0.521904 0.430836
0.374103 0.559093 0.441003
0.544734 0.574021 0.429287
0.693695 0.591596 0.406672
0.808158 0.596162 0.396102
0.887798 0.595415 0.390668
0.968986 0.535901 0.326001
0.002608 0.573705 0.467326
0.125761 0.626463 0.316753
0.219352 0.632816 0.320659
0.386132 0.687550 0.521242
0.560003 0.710425 0.516039
0.719560 0.725696 0.495764
0.836096 0.740631 0.489126
0.914523 0.754930 0.506254
0.990546 0.652219 0.323348
0.003991 0.756612 0.368140
0.061647 0.725257 0.550968
0.205602 0.755655 0.586986
0.370829 0.788001 0.592058
0.538335 0.815242 0.581528
0.702571 0.839244 0.575436
0.853622 0.850181 0.569474
0.925900 0.865922 0.562733
0.991867 0.827961 0.467407
0.000451 0.871983 0.268076
0.044096 0.796255 0.623919
0.196935 0.834332 0.645377
0.364487 0.870163 0.655043
0.534736 0.901976 0.655715
0.696714 0.928103 0.649631
0.839283 0.944090 0.635857
0.947753 0.952419 0.617976
0.990135 0.947642 0.602020
0.000000 0.780989 0.608257
0.021978 0.821576 0.646117
0.172784 0.863519 0.672216
0.341537 0.902362 0.685494
0.512540 0.936437 0.688192
0.674821 0.964072 0.682548
0.817412 0.983598 0.670804
0.929341 0.993330 0.655199
0.996311 0.992248 0.582891
0.017024 0.076084 0.337025
0.156292 0.107333 0.352784
0.271189 0.128633 0.323869
0.390330 0.118795 0.301467
0.499947 0.016789 0.355723
0.639058 0.069653 0.296587
0.763510 0.151827 0.237180
0.841450 0.151697 0.232912
0.878997 0.146696 0.239156
0.021458 0.155858 0.360572
0.128820 0.161483 0.342521
0.229609 0.185505 0.306314
0.355275 0.165311 0.322545
0.508810 0.185909 0.246464
0.642189 0.203146 0.277623
0.759034 0.214105 0.263746
0.844498 0.218208 0.257609
0.888348 0.215123 0.262506
0.008728 0.251628 0.404034
0.107194 0.248300 0.372821
0.235251 0.265351 0.361326
0.333786 0.272359 0.340932
0.488804 0.287589 0.329726
0.645142 0.313387 0.324650
0.786048 0.340724 0.337582
0.857136 0.333149 0.323855
0.917056 0.319020 0.321334
0.004621 0.353717 0.434740
0.044975 0.352547 0.418354
0.186455 0.352420 0.399065
0.326056 0.371766 0.392357
0.496351 0.415399 0.409201
0.667152 0.447262 0.407751
0.799156 0.464055 0.401663
0.887331 0.465175 0.395262
0.948842 0.448076 0.389800
0.001546 0.453654 0.481548
0.002449 0.467455 0.475729
0.134974 0.501366 0.491943
0.360880 0.534893 0.502655
0.542017 0.571906 0.511270
0.691357 0.587736 0.494102
0.810428 0.598825 0.482226
0.904841 0.602563 0.478561
0.981237 0.590742 0.469489
0.003885 0.530780 0.535894
0.052017 0.591890 0.534978
0.183319 0.627037 0.577962
0.375386 0.656992 0.559593
0.566646 0.705895 0.586241
0.719173 0.723590 0.575620
0.833924 0.734128 0.565604
0.921073 0.743917 0.567568
0.981488 0.738321 0.573366
0.000037 0.651355 0.580089
0.042189 0.688592 0.610652
0.198006 0.727965 0.632524
0.366352 0.764516 0.639113
0.534790 0.796571 0.639096
0.690026 0.816790 0.610998
0.856405 0.846991 0.640153
0.931823 0.853177 0.628145
0.991799 0.836231 0.637422
0.002963 0.724726 0.618809
0.022270 0.748576 0.642546
0.177182 0.793409 0.672457
0.348816 0.835665 0.691391
0.521385 0.873759 0.700353
0.683681 0.905813 0.702197
0.826586 0.928494 0.697828
0.932058 0.927794 0.666447
0.993702 0.948698 0.664208
0.001763 0.767218 0.575071
0.004787 0.759476 0.643904
0.140095 0.809776 0.680543
0.313980 0.856649 0.704117
0.488145 0.898424 0.716865
0.651622 0.933432 0.721029
0.793441 0.960004 0.718848
0.902623 0.976456 0.712431
0.999432 0.998273 0.478380
0.033422 0.127669 0.479511
0.211595 0.199524 0.503436
0.318171 0.194481 0.468762
0.429140 0.185122 0.429838
0.552763 0.180786 0.402107
0.669325 0.178420 0.376692
0.765231 0.188848 0.344762
0.826537 0.179193 0.330834
0.846769 0.164840 0.327956
0.006533 0.220903 0.516389
0.200013 0.234197 0.483628
0.285777 0.228392 0.469472
0.407204 0.227162 0.442254
0.495635 0.150583 0.455612
0.665875 0.245890 0.387434
0.765792 0.247668 0.367905
0.835064 0.241791 0.356407
0.862428 0.230470 0.354213
0.011689 0.318006 0.556539
0.158783 0.301502 0.519599
0.292433 0.327747 0.507818
0.405296 0.334352 0.477017
0.528822 0.340465 0.447894
0.648713 0.347846 0.442594
0.775329 0.337148 0.432736
0.856409 0.346047 0.413251
0.890466 0.338086 0.411124
0.007040 0.411547 0.610780
0.113960 0.414103 0.573844
0.251026 0.416800 0.553054
0.401546 0.435802 0.540596
0.539724 0.446417 0.524028
0.692599 0.469684 0.513043
0.814607 0.484605 0.511263
0.908197 0.486546 0.500396
0.932789 0.454222 0.488876
0.003463 0.502162 0.610470
0.044137 0.507399 0.590749
0.215242 0.520516 0.596708
0.370117 0.530813 0.582191
0.545260 0.563862 0.582846
0.703593 0.592077 0.581499
0.821525 0.608076 0.576684
0.916508 0.613770 0.572406
0.997437 0.543968 0.529691
0.003777 0.541142 0.657794
0.071050 0.594329 0.626347
0.120077 0.592261 0.623977
0.350397 0.642727 0.642317
0.577645 0.695840 0.664948
0.723313 0.724887 0.663705
0.836537 0.738227 0.655137
0.925529 0.753465 0.647639
0.978506 0.721144 0.606443
0.030616 0.616590 0.703197
0.074545 0.683917 0.678300
0.229462 0.724100 0.697518
0.411911 0.767627 0.725725
0.554033 0.791319 0.699909
0.726823 0.822381 0.727859
0.858931 0.846926 0.723310
0.930491 0.854019 0.721100
0.995131 0.849880 0.700144
0.000011 0.682435 0.644866
0.042031 0.728218 0.689520
0.200129 0.775822 0.723956
0.369473 0.820422 0.746668
0.537578 0.860348 0.759897
0.693306 0.893822 0.765391
0.821462 0.914495 0.744477
0.921307 0.925597 0.728753
0.993328 0.930076 0.764415
0.001651 0.717704 0.603678
0.008383 0.724827 0.669276
0.153636 0.779035 0.712429
0.325868 0.829487 0.742274
0.496413 0.874513 0.761049
0.654302 0.912443 0.770995
0.788563 0.941609 0.774353
0.888204 0.960305 0.772828
1.000000 0.996832 0.776980
0.220678 0.333947 0.712994
0.298765 0.327898 0.673479
0.390896 0.309396 0.624807
0.494068 0.293022 0.575962
0.597443 0.277409 0.529097
0.689954 0.260662 0.486513
0.760628 0.241109 0.450457
0.798512 0.217120 0.423155
0.795082 0.189252 0.407388
0.005584 0.301251 0.633336
0.255177 0.340208 0.652789
0.358781 0.331593 0.616390
0.470749 0.319851 0.579536
0.584012 0.311524 0.541864
0.688921 0.306929 0.504339
0.768916 0.293501 0.473879
0.815673 0.274884 0.450587
0.820165 0.251380 0.437157
0.004978 0.372656 0.660405
0.281150 0.405004 0.656734
0.383861 0.403136 0.627630
0.462033 0.383696 0.613249
0.560030 0.348692 0.595489
0.692467 0.380373 0.557077
0.789374 0.387141 0.526418
0.844588 0.374103 0.507196
0.856564 0.355098 0.496055
0.018766 0.460665 0.709572
0.230107 0.476196 0.686256
0.344038 0.484233 0.681226
0.496988 0.516544 0.673489
0.609610 0.526610 0.661447
0.712717 0.498935 0.615954
0.754969 0.386722 0.621213
0.878569 0.492712 0.582480
0.896667 0.482966 0.572525
0.014033 0.523945 0.731438
0.195548 0.561512 0.685040
0.343516 0.583818 0.720000
0.454569 0.590663 0.713544
0.597152 0.611104 0.706548
0.722246 0.618847 0.682979
0.838892 0.631414 0.674537
0.933855 0.640919 0.670557
0.999992 0.565939 0.637038
0.005837 0.581679 0.766957
0.209826 0.654073 0.755739
0.348941 0.679564 0.764697
0.488594 0.702223 0.768506
0.594934 0.711608 0.751354
0.746917 0.739369 0.752454
0.853932 0.756134 0.747712
0.938984 0.752115 0.734397
0.999669 0.745926 0.700479
0.003015 0.608073 0.794122
0.154994 0.712181 0.766842
0.300592 0.747945 0.787238
0.437335 0.770516 0.780884
0.598454 0.804400 0.786340
0.775767 0.838201 0.813284
0.868346 0.857532 0.806923
0.934829 0.861720 0.802412
0.998933 0.773930 0.657039
0.006728 0.696001 0.713011
0.114922 0.740243 0.758566
0.267201 0.785885 0.793731
0.427264 0.828194 0.816929
0.584121 0.865500 0.830400
0.718369 0.893365 0.820569
0.838302 0.915182 0.817995
0.936370 0.937504 0.829065
0.990348 0.934591 0.825859
0.000290 0.668943 0.661473
0.058431 0.721389 0.718287
0.214213 0.775055 0.763930
0.378008 0.824635 0.796021
0.538149 0.868462 0.816797
0.683665 0.904865 0.828501
0.803585 0.932175 0.833373
0.886330 0.949414 0.827379
1.000000 0.998573 0.769703
0.360596 0.522904 0.916213
0.410054 0.486561 0.857964
0.481835 0.451122 0.792950
0.562739 0.417596 0.727486
0.641795 0.384314 0.663811
0.708034 0.349607 0.604167
0.750486 0.311804 0.550792
0.758180 0.269237 0.505928
0.724741 0.223690 0.473508
0.311496 0.512238 0.873258
0.373938 0.486757 0.829447
0.457679 0.461869 0.778135
0.550093 0.438143 0.724786
0.640212 0.413909 0.671641
0.717065 0.387497 0.620939
0.769681 0.357239 0.574921
0.787091 0.321464 0.535827
0.762367 0.281613 0.507394
0.003898 0.506433 0.798746
0.349915 0.524353 0.825526
0.441527 0.505184 0.787666
0.542668 0.488012 0.747869
0.646549 0.477254 0.707463
0.737728 0.465490 0.664909
0.800184 0.443131 0.626537
0.826953 0.414452 0.593394
0.810555 0.380520 0.569011
0.062694 0.529978 0.802905
0.328562 0.576306 0.831902
0.320704 0.440762 0.765246
0.592704 0.591454 0.779473
0.636352 0.539579 0.762128
0.753536 0.554603 0.726165
0.834238 0.552694 0.694464
0.869753 0.531508 0.666987
0.860679 0.503335 0.646441
0.298159 0.650995 0.845644
0.407571 0.664629 0.840289
0.496358 0.682685 0.846279
0.601986 0.701509 0.850699
0.719014 0.717069 0.842733
0.799340 0.708724 0.803040
0.868485 0.665280 0.771161
0.907357 0.652039 0.745177
0.906385 0.634271 0.728445
0.191626 0.704904 0.855800
0.314726 0.729806 0.874819
0.441129 0.746264 0.877603
0.644376 0.791136 0.897434
0.727906 0.802602 0.889633
0.816987 0.811063 0.877887
0.877588 0.780770 0.829664
0.942168 0.782651 0.817771
0.958717 0.749968 0.796331
0.175620 0.748586 0.845653
0.283821 0.776806 0.874385
0.415507 0.805689 0.892789
0.546748 0.828003 0.894114
0.563108 0.789445 0.806124
0.810807 0.876311 0.908494
0.880438 0.864734 0.874832
0.946550 0.870863 0.854390
0.999942 0.864932 0.840263
0.126182 0.749406 0.804011
0.240796 0.787942 0.846702
0.378998 0.827171 0.878572
0.522997 0.862739 0.898231
0.661732 0.892938 0.907854
0.772550 0.911376 0.899934
0.872772 0.927903 0.899932
0.946942 0.946940 0.899075
0.991840 0.943243 0.887592
0.059874 0.704849 0.731392
0.179406 0.752922 0.786994
0.322633 0.801595 0.831102
0.471207 0.845854 0.861413
0.614159 0.884032 0.880167
0.740518 0.914457 0.889603
0.839314 0.935461 0.891964
0.902297 0.950111 0.881850
0.999432 0.996494 0.906539
0.524715 0.745934 0.999954
0.550547 0.689872 0.997632
0.595194 0.633046 0.963569
0.646995 0.577806 0.881640
0.694982 0.522480 0.797122
0.728183 0.465401 0.716379
0.735628 0.404899 0.641661
0.706348 0.339303 0.575210
0.636553 0.271914 0.522371
0.485988 0.719462 0.999429
0.524238 0.675309 0.992134
0.581688 0.630455 0.945812
0.645844 0.586433 0.874984
0.705736 0.541575 0.802743
0.750394 0.494212 0.732702
0.768848 0.442673 0.667101
0.750128 0.385289 0.608180
0.689839 0.324928 0.560979
0.458688 0.728834 0.998044
0.509619 0.697579 0.989272
0.579728 0.665356 0.949108
0.656063 0.633163 0.892651
0.727655 0.599329 0.833333
0.783533 0.562186 0.774516
0.812727 0.520064 0.718442
0.804268 0.471294 0.667353
0.753149 0.418271 0.625962
0.398222 0.733376 0.981079
0.502684 0.744619 0.990924
0.624279 0.682172 0.894059
0.655556 0.685150 0.919286
0.752836 0.680015 0.878719
0.819614 0.653708 0.831067
0.858931 0.621370 0.784282
0.859660 0.581041 0.740799
0.816708 0.535197 0.705005
0.404919 0.799467 0.988141
0.497311 0.800560 0.992751
0.589308 0.786561 0.978208
0.667419 0.752967 0.940589
0.810463 0.789920 0.917433
0.827785 0.729074 0.888897
0.892546 0.718981 0.854306
0.909406 0.698592 0.817422
0.873876 0.660434 0.787007
0.395310 0.841228 0.989120
0.473241 0.836932 0.985066
0.488982 0.760318 0.945297
0.670061 0.835644 0.975086
0.744304 0.839580 0.980726
0.851962 0.850978 0.954892
0.906900 0.809916 0.897323
0.933979 0.781368 0.881630
0.919173 0.774326 0.860059
0.372011 0.864725 0.972419
0.461595 0.881657 0.989121
0.571453 0.898146 0.994117
0.662472 0.897483 0.987396
0.757676 0.893270 0.984451
0.843449 0.897713 0.968579
0.917313 0.911598 0.959277
0.961348 0.886259 0.915122
0.965577 0.845138 0.906529
0.322164 0.846406 0.913875
0.419005 0.875074 0.949712
0.536327 0.903440 0.973078
0.657477 0.927818 0.984089
0.771448 0.946515 0.986263
0.849338 0.950483 0.974615
0.899279 0.943748 0.968374
0.952748 0.948004 0.956682
0.982505 0.942466 0.936665
0.253763 0.783648 0.820828
0.356512 0.823185 0.871451
0.479701 0.862414 0.909999
0.606271 0.896903 0.934494
0.725249 0.924981 0.947194
0.825667 0.944978 0.950351
0.891909 0.955390 0.943817
0.929555 0.963176 0.937442
0.999290 0.998105 0.963291
0.710837 0.984030 1.000000
0.708791 0.923356 1.000000
0.721976 0.842533 0.999999
0.740474 0.762988 0.996292
0.753317 0.683052 0.917161
0.749532 0.601055 0.813070
0.718151 0.515327 0.714777
0.648204 0.424199 0.624522
0.538581 0.332565 0.549131
0.683374 0.959462 1.000000
0.694492 0.894312 1.000000
0.721271 0.826793 0.999984
0.752916 0.759799 0.995210
0.778455 0.691662 0.921257
0.786919 0.620713 0.829520
0.767338 0.545281 0.741995
0.708741 0.463696 0.660921
0.609369 0.380345 0.592722
0.666970 0.952138 1.000000
0.691152 0.900858 1.000000
0.731434 0.847390 0.999995
0.776102 0.793644 0.997772
0.814184 0.737951 0.948625
0.834712 0.678642 0.869895
0.826715 0.614046 0.793657
0.779223 0.542495 0.722175
0.689812 0.467814 0.661438
0.657676 0.969439 1.000000
0.693919 0.931868 1.000000
0.746632 0.892280 1.000000
0.803112 0.851465 0.999728
0.852804 0.808191 0.986827
0.884324 0.760351 0.923356
0.886838 0.706420 0.858179
0.849378 0.644731 0.796063
0.768926 0.578560 0.742574
0.648852 0.987831 1.000000
0.696154 0.971990 1.000000
0.760225 0.946194 1.000000
0.806386 0.891388 0.993123
0.865162 0.864615 0.996003
0.929114 0.850568 0.978128
0.940936 0.806957 0.924466
0.912568 0.755133 0.871482
0.840072 0.697312 0.825030
0.633860 0.993985 1.000000
0.691217 0.992407 1.000000
0.764949 0.989139 0.999959
0.841734 0.977705 0.999876
0.911578 0.958941 0.999840
0.959929 0.931893 0.998936
0.968725 0.885195 0.980220
0.961389 0.857086 0.937337
0.896609 0.808801 0.897702
0.606059 0.994940 1.000000
0.672468 0.996332 1.000000
0.755414 0.997081 0.999959
0.815027 0.982248 0.999836
0.832462 0.949270 0.998495
0.898835 0.942820 0.996285
0.759000 0.759397 0.999541
0.888623 0.790633 0.983907
0.932594 0.895125 0.949034
0.558811 0.978689 0.997959
0.633268 0.990181 0.999796
0.724981 0.995679 0.999982
0.818681 0.998741 1.000000
0.901413 0.998773 0.999986
0.695850 0.907241 1.000000
0.907341 0.963552 0.998622
0.971836 0.970469 0.993082
0.997356 0.963171 0.993830
0.491432 0.899015 0.918531
0.572542 0.926800 0.960888
0.670915 0.953212 0.988036
0.770826 0.974478 0.997655
0.861305 0.988182 0.998694
0.931382 0.993986 0.998165
0.941877 0.991727 0.990294
0.958095 0.998379 0.999803
0.997090 0.997705 0.996385
