app/src/main/assets/filters/富士NC.cube
TITLE "富士NC"
LUT_3D_SIZE 33
DOMAIN_MIN 0.0 0.0 0.0
DOMAIN_MAX 1.0 1.0 1.0
0.006277 0.012790 0.011309
0.022495 0.016712 0.009035
0.049353 0.020573 0.008136
0.077480 0.021022 0.006312
0.105797 0.021180 0.005793
0.129128 0.022862 0.005511
0.156959 0.027393 0.004870
0.182884 0.027535 0.003456
0.211829 0.029437 0.003187
0.244884 0.028051 0.003095
0.280675 0.028175 0.003146
0.318104 0.030912 0.003132
0.361548 0.028713 0.004075
0.402886 0.036647 0.002862
0.434742 0.045611 0.001733
0.465802 0.050339 0.001187
0.497851 0.050136 0.000700
0.530600 0.056465 0.000521
0.560849 0.057392 0.000810
0.591713 0.061107 0.001057
0.620556 0.067532 0.001115
0.648004 0.077126 0.000765
0.672401 0.083924 0.000299
0.709051 0.043033 0.000000
0.738131 0.034365 0.000000
0.779673 0.002976 0.000000
0.768578 0.082901 0.000757
0.784930 0.092555 0.000240
0.802146 0.095351 0.000115
0.818991 0.095546 0.000028
0.833679 0.095254 0.000009
0.845782 0.094648 0.000025
0.853733 0.093981 0.000040
0.009529 0.042733 0.028116
0.031921 0.047425 0.021772
0.054344 0.052178 0.022830
0.078256 0.057450 0.019760
0.104490 0.057484 0.014707
0.130234 0.058903 0.013285
0.154074 0.061552 0.012225
0.180025 0.062952 0.011152
0.208895 0.062510 0.010032
0.241405 0.066399 0.008956
0.277951 0.069296 0.008246
0.314788 0.071108 0.007450
0.351702 0.072554 0.005851
0.391307 0.075116 0.004293
0.427236 0.081140 0.003526
0.460727 0.086932 0.002242
0.494857 0.089222 0.001772
0.532268 0.092324 0.001149
0.562746 0.094110 0.001154
0.592781 0.095195 0.002070
0.624835 0.097258 0.001780
0.657341 0.098705 0.001807
0.683569 0.102583 0.001515
0.704014 0.106630 0.000997
0.722355 0.109739 0.000485
0.739548 0.116871 0.000528
0.791117 0.066959 0.000219
0.784086 0.106204 0.000916
0.801885 0.107875 0.000629
0.818883 0.107430 0.000152
0.833754 0.107026 0.000074
0.846040 0.106309 0.000068
0.854118 0.105575 0.000065
0.009398 0.082834 0.051231
0.037166 0.089126 0.050579
0.064622 0.087975 0.039074
0.085994 0.091641 0.038771
0.108556 0.093597 0.037296
0.133212 0.094807 0.034012
0.156416 0.094580 0.030221
0.179889 0.096074 0.025917
0.208044 0.095857 0.019560
0.240655 0.096618 0.015654
0.275158 0.096005 0.012482
0.307626 0.097236 0.009475
0.341939 0.099819 0.007296
0.371735 0.102268 0.004380
0.411715 0.103837 0.004203
0.446645 0.107454 0.003424
0.483411 0.113834 0.002532
0.522940 0.116320 0.001484
0.556803 0.121137 0.001888
0.587370 0.121756 0.001787
0.622327 0.120258 0.001037
0.655740 0.122297 0.001606
0.685247 0.123951 0.002227
0.708236 0.127442 0.002180
0.726145 0.126004 0.001540
0.743094 0.126891 0.001108
0.760820 0.134852 0.001089
0.775411 0.144466 0.000660
0.803602 0.125948 0.001796
0.821329 0.124658 0.001206
0.836917 0.123066 0.000947
0.847498 0.123564 0.000178
0.855637 0.122787 0.000138
0.011105 0.119181 0.074676
0.037854 0.124050 0.080367
0.065775 0.120404 0.062974
0.089104 0.118998 0.049173
0.111555 0.121115 0.048970
0.134264 0.123241 0.053557
0.157338 0.123941 0.052153
0.180285 0.123192 0.046984
0.205868 0.123348 0.036741
0.235856 0.124573 0.025852
0.270615 0.122102 0.019093
0.304152 0.120939 0.013755
0.337902 0.121600 0.010656
0.368109 0.119478 0.007450
0.401560 0.122402 0.006411
0.439496 0.122380 0.004830
0.477323 0.127721 0.003869
0.513196 0.133421 0.002697
0.549000 0.138302 0.001622
0.578130 0.145484 0.001603
0.615472 0.139674 0.001217
0.651561 0.140855 0.000683
0.680766 0.144455 0.000637
0.708015 0.150918 0.000971
0.733109 0.158241 0.000976
0.748917 0.152175 0.000931
0.766288 0.146800 0.000994
0.782120 0.154155 0.000789
0.801147 0.159294 0.000939
0.826647 0.143946 0.001777
0.843065 0.141971 0.001405
0.850407 0.144012 0.000424
0.858550 0.143222 0.000324
0.009756 0.147659 0.086668
0.038383 0.154428 0.099792
0.066186 0.153933 0.095930
0.088861 0.147871 0.076267
0.111657 0.145656 0.061223
0.132547 0.146207 0.059456
0.156021 0.146974 0.065832
0.178274 0.146347 0.064120
0.205391 0.148195 0.058540
0.233990 0.150534 0.048338
0.264714 0.151169 0.034787
0.299613 0.149717 0.025020
0.332450 0.148432 0.017056
0.364675 0.146235 0.013191
0.396735 0.145456 0.010828
0.436382 0.143476 0.008982
0.473472 0.143697 0.006009
0.508269 0.148014 0.005222
0.544354 0.152052 0.003112
0.575675 0.158530 0.001935
0.607802 0.159394 0.001283
0.646256 0.160294 0.001809
0.678681 0.167154 0.001257
0.707926 0.170292 0.001319
0.737432 0.178010 0.001739
0.756199 0.182361 0.001536
0.769274 0.180650 0.001215
0.788772 0.166440 0.000895
0.800687 0.171902 0.001083
0.902434 0.127403 0.000305
0.848609 0.164314 0.002771
0.856463 0.166375 0.001697
0.862725 0.166464 0.001067
0.005821 0.175145 0.104723
0.035393 0.179034 0.111043
0.064686 0.183658 0.113898
0.087165 0.181221 0.106332
0.109989 0.174369 0.084596
0.130411 0.172094 0.067330
0.153778 0.172615 0.072303
0.176527 0.171110 0.076700
0.202812 0.171711 0.073974
0.232807 0.174033 0.070120
0.260985 0.174684 0.057125
0.296144 0.178244 0.036526
0.331728 0.179158 0.021558
0.362082 0.175158 0.018958
0.393526 0.173608 0.018326
0.430080 0.173471 0.017881
0.471826 0.171518 0.011940
0.508436 0.170745 0.007460
0.542621 0.171198 0.005494
0.578921 0.173908 0.003787
0.609452 0.178816 0.002136
0.640559 0.182290 0.002517
0.668686 0.189380 0.003495
0.693640 0.193879 0.003966
0.740131 0.190763 0.004051
0.762688 0.197879 0.003026
0.775566 0.200196 0.002434
0.786901 0.200730 0.003760
0.813462 0.194520 0.003606
0.834376 0.192690 0.003905
0.851427 0.191794 0.003653
0.861463 0.192394 0.003412
0.868023 0.192299 0.002874
0.007668 0.202785 0.126142
0.026683 0.203509 0.124288
0.059471 0.210702 0.124867
0.081701 0.211690 0.120518
0.103447 0.207521 0.112939
0.133190 0.201401 0.093660
0.156914 0.200471 0.074106
0.180251 0.199595 0.077366
0.204403 0.197365 0.083883
0.229945 0.197835 0.083979
0.259087 0.200563 0.084249
0.289525 0.199772 0.065487
0.328696 0.204147 0.036925
0.363731 0.205950 0.022932
0.390348 0.201599 0.031887
0.427941 0.203070 0.032959
0.469543 0.204698 0.027616
0.512405 0.201263 0.015300
0.543374 0.199549 0.011586
0.580572 0.197767 0.009004
0.613915 0.199346 0.005446
0.641176 0.205083 0.003403
0.670058 0.213441 0.003645
0.695755 0.217236 0.004162
0.718756 0.231200 0.004500
0.777827 0.193021 0.001236
0.778683 0.224757 0.005668
0.798722 0.224138 0.005989
0.818527 0.222544 0.006604
0.837650 0.222051 0.007617
0.853558 0.222111 0.007570
0.867326 0.220873 0.007662
0.874263 0.220524 0.007309
0.006510 0.228055 0.143122
0.027927 0.233275 0.146198
0.051595 0.232647 0.142174
0.079262 0.235034 0.134844
0.099504 0.238115 0.131405
0.125682 0.234732 0.128222
0.159078 0.228424 0.101567
0.184660 0.230575 0.088154
0.209895 0.230375 0.086965
0.231178 0.225415 0.087559
0.257679 0.225555 0.091097
0.285651 0.226046 0.086856
0.319034 0.226625 0.070909
0.361791 0.233708 0.044528
0.392558 0.232433 0.044207
0.426195 0.231336 0.051545
0.467117 0.233425 0.046628
0.513534 0.233945 0.029485
0.548806 0.230681 0.020502
0.581245 0.231142 0.020969
0.615108 0.232103 0.017782
0.646178 0.236476 0.011394
0.674371 0.241030 0.009688
0.703758 0.244298 0.006358
0.731753 0.252955 0.007182
0.755883 0.263995 0.005626
0.773851 0.273295 0.002933
0.839672 0.223746 0.000090
0.825281 0.254101 0.016478
0.842609 0.254261 0.017909
0.858513 0.253958 0.017884
0.872241 0.252389 0.018326
0.881464 0.250846 0.018992
0.006130 0.251677 0.159298
0.021200 0.260546 0.164030
0.037754 0.263662 0.166136
0.076939 0.261927 0.160984
0.108526 0.263214 0.154067
0.125435 0.266597 0.153923
0.151163 0.261947 0.141677
0.183047 0.261047 0.120847
0.211228 0.261066 0.099346
0.237671 0.259965 0.095020
0.260919 0.254707 0.087925
0.289330 0.256610 0.088292
0.320870 0.258758 0.090869
0.358090 0.262186 0.073777
0.400093 0.267245 0.058575
0.430488 0.265012 0.062614
0.469542 0.265185 0.060304
0.511391 0.267712 0.049719
0.552921 0.268361 0.036984
0.587135 0.271252 0.038411
0.616272 0.271186 0.039093
0.652646 0.274852 0.024623
0.683536 0.278648 0.025476
0.715558 0.279654 0.017060
0.741248 0.281884 0.016037
0.764882 0.286926 0.013919
0.785464 0.293374 0.005706
0.801266 0.301498 0.008484
0.833340 0.287332 0.031018
0.850937 0.286774 0.033573
0.866180 0.286580 0.034453
0.880134 0.284739 0.034614
0.889535 0.283010 0.035060
0.005491 0.278911 0.178224
0.020107 0.288471 0.183834
0.031525 0.288527 0.182576
0.049116 0.292514 0.184360
0.089141 0.289956 0.183970
0.131211 0.291271 0.178739
0.146500 0.290121 0.169076
0.177011 0.288749 0.145526
0.207242 0.290962 0.133010
0.241912 0.292549 0.115429
0.269103 0.292631 0.107518
0.295963 0.291180 0.097105
0.328820 0.292650 0.085009
0.365185 0.298233 0.072289
0.404858 0.302493 0.069952
0.440556 0.303802 0.073896
0.472206 0.302103 0.077995
0.513177 0.302175 0.077231
0.552689 0.305665 0.065995
0.594011 0.311800 0.056713
0.625139 0.313019 0.059040
0.660054 0.313836 0.046252
0.696666 0.320332 0.044404
0.724852 0.323173 0.040027
0.754105 0.323644 0.024259
0.777642 0.325287 0.024669
0.798606 0.328685 0.025481
0.817421 0.331530 0.032879
0.848888 0.314944 0.028216
0.857957 0.323205 0.054215
0.874751 0.320752 0.053528
0.888890 0.318644 0.053200
0.898411 0.316760 0.053292
0.005259 0.310596 0.200638
0.021719 0.321378 0.207016
0.032960 0.320073 0.202208
0.050339 0.319086 0.199857
0.069281 0.318668 0.200444
0.098307 0.322764 0.202308
0.140386 0.325296 0.191166
0.171601 0.319168 0.183177
0.203592 0.322410 0.162610
0.237279 0.324139 0.151939
0.274002 0.328731 0.136726
0.301632 0.326740 0.132214
0.332059 0.324812 0.117752
0.371049 0.331082 0.088376
0.415659 0.342141 0.068669
0.454909 0.346746 0.072532
0.484774 0.341348 0.092227
0.521417 0.339059 0.098628
0.564334 0.342510 0.089425
0.602330 0.347946 0.082707
0.639110 0.354653 0.077137
0.670842 0.358806 0.074807
0.709724 0.365986 0.072210
0.738469 0.366318 0.073185
0.765835 0.370019 0.059744
0.790819 0.372857 0.050204
0.812573 0.373009 0.062307
0.832705 0.374768 0.074266
0.841009 0.374375 0.089729
0.866345 0.360238 0.077256
0.883927 0.356308 0.074190
0.898293 0.353919 0.073295
0.907926 0.351884 0.073023
0.003670 0.346841 0.224251
0.019453 0.353541 0.226604
0.037851 0.351086 0.224181
0.050444 0.350193 0.220181
0.065557 0.350810 0.215870
0.092700 0.356133 0.218333
0.129583 0.358364 0.212715
0.164758 0.356296 0.211970
0.203454 0.351346 0.196897
0.235337 0.358826 0.174754
0.267216 0.360935 0.172589
0.308084 0.363758 0.156669
0.341321 0.363613 0.152714
0.374346 0.364809 0.141903
0.417806 0.372125 0.110277
0.463289 0.384726 0.088750
0.505337 0.389813 0.094330
0.541676 0.383747 0.114268
0.578334 0.382151 0.116009
0.611561 0.384648 0.113669
0.650104 0.393564 0.104863
0.683594 0.399325 0.107692
0.717796 0.406196 0.110231
0.750291 0.411987 0.108361
0.776683 0.415840 0.090101
0.802478 0.420010 0.081987
0.826699 0.421771 0.099389
0.842537 0.416933 0.110981
0.849659 0.415103 0.123672
0.875081 0.397571 0.101247
0.893706 0.392914 0.096081
0.908244 0.390332 0.094683
0.917980 0.388147 0.094046
0.001909 0.378486 0.243969
0.013352 0.384310 0.248439
0.043682 0.386213 0.250542
0.059810 0.382231 0.245244
0.070737 0.380182 0.239518
0.093296 0.382865 0.237822
0.128364 0.385398 0.236149
0.162533 0.388949 0.231594
0.197749 0.396367 0.229630
0.245774 0.394955 0.201172
0.272278 0.398235 0.181991
0.306237 0.400855 0.190620
0.350502 0.403646 0.181393
0.389304 0.408665 0.174092
0.424315 0.409401 0.170376
0.467279 0.416934 0.139818
0.514958 0.429309 0.119007
0.564833 0.435811 0.122486
0.599535 0.431701 0.137542
0.625329 0.429447 0.140973
0.662445 0.437311 0.138159
0.698758 0.445164 0.135508
0.729780 0.448812 0.135245
0.759210 0.452719 0.140922
0.787718 0.458830 0.131064
0.814219 0.464950 0.118665
0.835946 0.466222 0.132619
0.850899 0.462907 0.145884
0.862625 0.440119 0.131703
0.885741 0.434133 0.123668
0.903980 0.430344 0.118966
0.918643 0.427647 0.117193
0.928470 0.425309 0.116186
0.002406 0.398384 0.254010
0.013833 0.407875 0.267127
0.038061 0.410554 0.268125
0.061745 0.408809 0.266429
0.078232 0.410049 0.261116
0.101337 0.422124 0.266202
0.130024 0.411976 0.256452
0.168825 0.419783 0.252149
0.208760 0.434657 0.247254
0.251000 0.448984 0.250497
0.285349 0.443012 0.222234
0.314386 0.441315 0.199298
0.350247 0.443334 0.211741
0.397900 0.448810 0.210730
0.438994 0.454783 0.204806
0.478046 0.459065 0.195145
0.531089 0.471088 0.170828
0.574847 0.477911 0.152629
0.612588 0.479573 0.155978
0.642644 0.479755 0.167255
0.674473 0.483295 0.169132
0.713480 0.492712 0.159110
0.745958 0.497083 0.154040
0.772660 0.500860 0.147667
0.796511 0.501406 0.154809
0.821801 0.503322 0.163432
0.841145 0.505411 0.167940
0.856768 0.500654 0.175905
0.877392 0.478987 0.155575
0.896797 0.471071 0.145718
0.914616 0.468308 0.142465
0.929383 0.465604 0.140610
0.939291 0.463132 0.139272
0.002905 0.440830 0.281350
0.047679 0.465137 0.296924
0.072146 0.471974 0.299029
0.095341 0.473821 0.290873
0.117963 0.473933 0.281657
0.127545 0.468283 0.269553
0.161172 0.467393 0.187300
0.194243 0.450629 0.195982
0.222078 0.474545 0.271253
0.255221 0.486070 0.269195
0.291075 0.490646 0.271971
0.332969 0.491680 0.236799
0.362792 0.491002 0.221971
0.403304 0.492825 0.241276
0.449346 0.496932 0.234688
0.494592 0.505352 0.227786
0.542270 0.513923 0.220697
0.589307 0.520642 0.196406
0.622610 0.522618 0.188660
0.656438 0.526471 0.188321
0.689514 0.529581 0.189385
0.722622 0.534603 0.189171
0.755641 0.542509 0.180722
0.784130 0.548516 0.167178
0.803416 0.545572 0.164578
0.828756 0.541205 0.185680
0.851216 0.542459 0.204197
0.866725 0.544743 0.219615
0.887218 0.513893 0.172938
0.906696 0.505973 0.161168
0.925460 0.506650 0.166568
0.940358 0.503967 0.164761
0.950341 0.501377 0.163128
0.003586 0.475523 0.304457
0.058057 0.507332 0.324386
0.087161 0.516962 0.327101
0.111910 0.520059 0.319139
0.135153 0.519901 0.309122
0.159648 0.518160 0.289599
0.183105 0.478474 0.074105
0.214553 0.475970 0.046074
0.232961 0.504770 0.231056
0.259690 0.523505 0.278639
0.298549 0.528879 0.287741
0.344595 0.537122 0.289148
0.385524 0.543355 0.259935
0.421029 0.544305 0.252503
0.462167 0.545294 0.266116
0.508305 0.550761 0.261749
0.556430 0.562066 0.250325
0.601026 0.565595 0.235602
0.635696 0.566422 0.222965
0.668197 0.570367 0.214648
0.703735 0.575433 0.201059
0.733424 0.577424 0.208061
0.762591 0.580857 0.210508
0.790973 0.588195 0.192287
0.810819 0.585166 0.192902
0.832967 0.580413 0.209209
0.856147 0.575685 0.228057
0.878823 0.575961 0.247261
0.878165 0.483893 0.034808
0.916105 0.541490 0.178148
0.936253 0.544841 0.190351
0.951401 0.542343 0.189078
0.961514 0.539806 0.187582
0.003699 0.511186 0.329668
0.064199 0.546451 0.352493
0.096287 0.557968 0.355635
0.122766 0.562052 0.348218
0.147630 0.562699 0.339314
0.173233 0.561639 0.324301
0.200345 0.560465 0.309252
0.227473 0.556945 0.286456
0.244851 0.505727 0.041106
0.268060 0.554464 0.293590
0.308288 0.562267 0.302168
0.352575 0.571820 0.309733
0.396322 0.580198 0.309561
0.442015 0.591343 0.289419
0.481540 0.595124 0.281044
0.522003 0.596162 0.287210
0.559997 0.597648 0.280393
0.608917 0.608013 0.258956
0.647557 0.608241 0.234863
0.679701 0.609753 0.230835
0.709922 0.612241 0.226691
0.737557 0.613848 0.227051
0.768952 0.616114 0.236220
0.796006 0.622859 0.230628
0.819542 0.623977 0.228536
0.841348 0.619104 0.242228
0.860391 0.614450 0.250403
0.883533 0.611972 0.262405
0.881714 0.524087 0.058478
0.922113 0.571500 0.180841
0.944730 0.576915 0.198937
0.962327 0.580357 0.212932
0.972669 0.578067 0.212152
0.003782 0.541658 0.362886
0.070416 0.585792 0.382045
0.104269 0.598256 0.385387
0.130356 0.602701 0.384655
0.155574 0.604569 0.381971
0.182429 0.606305 0.378440
0.210741 0.606848 0.368983
0.239445 0.604348 0.345241
0.268888 0.603308 0.330315
0.298595 0.600378 0.310191
0.314976 0.544196 0.074013
0.364057 0.594555 0.316985
0.406007 0.603544 0.331249
0.447619 0.617894 0.332503
0.492942 0.628217 0.322055
0.537148 0.636640 0.307234
0.574959 0.640392 0.307619
0.611255 0.642043 0.301589
0.653751 0.646192 0.274094
0.685820 0.645698 0.243219
0.717577 0.647492 0.249916
0.740379 0.645794 0.262519
0.766523 0.647460 0.265693
0.799069 0.653752 0.263548
0.821164 0.657850 0.271676
0.843883 0.655919 0.280066
0.864565 0.642824 0.264850
0.871437 0.635554 0.255054
0.872926 0.572720 0.100158
0.906168 0.532838 0.003309
0.950978 0.605685 0.197910
0.971551 0.613544 0.224529
0.983545 0.615836 0.236415
0.004487 0.582038 0.398885
0.076650 0.623407 0.410436
0.112353 0.637762 0.414484
0.137904 0.641688 0.414634
0.163304 0.643750 0.412847
0.190437 0.645772 0.410161
0.219212 0.647760 0.406399
0.249440 0.649692 0.401667
0.280582 0.649777 0.388359
0.311574 0.646707 0.363594
0.344850 0.647191 0.357317
0.379795 0.650064 0.360610
0.417562 0.655762 0.374435
0.462030 0.637243 0.347052
0.500361 0.649505 0.349904
0.543597 0.660700 0.336212
0.581850 0.669719 0.333918
0.619442 0.676085 0.332211
0.659555 0.682110 0.319303
0.695893 0.684182 0.295291
0.722563 0.681577 0.283169
0.750686 0.680080 0.298661
0.773419 0.679937 0.304283
0.800848 0.685212 0.297896
0.827489 0.688640 0.300683
0.843289 0.692572 0.306867
0.858926 0.694713 0.298043
0.891486 0.677162 0.279851
0.904781 0.684202 0.289812
0.906308 0.584670 0.052402
0.937613 0.565030 0.005586
0.978773 0.646421 0.235344
0.992854 0.652754 0.259693
0.003524 0.603864 0.417366
0.083063 0.659376 0.415430
0.120787 0.676638 0.443040
0.145549 0.679831 0.444049
0.171109 0.681982 0.442540
0.198448 0.684156 0.440163
0.227461 0.686402 0.437190
0.257967 0.688655 0.433488
0.289757 0.690794 0.428761
0.322691 0.692911 0.423668
0.356623 0.695043 0.418511
0.391493 0.697329 0.414036
0.427386 0.698289 0.407999
0.464346 0.699268 0.401622
0.503127 0.698231 0.389650
0.559258 0.675847 0.342480
0.588192 0.688059 0.342149
0.616687 0.700174 0.349777
0.658262 0.708089 0.355696
0.700520 0.715300 0.351976
0.732509 0.717252 0.338179
0.761887 0.718592 0.334727
0.785181 0.715057 0.339096
0.808272 0.716920 0.340036
0.832899 0.720244 0.336381
0.854882 0.719221 0.335217
0.872139 0.729952 0.329507
0.901932 0.730996 0.325798
0.919190 0.712906 0.315705
0.931721 0.729171 0.326795
0.940513 0.629487 0.084268
0.984252 0.681209 0.249696
0.995759 0.684450 0.269008
0.000000 0.623241 0.024244
0.093436 0.698039 0.432269
0.128497 0.713778 0.470899
0.153261 0.716984 0.473042
0.178984 0.719233 0.471768
0.206507 0.721522 0.469587
0.235698 0.723882 0.466841
0.266383 0.726288 0.463564
0.298393 0.728713 0.459791
0.331554 0.731131 0.455557
0.365694 0.733503 0.450851
0.400652 0.735777 0.445723
0.436274 0.737932 0.440215
0.472466 0.739855 0.434214
0.510059 0.739066 0.423195
0.547050 0.737273 0.408052
0.582792 0.732237 0.383614
0.626242 0.720283 0.348570
0.656018 0.731754 0.360146
0.691321 0.739091 0.376418
0.738389 0.743711 0.380241
0.772314 0.751798 0.379487
0.798188 0.755388 0.372863
0.818421 0.750790 0.371102
0.840306 0.752363 0.369472
0.863405 0.755288 0.371099
0.884400 0.754381 0.357646
0.899849 0.763075 0.355768
0.914320 0.734127 0.270045
0.945448 0.761698 0.342107
0.963499 0.767216 0.353314
0.969966 0.639548 0.037163
0.995857 0.713019 0.268040
0.082830 0.728653 0.424432
0.106557 0.739025 0.462250
0.136393 0.750002 0.499880
0.160940 0.752961 0.501822
0.186824 0.755311 0.500650
0.214517 0.757712 0.498662
0.243868 0.760171 0.496082
0.274708 0.762663 0.492944
0.306863 0.765162 0.489284
0.340163 0.767643 0.485137
0.374437 0.770078 0.480538
0.409512 0.772441 0.475521
0.445218 0.774708 0.470123
0.481413 0.776782 0.464259
0.517878 0.778519 0.457590
0.553786 0.777950 0.444730
0.589015 0.773228 0.421537
0.591839 0.700077 0.190777
0.675767 0.754308 0.362037
0.700453 0.765318 0.380478
0.731421 0.778275 0.397766
0.779396 0.774929 0.404797
0.808659 0.784157 0.406755
0.830030 0.790035 0.407748
0.851104 0.790079 0.403987
0.869205 0.789478 0.399242
0.888438 0.791173 0.396121
0.908865 0.788045 0.386727
0.921695 0.793132 0.386666
0.933613 0.729164 0.199089
0.972061 0.802926 0.370344
0.975446 0.713101 0.144520
0.994862 0.730072 0.232749
0.102807 0.776413 0.502628
0.120426 0.780330 0.515985
0.144175 0.784854 0.529082
0.168499 0.787528 0.530087
0.194528 0.789977 0.529014
0.222372 0.792486 0.527215
0.251868 0.795042 0.524797
0.282844 0.797619 0.521795
0.315129 0.800189 0.518245
0.348551 0.802728 0.514181
0.382939 0.805210 0.509638
0.418122 0.807607 0.504651
0.453927 0.809894 0.499256
0.490185 0.812046 0.493487
0.526696 0.813962 0.487168
0.563243 0.815429 0.479856
0.597983 0.812586 0.460462
0.635056 0.811132 0.447353
0.668650 0.803563 0.415573
0.720999 0.786508 0.385467
0.744409 0.800526 0.406551
0.770324 0.813666 0.423802
0.814756 0.816776 0.418402
0.837185 0.812674 0.432135
0.856469 0.818901 0.436423
0.876526 0.818807 0.420054
0.892788 0.819355 0.410795
0.910373 0.823686 0.391022
0.923844 0.816456 0.390901
0.907117 0.690960 0.011702
0.950397 0.727581 0.117280
0.975114 0.732350 0.130829
0.999739 0.696769 0.026259
0.114138 0.813614 0.554658
0.129787 0.815446 0.556200
0.151588 0.817898 0.557454
0.175826 0.820437 0.557620
0.201990 0.822992 0.556686
0.229970 0.825608 0.555072
0.259594 0.828258 0.552813
0.290690 0.830915 0.549944
0.323087 0.833554 0.546499
0.356615 0.836150 0.542514
0.391100 0.838674 0.538024
0.426373 0.841103 0.533064
0.462261 0.843409 0.527669
0.498594 0.845566 0.521873
0.535199 0.847549 0.515713
0.571860 0.849229 0.508930
0.608477 0.850617 0.501725
0.644658 0.851209 0.492646
0.677902 0.844506 0.461889
0.645711 0.756684 0.117204
0.765259 0.820940 0.418862
0.784994 0.830524 0.437733
0.806839 0.840808 0.442340
0.828632 0.843955 0.428031
0.861773 0.830969 0.450531
0.881074 0.836970 0.448392
0.897809 0.840123 0.441756
0.909126 0.843825 0.441001
0.919967 0.851431 0.427695
0.907719 0.723967 0.013499
0.975371 0.804308 0.295279
0.994272 0.807027 0.312729
0.998055 0.795732 0.282524
0.121051 0.844593 0.582476
0.136690 0.846398 0.583461
0.158508 0.848848 0.584201
0.182818 0.851446 0.584218
0.209108 0.854118 0.583492
0.237206 0.856837 0.582060
0.266941 0.859578 0.579956
0.298141 0.862314 0.577216
0.330634 0.865020 0.573874
0.364250 0.867668 0.569965
0.398816 0.870234 0.565524
0.434163 0.872691 0.560587
0.470117 0.875013 0.555188
0.506508 0.877173 0.549363
0.543164 0.879147 0.543145
0.579914 0.880907 0.536571
0.616586 0.882427 0.529676
0.652865 0.883373 0.521513
0.685026 0.878901 0.494180
0.716439 0.870062 0.451826
0.734909 0.838508 0.249010
0.800206 0.850513 0.446235
0.813617 0.854058 0.462621
0.828426 0.863772 0.457098
0.871682 0.871905 0.456080
0.899545 0.872277 0.455658
0.899014 0.855759 0.471985
0.910012 0.861073 0.475933
0.917991 0.866424 0.480446
0.909340 0.766815 0.059229
0.979509 0.843643 0.350320
0.998204 0.851054 0.384529
0.999799 0.842814 0.364861
0.127275 0.873104 0.607346
0.143012 0.875021 0.608540
0.164951 0.877606 0.609533
0.189379 0.880330 0.609780
0.215778 0.883116 0.609259
0.243978 0.885936 0.608006
0.273806 0.888765 0.606054
0.305093 0.891577 0.603438
0.337665 0.894346 0.600195
0.371353 0.897045 0.596359
0.405983 0.899650 0.591964
0.441386 0.902132 0.587046
0.477390 0.904467 0.581640
0.513822 0.906628 0.575781
0.550513 0.908589 0.569503
0.587289 0.910325 0.562843
0.623981 0.911809 0.555834
0.660329 0.912896 0.548084
0.695944 0.913171 0.538043
0.726003 0.906513 0.497855
0.693051 0.827690 0.150552
0.742773 0.849482 0.227623
0.823133 0.880605 0.445255
0.834004 0.884684 0.445350
0.844914 0.893067 0.435925
0.907823 0.901533 0.469356
0.935063 0.900652 0.478018
0.913768 0.872864 0.488600
0.920233 0.876355 0.486815
0.909979 0.802846 0.106284
0.983890 0.876907 0.389803
0.998724 0.882264 0.419026
0.999971 0.876206 0.407078
0.133010 0.899258 0.631017
0.148832 0.901284 0.632418
0.170876 0.904003 0.633658
0.195404 0.906850 0.634133
0.221895 0.909747 0.633814
0.250180 0.912665 0.632735
0.280086 0.915580 0.630931
0.311442 0.918466 0.628438
0.344077 0.921295 0.625290
0.377819 0.924043 0.621522
0.412498 0.926682 0.617170
0.447940 0.929188 0.612268
0.483976 0.931533 0.606851
0.520434 0.933692 0.600955
0.557142 0.935639 0.594613
0.593928 0.937347 0.587863
0.630623 0.938791 0.580737
0.667053 0.939944 0.573272
0.702832 0.940510 0.564324
0.734074 0.936175 0.536006
0.760619 0.927931 0.492059
0.713548 0.849978 0.142150
0.824200 0.911783 0.406394
0.837501 0.911226 0.420456
0.846511 0.911550 0.429321
0.909373 0.924839 0.470880
0.942339 0.925691 0.480040
0.963805 0.921955 0.479863
