app/src/main/assets/filters/富士ETERNA.cube
TITLE "富士ETERNA"
LUT_3D_SIZE 9
DOMAIN_MIN 0.0 0.0 0.0
DOMAIN_MAX 1.0 1.0 1.0
0.022716 0.028424 0.030298
0.149817 0.044676 0.030299
0.243148 0.057931 0.028097
0.340381 0.055918 0.020609
0.429540 0.087671 0.050750
0.522829 0.100703 0.030012
0.702190 0.042473 0.000062
0.742816 0.109668 0.012561
0.850701 0.102864 0.001066
0.064661 0.181939 0.081972
0.171193 0.181990 0.069383
0.252580 0.186583 0.097898
0.336347 0.182696 0.049203
0.429686 0.179724 0.047112
0.513396 0.187542 0.076336
0.624704 0.191215 0.059316
0.705496 0.193060 0.001681
0.830344 0.176078 0.001934
0.094977 0.277536 0.130187
0.192744 0.280821 0.126148
0.258614 0.280434 0.081869
0.342732 0.280221 0.106886
0.434339 0.280936 0.104449
0.519962 0.275749 0.090252
0.607094 0.275537 0.076902
0.730260 0.275392 0.033908
0.823353 0.269390 0.007321
0.137089 0.371819 0.167739
0.201334 0.372664 0.172613
0.272570 0.382463 0.170344
0.359973 0.384899 0.132984
0.452404 0.393508 0.062810
0.541034 0.394888 0.130498
0.634210 0.398158 0.098793
0.738905 0.389827 0.085667
0.830993 0.375825 0.035294
0.029825 0.486266 0.201215
0.229309 0.499479 0.197789
0.256968 0.498753 0.023560
0.391419 0.503727 0.194258
0.480103 0.511956 0.180573
0.566141 0.515114 0.130277
0.649913 0.512521 0.112018
0.844629 0.502440 0.037017
0.851173 0.493149 0.085568
0.000073 0.622160 0.014226
0.261232 0.617538 0.264381
0.337083 0.621167 0.259615
0.416016 0.625042 0.255663
0.500409 0.621872 0.231720
0.581607 0.615395 0.238377
0.678929 0.630221 0.232688
0.796514 0.640825 0.146297
0.895994 0.621193 0.125489
0.218635 0.733400 0.340718
0.289023 0.737349 0.332940
0.366377 0.742752 0.328478
0.446842 0.748506 0.325154
0.531343 0.753694 0.319988
0.654868 0.778739 0.150163
0.719131 0.758933 0.296819
0.808649 0.770045 0.315444
0.929784 0.751367 0.202680
0.242756 0.850608 0.419055
0.315584 0.856788 0.411581
0.395589 0.864572 0.407677
0.478752 0.872703 0.405153
0.565998 0.880264 0.401030
0.658410 0.886359 0.390331
0.765964 0.895747 0.310053
0.861523 0.890239 0.347240
0.966702 0.886912 0.312106
0.261592 0.957384 0.500759
0.337680 0.966170 0.493784
0.421195 0.976725 0.490629
0.507913 0.987610 0.489080
0.598758 0.993137 0.486159
0.694653 0.995180 0.478887
0.795487 0.994439 0.459550
0.843382 0.997792 0.425468
0.996916 0.996955 0.404232
0.009847 0.038124 0.162352
0.148802 0.073571 0.176394
0.248405 0.083182 0.183518
0.344363 0.098077 0.183734
0.424687 0.110727 0.182525
0.530124 0.115914 0.171475
0.640887 0.116548 0.157327
0.753636 0.120016 0.134509
0.861796 0.122956 0.100679
0.065099 0.176416 0.185341
0.167179 0.178652 0.185739
0.251571 0.189309 0.197203
0.342727 0.191569 0.196623
0.428655 0.190742 0.189067
0.519849 0.194351 0.186687
0.612808 0.193273 0.170150
0.719247 0.192853 0.146853
0.837890 0.194033 0.105407
0.108337 0.270898 0.203707
0.182163 0.277321 0.203675
0.258745 0.276025 0.210002
0.337560 0.278935 0.213182
0.427003 0.277003 0.204459
0.518866 0.278762 0.201721
0.620760 0.284271 0.191469
0.722591 0.288551 0.166026
0.902937 0.272966 0.115549
0.150507 0.372906 0.215888
0.202926 0.371284 0.224217
0.267083 0.375141 0.231635
0.352912 0.375095 0.224366
0.439332 0.380732 0.229667
0.535295 0.387878 0.228134
0.628269 0.393694 0.221314
0.714606 0.395260 0.198552
0.831833 0.388795 0.152181
0.148510 0.483709 0.251357
0.253059 0.482234 0.258295
0.303678 0.492765 0.267247
0.379890 0.499215 0.265832
0.472937 0.501677 0.260899
0.557596 0.504859 0.254182
0.645885 0.509649 0.250105
0.746467 0.511768 0.243989
0.852523 0.503313 0.191004
0.065159 0.598059 0.301552
0.258153 0.603191 0.307382
0.334880 0.606679 0.307461
0.411963 0.610865 0.299236
0.493273 0.612116 0.307319
0.577247 0.611663 0.302007
0.674647 0.625272 0.300613
0.833298 0.628095 0.194393
0.892231 0.626952 0.225667
0.032105 0.742861 0.161906
0.291897 0.721392 0.365424
0.367829 0.726947 0.364779
0.446775 0.733783 0.366421
0.529762 0.740965 0.367469
0.620005 0.746118 0.365156
0.728841 0.753791 0.371464
0.812174 0.768339 0.352480
0.930942 0.753766 0.273330
0.252780 0.834024 0.434856
0.323617 0.839219 0.430062
0.401122 0.846897 0.429815
0.481791 0.855832 0.432195
0.566547 0.865109 0.434222
0.656315 0.873810 0.432919
0.752385 0.880257 0.415240
0.854490 0.883956 0.405485
0.957879 0.886282 0.369354
0.277950 0.939273 0.502171
0.350825 0.946896 0.497454
0.430926 0.957085 0.497898
0.514233 0.968527 0.501195
0.601673 0.980304 0.504366
0.694168 0.990870 0.504433
0.792644 0.994005 0.498417
0.898024 0.995600 0.483339
0.994557 0.996378 0.458548
0.006880 0.056299 0.255750
0.128865 0.075987 0.255458
0.234545 0.074183 0.264298
0.362238 0.036973 0.263020
0.437041 0.094141 0.274144
0.566924 0.055465 0.265677
0.641205 0.126394 0.269354
0.759242 0.134640 0.254794
0.876241 0.140381 0.229980
0.069332 0.171723 0.267247
0.143630 0.168738 0.263255
0.229962 0.180297 0.265076
0.327427 0.197443 0.278127
0.421763 0.194949 0.272174
0.515435 0.202489 0.267325
0.606840 0.207215 0.264760
0.731833 0.205276 0.244515
0.847819 0.209706 0.233048
0.099886 0.262762 0.281507
0.172419 0.259465 0.273656
0.246369 0.263170 0.274264
0.330584 0.277515 0.285669
0.418156 0.276925 0.286143
0.516614 0.281081 0.285595
0.620020 0.289998 0.286675
0.727837 0.293802 0.273858
0.848977 0.293181 0.243480
0.104226 0.353131 0.290494
0.193673 0.350942 0.293670
0.264359 0.365566 0.294183
0.346187 0.369817 0.302873
0.431351 0.375975 0.309415
0.530323 0.385303 0.310259
0.632535 0.392418 0.308397
0.729359 0.396462 0.294695
0.835761 0.393427 0.255015
0.107257 0.481974 0.319134
0.155729 0.488941 0.291961
0.306503 0.480167 0.335683
0.374424 0.492767 0.339071
0.465866 0.498118 0.344042
0.553222 0.500997 0.340908
0.643841 0.501728 0.332973
0.733067 0.500437 0.316167
0.907119 0.495430 0.277780
0.000980 0.599272 0.354564
0.177937 0.619176 0.284977
0.283450 0.615893 0.280054
0.414059 0.601873 0.372608
0.484046 0.607420 0.375175
0.576829 0.609935 0.372021
0.671744 0.620971 0.372785
0.771991 0.637839 0.370229
0.971814 0.628110 0.262040
0.095248 0.741547 0.302400
0.282806 0.715118 0.404804
0.368967 0.716292 0.416072
0.446702 0.722939 0.420707
0.527895 0.731255 0.421898
0.617199 0.739420 0.425917
0.719240 0.750722 0.432907
0.803508 0.761322 0.416942
0.933417 0.754036 0.348891
0.016283 0.873828 0.261578
0.330980 0.828479 0.466536
0.406602 0.834598 0.468439
0.485062 0.843028 0.474003
0.567616 0.852773 0.480547
0.655186 0.862916 0.485093
0.748301 0.870834 0.483154
0.848743 0.878222 0.469986
0.922810 0.876841 0.452747
0.294039 0.929492 0.524972
0.363923 0.934600 0.520737
0.440834 0.943032 0.522970
0.520958 0.953691 0.529389
0.605218 0.965661 0.537015
0.694540 0.978026 0.542869
0.789848 0.989608 0.543972
0.892065 0.993806 0.537346
0.992025 0.994554 0.483142
0.004446 0.066653 0.339310
0.112330 0.067985 0.347072
0.211977 0.086661 0.348646
0.322828 0.088693 0.360571
0.488862 0.016040 0.373778
0.566823 0.064030 0.370954
0.647003 0.131303 0.369149
0.770644 0.143641 0.361429
0.892872 0.153980 0.344186
0.035789 0.166579 0.353374
0.127013 0.164200 0.344746
0.204408 0.166944 0.327840
0.333044 0.158403 0.354376
0.424071 0.194943 0.346549
0.525249 0.188226 0.369716
0.630311 0.201590 0.372192
0.744243 0.213386 0.364792
0.859871 0.222060 0.347855
0.054343 0.266533 0.375526
0.156411 0.258976 0.359602
0.219461 0.253821 0.354971
0.307859 0.259891 0.353990
0.418884 0.278384 0.374929
0.517437 0.286423 0.377769
0.624478 0.297334 0.383673
0.724502 0.300494 0.371106
0.855304 0.304282 0.360960
0.082845 0.369548 0.386175
0.176184 0.358836 0.375773
0.244883 0.357372 0.377586
0.333483 0.358653 0.372667
0.431509 0.378736 0.395002
0.530159 0.390099 0.403462
0.631222 0.396455 0.403737
0.734493 0.398516 0.388518
0.856951 0.402689 0.377593
0.154403 0.472694 0.411488
0.213675 0.475291 0.409139
0.279942 0.486020 0.411917
0.377639 0.488075 0.422297
0.461617 0.493717 0.426857
0.549902 0.497367 0.427263
0.642006 0.500907 0.422146
0.739898 0.502922 0.410877
0.887132 0.513714 0.377840
0.003614 0.597053 0.429901
0.246633 0.593577 0.434971
0.328480 0.597532 0.457179
0.407110 0.597635 0.443139
0.488069 0.603211 0.447754
0.575940 0.611006 0.455013
0.668854 0.617399 0.457764
0.769881 0.631674 0.458253
0.889009 0.638404 0.432994
0.227188 0.712757 0.485166
0.294494 0.710928 0.478688
0.368489 0.712701 0.479664
0.444868 0.718166 0.483332
0.526824 0.725380 0.489179
0.616007 0.734344 0.483259
0.712885 0.741201 0.504110
0.803065 0.749154 0.495778
0.955572 0.758577 0.445900
0.292151 0.833502 0.530517
0.336806 0.826452 0.520595
0.410695 0.829684 0.522127
0.487818 0.836063 0.529046
0.568647 0.844850 0.537957
0.654499 0.855016 0.546147
0.746214 0.863692 0.549729
0.829559 0.850957 0.528945
0.929901 0.873855 0.511187
0.273829 0.940201 0.542617
0.375502 0.931348 0.563945
0.449702 0.936597 0.565817
0.527120 0.945047 0.573208
0.608681 0.955781 0.583138
0.695308 0.967883 0.592629
0.787926 0.980436 0.598702
0.887464 0.991669 0.598300
0.994549 0.993081 0.439206
0.003369 0.079533 0.427662
0.088113 0.083028 0.431981
0.194864 0.086369 0.433569
0.304081 0.094435 0.439994
0.420538 0.102283 0.450800
0.537971 0.113350 0.457947
0.653844 0.135470 0.457814
0.783281 0.150498 0.454717
0.911132 0.164142 0.443041
0.004062 0.182316 0.445643
0.109840 0.173062 0.442249
0.205605 0.165450 0.444015
0.307843 0.169174 0.449757
0.469361 0.147474 0.482455
0.516599 0.193883 0.461528
0.631008 0.206981 0.464218
0.753031 0.219622 0.461149
0.873847 0.231134 0.449675
0.015117 0.281554 0.468185
0.145264 0.266591 0.459841
0.212018 0.265203 0.451677
0.293934 0.260759 0.434125
0.409152 0.279147 0.453158
0.505820 0.300784 0.479631
0.639104 0.291781 0.479377
0.737547 0.306696 0.474437
0.851356 0.316547 0.463526
0.028516 0.386503 0.502919
0.167714 0.376250 0.485270
0.244310 0.373083 0.479562
0.324601 0.368262 0.473679
0.420778 0.373533 0.479944
0.528647 0.394326 0.497480
0.630019 0.401249 0.501347
0.727113 0.400879 0.492387
0.867813 0.407653 0.485902
0.125143 0.486160 0.496944
0.204988 0.484171 0.492795
0.266961 0.477908 0.492888
0.348086 0.473269 0.493875
0.443997 0.477776 0.495754
0.543062 0.497350 0.514296
0.640337 0.504138 0.519106
0.742537 0.510425 0.517059
0.950718 0.510175 0.502811
0.058591 0.594273 0.550747
0.241087 0.595750 0.522783
0.305110 0.588809 0.521792
0.385531 0.597490 0.517510
0.489379 0.601778 0.541732
0.575866 0.612154 0.547726
0.666850 0.620394 0.552931
0.767350 0.639205 0.548967
0.903743 0.639422 0.520008
0.148623 0.712951 0.593706
0.294084 0.718258 0.558391
0.365397 0.716700 0.555417
0.455845 0.723885 0.579861
0.524450 0.726528 0.564248
0.616476 0.717915 0.592972
0.711055 0.741774 0.589991
0.802860 0.748838 0.589487
0.942310 0.760835 0.566759
0.276127 0.838719 0.602304
0.341721 0.833216 0.592727
0.414021 0.832181 0.591585
0.489500 0.835323 0.597066
0.569082 0.841726 0.606194
0.653688 0.850511 0.615792
0.745741 0.860226 0.613265
0.842496 0.864984 0.605187
0.942771 0.864961 0.619428
0.288680 0.949766 0.619328
0.385003 0.937529 0.626820
0.456971 0.938168 0.626181
0.532163 0.942982 0.632393
0.611502 0.951054 0.642478
0.695912 0.961467 0.653455
0.786319 0.973304 0.662348
0.883682 0.985644 0.665888
0.990005 0.993225 0.614789
0.000281 0.101787 0.526898
0.060462 0.100122 0.512550
0.172891 0.099490 0.510433
0.288251 0.103991 0.514631
0.407320 0.112823 0.522062
0.531110 0.124984 0.529822
0.660546 0.139557 0.534934
0.796539 0.155639 0.534408
0.930461 0.171252 0.526287
0.002580 0.196795 0.530337
0.079043 0.183419 0.529138
0.182684 0.180467 0.525489
0.291472 0.181205 0.530524
0.402221 0.187481 0.537274
0.514519 0.198724 0.542023
0.635397 0.210754 0.546845
0.762875 0.224291 0.546253
0.888846 0.237510 0.538276
0.003970 0.296866 0.552442
0.121802 0.274446 0.548273
0.207103 0.271765 0.542123
0.313581 0.274067 0.558498
0.433198 0.269715 0.573542
0.521775 0.286031 0.564973
0.623888 0.299391 0.564051
0.743364 0.310786 0.563634
0.861891 0.322000 0.556036
0.008470 0.410283 0.588491
0.145928 0.387281 0.574748
0.234195 0.383755 0.571359
0.320469 0.383235 0.567564
0.409859 0.375216 0.559017
0.514956 0.384644 0.575000
0.737238 0.378044 0.620548
0.745438 0.407782 0.586415
0.851516 0.418467 0.578482
0.018033 0.518996 0.604811
0.207424 0.505082 0.590556
0.267825 0.494527 0.597311
0.354370 0.491324 0.596104
0.435822 0.485376 0.590608
0.527457 0.483436 0.588551
0.643962 0.509168 0.613275
0.743453 0.523217 0.619233
0.932699 0.513129 0.618481
0.023747 0.644744 0.631724
0.282345 0.618352 0.624405
0.333839 0.621726 0.631061
0.400924 0.613927 0.627262
0.472050 0.598792 0.617729
0.568983 0.606422 0.626586
0.675604 0.633223 0.648018
0.759709 0.633134 0.654447
0.856556 0.625992 0.643632
0.024638 0.751978 0.664764
0.290200 0.734891 0.651928
0.363020 0.727231 0.645702
0.436339 0.724505 0.646164
0.522263 0.727906 0.653109
0.628746 0.733006 0.678501
0.712272 0.746016 0.679048
0.800424 0.752602 0.683862
0.982573 0.751548 0.639552
0.278458 0.861390 0.696406
0.343320 0.849630 0.681333
0.414842 0.842837 0.675591
0.489548 0.841195 0.677806
0.568364 0.843788 0.685000
0.651392 0.851386 0.689236
0.743501 0.857713 0.696129
0.834219 0.862640 0.706500
0.932567 0.868245 0.701806
0.328272 0.963974 0.723968
0.391869 0.953529 0.709105
0.462083 0.948133 0.703805
0.535526 0.947884 0.706689
0.613122 0.951867 0.714777
0.695795 0.959164 0.725091
0.784470 0.968860 0.734652
0.880218 0.980364 0.737357
0.998596 0.995692 0.717235
0.000000 0.131726 0.613373
0.032919 0.120055 0.596125
0.151464 0.114303 0.587721
0.273719 0.114700 0.586924
0.399762 0.120330 0.590757
0.530516 0.130276 0.596240
0.666908 0.143622 0.600395
0.809860 0.159451 0.600243
0.950302 0.175699 0.593666
0.000116 0.219825 0.638460
0.052665 0.205484 0.619935
0.162231 0.196924 0.610270
0.274820 0.194511 0.608440
0.391240 0.197326 0.611466
0.512417 0.204454 0.616369
0.639274 0.214979 0.620171
0.772737 0.227984 0.619892
0.904312 0.241577 0.613400
0.003708 0.323755 0.637690
0.084897 0.306041 0.647169
0.186705 0.294258 0.638991
0.292270 0.288999 0.638428
0.398703 0.289719 0.638558
0.507762 0.295458 0.640327
0.625527 0.303548 0.643993
0.749945 0.314114 0.643822
0.873100 0.325423 0.637648
0.005100 0.433845 0.681781
0.128449 0.413156 0.678498
0.249365 0.386670 0.731992
0.322423 0.406836 0.681692
0.434402 0.390313 0.683690
0.524329 0.394821 0.671218
0.626792 0.402614 0.670293
0.742972 0.411430 0.670310
0.858781 0.421023 0.664690
0.085603 0.530988 0.701650
0.196267 0.530998 0.702037
0.255980 0.531798 0.705562
0.345104 0.527948 0.704079
0.445392 0.519747 0.696689
0.544162 0.512175 0.690302
0.631148 0.501749 0.693167
0.754508 0.519349 0.702029
0.859997 0.525961 0.694139
0.138882 0.661341 0.750671
0.227833 0.643056 0.731538
0.307205 0.628146 0.720984
0.406000 0.624924 0.732826
0.490266 0.630614 0.729757
0.577490 0.625941 0.727112
0.662717 0.622386 0.724341
0.777719 0.650508 0.747676
0.887199 0.638917 0.730955
0.215922 0.780890 0.782269
0.283852 0.760960 0.759754
0.358545 0.746368 0.747103
0.434433 0.738420 0.743740
0.505919 0.740725 0.748015
0.609242 0.728476 0.754288
0.703875 0.739508 0.756598
0.805434 0.754365 0.762467
0.923161 0.744833 0.767573
0.277193 0.895248 0.809281
0.341770 0.875896 0.786700
0.412993 0.861920 0.774210
0.487405 0.854068 0.771008
0.565924 0.851430 0.774114
0.649525 0.854480 0.779845
0.739498 0.856853 0.786994
0.835438 0.869442 0.793922
0.931160 0.871331 0.796669
0.333143 0.993205 0.832971
0.395540 0.979673 0.810543
0.464479 0.966877 0.798431
0.536653 0.960140 0.795835
0.612984 0.958608 0.799777
0.694398 0.961363 0.807277
0.781819 0.967490 0.815357
0.875979 0.975457 0.816721
0.995770 0.989729 0.828980
0.000000 0.166270 0.704824
0.008540 0.147603 0.678489
0.127150 0.135305 0.661646
0.256822 0.130129 0.653744
0.390288 0.131159 0.651803
0.528471 0.137478 0.652846
0.672296 0.148171 0.653893
0.822687 0.162321 0.651965
0.970095 0.177869 0.644920
0.000000 0.256498 0.740646
0.025338 0.234938 0.712865
0.139289 0.219553 0.694700
0.258319 0.211288 0.685702
0.381187 0.209225 0.682892
0.508816 0.212449 0.683293
0.642132 0.220042 0.683924
0.782057 0.231088 0.681808
0.919683 0.243722 0.674789
0.000250 0.361452 0.778450
0.058357 0.337442 0.749290
0.164077 0.319340 0.729953
0.272832 0.308353 0.720027
0.385470 0.303565 0.716531
0.502918 0.304060 0.716487
0.626098 0.308921 0.716917
0.755936 0.317232 0.714841
0.884166 0.327302 0.708078
0.012820 0.465133 0.816334
0.102761 0.447240 0.784880
0.190387 0.405237 0.751520
0.302721 0.412106 0.761043
0.403050 0.406938 0.750671
0.511211 0.405358 0.750089
0.625173 0.408130 0.750343
0.746071 0.414311 0.748561
0.865980 0.422387 0.742291
0.070656 0.586383 0.844755
0.154890 0.561733 0.818868
0.243898 0.538586 0.799517
0.338512 0.523311 0.796705
0.436115 0.531703 0.799148
0.543106 0.514882 0.794291
0.643576 0.514612 0.788383
0.750973 0.519954 0.782686
0.863232 0.526627 0.776910
0.134985 0.705643 0.883145
0.209103 0.673128 0.850022
0.282711 0.631755 0.829367
0.380813 0.639540 0.821348
0.494269 0.644498 0.811749
0.570755 0.627902 0.806691
0.658924 0.620097 0.803810
0.781901 0.632475 0.824096
0.877339 0.637506 0.812737
0.204413 0.825492 0.913451
0.273482 0.796913 0.881481
0.349448 0.773998 0.860012
0.426820 0.757114 0.851387
0.519139 0.732891 0.846538
0.596188 0.736367 0.837418
0.691311 0.738016 0.838695
0.795729 0.751762 0.843677
0.921952 0.756803 0.858272
0.271773 0.940603 0.940466
0.336513 0.912400 0.908571
0.407915 0.889816 0.887182
0.482512 0.874327 0.876414
0.561228 0.865017 0.873288
0.644527 0.861333 0.874972
0.728693 0.846057 0.874419
0.824800 0.860630 0.876488
0.926037 0.862375 0.883367
0.333813 0.999794 0.962096
0.395457 0.997947 0.930823
0.463600 0.992318 0.909801
0.534983 0.980115 0.899576
0.610529 0.971664 0.897221
0.691162 0.968451 0.899757
0.777436 0.970151 0.903405
0.871978 0.974660 0.905589
0.991124 0.991252 0.919143
0.000000 0.206954 0.790869
0.001377 0.180523 0.754195
0.101330 0.160823 0.727533
0.238373 0.149157 0.711058
0.379214 0.144607 0.701791
0.524778 0.146258 0.696755
0.675988 0.153192 0.692969
0.833770 0.164494 0.687455
0.985802 0.178188 0.678164
0.000000 0.299535 0.838813
0.006054 0.269964 0.800639
0.114714 0.246917 0.772596
0.240200 0.231900 0.754967
0.369528 0.223997 0.744773
0.503622 0.222290 0.739035
0.643408 0.225864 0.734776
0.789808 0.233801 0.729015
0.933516 0.244334 0.719695
0.000009 0.406860 0.887787
0.030957 0.374489 0.848242
0.141222 0.348446 0.818965
0.255456 0.330430 0.800345
0.373580 0.319523 0.789402
0.496516 0.314809 0.783159
0.625191 0.315373 0.778635
0.760529 0.320296 0.772853
0.893925 0.328005 0.763730
0.002521 0.520679 0.933937
0.077537 0.486075 0.893258
0.178654 0.457643 0.863001
0.282807 0.437217 0.843683
0.390851 0.423931 0.832206
0.503779 0.416817 0.825710
0.622491 0.414977 0.821176
0.747913 0.417493 0.815626
0.872072 0.422946 0.806937
0.048750 0.638642 0.976693
0.133002 0.602373 0.935173
0.225118 0.572159 0.904190
0.322873 0.546204 0.886423
0.422970 0.532949 0.878212
0.523518 0.525966 0.866173
0.633487 0.522321 0.861946
0.750071 0.523045 0.856818
0.866068 0.526810 0.848800
0.117602 0.758402 0.996004
0.194461 0.721036 0.973329
0.278656 0.689580 0.942059
0.366051 0.666180 0.922079
0.457559 0.649964 0.910373
0.554334 0.639844 0.904569
0.661458 0.634620 0.904946
0.765701 0.634571 0.896325
0.874019 0.637248 0.888804
0.189481 0.877609 0.999610
0.260021 0.839714 0.994814
0.337510 0.807690 0.975955
0.416160 0.781494 0.958215
0.501127 0.763264 0.951223
0.599387 0.755650 0.946088
0.746879 0.749534 0.994694
0.842125 0.752596 0.972201
0.895321 0.752062 0.927077
0.262496 0.988847 0.999975
0.327792 0.955826 0.999352
0.399790 0.924140 0.994804
0.474989 0.900230 0.985434
0.554208 0.883329 0.974952
0.633025 0.869929 0.989004
0.719957 0.856966 0.955742
0.810354 0.855740 0.949704
0.926557 0.884189 0.981132
0.330212 1.000000 1.000000
0.391551 0.999961 0.999880
0.459375 0.999392 0.999194
0.530443 0.995725 0.996037
0.605680 0.989664 0.994001
0.686009 0.979792 0.992999
0.769983 0.976445 0.992916
0.864545 0.983030 0.998229
0.978174 0.992225 0.995467
