app/src/main/assets/filters/富士cc.cube
TITLE "富士cc"
LUT_3D_SIZE 5
DOMAIN_MIN 0.0 0.0 0.0
DOMAIN_MAX 1.0 1.0 1.0
0.003118 0.003459 0.003159
0.181169 0.008910 0.006830
0.450646 0.023739 0.017671
0.730540 0.032299 0.006877
0.952153 0.158307 0.132038
0.022796 0.210755 0.036038
0.264013 0.239432 0.033359
0.505890 0.260940 0.063476
0.717953 0.281392 0.093208
0.952159 0.341530 0.137122
0.002744 0.479994 0.123890
0.260579 0.498439 0.016115
0.559240 0.518557 0.122530
0.766208 0.542584 0.113176
0.970606 0.569504 0.191468
0.187077 0.747831 0.235487
0.390950 0.757316 0.238355
0.603766 0.765471 0.247055
0.802006 0.768800 0.261604
0.980229 0.785143 0.248151
0.205150 0.932522 0.318674
0.406411 0.942964 0.328386
0.609899 0.947477 0.340720
0.798903 0.949591 0.350202
0.945982 0.950952 0.366706
0.003165 0.012485 0.165329
0.213714 0.023337 0.204576
0.479191 0.049479 0.231218
0.724705 0.100335 0.264326
0.977365 0.165274 0.317289
0.009964 0.225074 0.226862
0.224330 0.224438 0.223606
0.477756 0.256066 0.253293
0.721022 0.294942 0.285047
0.947462 0.327110 0.308556
0.021085 0.478505 0.278916
0.315861 0.489920 0.305737
0.534433 0.509782 0.323095
0.751974 0.530071 0.341757
0.965976 0.524696 0.316321
0.066826 0.750142 0.292731
0.383304 0.738373 0.382639
0.592209 0.748337 0.391261
0.795784 0.759323 0.409447
0.975248 0.768999 0.374018
0.239779 0.907824 0.425859
0.437714 0.922274 0.443053
0.637084 0.931355 0.461058
0.818004 0.937911 0.477992
0.968266 0.952389 0.457468
0.003257 0.038501 0.390916
0.235312 0.071936 0.408957
0.500641 0.089276 0.434086
0.779869 0.133620 0.464168
0.999515 0.190029 0.507936
0.005017 0.265444 0.447466
0.229246 0.272936 0.449666
0.477731 0.287312 0.451560
0.732137 0.300575 0.482670
0.962408 0.345899 0.508371
0.069835 0.504043 0.499223
0.281721 0.506125 0.503637
0.509760 0.508774 0.509331
0.739743 0.532477 0.529824
0.984748 0.525412 0.521105
0.066461 0.717947 0.572349
0.363936 0.740301 0.558252
0.571651 0.747902 0.564960
0.777082 0.753267 0.578384
0.989787 0.774748 0.591109
0.226961 0.919145 0.565872
0.449997 0.920294 0.596219
0.650032 0.930500 0.616989
0.830894 0.938636 0.634529
0.999968 0.988588 0.634179
0.031981 0.162210 0.604394
0.289559 0.155869 0.610609
0.576081 0.163193 0.626995
0.870170 0.188088 0.652216
1.000000 0.232137 0.683770
0.004405 0.301552 0.595580
0.234585 0.319424 0.653385
0.499120 0.322290 0.662067
0.764687 0.340117 0.674064
0.996088 0.371036 0.691655
0.006664 0.533698 0.688991
0.259881 0.546811 0.702416
0.516677 0.555484 0.712258
0.740263 0.553633 0.723570
0.952696 0.572274 0.729660
0.123244 0.760299 0.740878
0.339722 0.763761 0.751979
0.518955 0.752239 0.754368
0.767101 0.765949 0.767382
0.997165 0.773860 0.782735
0.235245 0.925313 0.747078
0.440679 0.937537 0.770677
0.646387 0.945208 0.791059
0.832201 0.951264 0.806051
0.999645 0.986761 0.828137
0.086370 0.283279 0.794901
0.365806 0.260474 0.792367
0.674208 0.251233 0.797670
0.982903 0.260003 0.809718
1.000000 0.288852 0.826526
0.003955 0.419059 0.845103
0.251630 0.399198 0.840482
0.535524 0.388366 0.840198
0.819534 0.390826 0.843161
0.999971 0.409081 0.847844
0.004714 0.612039 0.897658
0.238745 0.598061 0.896493
0.498058 0.583744 0.900240
0.751457 0.587352 0.895644
0.977174 0.597559 0.893375
0.073088 0.811506 0.930483
0.302943 0.806224 0.938559
0.531205 0.791835 0.952626
0.750367 0.752162 0.995880
0.953688 0.803581 0.942885
0.193997 0.965893 0.924081
0.410018 0.971957 0.946405
0.625972 0.973699 0.963419
0.812631 0.977517 0.976927
0.992035 0.994875 0.994932
