app/src/main/assets/filters/理光正片.cube
TITLE "理光正片"
LUT_3D_SIZE 9
DOMAIN_MIN 0.0 0.0 0.0
DOMAIN_MAX 1.0 1.0 1.0
0.009081 0.003968 0.009116
0.115419 0.002449 0.003462
0.268297 0.003933 0.006931
0.431404 0.002886 0.006290
0.572418 0.003963 0.009277
0.669271 0.002936 0.007876
0.755312 0.002409 0.010019
0.854936 0.000917 0.006802
0.995496 0.006354 0.011240
0.011233 0.085001 0.018512
0.118144 0.089945 0.015033
0.259501 0.095206 0.012627
0.423449 0.096456 0.017846
0.563783 0.095646 0.016582
0.663241 0.085727 0.019024
0.744932 0.074639 0.023138
0.843348 0.057400 0.021664
0.989042 0.019547 0.025427
0.044126 0.229413 0.079212
0.157082 0.229759 0.059957
0.283581 0.227160 0.052473
0.422490 0.241570 0.048448
0.566374 0.237018 0.048188
0.667035 0.230564 0.042148
0.752119 0.220633 0.047689
0.835906 0.203057 0.029273
0.980000 0.152972 0.065773
0.049399 0.377667 0.123091
0.184023 0.381100 0.116877
0.325592 0.391598 0.139882
0.452070 0.382084 0.110947
0.570658 0.397615 0.104103
0.658854 0.402260 0.106683
0.749777 0.389861 0.089219
0.843973 0.381669 0.082143
0.992871 0.369186 0.032284
0.096779 0.515237 0.182887
0.244208 0.519582 0.230414
0.285245 0.504201 0.051880
0.394277 0.506287 0.041102
0.576188 0.523089 0.174879
0.677708 0.531383 0.176703
0.752156 0.543728 0.161142
0.845408 0.535431 0.134959
0.979145 0.530360 0.120472
0.233748 0.639017 0.375187
0.310984 0.631410 0.327332
0.426509 0.628782 0.333091
0.512282 0.628771 0.288708
0.607404 0.613948 0.342934
0.668517 0.622936 0.339281
0.765137 0.640845 0.248208
0.847297 0.650644 0.231073
0.994032 0.643394 0.198186
0.368610 0.725817 0.538991
0.438150 0.713471 0.509405
0.516019 0.707687 0.481737
0.594908 0.708178 0.456457
0.672647 0.713474 0.432462
0.733170 0.723064 0.371617
0.769792 0.718423 0.360957
0.854397 0.724837 0.370947
0.990681 0.727741 0.311883
0.534553 0.773646 0.732924
0.580322 0.756502 0.698850
0.633554 0.747467 0.664549
0.689826 0.746667 0.632736
0.747591 0.752588 0.603713
0.805307 0.763715 0.577777
0.855732 0.780429 0.537611
0.870619 0.838032 0.267725
0.992803 0.825785 0.496236
0.723032 0.776078 0.948495
0.743164 0.754257 0.908794
0.770802 0.741979 0.868433
0.803276 0.739751 0.830494
0.839040 0.746060 0.795276
0.876551 0.759391 0.763078
0.914264 0.778229 0.734199
0.950635 0.801060 0.708940
0.993287 0.939909 0.711398
0.002219 0.004292 0.094381
0.087565 0.004726 0.072612
0.253696 0.001586 0.061545
0.428565 0.003395 0.076202
0.540246 0.005828 0.082467
0.653385 0.005194 0.079131
0.758111 0.003573 0.085321
0.849988 0.000373 0.094066
0.919812 0.000856 0.108263
0.006822 0.078346 0.115312
0.098413 0.092354 0.099803
0.249402 0.094200 0.098897
0.417107 0.092603 0.101259
0.561955 0.088110 0.100174
0.662078 0.080309 0.099082
0.743175 0.072119 0.102860
0.839592 0.064733 0.094012
0.955975 0.048578 0.118901
0.027490 0.213983 0.164952
0.129498 0.219243 0.147492
0.261243 0.228288 0.139806
0.418655 0.234666 0.135944
0.563917 0.234176 0.134774
0.654631 0.226957 0.134836
0.745405 0.216893 0.135756
0.843831 0.199437 0.140305
0.981645 0.166621 0.152108
0.060296 0.357849 0.236849
0.189139 0.368150 0.230574
0.304715 0.379473 0.196971
0.441587 0.385312 0.193349
0.571510 0.397232 0.191116
0.667128 0.394145 0.188190
0.750337 0.386720 0.185659
0.844630 0.381899 0.192359
0.986852 0.319003 0.211059
0.146522 0.506176 0.325617
0.250473 0.514796 0.306500
0.371324 0.520575 0.305713
0.476939 0.531296 0.273459
0.590646 0.534784 0.275068
0.677464 0.540965 0.256109
0.755162 0.543905 0.254597
0.843116 0.537966 0.253536
0.973743 0.535371 0.267583
0.195495 0.631455 0.383493
0.232117 0.620531 0.260194
0.316550 0.627425 0.236345
0.519141 0.624516 0.343094
0.610363 0.641333 0.367451
0.684320 0.640806 0.357480
0.757197 0.648570 0.343603
0.846274 0.651436 0.336811
0.985980 0.646382 0.342005
0.345077 0.728041 0.546384
0.412558 0.717969 0.522006
0.482912 0.713881 0.493582
0.574724 0.714709 0.496902
0.642424 0.718623 0.455973
0.705722 0.713752 0.444400
0.775412 0.717706 0.464693
0.847598 0.729394 0.438571
0.983023 0.729970 0.431706
0.525542 0.782210 0.734580
0.565288 0.767248 0.705021
0.613096 0.759864 0.675138
0.664975 0.760011 0.647333
0.719380 0.766175 0.621905
0.774359 0.776927 0.598288
0.815939 0.794867 0.550464
0.878359 0.813242 0.512586
0.990729 0.826550 0.553979
0.708763 0.792619 0.918652
0.722627 0.772970 0.884266
0.744580 0.762331 0.849174
0.772400 0.761040 0.816092
0.804543 0.767580 0.785320
0.839465 0.780437 0.757158
0.875622 0.798098 0.731903
0.911481 0.819114 0.709568
0.989721 0.951726 0.768767
0.001213 0.005256 0.207475
0.049827 0.001528 0.165392
0.239072 0.006952 0.187361
0.387272 0.006364 0.179742
0.502833 0.000208 0.246660
0.633267 0.000300 0.200295
0.722029 0.000000 0.177868
0.841866 0.000087 0.191269
0.915727 0.000000 0.200973
0.003741 0.081385 0.234031
0.075315 0.090641 0.202650
0.219792 0.099496 0.200512
0.401291 0.096339 0.197448
0.555048 0.089733 0.191544
0.662075 0.084933 0.193347
0.745301 0.081664 0.191253
0.850516 0.056094 0.218580
0.930561 0.018050 0.227632
0.023728 0.208658 0.284762
0.118267 0.217003 0.257790
0.236937 0.231995 0.237437
0.406105 0.231768 0.234301
0.560175 0.228007 0.235058
0.662372 0.225055 0.238221
0.746949 0.213514 0.235803
0.845210 0.192432 0.240881
0.946008 0.182534 0.254045
0.036870 0.357341 0.335726
0.167008 0.374409 0.322190
0.282290 0.380675 0.300326
0.424909 0.390705 0.288990
0.564171 0.394422 0.280139
0.668373 0.392286 0.283448
0.748631 0.383377 0.282858
0.853736 0.370638 0.285600
0.989140 0.342711 0.301448
0.116580 0.507267 0.384918
0.219504 0.515892 0.388830
0.346108 0.519076 0.385467
0.464105 0.529808 0.361295
0.582460 0.537531 0.356832
0.674295 0.542831 0.346511
0.748661 0.543957 0.343321
0.843773 0.539271 0.345482
0.989820 0.521314 0.371893
0.058411 0.629708 0.314736
0.310259 0.631938 0.477286
0.402127 0.631077 0.469422
0.523472 0.627295 0.449353
0.606717 0.642742 0.431958
0.684526 0.645918 0.425077
0.757725 0.649170 0.415285
0.843935 0.651156 0.410288
0.972667 0.646818 0.415949
0.355820 0.726973 0.603784
0.384785 0.722372 0.545188
0.496207 0.714445 0.553610
0.564946 0.714925 0.556181
0.644131 0.718987 0.513449
0.697273 0.722449 0.510069
0.769297 0.723496 0.508053
0.846713 0.729108 0.494041
0.995308 0.724422 0.495863
0.516988 0.787855 0.741249
0.552024 0.775564 0.715800
0.596592 0.770044 0.690401
0.639908 0.773382 0.657799
0.699696 0.778220 0.644918
0.747680 0.790300 0.611201
0.784048 0.812676 0.606766
0.866438 0.811381 0.581569
0.986862 0.825827 0.586573
0.695885 0.805795 0.893120
0.705482 0.788652 0.864420
0.723929 0.779973 0.834983
0.749348 0.779887 0.807117
0.780193 0.786880 0.781122
0.814921 0.799438 0.757296
0.851536 0.816830 0.733444
0.889102 0.839825 0.702712
0.990088 0.955261 0.791980
0.006676 0.004919 0.353216
0.119260 0.000000 0.369945
0.215878 0.008763 0.318362
0.359052 0.003439 0.286875
0.496641 0.005952 0.294740
0.627110 0.001866 0.307385
0.730545 0.000237 0.292441
0.841933 0.002442 0.301123
0.918373 0.000000 0.288345
0.002781 0.089064 0.353374
0.050078 0.091268 0.320613
0.177169 0.111053 0.322300
0.370015 0.112637 0.331194
0.512414 0.103681 0.326388
0.639017 0.082218 0.312703
0.743938 0.073245 0.303654
0.850955 0.064852 0.326549
0.937282 0.018644 0.322024
0.008712 0.191130 0.401478
0.094016 0.212285 0.377740
0.209114 0.230620 0.357425
0.375855 0.237937 0.356943
0.542731 0.234326 0.350299
0.656414 0.227248 0.342348
0.742292 0.215034 0.343461
0.841859 0.202345 0.349674
0.947070 0.178776 0.356366
0.043867 0.356897 0.438667
0.144359 0.359862 0.430496
0.263684 0.375514 0.417173
0.397005 0.392222 0.398115
0.553765 0.394308 0.394639
0.664303 0.387871 0.394331
0.747604 0.378687 0.392826
0.843902 0.375525 0.396851
0.982998 0.367093 0.393668
0.067630 0.499903 0.490437
0.179622 0.508841 0.486246
0.334140 0.523388 0.477069
0.442542 0.532799 0.459878
0.570082 0.540498 0.448415
0.667261 0.542681 0.440398
0.749819 0.539245 0.442110
0.848276 0.533138 0.442921
0.992745 0.515069 0.457900
0.189752 0.624316 0.537072
0.267735 0.621821 0.540035
0.381347 0.636520 0.541828
0.495234 0.640952 0.530602
0.596016 0.643714 0.511814
0.678842 0.645723 0.501079
0.751166 0.649456 0.492313
0.844125 0.649482 0.495375
0.981249 0.646831 0.505694
0.335934 0.724300 0.637570
0.165361 0.745622 0.411654
0.363171 0.739409 0.498054
0.544720 0.707391 0.599765
0.633059 0.717285 0.581632
0.694352 0.723904 0.573098
0.760234 0.722787 0.560436
0.844044 0.730353 0.551853
0.978504 0.725369 0.557433
0.502923 0.789942 0.753027
0.518459 0.784385 0.715417
0.513363 0.797779 0.645613
0.630198 0.780068 0.691830
0.504521 0.871850 0.382762
0.731205 0.802765 0.631164
0.781216 0.816794 0.644835
0.856870 0.810499 0.626000
0.986376 0.823166 0.629194
0.678828 0.814400 0.874113
0.686671 0.799966 0.851127
0.704301 0.793461 0.827373
0.730006 0.794797 0.804750
0.762241 0.802459 0.783558
0.799461 0.814933 0.764097
0.836528 0.838879 0.729496
0.874955 0.996479 0.387550
0.992529 0.963139 0.824422
0.010972 0.010303 0.469145
0.032337 0.005395 0.416725
0.121849 0.006291 0.416499
0.366328 0.005350 0.489609
0.460869 0.006644 0.379394
0.595402 0.005307 0.379090
0.724868 0.002057 0.426826
0.887526 0.018556 0.437738
0.920095 0.000179 0.371004
0.000651 0.086420 0.465795
0.037157 0.087237 0.431200
0.155909 0.111343 0.435943
0.312513 0.151048 0.448451
0.479153 0.119154 0.428653
0.623002 0.120836 0.482831
0.710459 0.074946 0.418803
0.829775 0.042675 0.411095
0.945641 0.026383 0.416049
0.006800 0.192936 0.514829
0.048867 0.210735 0.492542
0.174928 0.233755 0.481632
0.334820 0.260955 0.469462
0.500720 0.255481 0.481263
0.619561 0.229545 0.463837
0.724655 0.204117 0.439463
0.822307 0.180486 0.427703
0.960075 0.184646 0.457844
0.021170 0.339754 0.552920
0.114737 0.354935 0.545754
0.229128 0.370630 0.531645
0.370182 0.391484 0.512425
0.529077 0.400201 0.514004
0.654143 0.395004 0.503436
0.743097 0.386230 0.500993
0.841581 0.375202 0.499079
0.961299 0.343761 0.491350
0.075273 0.510300 0.578031
0.181623 0.511230 0.580057
0.294335 0.513750 0.572470
0.418859 0.525928 0.562709
0.546831 0.541749 0.546985
0.662863 0.542528 0.544083
0.745592 0.537396 0.543794
0.848583 0.530363 0.545504
0.987746 0.528491 0.544567
0.155699 0.615890 0.609581
0.238514 0.618527 0.613881
0.342426 0.627726 0.613963
0.475139 0.638416 0.603620
0.580567 0.641884 0.595116
0.668657 0.648470 0.583040
0.743647 0.649609 0.576900
0.841465 0.648904 0.579139
0.989667 0.643736 0.584561
0.320190 0.718256 0.690375
0.323911 0.723362 0.636160
0.421876 0.719474 0.654703
0.526805 0.729508 0.659063
0.613057 0.719844 0.641240
0.687655 0.725055 0.626611
0.755490 0.725479 0.623245
0.840749 0.730262 0.615233
0.977087 0.729136 0.615521
0.476458 0.788589 0.769918
0.511727 0.781787 0.754946
0.538960 0.787070 0.722246
0.415758 0.861586 0.539850
0.661162 0.794902 0.698082
0.716980 0.797228 0.682839
0.778735 0.816492 0.680380
0.854138 0.818322 0.678236
0.981362 0.824559 0.668403
0.650703 0.818554 0.861636
0.659306 0.807030 0.844388
0.678453 0.803072 0.826038
0.706583 0.806296 0.808217
0.743796 0.814434 0.792633
0.786196 0.827039 0.777563
0.826075 0.855876 0.741341
0.882586 0.915489 0.741534
0.996272 0.962669 0.830764
0.002901 0.002287 0.616835
0.001676 0.003664 0.506032
0.106980 0.012187 0.502635
0.276178 0.001147 0.566164
0.410554 0.024054 0.476267
0.551491 0.013343 0.462394
0.686146 0.003235 0.456279
0.809515 0.000468 0.451187
0.913424 0.000015 0.447601
0.003318 0.089686 0.575898
0.088081 0.091403 0.562091
0.142331 0.118691 0.548268
0.244476 0.142360 0.540646
0.444726 0.133049 0.540738
0.575758 0.123993 0.513398
0.712417 0.106963 0.518007
0.862620 0.098491 0.589071
0.946262 0.035220 0.505197
0.004163 0.209294 0.611012
0.019180 0.210984 0.591361
0.141861 0.233308 0.593869
0.294238 0.256017 0.561757
0.453497 0.297267 0.572729
0.624295 0.252745 0.621624
0.724070 0.235176 0.553052
0.826338 0.170143 0.525068
0.963532 0.185393 0.555525
0.003890 0.338614 0.642993
0.049299 0.352216 0.634336
0.164783 0.367052 0.624565
0.332598 0.394649 0.609164
0.487924 0.421873 0.602754
0.631887 0.408309 0.613009
0.733447 0.347220 0.567790
0.845418 0.329107 0.550289
0.990005 0.348545 0.601323
0.042444 0.478868 0.657127
0.150528 0.497446 0.656121
0.253356 0.507067 0.661054
0.391023 0.521107 0.644111
0.528761 0.545131 0.644294
0.647263 0.546641 0.634135
0.736919 0.542219 0.628198
0.850776 0.530791 0.624733
0.959402 0.525445 0.630689
0.108803 0.615806 0.668570
0.220868 0.621467 0.678104
0.333132 0.623554 0.676041
0.453413 0.630719 0.672700
0.563091 0.640234 0.667180
0.656863 0.652266 0.657167
0.740813 0.649188 0.651807
0.838156 0.647023 0.651988
0.974244 0.648582 0.664221
0.267872 0.709455 0.735193
0.322413 0.711740 0.720329
0.375093 0.717805 0.695458
0.480548 0.712200 0.703062
0.591137 0.734424 0.700479
0.675055 0.723857 0.686062
0.744958 0.727558 0.677944
0.835218 0.729899 0.675766
0.957888 0.729405 0.677307
0.430703 0.783914 0.791923
0.469508 0.780236 0.781865
0.508804 0.785785 0.764718
0.397153 0.864161 0.637341
0.640439 0.805231 0.739473
0.710048 0.830029 0.737610
0.770306 0.813811 0.720229
0.848158 0.817579 0.713805
0.965739 0.828148 0.714715
0.604619 0.818375 0.855691
0.616498 0.809963 0.844207
0.640555 0.808454 0.831902
0.674761 0.813342 0.819748
0.717807 0.823046 0.808238
0.767131 0.837159 0.796421
0.817444 0.865263 0.774639
0.882295 0.919841 0.773584
0.995833 0.969785 0.864850
0.005913 0.007273 0.696471
0.000345 0.012097 0.599127
0.012166 0.034617 0.584715
0.173463 0.045891 0.579410
0.349201 0.044531 0.581760
0.494670 0.037273 0.557420
0.634254 0.015449 0.535418
0.772715 0.001191 0.526295
0.892027 0.000008 0.519429
0.006109 0.090310 0.676694
0.115846 0.116424 0.724287
0.041115 0.131903 0.634721
0.223299 0.142458 0.642179
0.370367 0.148804 0.621933
0.517581 0.142288 0.602896
0.666759 0.122926 0.594324
0.808032 0.089768 0.587811
0.931320 0.045132 0.582480
0.000751 0.212685 0.694757
0.021205 0.233098 0.691743
0.087588 0.251044 0.677396
0.263252 0.260600 0.678691
0.404658 0.301039 0.658715
0.551138 0.266447 0.657579
0.691839 0.252780 0.642946
0.836574 0.229685 0.652080
0.959900 0.194747 0.645397
0.003684 0.337802 0.708125
0.011063 0.349537 0.703120
0.090083 0.364934 0.698520
0.339221 0.382954 0.736142
0.449639 0.419135 0.683506
0.583012 0.459310 0.703770
0.713332 0.388442 0.685804
0.853580 0.364460 0.679683
0.980716 0.320028 0.659826
0.001504 0.500140 0.740998
0.045442 0.491569 0.724777
0.162118 0.506280 0.718950
0.324584 0.526302 0.730626
0.486653 0.542456 0.714438
0.617677 0.564506 0.722394
0.726905 0.549391 0.716299
0.874890 0.493447 0.700730
0.996067 0.495526 0.706190
0.061300 0.599443 0.756737
0.166916 0.600479 0.750111
0.282940 0.617694 0.751108
0.410014 0.626640 0.739356
0.534976 0.635894 0.734815
0.639885 0.649880 0.726290
0.726459 0.651889 0.717106
0.832524 0.648538 0.714256
0.983891 0.639318 0.721973
0.203253 0.699621 0.753587
0.295964 0.709459 0.762151
0.378741 0.706056 0.759834
0.479805 0.709408 0.759128
0.581292 0.712623 0.756382
0.662983 0.720726 0.745785
0.736137 0.731197 0.737088
0.829426 0.728466 0.731065
0.978485 0.725785 0.736796
0.358685 0.776063 0.819032
0.402610 0.775923 0.813587
0.461775 0.780310 0.807413
0.525723 0.790176 0.797486
0.587298 0.822213 0.786484
0.686810 0.833655 0.795326
0.759400 0.814985 0.770935
0.842304 0.821108 0.763781
0.974279 0.828970 0.763157
0.533688 0.813983 0.856280
0.551355 0.808884 0.850586
0.582657 0.810196 0.844046
0.625344 0.817090 0.837319
0.673890 0.832500 0.829377
0.716205 0.878923 0.811637
0.760062 0.975517 0.767520
0.877954 0.922860 0.822643
0.993513 0.966426 0.872553
0.000084 0.006492 0.702196
0.000014 0.035617 0.687221
0.000057 0.061853 0.671328
0.044674 0.077646 0.655410
0.218285 0.081480 0.639733
0.390601 0.071839 0.624599
0.555656 0.047210 0.610307
0.711907 0.008789 0.597154
0.848851 0.000199 0.586122
0.004246 0.098131 0.769790
0.017711 0.124938 0.758453
0.000447 0.149749 0.728307
0.087060 0.165483 0.715684
0.261432 0.171073 0.703237
0.432634 0.164991 0.691375
0.598265 0.145750 0.680175
0.756782 0.111834 0.669936
0.897574 0.065676 0.661681
0.000089 0.213220 0.789805
0.013655 0.237763 0.789364
0.005074 0.260736 0.772057
0.134168 0.276171 0.762547
0.306939 0.283047 0.755666
0.476557 0.280197 0.750707
0.636579 0.266830 0.740177
0.790515 0.240851 0.728208
0.932529 0.203410 0.722558
0.000556 0.341090 0.814145
0.009638 0.361946 0.810834
0.143316 0.378617 0.835919
0.182834 0.395728 0.794515
0.360979 0.401620 0.796502
0.548255 0.407504 0.813776
0.665442 0.396731 0.782152
0.812811 0.377887 0.769894
0.959457 0.350969 0.774711
0.001295 0.494239 0.800332
0.003302 0.500329 0.795291
0.043917 0.502986 0.794223
0.210016 0.525216 0.806861
0.398336 0.525630 0.815120
0.595963 0.567317 0.818269
0.736703 0.548834 0.865856
0.840576 0.513552 0.805548
0.998242 0.499194 0.786439
0.006281 0.599577 0.837554
0.020199 0.624317 0.840568
0.111487 0.614780 0.815886
0.270231 0.617776 0.806835
0.459476 0.640876 0.818319
0.608098 0.652336 0.799912
0.711707 0.665024 0.821364
0.866500 0.634055 0.859157
0.997895 0.628509 0.824328
0.090269 0.689272 0.843680
0.169990 0.702411 0.843182
0.274213 0.729266 0.855739
0.424412 0.707176 0.830210
0.539345 0.712177 0.828168
0.638657 0.720465 0.821246
0.716572 0.729053 0.809757
0.814764 0.732341 0.803216
0.987683 0.722075 0.811108
0.253764 0.765077 0.851289
0.306759 0.768523 0.851154
0.374158 0.784544 0.851201
0.519838 0.789785 0.847720
0.610391 0.789372 0.852547
0.682994 0.800477 0.851770
0.747656 0.812491 0.838671
0.826599 0.822107 0.828990
0.983042 0.826131 0.828076
0.431019 0.805497 0.863406
0.456990 0.803912 0.863527
0.498224 0.808261 0.862781
0.551946 0.817439 0.861407
0.614122 0.834015 0.859951
0.647612 0.989256 0.888441
0.779541 0.936481 0.897286
0.860091 0.926125 0.876894
0.980241 0.959094 0.892552
0.000000 0.026250 0.780875
0.000000 0.062423 0.765115
0.000000 0.091792 0.747561
0.000320 0.110013 0.729539
0.079831 0.115570 0.711348
0.268883 0.106948 0.693289
0.451957 0.082633 0.675659
0.627258 0.041123 0.658759
0.783011 0.002233 0.643837
0.000000 0.109718 0.837683
0.000088 0.142489 0.826064
0.000000 0.169971 0.812601
0.002848 0.188121 0.798725
0.133833 0.195422 0.784613
0.321651 0.190361 0.770565
0.505040 0.171422 0.756878
0.682453 0.137090 0.743853
0.841808 0.089876 0.732510
0.000000 0.218064 0.877846
0.000000 0.247009 0.869950
0.000002 0.272261 0.860648
0.015588 0.290120 0.850738
0.185540 0.299071 0.840519
0.368682 0.297600 0.830291
0.549314 0.284191 0.820353
0.725890 0.257332 0.811004
0.886181 0.218844 0.803038
0.000000 0.337768 0.900170
0.000000 0.362678 0.895665
0.001006 0.385416 0.890108
0.060499 0.402812 0.883491
0.233897 0.413193 0.876678
0.409128 0.415087 0.869786
0.583991 0.406950 0.863315
0.756276 0.387372 0.856955
0.914478 0.357401 0.851913
0.000054 0.460085 0.908410
0.000935 0.480835 0.907079
0.010758 0.500164 0.905717
0.137386 0.516686 0.906655
0.293810 0.526705 0.904443
0.431816 0.535226 0.896753
0.623045 0.529306 0.897879
0.868671 0.507739 1.000000
0.930293 0.496770 0.883069
0.002856 0.586140 0.911061
0.056457 0.606888 0.916951
0.117855 0.611188 0.922194
0.218801 0.629773 0.925116
0.274657 0.635004 0.924035
0.363098 0.638755 0.964126
0.726667 0.651324 0.965965
0.846421 0.644428 0.988496
1.000000 0.637569 0.953021
0.004059 0.690957 0.920452
0.004855 0.687060 0.928590
0.015483 0.690664 0.920479
0.159639 0.719952 0.936919
0.395933 0.724943 0.930308
0.556549 0.741105 0.932925
0.723501 0.749320 0.951570
0.794157 0.748318 0.930796
0.993814 0.732480 0.920246
0.119835 0.752449 0.886471
0.163371 0.766942 0.909430
0.014590 0.745024 0.980441
0.094724 0.798969 0.998685
0.390197 0.803136 0.987211
0.580644 0.807086 0.972710
0.708474 0.815854 0.943254
0.799756 0.820362 0.922017
0.951385 0.827250 0.942646
0.300564 0.793987 0.875844
0.336586 0.795883 0.881448
0.389425 0.803412 0.886274
0.455877 0.814919 0.889937
0.534460 0.829219 0.893123
0.634985 0.869007 0.923841
0.758871 0.928343 0.996410
0.841605 0.945018 0.977424
0.965410 0.968912 0.980175
