app/src/main/assets/filters/理光正片.cube
TITLE "理光正片"
LUT_3D_SIZE 5
DOMAIN_MIN 0.0 0.0 0.0
DOMAIN_MAX 1.0 1.0 1.0
0.009081 0.003968 0.009116
0.268297 0.003933 0.006931
0.572418 0.003963 0.009277
0.755312 0.002409 0.010019
0.995496 0.006354 0.011240
0.044126 0.229413 0.079212
0.283581 0.227160 0.052473
0.566374 0.237018 0.048188
0.752119 0.220633 0.047689
0.980000 0.152972 0.065773
0.096779 0.515237 0.182887
0.285245 0.504201 0.051880
0.576188 0.523089 0.174879
0.752156 0.543728 0.161142
0.979145 0.530360 0.120472
0.368610 0.725817 0.538991
0.516019 0.707687 0.481737
0.672647 0.713474 0.432462
0.769792 0.718423 0.360957
0.990681 0.727741 0.311883
0.723032 0.776078 0.948495
0.770802 0.741979 0.868433
0.839040 0.746060 0.795276
0.914264 0.778229 0.734199
0.993287 0.939909 0.711398
0.001213 0.005256 0.207475
0.239072 0.006952 0.187361
0.502833 0.000208 0.246660
0.722029 0.000000 0.177868
0.915727 0.000000 0.200973
0.023728 0.208658 0.284762
0.236937 0.231995 0.237437
0.560175 0.228007 0.235058
0.746949 0.213514 0.235803
0.946008 0.182534 0.254045
0.116580 0.507267 0.384918
0.346108 0.519076 0.385467
0.582460 0.537531 0.356832
0.748661 0.543957 0.343321
0.989820 0.521314 0.371893
0.355820 0.726973 0.603784
0.496207 0.714445 0.553610
0.644131 0.718987 0.513449
0.769297 0.723496 0.508053
0.995308 0.724422 0.495863
0.695885 0.805795 0.893120
0.723929 0.779973 0.834983
0.780193 0.786880 0.781122
0.851536 0.816830 0.733444
0.990088 0.955261 0.791980
0.010972 0.010303 0.469145
0.121849 0.006291 0.416499
0.460869 0.006644 0.379394
0.724868 0.002057 0.426826
0.920095 0.000179 0.371004
0.006800 0.192936 0.514829
0.174928 0.233755 0.481632
0.500720 0.255481 0.481263
0.724655 0.204117 0.439463
0.960075 0.184646 0.457844
0.075273 0.510300 0.578031
0.294335 0.513750 0.572470
0.546831 0.541749 0.546985
0.745592 0.537396 0.543794
0.987746 0.528491 0.544567
0.320190 0.718256 0.690375
0.421876 0.719474 0.654703
0.613057 0.719844 0.641240
0.755490 0.725479 0.623245
0.977087 0.729136 0.615521
0.650703 0.818554 0.861636
0.678453 0.803072 0.826038
0.743796 0.814434 0.792633
0.826075 0.855876 0.741341
0.996272 0.962669 0.830764
0.005913 0.007273 0.696471
0.012166 0.034617 0.584715
0.349201 0.044531 0.581760
0.634254 0.015449 0.535418
0.892027 0.000008 0.519429
0.000751 0.212685 0.694757
0.087588 0.251044 0.677396
0.404658 0.301039 0.658715
0.691839 0.252780 0.642946
0.959900 0.194747 0.645397
0.001504 0.500140 0.740998
0.162118 0.506280 0.718950
0.486653 0.542456 0.714438
0.726905 0.549391 0.716299
0.996067 0.495526 0.706190
0.203253 0.699621 0.753587
0.378741 0.706056 0.759834
0.581292 0.712623 0.756382
0.736137 0.731197 0.737088
0.978485 0.725785 0.736796
0.533688 0.813983 0.856280
0.582657 0.810196 0.844046
0.673890 0.832500 0.829377
0.760062 0.975517 0.767520
0.993513 0.966426 0.872553
0.000000 0.026250 0.780875
0.000000 0.091792 0.747561
0.079831 0.115570 0.711348
0.451957 0.082633 0.675659
0.783011 0.002233 0.643837
0.000000 0.218064 0.877846
0.000002 0.272261 0.860648
0.185540 0.299071 0.840519
0.549314 0.284191 0.820353
0.886181 0.218844 0.803038
0.000054 0.460085 0.908410
0.010758 0.500164 0.905717
0.293810 0.526705 0.904443
0.623045 0.529306 0.897879
0.930293 0.496770 0.883069
0.004059 0.690957 0.920452
0.015483 0.690664 0.920479
0.395933 0.724943 0.930308
0.723501 0.749320 0.951570
0.993814 0.732480 0.920246
0.300564 0.793987 0.875844
0.389425 0.803412 0.886274
0.534460 0.829219 0.893123
0.758871 0.928343 0.996410
0.965410 0.968912 0.980175
