app/src/main/assets/filters/理光正片.cube
TITLE "理光正片"
LUT_3D_SIZE 33
DOMAIN_MIN 0.0 0.0 0.0
DOMAIN_MAX 1.0 1.0 1.0
0.009081 0.003968 0.009116
0.029056 0.004085 0.006068
0.052733 0.004323 0.004499
0.082123 0.002779 0.003932
0.115419 0.002449 0.003462
0.153200 0.002577 0.003940
0.191446 0.002734 0.004658
0.230425 0.003506 0.005899
0.268297 0.003933 0.006931
0.307520 0.003117 0.006407
0.351678 0.003695 0.006492
0.394506 0.004191 0.007468
0.431404 0.002886 0.006290
0.470638 0.003996 0.007993
0.508364 0.005135 0.009792
0.532586 0.004406 0.009103
0.572418 0.003963 0.009277
0.601379 0.003411 0.009455
0.625523 0.004329 0.010494
0.648460 0.004046 0.009558
0.669271 0.002936 0.007876
0.691922 0.002375 0.009265
0.712497 0.002033 0.009443
0.733603 0.002357 0.009111
0.755312 0.002409 0.010019
0.775378 0.001983 0.010859
0.796400 0.002144 0.012281
0.822902 0.001414 0.010765
0.854936 0.000917 0.006802
0.882271 0.001195 0.005557
0.912657 0.001860 0.007784
0.946801 0.003325 0.009255
0.995496 0.006354 0.011240
0.005648 0.011322 0.006966
0.024831 0.012235 0.004743
0.050143 0.013439 0.005078
0.080291 0.014054 0.005817
0.114550 0.014315 0.005459
0.150382 0.013971 0.005872
0.188636 0.013816 0.006463
0.227717 0.014069 0.006759
0.266709 0.013988 0.007826
0.308310 0.015205 0.008389
0.348953 0.015016 0.009195
0.394502 0.014284 0.009801
0.432804 0.013055 0.008597
0.469486 0.013907 0.009572
0.504506 0.016110 0.011892
0.537334 0.016610 0.012371
0.572488 0.015367 0.012777
0.599792 0.013994 0.012538
0.624369 0.013150 0.012899
0.647839 0.012223 0.012421
0.669118 0.010009 0.011828
0.689066 0.008973 0.012441
0.708718 0.008286 0.013097
0.728466 0.007480 0.013665
0.749515 0.007364 0.014881
0.770677 0.006628 0.015796
0.792504 0.005634 0.016109
0.821251 0.003427 0.015445
0.851345 0.001963 0.011919
0.878515 0.001683 0.009292
0.911315 0.002140 0.009144
0.953950 0.001842 0.009084
0.989945 0.003919 0.009414
0.004901 0.030584 0.007550
0.022807 0.031365 0.005281
0.050346 0.033621 0.006876
0.079207 0.033070 0.006769
0.113696 0.036628 0.007546
0.147236 0.037271 0.007756
0.184035 0.036523 0.007244
0.222263 0.035211 0.006616
0.263144 0.035903 0.007448
0.305538 0.037405 0.009358
0.346985 0.038005 0.010725
0.389968 0.038626 0.011210
0.430448 0.036896 0.011681
0.467595 0.037765 0.012044
0.500849 0.037371 0.012661
0.537274 0.038631 0.014947
0.567606 0.037571 0.015409
0.594789 0.037713 0.016116
0.618906 0.035758 0.015740
0.641037 0.032475 0.015896
0.665145 0.030764 0.016723
0.685176 0.029492 0.017069
0.705059 0.028091 0.017652
0.725569 0.025530 0.018250
0.747707 0.023196 0.018491
0.770010 0.020861 0.018255
0.795803 0.018073 0.016924
0.824054 0.015003 0.016943
0.850842 0.011519 0.017424
0.876922 0.007759 0.017617
0.910334 0.005019 0.014316
0.955775 0.002531 0.012265
0.988588 0.003066 0.011270
0.006071 0.054974 0.009679
0.024221 0.056162 0.006895
0.054024 0.059393 0.008769
0.082481 0.060068 0.010075
0.112523 0.060535 0.010096
0.147319 0.063626 0.010247
0.181730 0.064605 0.010369
0.220739 0.065171 0.011339
0.261143 0.062185 0.007671
0.302498 0.060663 0.006015
0.342941 0.062437 0.009156
0.383307 0.063993 0.011427
0.425665 0.065152 0.013228
0.465561 0.066713 0.015183
0.501576 0.065641 0.013950
0.535150 0.065389 0.015369
0.562207 0.064214 0.015002
0.588101 0.062702 0.015752
0.613284 0.060997 0.016938
0.636782 0.059469 0.017140
0.662093 0.056292 0.017589
0.680403 0.054706 0.018427
0.703301 0.052969 0.018958
0.726211 0.049093 0.020287
0.747831 0.045536 0.020263
0.770837 0.043162 0.018602
0.796200 0.039625 0.017636
0.819680 0.035641 0.017187
0.847975 0.031304 0.018928
0.876447 0.025143 0.018744
0.908260 0.017667 0.018836
0.948076 0.010208 0.017108
0.987733 0.005280 0.015222
0.011233 0.085001 0.018512
0.031126 0.085944 0.011577
0.058494 0.087144 0.010523
0.087362 0.088809 0.011914
0.118144 0.089945 0.015033
0.148500 0.090974 0.015285
0.181935 0.094131 0.013661
0.219096 0.096068 0.013471
0.259501 0.095206 0.012627
0.301143 0.094890 0.011703
0.342073 0.094542 0.011130
0.381777 0.095066 0.014011
0.423449 0.096456 0.017846
0.464426 0.095992 0.017486
0.503114 0.095235 0.017297
0.535265 0.095437 0.017004
0.563783 0.095646 0.016582
0.590936 0.094228 0.017249
0.615575 0.089605 0.018593
0.639486 0.088193 0.019110
0.663241 0.085727 0.019024
0.683914 0.082497 0.019613
0.703695 0.081082 0.017003
0.724746 0.077955 0.018526
0.744932 0.074639 0.023138
0.771293 0.071529 0.023522
0.795770 0.068449 0.026009
0.818442 0.063625 0.024828
0.843348 0.057400 0.021664
0.870742 0.050172 0.019941
0.904798 0.041947 0.019612
0.948528 0.030066 0.021842
0.989042 0.019547 0.025427
0.018557 0.120061 0.034858
0.042914 0.121102 0.024770
0.067828 0.120788 0.019676
0.094197 0.120511 0.016083
0.123721 0.120328 0.018020
0.157213 0.120562 0.021912
0.188277 0.123059 0.020659
0.219975 0.126497 0.021354
0.259448 0.130183 0.020905
0.300109 0.130749 0.019278
0.342926 0.130835 0.020051
0.382498 0.130631 0.020777
0.424177 0.129948 0.022795
0.461829 0.128144 0.021670
0.500071 0.128135 0.022756
0.537779 0.126676 0.020766
0.564068 0.126838 0.018400
0.591005 0.125727 0.019071
0.619559 0.123005 0.023216
0.640982 0.119170 0.022201
0.663402 0.116503 0.020373
0.684096 0.115046 0.020657
0.703063 0.112082 0.020800
0.723531 0.109863 0.018970
0.740496 0.105011 0.023040
0.767439 0.103091 0.028918
0.792898 0.099690 0.032747
0.815809 0.093933 0.031316
0.841793 0.088308 0.030390
0.866833 0.080861 0.026212
0.901220 0.072908 0.022867
0.949810 0.060237 0.025418
0.992121 0.041888 0.037908
0.023846 0.148438 0.047885
0.055025 0.154154 0.038507
0.080312 0.155300 0.032716
0.105491 0.156567 0.030978
0.134829 0.157507 0.029480
0.166860 0.156225 0.031993
0.199018 0.154689 0.031496
0.229268 0.157638 0.033149
0.263072 0.161681 0.033594
0.299306 0.164311 0.029017
0.341640 0.164822 0.027019
0.379383 0.165759 0.025226
0.421596 0.165671 0.028686
0.462931 0.164485 0.029198
0.497910 0.165014 0.029842
0.535906 0.162156 0.031048
0.568841 0.161862 0.028715
0.593024 0.160404 0.023272
0.620145 0.158385 0.025606
0.640967 0.155759 0.027148
0.663613 0.154061 0.028095
0.685479 0.149348 0.030266
0.705582 0.146633 0.030273
0.727409 0.144467 0.026179
0.747531 0.142508 0.022723
0.770572 0.139917 0.021797
0.793011 0.136205 0.023482
0.812636 0.126470 0.026129
0.837976 0.119083 0.033373
0.864545 0.112556 0.033412
0.899196 0.105080 0.031858
0.946766 0.093614 0.033419
0.990644 0.071331 0.050022
0.031280 0.177462 0.063097
0.072954 0.192645 0.058599
0.094378 0.192455 0.049152
0.120423 0.195456 0.048057
0.146808 0.195805 0.045215
0.175239 0.194567 0.044597
0.208432 0.189043 0.039853
0.241051 0.188696 0.041204
0.273467 0.192294 0.043267
0.307647 0.196944 0.045858
0.345504 0.199574 0.037982
0.381511 0.199508 0.031383
0.419187 0.203381 0.036234
0.460477 0.202418 0.039736
0.499047 0.200194 0.040220
0.533001 0.199357 0.037341
0.567420 0.199492 0.037221
0.594721 0.198554 0.034483
0.618909 0.197908 0.034114
0.644574 0.193453 0.031166
0.663934 0.191648 0.032535
0.685858 0.189055 0.038095
0.706019 0.184442 0.039093
0.728189 0.181925 0.038656
0.751340 0.180847 0.035384
0.772195 0.178942 0.025880
0.795223 0.174486 0.022492
0.817193 0.169932 0.020772
0.833178 0.157111 0.028082
0.860701 0.147169 0.031910
0.899316 0.142379 0.038724
0.946604 0.129191 0.045979
0.986512 0.108753 0.060763
0.044126 0.229413 0.079212
0.086410 0.226300 0.076460
0.109085 0.226431 0.068848
0.132182 0.228804 0.061799
0.157082 0.229759 0.059957
0.187634 0.232795 0.059100
0.220841 0.230436 0.051693
0.253546 0.225378 0.051340
0.283581 0.227160 0.052473
0.315654 0.229522 0.056700
0.349979 0.233841 0.058522
0.387021 0.239015 0.053877
0.422490 0.241570 0.048448
0.459718 0.241690 0.047759
0.497893 0.241562 0.049546
0.532845 0.240535 0.048739
0.566374 0.237018 0.048188
0.593626 0.237759 0.045366
0.608612 0.242382 0.044939
0.636238 0.237336 0.043692
0.667035 0.230564 0.042148
0.688287 0.230145 0.042887
0.709646 0.227145 0.048845
0.727557 0.222682 0.046491
0.752119 0.220633 0.047689
0.774428 0.219364 0.040283
0.795709 0.215621 0.028868
0.817833 0.208708 0.027057
0.835906 0.203057 0.029273
0.864778 0.200725 0.036403
0.895334 0.189827 0.035454
0.947916 0.170041 0.051888
0.980000 0.152972 0.065773
0.033133 0.264401 0.068732
0.056856 0.267707 0.044854
0.121406 0.251315 0.087474
0.148197 0.259487 0.082583
0.172767 0.265778 0.079654
0.198901 0.269241 0.078044
0.228579 0.269502 0.072166
0.264125 0.262399 0.066130
0.294344 0.262187 0.065301
0.326115 0.265408 0.066914
0.359267 0.268205 0.070083
0.394756 0.274254 0.072625
0.430682 0.276495 0.068124
0.464445 0.281914 0.062312
0.499477 0.283495 0.061116
0.531978 0.283187 0.059535
0.563909 0.282101 0.061122
0.595354 0.280421 0.059979
0.619693 0.282066 0.058649
0.633743 0.281095 0.058056
0.664316 0.274225 0.057134
0.690847 0.270562 0.053546
0.710341 0.269349 0.052958
0.729648 0.266347 0.056941
0.750644 0.264577 0.056335
0.772664 0.261325 0.052207
0.795576 0.257658 0.044259
0.817621 0.252577 0.039414
0.840071 0.246626 0.042464
0.867174 0.241069 0.050460
0.896716 0.229547 0.043928
0.946079 0.209698 0.056631
0.977129 0.196868 0.071534
0.011254 0.305876 0.040514
0.038304 0.307621 0.014903
0.103584 0.305857 0.095032
0.168539 0.298889 0.110193
0.192421 0.300832 0.104506
0.215372 0.305551 0.095453
0.245901 0.313014 0.097411
0.277056 0.310231 0.095730
0.308024 0.297597 0.082794
0.337639 0.300651 0.082510
0.368271 0.304148 0.080666
0.404707 0.309265 0.084733
0.437827 0.310777 0.083733
0.471835 0.316338 0.083912
0.503824 0.322563 0.079914
0.532572 0.323149 0.073108
0.561204 0.324311 0.070794
0.589023 0.323407 0.069382
0.623951 0.322335 0.075383
0.647355 0.319512 0.070441
0.666160 0.316408 0.062587
0.687617 0.314050 0.062006
0.708969 0.310670 0.064504
0.730075 0.310104 0.064143
0.749707 0.307439 0.064499
0.771475 0.304656 0.061204
0.794971 0.301059 0.059262
0.817463 0.298077 0.057653
0.841775 0.294511 0.057205
0.867506 0.285013 0.060022
0.903241 0.270932 0.056272
0.941081 0.260628 0.065768
0.982980 0.248360 0.079532
0.004510 0.337141 0.024834
0.071638 0.343450 0.111781
0.108458 0.344836 0.110592
0.104621 0.341202 0.016367
0.213738 0.336957 0.136302
0.237944 0.341292 0.122127
0.260335 0.345246 0.115727
0.282449 0.344409 0.114587
0.312014 0.337611 0.110091
0.346834 0.329688 0.094843
0.377688 0.336297 0.093139
0.412214 0.344505 0.097771
0.444202 0.348455 0.100270
0.477242 0.351072 0.104713
0.511771 0.353420 0.099210
0.534572 0.359361 0.091735
0.561080 0.361956 0.075167
0.584414 0.363539 0.070919
0.615939 0.364426 0.085747
0.645203 0.361919 0.090773
0.666685 0.357215 0.081266
0.686804 0.355128 0.072658
0.705555 0.353272 0.070976
0.728094 0.350829 0.075403
0.750979 0.350200 0.080003
0.772778 0.346554 0.078154
0.795454 0.345065 0.071784
0.817893 0.342148 0.069209
0.844598 0.339216 0.067113
0.870773 0.335257 0.076620
0.901259 0.321663 0.068564
0.932206 0.312441 0.071202
0.991809 0.324554 0.050890
0.049399 0.377667 0.123091
0.078848 0.379868 0.126652
0.113802 0.382010 0.124392
0.149666 0.382205 0.123816
0.184023 0.381100 0.116877
0.233347 0.377131 0.112796
0.284284 0.380350 0.147678
0.309311 0.388140 0.135218
0.325592 0.391598 0.139882
0.344895 0.381156 0.100303
0.391695 0.366720 0.111193
0.422571 0.376574 0.109735
0.452070 0.382084 0.110947
0.481659 0.387844 0.116787
0.514394 0.386862 0.112917
0.548972 0.390026 0.112869
0.570658 0.397615 0.104103
0.589998 0.399244 0.085398
0.611741 0.402452 0.083290
0.634646 0.404805 0.101019
0.658854 0.402260 0.106683
0.686938 0.396716 0.092355
0.707146 0.393850 0.089027
0.726493 0.393584 0.087390
0.749777 0.389861 0.089219
0.772117 0.388409 0.096486
0.796163 0.384039 0.092759
0.818572 0.384288 0.088952
0.843973 0.381669 0.082143
0.871873 0.378029 0.078719
0.897827 0.372283 0.086155
0.928454 0.361326 0.083442
0.992871 0.369186 0.032284
0.007272 0.406919 0.033828
0.089048 0.415746 0.143883
0.127549 0.418518 0.149599
0.160727 0.419156 0.147455
0.192650 0.418182 0.139190
0.178026 0.407824 0.030235
0.292605 0.410370 0.164614
0.335001 0.416355 0.167881
0.344366 0.419128 0.161647
0.334900 0.418965 0.106063
0.354236 0.406619 0.068500
0.437465 0.411447 0.124944
0.461779 0.416548 0.124199
0.491286 0.421579 0.127239
0.517093 0.427115 0.131696
0.554468 0.425117 0.128579
0.582078 0.423846 0.122670
0.600974 0.430395 0.111030
0.618769 0.434523 0.093119
0.636896 0.437175 0.092938
0.654890 0.440938 0.116199
0.684580 0.438691 0.113634
0.709168 0.436875 0.107839
0.728057 0.435566 0.106639
0.747363 0.432914 0.098923
0.771678 0.429872 0.102836
0.795985 0.428243 0.114485
0.820122 0.425237 0.106286
0.844903 0.423600 0.099172
0.872970 0.420421 0.087573
0.899806 0.414914 0.096372
0.925885 0.412498 0.101973
0.990648 0.405044 0.025847
0.009986 0.436129 0.050701
0.098463 0.450413 0.155520
0.143897 0.453885 0.176509
0.177493 0.454226 0.176418
0.206200 0.453528 0.166038
0.241898 0.453151 0.167258
0.279663 0.451840 0.168883
0.356987 0.438405 0.210263
0.373816 0.449823 0.204564
0.392001 0.466809 0.208416
0.401148 0.454800 0.157973
0.448763 0.434853 0.135454
0.470998 0.443866 0.140374
0.501365 0.450968 0.140524
0.524897 0.453048 0.143151
0.557464 0.464734 0.151212
0.578023 0.473246 0.151572
0.610607 0.457165 0.138706
0.629867 0.463180 0.126593
0.646246 0.467790 0.112026
0.662240 0.473396 0.119282
0.682979 0.476307 0.131662
0.707463 0.475818 0.127581
0.730090 0.474396 0.124339
0.749767 0.472760 0.117520
0.769543 0.471667 0.109982
0.795913 0.468917 0.117862
0.820081 0.466750 0.121743
0.845946 0.463550 0.120910
0.872304 0.459313 0.114136
0.900357 0.454276 0.107073
0.931435 0.455173 0.099221
0.957725 0.460414 0.096890
0.001995 0.468114 0.009673
0.119260 0.485273 0.186478
0.165222 0.488337 0.210410
0.196757 0.488125 0.207663
0.227363 0.487846 0.203495
0.257943 0.487666 0.199385
0.291947 0.486538 0.198410
0.320155 0.484608 0.186059
0.320658 0.474680 0.106756
0.404582 0.481422 0.226790
0.429112 0.495910 0.196384
0.388863 0.486326 0.089979
0.464322 0.485609 0.159124
0.512220 0.467720 0.149511
0.530881 0.471627 0.152095
0.570023 0.482584 0.163853
0.583216 0.490918 0.169217
0.597748 0.504453 0.192783
0.630546 0.500677 0.180858
0.654320 0.495203 0.152289
0.670002 0.501514 0.144534
0.685596 0.506938 0.151165
0.705906 0.509395 0.147923
0.730950 0.511146 0.146017
0.751564 0.511019 0.139217
0.770783 0.509474 0.134353
0.792775 0.510283 0.129289
0.818223 0.503893 0.119207
0.845373 0.497215 0.128365
0.871738 0.496665 0.130688
0.900977 0.495759 0.126321
0.938529 0.493782 0.099863
0.969767 0.492520 0.106319
0.096779 0.515237 0.182887
0.137111 0.517921 0.210672
0.184014 0.520570 0.237624
0.214551 0.520072 0.234651
0.244208 0.519582 0.230414
0.273708 0.519275 0.226170
0.303045 0.519075 0.221652
0.327465 0.517314 0.205535
0.285245 0.504201 0.051880
0.320467 0.507147 0.069311
0.362016 0.504759 0.083621
0.430154 0.516207 0.168054
0.394277 0.506287 0.041102
0.491236 0.517373 0.165920
0.518251 0.517020 0.159171
0.545204 0.519229 0.157137
0.576188 0.523089 0.174879
0.598908 0.530436 0.240575
0.613687 0.530963 0.237019
0.638897 0.536607 0.224305
0.677708 0.531383 0.176703
0.696833 0.533806 0.172690
0.714420 0.537600 0.169463
0.731668 0.541713 0.167072
0.752156 0.543728 0.161142
0.772338 0.543958 0.155414
0.795159 0.543571 0.152508
0.817879 0.543292 0.141711
0.845408 0.535431 0.134959
0.871739 0.535039 0.134058
0.901271 0.533631 0.153300
0.939594 0.531298 0.124270
0.979145 0.530360 0.120472
0.016832 0.532999 0.038100
0.155591 0.549073 0.236786
0.200616 0.551015 0.259831
0.229896 0.550202 0.256256
0.258603 0.549481 0.251966
0.290867 0.549411 0.254129
0.319244 0.549129 0.249710
0.343193 0.548211 0.236604
0.365692 0.547064 0.220804
0.388191 0.545962 0.204787
0.419128 0.547044 0.204943
0.483476 0.555182 0.245147
0.461683 0.551355 0.176993
0.433056 0.537500 0.060804
0.488787 0.544592 0.122985
0.485555 0.537805 0.044712
0.517124 0.536288 0.048737
0.607130 0.547616 0.259222
0.623475 0.551637 0.266028
0.646868 0.564028 0.250088
0.664267 0.565743 0.235339
0.703039 0.560478 0.195293
0.724382 0.561205 0.187049
0.738941 0.564485 0.183813
0.754678 0.572249 0.185523
0.772929 0.575285 0.181521
0.795921 0.574933 0.172827
0.819506 0.574283 0.174913
0.845897 0.570787 0.155911
0.870911 0.566303 0.144032
0.905670 0.564897 0.162104
0.944154 0.563925 0.152006
0.984991 0.564395 0.135903
0.008119 0.562352 0.018656
0.181964 0.579331 0.273216
0.222644 0.580423 0.290221
0.250317 0.579260 0.285550
0.277904 0.578300 0.280993
0.309396 0.578037 0.283445
0.337039 0.577628 0.279455
0.363773 0.577351 0.274067
0.387846 0.576861 0.263787
0.411225 0.576581 0.251867
0.437542 0.576976 0.244311
0.461213 0.577412 0.232840
0.495209 0.574689 0.230197
0.485703 0.577348 0.181401
0.541887 0.573763 0.251012
0.577901 0.582330 0.301838
0.592946 0.586242 0.313862
0.589307 0.582469 0.221963
0.636752 0.575168 0.296434
0.656911 0.582607 0.266384
0.668323 0.586826 0.264553
0.686829 0.589331 0.262356
0.727331 0.587272 0.214530
0.745696 0.589242 0.204433
0.760742 0.594228 0.209340
0.775249 0.601581 0.211202
0.797387 0.604007 0.200130
0.820502 0.603475 0.192438
0.845613 0.601394 0.191208
0.871523 0.598024 0.179372
0.907537 0.596282 0.178043
0.949081 0.594768 0.175180
0.990402 0.593751 0.154575
0.184454 0.609042 0.305786
0.214993 0.608999 0.318841
0.247082 0.608338 0.323495
0.268553 0.606668 0.310171
0.294412 0.605435 0.304402
0.324812 0.604947 0.306671
0.355894 0.604485 0.310122
0.382140 0.604105 0.305594
0.407741 0.603953 0.300092
0.430654 0.603728 0.289587
0.453763 0.603755 0.279609
0.474460 0.603566 0.263941
0.405178 0.593535 0.064070
0.446784 0.594916 0.095039
0.469483 0.594107 0.078395
0.588438 0.597401 0.322725
0.600759 0.599250 0.326376
0.614096 0.603179 0.325942
0.637644 0.614006 0.319643
0.658527 0.606053 0.304885
0.675141 0.601271 0.294408
0.690810 0.609693 0.297950
0.710317 0.615133 0.289033
0.744109 0.619011 0.233069
0.768806 0.618528 0.221901
0.781750 0.624126 0.233028
0.798441 0.629175 0.232093
0.821761 0.629673 0.218044
0.846517 0.628944 0.206074
0.872916 0.626505 0.201250
0.903721 0.624585 0.201684
0.952538 0.619859 0.188495
0.992547 0.620005 0.164347
0.233748 0.639017 0.375187
0.253028 0.637100 0.371367
0.277017 0.634901 0.365007
0.291489 0.632881 0.341973
0.310984 0.631410 0.327332
0.336270 0.630289 0.322574
0.371495 0.629607 0.334492
0.401586 0.629039 0.338057
0.426509 0.628782 0.333091
0.450897 0.628799 0.327409
0.474914 0.629035 0.321258
0.493770 0.628901 0.304976
0.512282 0.628771 0.288708
0.528273 0.628988 0.267536
0.549022 0.629176 0.258950
0.510959 0.622108 0.110667
0.607404 0.613948 0.342934
0.623128 0.619686 0.345241
0.637219 0.623254 0.344419
0.651743 0.621741 0.339132
0.668517 0.622936 0.339281
0.696912 0.624855 0.315025
0.712084 0.627015 0.321241
0.735088 0.635393 0.298661
0.765137 0.640845 0.248208
0.783334 0.643552 0.244711
0.799101 0.648576 0.251112
0.820659 0.650944 0.249498
0.847297 0.650644 0.231073
0.873022 0.649297 0.219929
0.900349 0.647566 0.222916
0.952621 0.643244 0.215421
0.994032 0.643394 0.198186
0.265161 0.664027 0.414291
0.283061 0.661768 0.409719
0.305338 0.659175 0.402469
0.318029 0.656839 0.378407
0.330169 0.655342 0.353473
0.353559 0.653977 0.347345
0.387612 0.653071 0.359045
0.422235 0.652086 0.371758
0.446484 0.651698 0.367351
0.469950 0.651629 0.361801
0.493172 0.651825 0.356034
0.516047 0.652253 0.349878
0.537326 0.652701 0.341067
0.556107 0.653552 0.327119
0.570235 0.653881 0.303030
0.590056 0.653918 0.295741
0.613131 0.652860 0.303468
0.624832 0.639903 0.321476
0.642995 0.638332 0.361397
0.659786 0.640622 0.357819
0.669891 0.635542 0.358952
0.685982 0.645071 0.315407
0.696303 0.648139 0.170985
0.725999 0.654334 0.104507
0.759926 0.658112 0.227364
0.785242 0.659874 0.276020
0.803186 0.664681 0.271323
0.822563 0.670390 0.278166
0.846505 0.672129 0.266169
0.872454 0.671158 0.247655
0.900550 0.669705 0.237102
0.948904 0.666571 0.237843
0.994445 0.664770 0.219003
0.297693 0.686813 0.453923
0.314368 0.684284 0.448923
0.335369 0.681373 0.441604
0.351007 0.678879 0.424550
0.361826 0.677119 0.399386
0.383380 0.675517 0.392070
0.411599 0.674269 0.395785
0.444763 0.673111 0.407816
0.467934 0.672576 0.403337
0.490288 0.672396 0.397627
0.512545 0.672524 0.391945
0.534579 0.672941 0.386098
0.556388 0.673619 0.380055
0.575602 0.674527 0.368624
0.594318 0.675601 0.356416
0.613069 0.676737 0.344832
0.634462 0.676852 0.344244
0.648694 0.677021 0.329029
0.571595 0.683590 0.039122
0.646547 0.667297 0.268435
0.662489 0.675706 0.237888
0.700683 0.669903 0.353201
0.720896 0.673198 0.367654
0.728030 0.677759 0.228357
0.751276 0.685406 0.039729
0.782818 0.685918 0.049863
0.813449 0.684756 0.321207
0.827769 0.688356 0.312303
0.846982 0.690294 0.300528
0.871856 0.691315 0.285472
0.900034 0.689754 0.267490
0.942868 0.688519 0.258109
0.993931 0.686239 0.249324
0.332237 0.707462 0.495586
0.347606 0.704658 0.490084
0.367289 0.701421 0.482700
0.386884 0.698622 0.474240
0.401104 0.696553 0.456811
0.421091 0.694709 0.448837
0.442361 0.693263 0.442964
0.469285 0.691975 0.446400
0.491004 0.691294 0.441296
0.512178 0.690994 0.435376
0.533278 0.691033 0.429483
0.554189 0.691403 0.423448
0.575003 0.692064 0.417438
0.595648 0.692992 0.411349
0.616160 0.694162 0.405317
0.636537 0.695525 0.399529
0.656464 0.697050 0.393295
0.668731 0.698763 0.367353
0.682540 0.699823 0.351968
0.697240 0.701061 0.342445
0.713742 0.702303 0.338324
0.667003 0.711204 0.081269
0.737997 0.692850 0.345718
0.747169 0.699200 0.332529
0.766998 0.710235 0.355910
0.782911 0.716603 0.068237
0.819865 0.699551 0.341852
0.832024 0.704704 0.335874
0.849485 0.708496 0.333678
0.872371 0.710257 0.325368
0.900909 0.709149 0.305029
0.938848 0.708874 0.283036
0.992619 0.706562 0.270023
0.368610 0.725817 0.538991
0.382682 0.722740 0.533046
0.400922 0.719177 0.525440
0.419470 0.716068 0.517401
0.438150 0.713471 0.509405
0.456946 0.711373 0.501473
0.476386 0.709719 0.494515
0.496063 0.708505 0.487897
0.516019 0.707687 0.481737
0.535795 0.707274 0.475325
0.555557 0.707230 0.468983
0.575234 0.707543 0.462633
0.594908 0.708178 0.456457
0.614538 0.709111 0.450419
0.634108 0.710318 0.444544
0.653538 0.711781 0.438698
0.672647 0.713474 0.432462
0.691399 0.715353 0.425967
0.707547 0.717632 0.412643
0.724665 0.719630 0.405470
0.733170 0.723064 0.371617
0.743477 0.725880 0.354479
0.754606 0.726739 0.342925
0.757111 0.709285 0.344841
0.769792 0.718423 0.360957
0.785101 0.726536 0.386889
0.812312 0.743634 0.072374
0.838550 0.718886 0.362429
0.854397 0.724837 0.370947
0.875095 0.729528 0.368857
0.902324 0.729826 0.349538
0.939660 0.728437 0.312157
0.990681 0.727741 0.311883
0.406796 0.741745 0.584106
0.419653 0.738398 0.577887
0.436378 0.734508 0.569979
0.453615 0.731087 0.561973
0.471044 0.728209 0.554055
0.488615 0.725855 0.546189
0.506448 0.723991 0.538610
0.524488 0.722596 0.531275
0.542759 0.721639 0.524272
0.561085 0.721108 0.517356
0.579458 0.720977 0.510557
0.597829 0.721228 0.503838
0.616228 0.721832 0.497291
0.634630 0.722765 0.490923
0.653011 0.724004 0.484736
0.671317 0.725527 0.478659
0.689527 0.727311 0.472699
0.707565 0.729334 0.466716
0.725493 0.731547 0.461059
0.742794 0.734013 0.454290
0.755179 0.737816 0.432893
0.763970 0.742310 0.406276
0.688033 0.780738 0.005380
0.789265 0.745163 0.393225
0.781438 0.734945 0.387897
0.794349 0.744504 0.408316
0.808858 0.755241 0.428731
0.843708 0.778053 0.032842
0.865019 0.743005 0.412355
0.878294 0.748443 0.415389
0.901609 0.750150 0.396644
0.941893 0.750807 0.356116
0.987404 0.750439 0.351870
0.447148 0.755118 0.631427
0.458751 0.751499 0.624929
0.473882 0.747278 0.616661
0.489568 0.743548 0.608358
0.505504 0.740389 0.600190
0.521667 0.737780 0.592160
0.538032 0.735696 0.584275
0.554575 0.734113 0.576538
0.571273 0.733008 0.568954
0.588100 0.732357 0.561528
0.605033 0.732136 0.554265
0.622047 0.732322 0.547168
0.639120 0.732891 0.540244
0.656225 0.733820 0.533496
0.673340 0.735084 0.526929
0.690440 0.736661 0.520549
0.707501 0.738525 0.514358
0.724499 0.740655 0.508364
0.741403 0.743023 0.502567
0.757958 0.745658 0.496273
0.771400 0.749442 0.479833
0.780711 0.754259 0.452441
0.792466 0.758478 0.436401
0.808173 0.760144 0.438686
0.819115 0.762321 0.437924
0.802655 0.759142 0.443133
0.812542 0.767666 0.460275
0.829441 0.777434 0.465015
